;Block Edge Squaring
;Machine
;vendor: Snapmaker
;model: Desktop CNC
;description: Generic Snapmaker Marlin v20180725
M3 P100
G4 S2
G21
G90
;This is for cutting down the edges of a block for mounting into
;a machining vise.  Only the first 3mm or so is grabbed.

;Long Edge Squaring
G0 X1.000 Y-2.064 Z15.000
G1 X1.000 Y-2.064 Z15.000 F200
G1 X1.000 Y-2.064 Z0.117 F200
G1 X1.000 Y-2.056 Z0.047 F200
G1 X1.000 Y-2.032 Z-0.020 F200
G1 X1.000 Y-1.994 Z-0.080 F200
G1 X1.000 Y-1.944 Z-0.131 F200
G1 X1.000 Y-1.884 Z-0.169 F200
G1 X1.000 Y-1.817 Z-0.192 F200
G1 X1.000 Y-1.746 Z-0.200 F200
G1 X1.000 Y-1.597 Z-0.200 F200
G1 X1.000 Y41.597 Z-0.200 F200
G1 X1.000 Y41.597 Z-0.400 F200
G1 X1.000 Y-1.597 Z-0.400 F200
G1 X1.000 Y-1.597 Z-0.600 F200
G1 X1.000 Y41.597 Z-0.600 F200
G1 X1.000 Y41.597 Z-0.800 F200
G1 X1.000 Y-1.597 Z-0.800 F200
G1 X1.000 Y-1.597 Z-1.000 F200
G1 X1.000 Y41.597 Z-1.000 F200
G1 X1.000 Y41.597 Z-1.200 F200
G1 X1.000 Y-1.597 Z-1.200 F200
G1 X1.000 Y-1.597 Z-1.400 F200
G1 X1.000 Y41.597 Z-1.400 F200
G1 X1.000 Y41.597 Z-1.600 F200
G1 X1.000 Y-1.597 Z-1.600 F200
G1 X1.000 Y-1.597 Z-1.800 F200
G1 X1.000 Y41.597 Z-1.800 F200
G1 X1.000 Y41.597 Z-2.000 F200
G1 X1.000 Y-1.597 Z-2.000 F200
G1 X1.000 Y-1.597 Z-2.200 F200
G1 X1.000 Y41.597 Z-2.200 F200
G1 X1.000 Y41.597 Z-2.400 F200
G1 X1.000 Y-1.597 Z-2.400 F200
G1 X1.000 Y-1.597 Z-2.600 F200
G1 X1.000 Y41.597 Z-2.600 F200
G1 X1.000 Y41.597 Z-2.800 F200
G1 X1.000 Y-1.597 Z-2.800 F200
G1 X1.000 Y-1.597 Z-3.000 F200
G1 X1.000 Y41.597 Z-3.000 F200
G1 X1.000 Y41.597 Z-3.200 F200
G1 X1.000 Y-1.597 Z-3.200 F200
G1 X1.000 Y-1.597 Z-3.400 F200
G1 X1.000 Y41.597 Z-3.400 F200
G1 X1.000 Y41.597 Z-3.600 F200
G1 X1.000 Y-1.597 Z-3.600 F200
G1 X1.000 Y-1.597 Z-3.800 F200
G1 X1.000 Y41.597 Z-3.800 F200
G1 X1.000 Y41.597 Z-4.000 F200
G1 X1.000 Y-1.597 Z-4.000 F200
G1 X1.000 Y-1.597 Z-4.200 F200
G1 X1.000 Y41.597 Z-4.200 F200
G1 X1.000 Y41.597 Z-4.400 F200
G1 X1.000 Y-1.597 Z-4.400 F200
G1 X1.000 Y-1.597 Z-4.600 F200
G1 X1.000 Y41.597 Z-4.600 F200
G1 X1.000 Y41.597 Z-4.800 F200
G1 X1.000 Y-1.597 Z-4.800 F200
G1 X1.000 Y-1.597 Z-5.000 F200
G1 X1.000 Y41.597 Z-5.000 F200
G1 X1.000 Y41.668 Z-4.992 F200
G1 X1.000 Y41.735 Z-4.969 F200
G1 X1.000 Y41.795 Z-4.931 F200
G1 X1.000 Y41.846 Z-4.880 F200
G1 X1.000 Y41.884 Z-4.820 F200
G1 X1.000 Y41.907 Z-4.753 F200
G1 X1.000 Y41.915 Z-4.682 F200
G1 X1.000 Y41.915 Z15.000 F200
G0 X0.000 Y0.000
M5
