;Titan-1-x-Profile-Tabs
;Machine
;vendor: Snapmaker
;model: Desktop CNC
;description: Generic Snapmaker Marlin v20180725
;tool: 3/32 4 flute endmill

M3 P100
G4 S2
G21
G90
;When using Fusion for Personal Use, the feedrate of rapid
;moves is reduced to match the feedrate of cutting moves,
;which can increase machining time. Unrestricted rapid moves
;are available with a Fusion Subscription.

;Profile+Tabs
G0 X35.769 Y8.281 Z56.588
G1 X35.769 Y8.281 Z56.588 F500
G1 X35.769 Y8.281 Z5.000 F500
G1 X35.769 Y8.281 Z0.477 F200
G1 X35.769 Y8.281 Z-0.262 F200
G1 X35.763 Y8.281 Z-0.315 F500
G1 X35.746 Y8.281 Z-0.365 F500
G1 X35.717 Y8.281 Z-0.410 F500
G1 X35.680 Y8.281 Z-0.448 F500
G1 X35.634 Y8.281 Z-0.476 F500
G1 X35.584 Y8.281 Z-0.494 F500
G1 X35.531 Y8.281 Z-0.500 F500
G1 X35.293 Y8.281 Z-0.500 F500
G1 X35.240 Y8.275 Z-0.500 F500
G1 X35.189 Y8.257 Z-0.500 F500
G1 X35.144 Y8.229 Z-0.500 F500
G1 X35.107 Y8.191 Z-0.500 F500
G1 X35.078 Y8.146 Z-0.500 F500
G1 X35.061 Y8.096 Z-0.500 F500
G1 X35.055 Y8.043 Z-0.500 F500
G1 X35.055 Y0.085 Z-0.500 F500
G1 X35.047 Y-0.049 Z-0.500 F500
G1 X35.025 Y-0.181 Z-0.500 F500
G1 X34.988 Y-0.309 Z-0.500 F500
G1 X34.937 Y-0.432 Z-0.500 F500
G1 X34.872 Y-0.549 Z-0.500 F500
G1 X34.795 Y-0.658 Z-0.500 F500
G1 X34.705 Y-0.758 Z-0.500 F500
G1 X34.621 Y-0.843 Z-0.500 F500
G1 X34.521 Y-0.932 Z-0.500 F500
G1 X34.412 Y-1.009 Z-0.500 F500
G1 X34.295 Y-1.073 Z-0.500 F500
G1 X34.172 Y-1.124 Z-0.500 F500
G1 X34.044 Y-1.161 Z-0.500 F500
G1 X33.912 Y-1.184 Z-0.500 F500
G1 X33.779 Y-1.191 Z-0.500 F500
G1 X0.085 Y-1.191 Z-0.500 F500
G1 X-0.049 Y-1.184 Z-0.500 F500
G1 X-0.180 Y-1.161 Z-0.500 F500
G1 X-0.309 Y-1.124 Z-0.500 F500
G1 X-0.432 Y-1.073 Z-0.500 F500
G1 X-0.549 Y-1.009 Z-0.500 F500
G1 X-0.658 Y-0.931 Z-0.500 F500
G1 X-0.758 Y-0.842 Z-0.500 F500
G1 X-0.842 Y-0.758 Z-0.500 F500
G1 X-0.931 Y-0.658 Z-0.500 F500
G1 X-1.009 Y-0.549 Z-0.500 F500
G1 X-1.073 Y-0.432 Z-0.500 F500
G1 X-1.124 Y-0.309 Z-0.500 F500
G1 X-1.161 Y-0.180 Z-0.500 F500
G1 X-1.184 Y-0.049 Z-0.500 F500
G1 X-1.191 Y0.085 Z-0.500 F500
G1 X-1.191 Y16.000 Z-0.500 F500
G1 X-1.184 Y16.134 Z-0.500 F500
G1 X-1.161 Y16.265 Z-0.500 F500
G1 X-1.124 Y16.394 Z-0.500 F500
G1 X-1.073 Y16.517 Z-0.500 F500
G1 X-1.009 Y16.634 Z-0.500 F500
G1 X-0.932 Y16.743 Z-0.500 F500
G1 X-0.843 Y16.843 Z-0.500 F500
G1 X-0.758 Y16.927 Z-0.500 F500
G1 X-0.658 Y17.016 Z-0.500 F500
G1 X-0.549 Y17.094 Z-0.500 F500
G1 X-0.432 Y17.158 Z-0.500 F500
G1 X-0.309 Y17.209 Z-0.500 F500
G1 X-0.181 Y17.246 Z-0.500 F500
G1 X-0.049 Y17.269 Z-0.500 F500
G1 X0.085 Y17.276 Z-0.500 F500
G1 X33.779 Y17.276 Z-0.500 F500
G1 X33.912 Y17.269 Z-0.500 F500
G1 X34.044 Y17.246 Z-0.500 F500
G1 X34.172 Y17.210 Z-0.500 F500
G1 X34.295 Y17.158 Z-0.500 F500
G1 X34.412 Y17.094 Z-0.500 F500
G1 X34.521 Y17.016 Z-0.500 F500
G1 X34.621 Y16.927 Z-0.500 F500
G1 X34.706 Y16.843 Z-0.500 F500
G1 X34.795 Y16.743 Z-0.500 F500
G1 X34.872 Y16.634 Z-0.500 F500
G1 X34.937 Y16.517 Z-0.500 F500
G1 X34.988 Y16.394 Z-0.500 F500
G1 X35.025 Y16.265 Z-0.500 F500
G1 X35.047 Y16.134 Z-0.500 F500
G1 X35.055 Y16.000 Z-0.500 F500
G1 X35.055 Y8.043 Z-0.500 F500
G1 X35.061 Y7.990 Z-0.500 F500
G1 X35.078 Y7.939 Z-0.500 F500
G1 X35.107 Y7.894 Z-0.500 F500
G1 X35.144 Y7.856 Z-0.500 F500
G1 X35.189 Y7.828 Z-0.500 F500
G1 X35.240 Y7.810 Z-0.500 F500
G1 X35.293 Y7.804 Z-0.500 F500
G1 X35.531 Y7.804 Z-0.500 F500
G1 X35.584 Y7.804 Z-0.494 F500
G1 X35.634 Y7.804 Z-0.476 F500
G1 X35.680 Y7.804 Z-0.448 F500
G1 X35.717 Y7.804 Z-0.410 F500
G1 X35.746 Y7.804 Z-0.365 F500
G1 X35.763 Y7.804 Z-0.315 F500
G1 X35.769 Y7.804 Z-0.262 F500
G1 X35.769 Y7.804 Z6.588 F500
G1 X35.769 Y8.281 Z6.588 F500
G1 X35.769 Y8.281 Z5.000 F500
G1 X35.769 Y8.281 Z-0.023 F200
G1 X35.769 Y8.281 Z-0.762 F200
G1 X35.763 Y8.281 Z-0.815 F500
G1 X35.746 Y8.281 Z-0.865 F500
G1 X35.717 Y8.281 Z-0.910 F500
G1 X35.680 Y8.281 Z-0.948 F500
G1 X35.634 Y8.281 Z-0.976 F500
G1 X35.584 Y8.281 Z-0.994 F500
G1 X35.531 Y8.281 Z-1.000 F500
G1 X35.293 Y8.281 Z-1.000 F500
G1 X35.240 Y8.275 Z-1.000 F500
G1 X35.189 Y8.257 Z-1.000 F500
G1 X35.144 Y8.229 Z-1.000 F500
G1 X35.107 Y8.191 Z-1.000 F500
G1 X35.078 Y8.146 Z-1.000 F500
G1 X35.061 Y8.096 Z-1.000 F500
G1 X35.055 Y8.043 Z-1.000 F500
G1 X35.055 Y0.085 Z-1.000 F500
G1 X35.047 Y-0.049 Z-1.000 F500
G1 X35.025 Y-0.181 Z-1.000 F500
G1 X34.988 Y-0.309 Z-1.000 F500
G1 X34.937 Y-0.432 Z-1.000 F500
G1 X34.872 Y-0.549 Z-1.000 F500
G1 X34.795 Y-0.658 Z-1.000 F500
G1 X34.705 Y-0.758 Z-1.000 F500
G1 X34.621 Y-0.843 Z-1.000 F500
G1 X34.521 Y-0.932 Z-1.000 F500
G1 X34.412 Y-1.009 Z-1.000 F500
G1 X34.295 Y-1.073 Z-1.000 F500
G1 X34.172 Y-1.124 Z-1.000 F500
G1 X34.044 Y-1.161 Z-1.000 F500
G1 X33.912 Y-1.184 Z-1.000 F500
G1 X33.779 Y-1.191 Z-1.000 F500
G1 X0.085 Y-1.191 Z-1.000 F500
G1 X-0.049 Y-1.184 Z-1.000 F500
G1 X-0.180 Y-1.161 Z-1.000 F500
G1 X-0.309 Y-1.124 Z-1.000 F500
G1 X-0.432 Y-1.073 Z-1.000 F500
G1 X-0.549 Y-1.009 Z-1.000 F500
G1 X-0.658 Y-0.931 Z-1.000 F500
G1 X-0.758 Y-0.842 Z-1.000 F500
G1 X-0.842 Y-0.758 Z-1.000 F500
G1 X-0.931 Y-0.658 Z-1.000 F500
G1 X-1.009 Y-0.549 Z-1.000 F500
G1 X-1.073 Y-0.432 Z-1.000 F500
G1 X-1.124 Y-0.309 Z-1.000 F500
G1 X-1.161 Y-0.180 Z-1.000 F500
G1 X-1.184 Y-0.049 Z-1.000 F500
G1 X-1.191 Y0.085 Z-1.000 F500
G1 X-1.191 Y16.000 Z-1.000 F500
G1 X-1.184 Y16.134 Z-1.000 F500
G1 X-1.161 Y16.265 Z-1.000 F500
G1 X-1.124 Y16.394 Z-1.000 F500
G1 X-1.073 Y16.517 Z-1.000 F500
G1 X-1.009 Y16.634 Z-1.000 F500
G1 X-0.932 Y16.743 Z-1.000 F500
G1 X-0.843 Y16.843 Z-1.000 F500
G1 X-0.758 Y16.927 Z-1.000 F500
G1 X-0.658 Y17.016 Z-1.000 F500
G1 X-0.549 Y17.094 Z-1.000 F500
G1 X-0.432 Y17.158 Z-1.000 F500
G1 X-0.309 Y17.209 Z-1.000 F500
G1 X-0.181 Y17.246 Z-1.000 F500
G1 X-0.049 Y17.269 Z-1.000 F500
G1 X0.085 Y17.276 Z-1.000 F500
G1 X33.779 Y17.276 Z-1.000 F500
G1 X33.912 Y17.269 Z-1.000 F500
G1 X34.044 Y17.246 Z-1.000 F500
G1 X34.172 Y17.210 Z-1.000 F500
G1 X34.295 Y17.158 Z-1.000 F500
G1 X34.412 Y17.094 Z-1.000 F500
G1 X34.521 Y17.016 Z-1.000 F500
G1 X34.621 Y16.927 Z-1.000 F500
G1 X34.706 Y16.843 Z-1.000 F500
G1 X34.795 Y16.743 Z-1.000 F500
G1 X34.872 Y16.634 Z-1.000 F500
G1 X34.937 Y16.517 Z-1.000 F500
G1 X34.988 Y16.394 Z-1.000 F500
G1 X35.025 Y16.265 Z-1.000 F500
G1 X35.047 Y16.134 Z-1.000 F500
G1 X35.055 Y16.000 Z-1.000 F500
G1 X35.055 Y8.043 Z-1.000 F500
G1 X35.061 Y7.990 Z-1.000 F500
G1 X35.078 Y7.939 Z-1.000 F500
G1 X35.107 Y7.894 Z-1.000 F500
G1 X35.144 Y7.856 Z-1.000 F500
G1 X35.189 Y7.828 Z-1.000 F500
G1 X35.240 Y7.810 Z-1.000 F500
G1 X35.293 Y7.804 Z-1.000 F500
G1 X35.531 Y7.804 Z-1.000 F500
G1 X35.584 Y7.804 Z-0.994 F500
G1 X35.634 Y7.804 Z-0.976 F500
G1 X35.680 Y7.804 Z-0.948 F500
G1 X35.717 Y7.804 Z-0.910 F500
G1 X35.746 Y7.804 Z-0.865 F500
G1 X35.763 Y7.804 Z-0.815 F500
G1 X35.769 Y7.804 Z-0.762 F500
G1 X35.769 Y7.804 Z6.588 F500
G1 X35.769 Y8.281 Z6.588 F500
G1 X35.769 Y8.281 Z5.000 F500
G1 X35.769 Y8.281 Z-0.523 F200
G1 X35.769 Y8.281 Z-1.262 F200
G1 X35.763 Y8.281 Z-1.315 F500
G1 X35.746 Y8.281 Z-1.365 F500
G1 X35.717 Y8.281 Z-1.410 F500
G1 X35.680 Y8.281 Z-1.448 F500
G1 X35.634 Y8.281 Z-1.476 F500
G1 X35.584 Y8.281 Z-1.494 F500
G1 X35.531 Y8.281 Z-1.500 F500
G1 X35.293 Y8.281 Z-1.500 F500
G1 X35.240 Y8.275 Z-1.500 F500
G1 X35.189 Y8.257 Z-1.500 F500
G1 X35.144 Y8.229 Z-1.500 F500
G1 X35.107 Y8.191 Z-1.500 F500
G1 X35.078 Y8.146 Z-1.500 F500
G1 X35.061 Y8.096 Z-1.500 F500
G1 X35.055 Y8.043 Z-1.500 F500
G1 X35.055 Y0.085 Z-1.500 F500
G1 X35.047 Y-0.049 Z-1.500 F500
G1 X35.025 Y-0.181 Z-1.500 F500
G1 X34.988 Y-0.309 Z-1.500 F500
G1 X34.937 Y-0.432 Z-1.500 F500
G1 X34.872 Y-0.549 Z-1.500 F500
G1 X34.795 Y-0.658 Z-1.500 F500
G1 X34.705 Y-0.758 Z-1.500 F500
G1 X34.621 Y-0.843 Z-1.500 F500
G1 X34.521 Y-0.932 Z-1.500 F500
G1 X34.412 Y-1.009 Z-1.500 F500
G1 X34.295 Y-1.073 Z-1.500 F500
G1 X34.172 Y-1.124 Z-1.500 F500
G1 X34.044 Y-1.161 Z-1.500 F500
G1 X33.912 Y-1.184 Z-1.500 F500
G1 X33.779 Y-1.191 Z-1.500 F500
G1 X0.085 Y-1.191 Z-1.500 F500
G1 X-0.049 Y-1.184 Z-1.500 F500
G1 X-0.180 Y-1.161 Z-1.500 F500
G1 X-0.309 Y-1.124 Z-1.500 F500
G1 X-0.432 Y-1.073 Z-1.500 F500
G1 X-0.549 Y-1.009 Z-1.500 F500
G1 X-0.658 Y-0.931 Z-1.500 F500
G1 X-0.758 Y-0.842 Z-1.500 F500
G1 X-0.842 Y-0.758 Z-1.500 F500
G1 X-0.931 Y-0.658 Z-1.500 F500
G1 X-1.009 Y-0.549 Z-1.500 F500
G1 X-1.073 Y-0.432 Z-1.500 F500
G1 X-1.124 Y-0.309 Z-1.500 F500
G1 X-1.161 Y-0.180 Z-1.500 F500
G1 X-1.184 Y-0.049 Z-1.500 F500
G1 X-1.191 Y0.085 Z-1.500 F500
G1 X-1.191 Y16.000 Z-1.500 F500
G1 X-1.184 Y16.134 Z-1.500 F500
G1 X-1.161 Y16.265 Z-1.500 F500
G1 X-1.124 Y16.394 Z-1.500 F500
G1 X-1.073 Y16.517 Z-1.500 F500
G1 X-1.009 Y16.634 Z-1.500 F500
G1 X-0.932 Y16.743 Z-1.500 F500
G1 X-0.843 Y16.843 Z-1.500 F500
G1 X-0.758 Y16.927 Z-1.500 F500
G1 X-0.658 Y17.016 Z-1.500 F500
G1 X-0.549 Y17.094 Z-1.500 F500
G1 X-0.432 Y17.158 Z-1.500 F500
G1 X-0.309 Y17.209 Z-1.500 F500
G1 X-0.181 Y17.246 Z-1.500 F500
G1 X-0.049 Y17.269 Z-1.500 F500
G1 X0.085 Y17.276 Z-1.500 F500
G1 X33.779 Y17.276 Z-1.500 F500
G1 X33.912 Y17.269 Z-1.500 F500
G1 X34.044 Y17.246 Z-1.500 F500
G1 X34.172 Y17.210 Z-1.500 F500
G1 X34.295 Y17.158 Z-1.500 F500
G1 X34.412 Y17.094 Z-1.500 F500
G1 X34.521 Y17.016 Z-1.500 F500
G1 X34.621 Y16.927 Z-1.500 F500
G1 X34.706 Y16.843 Z-1.500 F500
G1 X34.795 Y16.743 Z-1.500 F500
G1 X34.872 Y16.634 Z-1.500 F500
G1 X34.937 Y16.517 Z-1.500 F500
G1 X34.988 Y16.394 Z-1.500 F500
G1 X35.025 Y16.265 Z-1.500 F500
G1 X35.047 Y16.134 Z-1.500 F500
G1 X35.055 Y16.000 Z-1.500 F500
G1 X35.055 Y8.043 Z-1.500 F500
G1 X35.061 Y7.990 Z-1.500 F500
G1 X35.078 Y7.939 Z-1.500 F500
G1 X35.107 Y7.894 Z-1.500 F500
G1 X35.144 Y7.856 Z-1.500 F500
G1 X35.189 Y7.828 Z-1.500 F500
G1 X35.240 Y7.810 Z-1.500 F500
G1 X35.293 Y7.804 Z-1.500 F500
G1 X35.531 Y7.804 Z-1.500 F500
G1 X35.584 Y7.804 Z-1.494 F500
G1 X35.634 Y7.804 Z-1.476 F500
G1 X35.680 Y7.804 Z-1.448 F500
G1 X35.717 Y7.804 Z-1.410 F500
G1 X35.746 Y7.804 Z-1.365 F500
G1 X35.763 Y7.804 Z-1.315 F500
G1 X35.769 Y7.804 Z-1.262 F500
G1 X35.769 Y7.804 Z6.588 F500
G1 X35.769 Y8.281 Z6.588 F500
G1 X35.769 Y8.281 Z5.000 F500
G1 X35.769 Y8.281 Z-1.023 F200
G1 X35.769 Y8.281 Z-1.762 F200
G1 X35.763 Y8.281 Z-1.815 F500
G1 X35.746 Y8.281 Z-1.865 F500
G1 X35.717 Y8.281 Z-1.910 F500
G1 X35.680 Y8.281 Z-1.948 F500
G1 X35.634 Y8.281 Z-1.976 F500
G1 X35.584 Y8.281 Z-1.994 F500
G1 X35.531 Y8.281 Z-2.000 F500
G1 X35.293 Y8.281 Z-2.000 F500
G1 X35.240 Y8.275 Z-2.000 F500
G1 X35.189 Y8.257 Z-2.000 F500
G1 X35.144 Y8.229 Z-2.000 F500
G1 X35.107 Y8.191 Z-2.000 F500
G1 X35.078 Y8.146 Z-2.000 F500
G1 X35.061 Y8.096 Z-2.000 F500
G1 X35.055 Y8.043 Z-2.000 F500
G1 X35.055 Y0.085 Z-2.000 F500
G1 X35.047 Y-0.049 Z-2.000 F500
G1 X35.025 Y-0.181 Z-2.000 F500
G1 X34.988 Y-0.309 Z-2.000 F500
G1 X34.937 Y-0.432 Z-2.000 F500
G1 X34.872 Y-0.549 Z-2.000 F500
G1 X34.795 Y-0.658 Z-2.000 F500
G1 X34.705 Y-0.758 Z-2.000 F500
G1 X34.621 Y-0.843 Z-2.000 F500
G1 X34.521 Y-0.932 Z-2.000 F500
G1 X34.412 Y-1.009 Z-2.000 F500
G1 X34.295 Y-1.073 Z-2.000 F500
G1 X34.172 Y-1.124 Z-2.000 F500
G1 X34.044 Y-1.161 Z-2.000 F500
G1 X33.912 Y-1.184 Z-2.000 F500
G1 X33.779 Y-1.191 Z-2.000 F500
G1 X0.085 Y-1.191 Z-2.000 F500
G1 X-0.049 Y-1.184 Z-2.000 F500
G1 X-0.180 Y-1.161 Z-2.000 F500
G1 X-0.309 Y-1.124 Z-2.000 F500
G1 X-0.432 Y-1.073 Z-2.000 F500
G1 X-0.549 Y-1.009 Z-2.000 F500
G1 X-0.658 Y-0.931 Z-2.000 F500
G1 X-0.758 Y-0.842 Z-2.000 F500
G1 X-0.842 Y-0.758 Z-2.000 F500
G1 X-0.931 Y-0.658 Z-2.000 F500
G1 X-1.009 Y-0.549 Z-2.000 F500
G1 X-1.073 Y-0.432 Z-2.000 F500
G1 X-1.124 Y-0.309 Z-2.000 F500
G1 X-1.161 Y-0.180 Z-2.000 F500
G1 X-1.184 Y-0.049 Z-2.000 F500
G1 X-1.191 Y0.085 Z-2.000 F500
G1 X-1.191 Y16.000 Z-2.000 F500
G1 X-1.184 Y16.134 Z-2.000 F500
G1 X-1.161 Y16.265 Z-2.000 F500
G1 X-1.124 Y16.394 Z-2.000 F500
G1 X-1.073 Y16.517 Z-2.000 F500
G1 X-1.009 Y16.634 Z-2.000 F500
G1 X-0.932 Y16.743 Z-2.000 F500
G1 X-0.843 Y16.843 Z-2.000 F500
G1 X-0.758 Y16.927 Z-2.000 F500
G1 X-0.658 Y17.016 Z-2.000 F500
G1 X-0.549 Y17.094 Z-2.000 F500
G1 X-0.432 Y17.158 Z-2.000 F500
G1 X-0.309 Y17.209 Z-2.000 F500
G1 X-0.181 Y17.246 Z-2.000 F500
G1 X-0.049 Y17.269 Z-2.000 F500
G1 X0.085 Y17.276 Z-2.000 F500
G1 X33.779 Y17.276 Z-2.000 F500
G1 X33.912 Y17.269 Z-2.000 F500
G1 X34.044 Y17.246 Z-2.000 F500
G1 X34.172 Y17.210 Z-2.000 F500
G1 X34.295 Y17.158 Z-2.000 F500
G1 X34.412 Y17.094 Z-2.000 F500
G1 X34.521 Y17.016 Z-2.000 F500
G1 X34.621 Y16.927 Z-2.000 F500
G1 X34.706 Y16.843 Z-2.000 F500
G1 X34.795 Y16.743 Z-2.000 F500
G1 X34.872 Y16.634 Z-2.000 F500
G1 X34.937 Y16.517 Z-2.000 F500
G1 X34.988 Y16.394 Z-2.000 F500
G1 X35.025 Y16.265 Z-2.000 F500
G1 X35.047 Y16.134 Z-2.000 F500
G1 X35.055 Y16.000 Z-2.000 F500
G1 X35.055 Y8.043 Z-2.000 F500
G1 X35.061 Y7.990 Z-2.000 F500
G1 X35.078 Y7.939 Z-2.000 F500
G1 X35.107 Y7.894 Z-2.000 F500
G1 X35.144 Y7.856 Z-2.000 F500
G1 X35.189 Y7.828 Z-2.000 F500
G1 X35.240 Y7.810 Z-2.000 F500
G1 X35.293 Y7.804 Z-2.000 F500
G1 X35.531 Y7.804 Z-2.000 F500
G1 X35.584 Y7.804 Z-1.994 F500
G1 X35.634 Y7.804 Z-1.976 F500
G1 X35.680 Y7.804 Z-1.948 F500
G1 X35.717 Y7.804 Z-1.910 F500
G1 X35.746 Y7.804 Z-1.865 F500
G1 X35.763 Y7.804 Z-1.815 F500
G1 X35.769 Y7.804 Z-1.762 F500
G1 X35.769 Y7.804 Z6.588 F500
G1 X35.769 Y8.281 Z6.588 F500
G1 X35.769 Y8.281 Z5.000 F500
G1 X35.769 Y8.281 Z-1.523 F200
G1 X35.769 Y8.281 Z-2.262 F200
G1 X35.763 Y8.281 Z-2.315 F500
G1 X35.746 Y8.281 Z-2.365 F500
G1 X35.717 Y8.281 Z-2.410 F500
G1 X35.680 Y8.281 Z-2.448 F500
G1 X35.634 Y8.281 Z-2.476 F500
G1 X35.584 Y8.281 Z-2.494 F500
G1 X35.531 Y8.281 Z-2.500 F500
G1 X35.293 Y8.281 Z-2.500 F500
G1 X35.240 Y8.275 Z-2.500 F500
G1 X35.189 Y8.257 Z-2.500 F500
G1 X35.144 Y8.229 Z-2.500 F500
G1 X35.107 Y8.191 Z-2.500 F500
G1 X35.078 Y8.146 Z-2.500 F500
G1 X35.061 Y8.096 Z-2.500 F500
G1 X35.055 Y8.043 Z-2.500 F500
G1 X35.055 Y0.085 Z-2.500 F500
G1 X35.047 Y-0.049 Z-2.500 F500
G1 X35.025 Y-0.181 Z-2.500 F500
G1 X34.988 Y-0.309 Z-2.500 F500
G1 X34.937 Y-0.432 Z-2.500 F500
G1 X34.872 Y-0.549 Z-2.500 F500
G1 X34.795 Y-0.658 Z-2.500 F500
G1 X34.705 Y-0.758 Z-2.500 F500
G1 X34.621 Y-0.843 Z-2.500 F500
G1 X34.521 Y-0.932 Z-2.500 F500
G1 X34.412 Y-1.009 Z-2.500 F500
G1 X34.295 Y-1.073 Z-2.500 F500
G1 X34.172 Y-1.124 Z-2.500 F500
G1 X34.044 Y-1.161 Z-2.500 F500
G1 X33.912 Y-1.184 Z-2.500 F500
G1 X33.779 Y-1.191 Z-2.500 F500
G1 X0.085 Y-1.191 Z-2.500 F500
G1 X-0.049 Y-1.184 Z-2.500 F500
G1 X-0.180 Y-1.161 Z-2.500 F500
G1 X-0.309 Y-1.124 Z-2.500 F500
G1 X-0.432 Y-1.073 Z-2.500 F500
G1 X-0.549 Y-1.009 Z-2.500 F500
G1 X-0.658 Y-0.931 Z-2.500 F500
G1 X-0.758 Y-0.842 Z-2.500 F500
G1 X-0.842 Y-0.758 Z-2.500 F500
G1 X-0.931 Y-0.658 Z-2.500 F500
G1 X-1.009 Y-0.549 Z-2.500 F500
G1 X-1.073 Y-0.432 Z-2.500 F500
G1 X-1.124 Y-0.309 Z-2.500 F500
G1 X-1.161 Y-0.180 Z-2.500 F500
G1 X-1.184 Y-0.049 Z-2.500 F500
G1 X-1.191 Y0.085 Z-2.500 F500
G1 X-1.191 Y16.000 Z-2.500 F500
G1 X-1.184 Y16.134 Z-2.500 F500
G1 X-1.161 Y16.265 Z-2.500 F500
G1 X-1.124 Y16.394 Z-2.500 F500
G1 X-1.073 Y16.517 Z-2.500 F500
G1 X-1.009 Y16.634 Z-2.500 F500
G1 X-0.932 Y16.743 Z-2.500 F500
G1 X-0.843 Y16.843 Z-2.500 F500
G1 X-0.758 Y16.927 Z-2.500 F500
G1 X-0.658 Y17.016 Z-2.500 F500
G1 X-0.549 Y17.094 Z-2.500 F500
G1 X-0.432 Y17.158 Z-2.500 F500
G1 X-0.309 Y17.209 Z-2.500 F500
G1 X-0.181 Y17.246 Z-2.500 F500
G1 X-0.049 Y17.269 Z-2.500 F500
G1 X0.085 Y17.276 Z-2.500 F500
G1 X33.779 Y17.276 Z-2.500 F500
G1 X33.912 Y17.269 Z-2.500 F500
G1 X34.044 Y17.246 Z-2.500 F500
G1 X34.172 Y17.210 Z-2.500 F500
G1 X34.295 Y17.158 Z-2.500 F500
G1 X34.412 Y17.094 Z-2.500 F500
G1 X34.521 Y17.016 Z-2.500 F500
G1 X34.621 Y16.927 Z-2.500 F500
G1 X34.706 Y16.843 Z-2.500 F500
G1 X34.795 Y16.743 Z-2.500 F500
G1 X34.872 Y16.634 Z-2.500 F500
G1 X34.937 Y16.517 Z-2.500 F500
G1 X34.988 Y16.394 Z-2.500 F500
G1 X35.025 Y16.265 Z-2.500 F500
G1 X35.047 Y16.134 Z-2.500 F500
G1 X35.055 Y16.000 Z-2.500 F500
G1 X35.055 Y8.043 Z-2.500 F500
G1 X35.061 Y7.990 Z-2.500 F500
G1 X35.078 Y7.939 Z-2.500 F500
G1 X35.107 Y7.894 Z-2.500 F500
G1 X35.144 Y7.856 Z-2.500 F500
G1 X35.189 Y7.828 Z-2.500 F500
G1 X35.240 Y7.810 Z-2.500 F500
G1 X35.293 Y7.804 Z-2.500 F500
G1 X35.531 Y7.804 Z-2.500 F500
G1 X35.584 Y7.804 Z-2.494 F500
G1 X35.634 Y7.804 Z-2.476 F500
G1 X35.680 Y7.804 Z-2.448 F500
G1 X35.717 Y7.804 Z-2.410 F500
G1 X35.746 Y7.804 Z-2.365 F500
G1 X35.763 Y7.804 Z-2.315 F500
G1 X35.769 Y7.804 Z-2.262 F500
G1 X35.769 Y7.804 Z6.588 F500
G1 X35.769 Y8.281 Z6.588 F500
G1 X35.769 Y8.281 Z5.000 F500
G1 X35.769 Y8.281 Z-2.023 F200
G1 X35.769 Y8.281 Z-2.762 F200
G1 X35.763 Y8.281 Z-2.815 F500
G1 X35.746 Y8.281 Z-2.865 F500
G1 X35.717 Y8.281 Z-2.910 F500
G1 X35.680 Y8.281 Z-2.948 F500
G1 X35.634 Y8.281 Z-2.976 F500
G1 X35.584 Y8.281 Z-2.994 F500
G1 X35.531 Y8.281 Z-3.000 F500
G1 X35.293 Y8.281 Z-3.000 F500
G1 X35.240 Y8.275 Z-3.000 F500
G1 X35.189 Y8.257 Z-3.000 F500
G1 X35.144 Y8.229 Z-3.000 F500
G1 X35.107 Y8.191 Z-3.000 F500
G1 X35.078 Y8.146 Z-3.000 F500
G1 X35.061 Y8.096 Z-3.000 F500
G1 X35.055 Y8.043 Z-3.000 F500
G1 X35.055 Y0.085 Z-3.000 F500
G1 X35.047 Y-0.049 Z-3.000 F500
G1 X35.025 Y-0.181 Z-3.000 F500
G1 X34.988 Y-0.309 Z-3.000 F500
G1 X34.937 Y-0.432 Z-3.000 F500
G1 X34.872 Y-0.549 Z-3.000 F500
G1 X34.795 Y-0.658 Z-3.000 F500
G1 X34.705 Y-0.758 Z-3.000 F500
G1 X34.621 Y-0.843 Z-3.000 F500
G1 X34.521 Y-0.932 Z-3.000 F500
G1 X34.412 Y-1.009 Z-3.000 F500
G1 X34.295 Y-1.073 Z-3.000 F500
G1 X34.172 Y-1.124 Z-3.000 F500
G1 X34.044 Y-1.161 Z-3.000 F500
G1 X33.912 Y-1.184 Z-3.000 F500
G1 X33.779 Y-1.191 Z-3.000 F500
G1 X0.085 Y-1.191 Z-3.000 F500
G1 X-0.049 Y-1.184 Z-3.000 F500
G1 X-0.180 Y-1.161 Z-3.000 F500
G1 X-0.309 Y-1.124 Z-3.000 F500
G1 X-0.432 Y-1.073 Z-3.000 F500
G1 X-0.549 Y-1.009 Z-3.000 F500
G1 X-0.658 Y-0.931 Z-3.000 F500
G1 X-0.758 Y-0.842 Z-3.000 F500
G1 X-0.842 Y-0.758 Z-3.000 F500
G1 X-0.931 Y-0.658 Z-3.000 F500
G1 X-1.009 Y-0.549 Z-3.000 F500
G1 X-1.073 Y-0.432 Z-3.000 F500
G1 X-1.124 Y-0.309 Z-3.000 F500
G1 X-1.161 Y-0.180 Z-3.000 F500
G1 X-1.184 Y-0.049 Z-3.000 F500
G1 X-1.191 Y0.085 Z-3.000 F500
G1 X-1.191 Y16.000 Z-3.000 F500
G1 X-1.184 Y16.134 Z-3.000 F500
G1 X-1.161 Y16.265 Z-3.000 F500
G1 X-1.124 Y16.394 Z-3.000 F500
G1 X-1.073 Y16.517 Z-3.000 F500
G1 X-1.009 Y16.634 Z-3.000 F500
G1 X-0.932 Y16.743 Z-3.000 F500
G1 X-0.843 Y16.843 Z-3.000 F500
G1 X-0.758 Y16.927 Z-3.000 F500
G1 X-0.658 Y17.016 Z-3.000 F500
G1 X-0.549 Y17.094 Z-3.000 F500
G1 X-0.432 Y17.158 Z-3.000 F500
G1 X-0.309 Y17.209 Z-3.000 F500
G1 X-0.181 Y17.246 Z-3.000 F500
G1 X-0.049 Y17.269 Z-3.000 F500
G1 X0.085 Y17.276 Z-3.000 F500
G1 X33.779 Y17.276 Z-3.000 F500
G1 X33.912 Y17.269 Z-3.000 F500
G1 X34.044 Y17.246 Z-3.000 F500
G1 X34.172 Y17.210 Z-3.000 F500
G1 X34.295 Y17.158 Z-3.000 F500
G1 X34.412 Y17.094 Z-3.000 F500
G1 X34.521 Y17.016 Z-3.000 F500
G1 X34.621 Y16.927 Z-3.000 F500
G1 X34.706 Y16.843 Z-3.000 F500
G1 X34.795 Y16.743 Z-3.000 F500
G1 X34.872 Y16.634 Z-3.000 F500
G1 X34.937 Y16.517 Z-3.000 F500
G1 X34.988 Y16.394 Z-3.000 F500
G1 X35.025 Y16.265 Z-3.000 F500
G1 X35.047 Y16.134 Z-3.000 F500
G1 X35.055 Y16.000 Z-3.000 F500
G1 X35.055 Y8.043 Z-3.000 F500
G1 X35.061 Y7.990 Z-3.000 F500
G1 X35.078 Y7.939 Z-3.000 F500
G1 X35.107 Y7.894 Z-3.000 F500
G1 X35.144 Y7.856 Z-3.000 F500
G1 X35.189 Y7.828 Z-3.000 F500
G1 X35.240 Y7.810 Z-3.000 F500
G1 X35.293 Y7.804 Z-3.000 F500
G1 X35.531 Y7.804 Z-3.000 F500
G1 X35.584 Y7.804 Z-2.994 F500
G1 X35.634 Y7.804 Z-2.976 F500
G1 X35.680 Y7.804 Z-2.948 F500
G1 X35.717 Y7.804 Z-2.910 F500
G1 X35.746 Y7.804 Z-2.865 F500
G1 X35.763 Y7.804 Z-2.815 F500
G1 X35.769 Y7.804 Z-2.762 F500
G1 X35.769 Y7.804 Z6.588 F500
G1 X35.769 Y8.281 Z6.588 F500
G1 X35.769 Y8.281 Z5.000 F500
G1 X35.769 Y8.281 Z-2.523 F200
G1 X35.769 Y8.281 Z-3.262 F200
G1 X35.763 Y8.281 Z-3.315 F500
G1 X35.746 Y8.281 Z-3.365 F500
G1 X35.717 Y8.281 Z-3.410 F500
G1 X35.680 Y8.281 Z-3.448 F500
G1 X35.634 Y8.281 Z-3.476 F500
G1 X35.584 Y8.281 Z-3.494 F500
G1 X35.531 Y8.281 Z-3.500 F500
G1 X35.293 Y8.281 Z-3.500 F500
G1 X35.240 Y8.275 Z-3.500 F500
G1 X35.189 Y8.257 Z-3.500 F500
G1 X35.144 Y8.229 Z-3.500 F500
G1 X35.107 Y8.191 Z-3.500 F500
G1 X35.078 Y8.146 Z-3.500 F500
G1 X35.061 Y8.096 Z-3.500 F500
G1 X35.055 Y8.043 Z-3.500 F500
G1 X35.055 Y0.085 Z-3.500 F500
G1 X35.047 Y-0.049 Z-3.500 F500
G1 X35.025 Y-0.181 Z-3.500 F500
G1 X34.988 Y-0.309 Z-3.500 F500
G1 X34.937 Y-0.432 Z-3.500 F500
G1 X34.872 Y-0.549 Z-3.500 F500
G1 X34.795 Y-0.658 Z-3.500 F500
G1 X34.705 Y-0.758 Z-3.500 F500
G1 X34.621 Y-0.843 Z-3.500 F500
G1 X34.521 Y-0.932 Z-3.500 F500
G1 X34.412 Y-1.009 Z-3.500 F500
G1 X34.295 Y-1.073 Z-3.500 F500
G1 X34.172 Y-1.124 Z-3.500 F500
G1 X34.044 Y-1.161 Z-3.500 F500
G1 X33.912 Y-1.184 Z-3.500 F500
G1 X33.779 Y-1.191 Z-3.500 F500
G1 X0.085 Y-1.191 Z-3.500 F500
G1 X-0.049 Y-1.184 Z-3.500 F500
G1 X-0.180 Y-1.161 Z-3.500 F500
G1 X-0.309 Y-1.124 Z-3.500 F500
G1 X-0.432 Y-1.073 Z-3.500 F500
G1 X-0.549 Y-1.009 Z-3.500 F500
G1 X-0.658 Y-0.931 Z-3.500 F500
G1 X-0.758 Y-0.842 Z-3.500 F500
G1 X-0.842 Y-0.758 Z-3.500 F500
G1 X-0.931 Y-0.658 Z-3.500 F500
G1 X-1.009 Y-0.549 Z-3.500 F500
G1 X-1.073 Y-0.432 Z-3.500 F500
G1 X-1.124 Y-0.309 Z-3.500 F500
G1 X-1.161 Y-0.180 Z-3.500 F500
G1 X-1.184 Y-0.049 Z-3.500 F500
G1 X-1.191 Y0.085 Z-3.500 F500
G1 X-1.191 Y16.000 Z-3.500 F500
G1 X-1.184 Y16.134 Z-3.500 F500
G1 X-1.161 Y16.265 Z-3.500 F500
G1 X-1.124 Y16.394 Z-3.500 F500
G1 X-1.073 Y16.517 Z-3.500 F500
G1 X-1.009 Y16.634 Z-3.500 F500
G1 X-0.932 Y16.743 Z-3.500 F500
G1 X-0.843 Y16.843 Z-3.500 F500
G1 X-0.758 Y16.927 Z-3.500 F500
G1 X-0.658 Y17.016 Z-3.500 F500
G1 X-0.549 Y17.094 Z-3.500 F500
G1 X-0.432 Y17.158 Z-3.500 F500
G1 X-0.309 Y17.209 Z-3.500 F500
G1 X-0.181 Y17.246 Z-3.500 F500
G1 X-0.049 Y17.269 Z-3.500 F500
G1 X0.085 Y17.276 Z-3.500 F500
G1 X33.779 Y17.276 Z-3.500 F500
G1 X33.912 Y17.269 Z-3.500 F500
G1 X34.044 Y17.246 Z-3.500 F500
G1 X34.172 Y17.210 Z-3.500 F500
G1 X34.295 Y17.158 Z-3.500 F500
G1 X34.412 Y17.094 Z-3.500 F500
G1 X34.521 Y17.016 Z-3.500 F500
G1 X34.621 Y16.927 Z-3.500 F500
G1 X34.706 Y16.843 Z-3.500 F500
G1 X34.795 Y16.743 Z-3.500 F500
G1 X34.872 Y16.634 Z-3.500 F500
G1 X34.937 Y16.517 Z-3.500 F500
G1 X34.988 Y16.394 Z-3.500 F500
G1 X35.025 Y16.265 Z-3.500 F500
G1 X35.047 Y16.134 Z-3.500 F500
G1 X35.055 Y16.000 Z-3.500 F500
G1 X35.055 Y8.043 Z-3.500 F500
G1 X35.061 Y7.990 Z-3.500 F500
G1 X35.078 Y7.939 Z-3.500 F500
G1 X35.107 Y7.894 Z-3.500 F500
G1 X35.144 Y7.856 Z-3.500 F500
G1 X35.189 Y7.828 Z-3.500 F500
G1 X35.240 Y7.810 Z-3.500 F500
G1 X35.293 Y7.804 Z-3.500 F500
G1 X35.531 Y7.804 Z-3.500 F500
G1 X35.584 Y7.804 Z-3.494 F500
G1 X35.634 Y7.804 Z-3.476 F500
G1 X35.680 Y7.804 Z-3.448 F500
G1 X35.717 Y7.804 Z-3.410 F500
G1 X35.746 Y7.804 Z-3.365 F500
G1 X35.763 Y7.804 Z-3.315 F500
G1 X35.769 Y7.804 Z-3.262 F500
G1 X35.769 Y7.804 Z6.588 F500
G1 X35.769 Y8.281 Z6.588 F500
G1 X35.769 Y8.281 Z5.000 F500
G1 X35.769 Y8.281 Z-3.023 F200
G1 X35.769 Y8.281 Z-3.762 F200
G1 X35.763 Y8.281 Z-3.815 F500
G1 X35.746 Y8.281 Z-3.865 F500
G1 X35.717 Y8.281 Z-3.910 F500
G1 X35.680 Y8.281 Z-3.948 F500
G1 X35.634 Y8.281 Z-3.976 F500
G1 X35.584 Y8.281 Z-3.994 F500
G1 X35.531 Y8.281 Z-4.000 F500
G1 X35.293 Y8.281 Z-4.000 F500
G1 X35.240 Y8.275 Z-4.000 F500
G1 X35.189 Y8.257 Z-4.000 F500
G1 X35.144 Y8.229 Z-4.000 F500
G1 X35.107 Y8.191 Z-4.000 F500
G1 X35.078 Y8.146 Z-4.000 F500
G1 X35.061 Y8.096 Z-4.000 F500
G1 X35.055 Y8.043 Z-4.000 F500
G1 X35.055 Y0.085 Z-4.000 F500
G1 X35.047 Y-0.049 Z-4.000 F500
G1 X35.025 Y-0.181 Z-4.000 F500
G1 X34.988 Y-0.309 Z-4.000 F500
G1 X34.937 Y-0.432 Z-4.000 F500
G1 X34.872 Y-0.549 Z-4.000 F500
G1 X34.795 Y-0.658 Z-4.000 F500
G1 X34.705 Y-0.758 Z-4.000 F500
G1 X34.621 Y-0.843 Z-4.000 F500
G1 X34.521 Y-0.932 Z-4.000 F500
G1 X34.412 Y-1.009 Z-4.000 F500
G1 X34.295 Y-1.073 Z-4.000 F500
G1 X34.172 Y-1.124 Z-4.000 F500
G1 X34.044 Y-1.161 Z-4.000 F500
G1 X33.912 Y-1.184 Z-4.000 F500
G1 X33.779 Y-1.191 Z-4.000 F500
G1 X0.085 Y-1.191 Z-4.000 F500
G1 X-0.049 Y-1.184 Z-4.000 F500
G1 X-0.180 Y-1.161 Z-4.000 F500
G1 X-0.309 Y-1.124 Z-4.000 F500
G1 X-0.432 Y-1.073 Z-4.000 F500
G1 X-0.549 Y-1.009 Z-4.000 F500
G1 X-0.658 Y-0.931 Z-4.000 F500
G1 X-0.758 Y-0.842 Z-4.000 F500
G1 X-0.842 Y-0.758 Z-4.000 F500
G1 X-0.931 Y-0.658 Z-4.000 F500
G1 X-1.009 Y-0.549 Z-4.000 F500
G1 X-1.073 Y-0.432 Z-4.000 F500
G1 X-1.124 Y-0.309 Z-4.000 F500
G1 X-1.161 Y-0.180 Z-4.000 F500
G1 X-1.184 Y-0.049 Z-4.000 F500
G1 X-1.191 Y0.085 Z-4.000 F500
G1 X-1.191 Y16.000 Z-4.000 F500
G1 X-1.184 Y16.134 Z-4.000 F500
G1 X-1.161 Y16.265 Z-4.000 F500
G1 X-1.124 Y16.394 Z-4.000 F500
G1 X-1.073 Y16.517 Z-4.000 F500
G1 X-1.009 Y16.634 Z-4.000 F500
G1 X-0.932 Y16.743 Z-4.000 F500
G1 X-0.843 Y16.843 Z-4.000 F500
G1 X-0.758 Y16.927 Z-4.000 F500
G1 X-0.658 Y17.016 Z-4.000 F500
G1 X-0.549 Y17.094 Z-4.000 F500
G1 X-0.432 Y17.158 Z-4.000 F500
G1 X-0.309 Y17.209 Z-4.000 F500
G1 X-0.181 Y17.246 Z-4.000 F500
G1 X-0.049 Y17.269 Z-4.000 F500
G1 X0.085 Y17.276 Z-4.000 F500
G1 X33.779 Y17.276 Z-4.000 F500
G1 X33.912 Y17.269 Z-4.000 F500
G1 X34.044 Y17.246 Z-4.000 F500
G1 X34.172 Y17.210 Z-4.000 F500
G1 X34.295 Y17.158 Z-4.000 F500
G1 X34.412 Y17.094 Z-4.000 F500
G1 X34.521 Y17.016 Z-4.000 F500
G1 X34.621 Y16.927 Z-4.000 F500
G1 X34.706 Y16.843 Z-4.000 F500
G1 X34.795 Y16.743 Z-4.000 F500
G1 X34.872 Y16.634 Z-4.000 F500
G1 X34.937 Y16.517 Z-4.000 F500
G1 X34.988 Y16.394 Z-4.000 F500
G1 X35.025 Y16.265 Z-4.000 F500
G1 X35.047 Y16.134 Z-4.000 F500
G1 X35.055 Y16.000 Z-4.000 F500
G1 X35.055 Y8.043 Z-4.000 F500
G1 X35.061 Y7.990 Z-4.000 F500
G1 X35.078 Y7.939 Z-4.000 F500
G1 X35.107 Y7.894 Z-4.000 F500
G1 X35.144 Y7.856 Z-4.000 F500
G1 X35.189 Y7.828 Z-4.000 F500
G1 X35.240 Y7.810 Z-4.000 F500
G1 X35.293 Y7.804 Z-4.000 F500
G1 X35.531 Y7.804 Z-4.000 F500
G1 X35.584 Y7.804 Z-3.994 F500
G1 X35.634 Y7.804 Z-3.976 F500
G1 X35.680 Y7.804 Z-3.948 F500
G1 X35.717 Y7.804 Z-3.910 F500
G1 X35.746 Y7.804 Z-3.865 F500
G1 X35.763 Y7.804 Z-3.815 F500
G1 X35.769 Y7.804 Z-3.762 F500
G1 X35.769 Y7.804 Z6.588 F500
G1 X35.769 Y8.281 Z6.588 F500
G1 X35.769 Y8.281 Z5.000 F500
G1 X35.769 Y8.281 Z-3.523 F200
G1 X35.769 Y8.281 Z-4.262 F200
G1 X35.763 Y8.281 Z-4.315 F500
G1 X35.746 Y8.281 Z-4.365 F500
G1 X35.717 Y8.281 Z-4.410 F500
G1 X35.680 Y8.281 Z-4.448 F500
G1 X35.634 Y8.281 Z-4.476 F500
G1 X35.584 Y8.281 Z-4.494 F500
G1 X35.531 Y8.281 Z-4.500 F500
G1 X35.293 Y8.281 Z-4.500 F500
G1 X35.240 Y8.275 Z-4.500 F500
G1 X35.189 Y8.257 Z-4.500 F500
G1 X35.144 Y8.229 Z-4.500 F500
G1 X35.107 Y8.191 Z-4.500 F500
G1 X35.078 Y8.146 Z-4.500 F500
G1 X35.061 Y8.096 Z-4.500 F500
G1 X35.055 Y8.043 Z-4.500 F500
G1 X35.055 Y0.085 Z-4.500 F500
G1 X35.047 Y-0.049 Z-4.500 F500
G1 X35.025 Y-0.181 Z-4.500 F500
G1 X34.988 Y-0.309 Z-4.500 F500
G1 X34.937 Y-0.432 Z-4.500 F500
G1 X34.872 Y-0.549 Z-4.500 F500
G1 X34.795 Y-0.658 Z-4.500 F500
G1 X34.705 Y-0.758 Z-4.500 F500
G1 X34.621 Y-0.843 Z-4.500 F500
G1 X34.521 Y-0.932 Z-4.500 F500
G1 X34.412 Y-1.009 Z-4.500 F500
G1 X34.295 Y-1.073 Z-4.500 F500
G1 X34.172 Y-1.124 Z-4.500 F500
G1 X34.044 Y-1.161 Z-4.500 F500
G1 X33.912 Y-1.184 Z-4.500 F500
G1 X33.779 Y-1.191 Z-4.500 F500
G1 X0.085 Y-1.191 Z-4.500 F500
G1 X-0.049 Y-1.184 Z-4.500 F500
G1 X-0.180 Y-1.161 Z-4.500 F500
G1 X-0.309 Y-1.124 Z-4.500 F500
G1 X-0.432 Y-1.073 Z-4.500 F500
G1 X-0.549 Y-1.009 Z-4.500 F500
G1 X-0.658 Y-0.931 Z-4.500 F500
G1 X-0.758 Y-0.842 Z-4.500 F500
G1 X-0.842 Y-0.758 Z-4.500 F500
G1 X-0.931 Y-0.658 Z-4.500 F500
G1 X-1.009 Y-0.549 Z-4.500 F500
G1 X-1.073 Y-0.432 Z-4.500 F500
G1 X-1.124 Y-0.309 Z-4.500 F500
G1 X-1.161 Y-0.180 Z-4.500 F500
G1 X-1.184 Y-0.049 Z-4.500 F500
G1 X-1.191 Y0.085 Z-4.500 F500
G1 X-1.191 Y16.000 Z-4.500 F500
G1 X-1.184 Y16.134 Z-4.500 F500
G1 X-1.161 Y16.265 Z-4.500 F500
G1 X-1.124 Y16.394 Z-4.500 F500
G1 X-1.073 Y16.517 Z-4.500 F500
G1 X-1.009 Y16.634 Z-4.500 F500
G1 X-0.932 Y16.743 Z-4.500 F500
G1 X-0.843 Y16.843 Z-4.500 F500
G1 X-0.758 Y16.927 Z-4.500 F500
G1 X-0.658 Y17.016 Z-4.500 F500
G1 X-0.549 Y17.094 Z-4.500 F500
G1 X-0.432 Y17.158 Z-4.500 F500
G1 X-0.309 Y17.209 Z-4.500 F500
G1 X-0.181 Y17.246 Z-4.500 F500
G1 X-0.049 Y17.269 Z-4.500 F500
G1 X0.085 Y17.276 Z-4.500 F500
G1 X33.779 Y17.276 Z-4.500 F500
G1 X33.912 Y17.269 Z-4.500 F500
G1 X34.044 Y17.246 Z-4.500 F500
G1 X34.172 Y17.210 Z-4.500 F500
G1 X34.295 Y17.158 Z-4.500 F500
G1 X34.412 Y17.094 Z-4.500 F500
G1 X34.521 Y17.016 Z-4.500 F500
G1 X34.621 Y16.927 Z-4.500 F500
G1 X34.706 Y16.843 Z-4.500 F500
G1 X34.795 Y16.743 Z-4.500 F500
G1 X34.872 Y16.634 Z-4.500 F500
G1 X34.937 Y16.517 Z-4.500 F500
G1 X34.988 Y16.394 Z-4.500 F500
G1 X35.025 Y16.265 Z-4.500 F500
G1 X35.047 Y16.134 Z-4.500 F500
G1 X35.055 Y16.000 Z-4.500 F500
G1 X35.055 Y8.043 Z-4.500 F500
G1 X35.061 Y7.990 Z-4.500 F500
G1 X35.078 Y7.939 Z-4.500 F500
G1 X35.107 Y7.894 Z-4.500 F500
G1 X35.144 Y7.856 Z-4.500 F500
G1 X35.189 Y7.828 Z-4.500 F500
G1 X35.240 Y7.810 Z-4.500 F500
G1 X35.293 Y7.804 Z-4.500 F500
G1 X35.531 Y7.804 Z-4.500 F500
G1 X35.584 Y7.804 Z-4.494 F500
G1 X35.634 Y7.804 Z-4.476 F500
G1 X35.680 Y7.804 Z-4.448 F500
G1 X35.717 Y7.804 Z-4.410 F500
G1 X35.746 Y7.804 Z-4.365 F500
G1 X35.763 Y7.804 Z-4.315 F500
G1 X35.769 Y7.804 Z-4.262 F500
G1 X35.769 Y7.804 Z6.588 F500
G1 X35.769 Y8.281 Z6.588 F500
G1 X35.769 Y8.281 Z5.000 F500
G1 X35.769 Y8.281 Z-4.023 F200
G1 X35.769 Y8.281 Z-4.762 F200
G1 X35.763 Y8.281 Z-4.815 F500
G1 X35.746 Y8.281 Z-4.865 F500
G1 X35.717 Y8.281 Z-4.910 F500
G1 X35.680 Y8.281 Z-4.948 F500
G1 X35.634 Y8.281 Z-4.976 F500
G1 X35.584 Y8.281 Z-4.994 F500
G1 X35.531 Y8.281 Z-5.000 F500
G1 X35.293 Y8.281 Z-5.000 F500
G1 X35.240 Y8.275 Z-5.000 F500
G1 X35.189 Y8.257 Z-5.000 F500
G1 X35.144 Y8.229 Z-5.000 F500
G1 X35.107 Y8.191 Z-5.000 F500
G1 X35.078 Y8.146 Z-5.000 F500
G1 X35.061 Y8.096 Z-5.000 F500
G1 X35.055 Y8.043 Z-5.000 F500
G1 X35.055 Y0.085 Z-5.000 F500
G1 X35.047 Y-0.049 Z-5.000 F500
G1 X35.025 Y-0.181 Z-5.000 F500
G1 X34.988 Y-0.309 Z-5.000 F500
G1 X34.937 Y-0.432 Z-5.000 F500
G1 X34.872 Y-0.549 Z-5.000 F500
G1 X34.795 Y-0.658 Z-5.000 F500
G1 X34.705 Y-0.758 Z-5.000 F500
G1 X34.621 Y-0.843 Z-5.000 F500
G1 X34.521 Y-0.932 Z-5.000 F500
G1 X34.412 Y-1.009 Z-5.000 F500
G1 X34.295 Y-1.073 Z-5.000 F500
G1 X34.172 Y-1.124 Z-5.000 F500
G1 X34.044 Y-1.161 Z-5.000 F500
G1 X33.912 Y-1.184 Z-5.000 F500
G1 X33.779 Y-1.191 Z-5.000 F500
G1 X0.085 Y-1.191 Z-5.000 F500
G1 X-0.049 Y-1.184 Z-5.000 F500
G1 X-0.180 Y-1.161 Z-5.000 F500
G1 X-0.309 Y-1.124 Z-5.000 F500
G1 X-0.432 Y-1.073 Z-5.000 F500
G1 X-0.549 Y-1.009 Z-5.000 F500
G1 X-0.658 Y-0.931 Z-5.000 F500
G1 X-0.758 Y-0.842 Z-5.000 F500
G1 X-0.842 Y-0.758 Z-5.000 F500
G1 X-0.931 Y-0.658 Z-5.000 F500
G1 X-1.009 Y-0.549 Z-5.000 F500
G1 X-1.073 Y-0.432 Z-5.000 F500
G1 X-1.124 Y-0.309 Z-5.000 F500
G1 X-1.161 Y-0.180 Z-5.000 F500
G1 X-1.184 Y-0.049 Z-5.000 F500
G1 X-1.191 Y0.085 Z-5.000 F500
G1 X-1.191 Y16.000 Z-5.000 F500
G1 X-1.184 Y16.134 Z-5.000 F500
G1 X-1.161 Y16.265 Z-5.000 F500
G1 X-1.124 Y16.394 Z-5.000 F500
G1 X-1.073 Y16.517 Z-5.000 F500
G1 X-1.009 Y16.634 Z-5.000 F500
G1 X-0.932 Y16.743 Z-5.000 F500
G1 X-0.843 Y16.843 Z-5.000 F500
G1 X-0.758 Y16.927 Z-5.000 F500
G1 X-0.658 Y17.016 Z-5.000 F500
G1 X-0.549 Y17.094 Z-5.000 F500
G1 X-0.432 Y17.158 Z-5.000 F500
G1 X-0.309 Y17.209 Z-5.000 F500
G1 X-0.181 Y17.246 Z-5.000 F500
G1 X-0.049 Y17.269 Z-5.000 F500
G1 X0.085 Y17.276 Z-5.000 F500
G1 X33.779 Y17.276 Z-5.000 F500
G1 X33.912 Y17.269 Z-5.000 F500
G1 X34.044 Y17.246 Z-5.000 F500
G1 X34.172 Y17.210 Z-5.000 F500
G1 X34.295 Y17.158 Z-5.000 F500
G1 X34.412 Y17.094 Z-5.000 F500
G1 X34.521 Y17.016 Z-5.000 F500
G1 X34.621 Y16.927 Z-5.000 F500
G1 X34.706 Y16.843 Z-5.000 F500
G1 X34.795 Y16.743 Z-5.000 F500
G1 X34.872 Y16.634 Z-5.000 F500
G1 X34.937 Y16.517 Z-5.000 F500
G1 X34.988 Y16.394 Z-5.000 F500
G1 X35.025 Y16.265 Z-5.000 F500
G1 X35.047 Y16.134 Z-5.000 F500
G1 X35.055 Y16.000 Z-5.000 F500
G1 X35.055 Y8.043 Z-5.000 F500
G1 X35.061 Y7.990 Z-5.000 F500
G1 X35.078 Y7.939 Z-5.000 F500
G1 X35.107 Y7.894 Z-5.000 F500
G1 X35.144 Y7.856 Z-5.000 F500
G1 X35.189 Y7.828 Z-5.000 F500
G1 X35.240 Y7.810 Z-5.000 F500
G1 X35.293 Y7.804 Z-5.000 F500
G1 X35.531 Y7.804 Z-5.000 F500
G1 X35.584 Y7.804 Z-4.994 F500
G1 X35.634 Y7.804 Z-4.976 F500
G1 X35.680 Y7.804 Z-4.948 F500
G1 X35.717 Y7.804 Z-4.910 F500
G1 X35.746 Y7.804 Z-4.865 F500
G1 X35.763 Y7.804 Z-4.815 F500
G1 X35.769 Y7.804 Z-4.762 F500
G1 X35.769 Y7.804 Z6.588 F500
G1 X35.769 Y8.281 Z6.588 F500
G1 X35.769 Y8.281 Z5.000 F500
G1 X35.769 Y8.281 Z-4.523 F200
G1 X35.769 Y8.281 Z-5.262 F200
G1 X35.763 Y8.281 Z-5.315 F500
G1 X35.746 Y8.281 Z-5.365 F500
G1 X35.717 Y8.281 Z-5.410 F500
G1 X35.680 Y8.281 Z-5.448 F500
G1 X35.634 Y8.281 Z-5.476 F500
G1 X35.584 Y8.281 Z-5.494 F500
G1 X35.531 Y8.281 Z-5.500 F500
G1 X35.293 Y8.281 Z-5.500 F500
G1 X35.240 Y8.275 Z-5.500 F500
G1 X35.189 Y8.257 Z-5.500 F500
G1 X35.144 Y8.229 Z-5.500 F500
G1 X35.107 Y8.191 Z-5.500 F500
G1 X35.078 Y8.146 Z-5.500 F500
G1 X35.061 Y8.096 Z-5.500 F500
G1 X35.055 Y8.043 Z-5.500 F500
G1 X35.055 Y0.085 Z-5.500 F500
G1 X35.047 Y-0.049 Z-5.500 F500
G1 X35.025 Y-0.181 Z-5.500 F500
G1 X34.988 Y-0.309 Z-5.500 F500
G1 X34.937 Y-0.432 Z-5.500 F500
G1 X34.872 Y-0.549 Z-5.500 F500
G1 X34.795 Y-0.658 Z-5.500 F500
G1 X34.705 Y-0.758 Z-5.500 F500
G1 X34.621 Y-0.843 Z-5.500 F500
G1 X34.521 Y-0.932 Z-5.500 F500
G1 X34.412 Y-1.009 Z-5.500 F500
G1 X34.295 Y-1.073 Z-5.500 F500
G1 X34.172 Y-1.124 Z-5.500 F500
G1 X34.044 Y-1.161 Z-5.500 F500
G1 X33.912 Y-1.184 Z-5.500 F500
G1 X33.779 Y-1.191 Z-5.500 F500
G1 X0.085 Y-1.191 Z-5.500 F500
G1 X-0.049 Y-1.184 Z-5.500 F500
G1 X-0.180 Y-1.161 Z-5.500 F500
G1 X-0.309 Y-1.124 Z-5.500 F500
G1 X-0.432 Y-1.073 Z-5.500 F500
G1 X-0.549 Y-1.009 Z-5.500 F500
G1 X-0.658 Y-0.931 Z-5.500 F500
G1 X-0.758 Y-0.842 Z-5.500 F500
G1 X-0.842 Y-0.758 Z-5.500 F500
G1 X-0.931 Y-0.658 Z-5.500 F500
G1 X-1.009 Y-0.549 Z-5.500 F500
G1 X-1.073 Y-0.432 Z-5.500 F500
G1 X-1.124 Y-0.309 Z-5.500 F500
G1 X-1.161 Y-0.180 Z-5.500 F500
G1 X-1.184 Y-0.049 Z-5.500 F500
G1 X-1.191 Y0.085 Z-5.500 F500
G1 X-1.191 Y16.000 Z-5.500 F500
G1 X-1.184 Y16.134 Z-5.500 F500
G1 X-1.161 Y16.265 Z-5.500 F500
G1 X-1.124 Y16.394 Z-5.500 F500
G1 X-1.073 Y16.517 Z-5.500 F500
G1 X-1.009 Y16.634 Z-5.500 F500
G1 X-0.932 Y16.743 Z-5.500 F500
G1 X-0.843 Y16.843 Z-5.500 F500
G1 X-0.758 Y16.927 Z-5.500 F500
G1 X-0.658 Y17.016 Z-5.500 F500
G1 X-0.549 Y17.094 Z-5.500 F500
G1 X-0.432 Y17.158 Z-5.500 F500
G1 X-0.309 Y17.209 Z-5.500 F500
G1 X-0.181 Y17.246 Z-5.500 F500
G1 X-0.049 Y17.269 Z-5.500 F500
G1 X0.085 Y17.276 Z-5.500 F500
G1 X33.779 Y17.276 Z-5.500 F500
G1 X33.912 Y17.269 Z-5.500 F500
G1 X34.044 Y17.246 Z-5.500 F500
G1 X34.172 Y17.210 Z-5.500 F500
G1 X34.295 Y17.158 Z-5.500 F500
G1 X34.412 Y17.094 Z-5.500 F500
G1 X34.521 Y17.016 Z-5.500 F500
G1 X34.621 Y16.927 Z-5.500 F500
G1 X34.706 Y16.843 Z-5.500 F500
G1 X34.795 Y16.743 Z-5.500 F500
G1 X34.872 Y16.634 Z-5.500 F500
G1 X34.937 Y16.517 Z-5.500 F500
G1 X34.988 Y16.394 Z-5.500 F500
G1 X35.025 Y16.265 Z-5.500 F500
G1 X35.047 Y16.134 Z-5.500 F500
G1 X35.055 Y16.000 Z-5.500 F500
G1 X35.055 Y8.043 Z-5.500 F500
G1 X35.061 Y7.990 Z-5.500 F500
G1 X35.078 Y7.939 Z-5.500 F500
G1 X35.107 Y7.894 Z-5.500 F500
G1 X35.144 Y7.856 Z-5.500 F500
G1 X35.189 Y7.828 Z-5.500 F500
G1 X35.240 Y7.810 Z-5.500 F500
G1 X35.293 Y7.804 Z-5.500 F500
G1 X35.531 Y7.804 Z-5.500 F500
G1 X35.584 Y7.804 Z-5.494 F500
G1 X35.634 Y7.804 Z-5.476 F500
G1 X35.680 Y7.804 Z-5.448 F500
G1 X35.717 Y7.804 Z-5.410 F500
G1 X35.746 Y7.804 Z-5.365 F500
G1 X35.763 Y7.804 Z-5.315 F500
G1 X35.769 Y7.804 Z-5.262 F500
G1 X35.769 Y7.804 Z6.588 F500
G1 X35.769 Y8.281 Z6.588 F500
G1 X35.769 Y8.281 Z5.000 F500
G1 X35.769 Y8.281 Z-5.023 F200
G1 X35.769 Y8.281 Z-5.754 F200
G1 X35.531 Y8.281 Z-5.754 F500
G1 X35.293 Y8.281 Z-5.754 F500
G1 X35.240 Y8.275 Z-5.754 F500
G1 X35.189 Y8.257 Z-5.754 F500
G1 X35.144 Y8.229 Z-5.754 F500
G1 X35.107 Y8.191 Z-5.754 F500
G1 X35.078 Y8.146 Z-5.754 F500
G1 X35.061 Y8.096 Z-5.754 F500
G1 X35.055 Y8.043 Z-5.754 F500
G1 X35.055 Y7.552 Z-5.754 F500
G1 X35.055 Y7.552 Z-6.000 F200
G1 X35.055 Y0.085 Z-6.000 F500
G1 X35.047 Y-0.049 Z-6.000 F500
G1 X35.025 Y-0.181 Z-6.000 F500
G1 X34.988 Y-0.309 Z-6.000 F500
G1 X34.937 Y-0.432 Z-6.000 F500
G1 X34.872 Y-0.549 Z-6.000 F500
G1 X34.795 Y-0.658 Z-6.000 F500
G1 X34.705 Y-0.758 Z-6.000 F500
G1 X34.621 Y-0.843 Z-6.000 F500
G1 X34.521 Y-0.932 Z-6.000 F500
G1 X34.412 Y-1.009 Z-6.000 F500
G1 X34.295 Y-1.073 Z-6.000 F500
G1 X34.172 Y-1.124 Z-6.000 F500
G1 X34.044 Y-1.161 Z-6.000 F500
G1 X33.912 Y-1.184 Z-6.000 F500
G1 X33.779 Y-1.191 Z-6.000 F500
G1 X26.191 Y-1.191 Z-6.000 F500
G1 X26.191 Y-1.191 Z-5.754 F500
G1 X21.426 Y-1.191 Z-5.754 F500
G1 X21.426 Y-1.191 Z-6.000 F200
G1 X6.252 Y-1.191 Z-6.000 F500
G1 X6.252 Y-1.191 Z-5.754 F500
G1 X1.487 Y-1.191 Z-5.754 F500
G1 X1.487 Y-1.191 Z-6.000 F200
G1 X0.085 Y-1.191 Z-6.000 F500
G1 X-0.049 Y-1.184 Z-6.000 F500
G1 X-0.180 Y-1.161 Z-6.000 F500
G1 X-0.309 Y-1.124 Z-6.000 F500
G1 X-0.432 Y-1.073 Z-6.000 F500
G1 X-0.549 Y-1.009 Z-6.000 F500
G1 X-0.658 Y-0.931 Z-6.000 F500
G1 X-0.758 Y-0.842 Z-6.000 F500
G1 X-0.842 Y-0.758 Z-6.000 F500
G1 X-0.931 Y-0.658 Z-6.000 F500
G1 X-1.009 Y-0.549 Z-6.000 F500
G1 X-1.073 Y-0.432 Z-6.000 F500
G1 X-1.124 Y-0.309 Z-6.000 F500
G1 X-1.161 Y-0.180 Z-6.000 F500
G1 X-1.184 Y-0.049 Z-6.000 F500
G1 X-1.191 Y0.085 Z-6.000 F500
G1 X-1.191 Y14.894 Z-6.000 F500
G1 X-1.191 Y14.894 Z-5.754 F500
G1 X-1.191 Y16.000 Z-5.754 F500
G1 X-1.184 Y16.134 Z-5.754 F500
G1 X-1.161 Y16.265 Z-5.754 F500
G1 X-1.124 Y16.394 Z-5.754 F500
G1 X-1.073 Y16.517 Z-5.754 F500
G1 X-1.009 Y16.634 Z-5.754 F500
G1 X-0.932 Y16.743 Z-5.754 F500
G1 X-0.843 Y16.843 Z-5.754 F500
G1 X-0.758 Y16.927 Z-5.754 F500
G1 X-0.658 Y17.016 Z-5.754 F500
G1 X-0.549 Y17.094 Z-5.754 F500
G1 X-0.432 Y17.158 Z-5.754 F500
G1 X-0.309 Y17.209 Z-5.754 F500
G1 X-0.181 Y17.246 Z-5.754 F500
G1 X-0.049 Y17.269 Z-5.754 F500
G1 X0.085 Y17.276 Z-5.754 F500
G1 X2.467 Y17.276 Z-5.754 F500
G1 X2.467 Y17.276 Z-6.000 F200
G1 X17.642 Y17.276 Z-6.000 F500
G1 X17.642 Y17.276 Z-5.754 F500
G1 X22.407 Y17.276 Z-5.754 F500
G1 X22.407 Y17.276 Z-6.000 F200
G1 X33.779 Y17.276 Z-6.000 F500
G1 X33.912 Y17.269 Z-6.000 F500
G1 X34.044 Y17.246 Z-6.000 F500
G1 X34.172 Y17.210 Z-6.000 F500
G1 X34.295 Y17.158 Z-6.000 F500
G1 X34.412 Y17.094 Z-6.000 F500
G1 X34.521 Y17.016 Z-6.000 F500
G1 X34.621 Y16.927 Z-6.000 F500
G1 X34.706 Y16.843 Z-6.000 F500
G1 X34.795 Y16.743 Z-6.000 F500
G1 X34.872 Y16.634 Z-6.000 F500
G1 X34.937 Y16.517 Z-6.000 F500
G1 X34.988 Y16.394 Z-6.000 F500
G1 X35.025 Y16.265 Z-6.000 F500
G1 X35.047 Y16.134 Z-6.000 F500
G1 X35.055 Y16.000 Z-6.000 F500
G1 X35.055 Y12.317 Z-6.000 F500
G1 X35.055 Y12.317 Z-5.754 F500
G1 X35.055 Y8.043 Z-5.754 F500
G1 X35.061 Y7.990 Z-5.754 F500
G1 X35.078 Y7.939 Z-5.754 F500
G1 X35.107 Y7.894 Z-5.754 F500
G1 X35.144 Y7.856 Z-5.754 F500
G1 X35.189 Y7.828 Z-5.754 F500
G1 X35.240 Y7.810 Z-5.754 F500
G1 X35.293 Y7.804 Z-5.754 F500
G1 X35.769 Y7.804 Z-5.754 F500
G1 X35.769 Y7.804 Z6.588 F500
G1 X35.769 Y8.281 Z6.588 F500
G1 X35.769 Y8.281 Z5.000 F500
G1 X35.769 Y8.281 Z-5.523 F200
G1 X35.769 Y8.281 Z-5.754 F200
G1 X35.531 Y8.281 Z-5.754 F500
G1 X35.293 Y8.281 Z-5.754 F500
G1 X35.240 Y8.275 Z-5.754 F500
G1 X35.189 Y8.257 Z-5.754 F500
G1 X35.144 Y8.229 Z-5.754 F500
G1 X35.107 Y8.191 Z-5.754 F500
G1 X35.078 Y8.146 Z-5.754 F500
G1 X35.061 Y8.096 Z-5.754 F500
G1 X35.055 Y8.043 Z-5.754 F500
G1 X35.055 Y7.552 Z-5.754 F500
G1 X35.055 Y7.552 Z-6.349 F200
G1 X35.055 Y0.085 Z-6.349 F500
G1 X35.047 Y-0.049 Z-6.349 F500
G1 X35.025 Y-0.181 Z-6.349 F500
G1 X34.988 Y-0.309 Z-6.349 F500
G1 X34.937 Y-0.432 Z-6.349 F500
G1 X34.872 Y-0.549 Z-6.349 F500
G1 X34.795 Y-0.658 Z-6.349 F500
G1 X34.705 Y-0.758 Z-6.349 F500
G1 X34.621 Y-0.843 Z-6.349 F500
G1 X34.521 Y-0.932 Z-6.349 F500
G1 X34.412 Y-1.009 Z-6.349 F500
G1 X34.295 Y-1.073 Z-6.349 F500
G1 X34.172 Y-1.124 Z-6.349 F500
G1 X34.044 Y-1.161 Z-6.349 F500
G1 X33.912 Y-1.184 Z-6.349 F500
G1 X33.779 Y-1.191 Z-6.349 F500
G1 X26.191 Y-1.191 Z-6.349 F500
G1 X26.191 Y-1.191 Z-5.754 F500
G1 X21.426 Y-1.191 Z-5.754 F500
G1 X21.426 Y-1.191 Z-6.349 F200
G1 X6.252 Y-1.191 Z-6.349 F500
G1 X6.252 Y-1.191 Z-5.754 F500
G1 X1.487 Y-1.191 Z-5.754 F500
G1 X1.487 Y-1.191 Z-6.349 F200
G1 X0.085 Y-1.191 Z-6.349 F500
G1 X-0.049 Y-1.184 Z-6.349 F500
G1 X-0.180 Y-1.161 Z-6.349 F500
G1 X-0.309 Y-1.124 Z-6.349 F500
G1 X-0.432 Y-1.073 Z-6.349 F500
G1 X-0.549 Y-1.009 Z-6.349 F500
G1 X-0.658 Y-0.931 Z-6.349 F500
G1 X-0.758 Y-0.842 Z-6.349 F500
G1 X-0.842 Y-0.758 Z-6.349 F500
G1 X-0.931 Y-0.658 Z-6.349 F500
G1 X-1.009 Y-0.549 Z-6.349 F500
G1 X-1.073 Y-0.432 Z-6.349 F500
G1 X-1.124 Y-0.309 Z-6.349 F500
G1 X-1.161 Y-0.180 Z-6.349 F500
G1 X-1.184 Y-0.049 Z-6.349 F500
G1 X-1.191 Y0.085 Z-6.349 F500
G1 X-1.191 Y14.894 Z-6.349 F500
G1 X-1.191 Y14.894 Z-5.754 F500
G1 X-1.191 Y16.000 Z-5.754 F500
G1 X-1.184 Y16.134 Z-5.754 F500
G1 X-1.161 Y16.265 Z-5.754 F500
G1 X-1.124 Y16.394 Z-5.754 F500
G1 X-1.073 Y16.517 Z-5.754 F500
G1 X-1.009 Y16.634 Z-5.754 F500
G1 X-0.932 Y16.743 Z-5.754 F500
G1 X-0.843 Y16.843 Z-5.754 F500
G1 X-0.758 Y16.927 Z-5.754 F500
G1 X-0.658 Y17.016 Z-5.754 F500
G1 X-0.549 Y17.094 Z-5.754 F500
G1 X-0.432 Y17.158 Z-5.754 F500
G1 X-0.309 Y17.209 Z-5.754 F500
G1 X-0.181 Y17.246 Z-5.754 F500
G1 X-0.049 Y17.269 Z-5.754 F500
G1 X0.085 Y17.276 Z-5.754 F500
G1 X2.467 Y17.276 Z-5.754 F500
G1 X2.467 Y17.276 Z-6.349 F200
G1 X17.642 Y17.276 Z-6.349 F500
G1 X17.642 Y17.276 Z-5.754 F500
G1 X22.407 Y17.276 Z-5.754 F500
G1 X22.407 Y17.276 Z-6.349 F200
G1 X33.779 Y17.276 Z-6.349 F500
G1 X33.912 Y17.269 Z-6.349 F500
G1 X34.044 Y17.246 Z-6.349 F500
G1 X34.172 Y17.210 Z-6.349 F500
G1 X34.295 Y17.158 Z-6.349 F500
G1 X34.412 Y17.094 Z-6.349 F500
G1 X34.521 Y17.016 Z-6.349 F500
G1 X34.621 Y16.927 Z-6.349 F500
G1 X34.706 Y16.843 Z-6.349 F500
G1 X34.795 Y16.743 Z-6.349 F500
G1 X34.872 Y16.634 Z-6.349 F500
G1 X34.937 Y16.517 Z-6.349 F500
G1 X34.988 Y16.394 Z-6.349 F500
G1 X35.025 Y16.265 Z-6.349 F500
G1 X35.047 Y16.134 Z-6.349 F500
G1 X35.055 Y16.000 Z-6.349 F500
G1 X35.055 Y12.317 Z-6.349 F500
G1 X35.055 Y12.317 Z-5.754 F500
G1 X35.055 Y8.043 Z-5.754 F500
G1 X35.061 Y7.990 Z-5.754 F500
G1 X35.078 Y7.939 Z-5.754 F500
G1 X35.107 Y7.894 Z-5.754 F500
G1 X35.144 Y7.856 Z-5.754 F500
G1 X35.189 Y7.828 Z-5.754 F500
G1 X35.240 Y7.810 Z-5.754 F500
G1 X35.293 Y7.804 Z-5.754 F500
G1 X35.769 Y7.804 Z-5.754 F500
G1 X35.769 Y7.804 Z56.588 F500
G0 X0.000 Y0.000
M5
