;Titan-Face-6mm
;Machine
;vendor: Snapmaker
;model: Desktop CNC
;description: Generic Snapmaker Marlin v20180725
M3 P100
G4 S2
G21
G90
;When using Fusion for Personal Use, the feedrate of rapid
;moves is reduced to match the feedrate of cutting moves,
;which can increase machining time. Unrestricted rapid moves
;are available with a Fusion Subscription.

;Face
G0 X37.746 Y-2.323 Z56.588
G1 X37.746 Y-2.323 Z56.588 F400
G1 X37.746 Y-2.323 Z6.588 F400
G1 X37.746 Y-2.323 Z2.100 F150
G1 X37.739 Y-2.323 Z2.006 F400
G1 X37.717 Y-2.323 Z1.915 F400
G1 X37.681 Y-2.323 Z1.828 F400
G1 X37.632 Y-2.323 Z1.747 F400
G1 X37.571 Y-2.323 Z1.676 F400
G1 X37.499 Y-2.323 Z1.615 F400
G1 X37.419 Y-2.323 Z1.565 F400
G1 X37.332 Y-2.323 Z1.529 F400
G1 X37.240 Y-2.323 Z1.507 F400
G1 X37.146 Y-2.323 Z1.500 F400
G1 X36.873 Y-2.323 Z1.500 F400
G1 X-3.010 Y-2.323 Z1.500 F400
G1 X-3.153 Y-2.315 Z1.500 F400
G1 X-3.295 Y-2.292 Z1.500 F400
G1 X-3.433 Y-2.254 Z1.500 F400
G1 X-3.566 Y-2.201 Z1.500 F400
G1 X-3.692 Y-2.134 Z1.500 F400
G1 X-3.811 Y-2.053 Z1.500 F400
G1 X-3.920 Y-1.960 Z1.500 F400
G1 X-4.019 Y-1.856 Z1.500 F400
G1 X-4.105 Y-1.742 Z1.500 F400
G1 X-4.179 Y-1.620 Z1.500 F400
G1 X-4.239 Y-1.490 Z1.500 F400
G1 X-4.285 Y-1.354 Z1.500 F400
G1 X-4.316 Y-1.214 Z1.500 F400
G1 X-4.332 Y-1.071 Z1.500 F400
G1 X-4.332 Y-0.928 Z1.500 F400
G1 X-4.316 Y-0.786 Z1.500 F400
G1 X-4.285 Y-0.646 Z1.500 F400
G1 X-4.239 Y-0.510 Z1.500 F400
G1 X-4.179 Y-0.380 Z1.500 F400
G1 X-4.105 Y-0.257 Z1.500 F400
G1 X-4.019 Y-0.143 Z1.500 F400
G1 X-3.920 Y-0.039 Z1.500 F400
G1 X-3.811 Y0.054 Z1.500 F400
G1 X-3.692 Y0.134 Z1.500 F400
G1 X-3.566 Y0.201 Z1.500 F400
G1 X-3.433 Y0.254 Z1.500 F400
G1 X-3.295 Y0.293 Z1.500 F400
G1 X-3.153 Y0.316 Z1.500 F400
G1 X-3.010 Y0.324 Z1.500 F400
G1 X36.873 Y0.324 Z1.500 F400
G1 X37.016 Y0.332 Z1.500 F400
G1 X37.158 Y0.355 Z1.500 F400
G1 X37.296 Y0.393 Z1.500 F400
G1 X37.429 Y0.446 Z1.500 F400
G1 X37.556 Y0.513 Z1.500 F400
G1 X37.674 Y0.594 Z1.500 F400
G1 X37.783 Y0.686 Z1.500 F400
G1 X37.882 Y0.790 Z1.500 F400
G1 X37.969 Y0.905 Z1.500 F400
G1 X38.043 Y1.027 Z1.500 F400
G1 X38.103 Y1.157 Z1.500 F400
G1 X38.148 Y1.293 Z1.500 F400
G1 X38.179 Y1.433 Z1.500 F400
G1 X38.195 Y1.576 Z1.500 F400
G1 X38.195 Y1.719 Z1.500 F400
G1 X38.179 Y1.861 Z1.500 F400
G1 X38.148 Y2.001 Z1.500 F400
G1 X38.103 Y2.137 Z1.500 F400
G1 X38.043 Y2.267 Z1.500 F400
G1 X37.969 Y2.390 Z1.500 F400
G1 X37.882 Y2.504 Z1.500 F400
G1 X37.783 Y2.608 Z1.500 F400
G1 X37.674 Y2.701 Z1.500 F400
G1 X37.556 Y2.781 Z1.500 F400
G1 X37.429 Y2.848 Z1.500 F400
G1 X37.296 Y2.901 Z1.500 F400
G1 X37.158 Y2.940 Z1.500 F400
G1 X37.016 Y2.963 Z1.500 F400
G1 X36.873 Y2.971 Z1.500 F400
G1 X-3.010 Y2.971 Z1.500 F400
G1 X-3.153 Y2.978 Z1.500 F400
G1 X-3.295 Y3.002 Z1.500 F400
G1 X-3.433 Y3.040 Z1.500 F400
G1 X-3.566 Y3.093 Z1.500 F400
G1 X-3.692 Y3.160 Z1.500 F400
G1 X-3.811 Y3.241 Z1.500 F400
G1 X-3.920 Y3.333 Z1.500 F400
G1 X-4.019 Y3.437 Z1.500 F400
G1 X-4.105 Y3.551 Z1.500 F400
G1 X-4.179 Y3.674 Z1.500 F400
G1 X-4.239 Y3.804 Z1.500 F400
G1 X-4.285 Y3.940 Z1.500 F400
G1 X-4.316 Y4.080 Z1.500 F400
G1 X-4.332 Y4.222 Z1.500 F400
G1 X-4.332 Y4.366 Z1.500 F400
G1 X-4.316 Y4.508 Z1.500 F400
G1 X-4.285 Y4.648 Z1.500 F400
G1 X-4.239 Y4.784 Z1.500 F400
G1 X-4.179 Y4.914 Z1.500 F400
G1 X-4.105 Y5.037 Z1.500 F400
G1 X-4.019 Y5.151 Z1.500 F400
G1 X-3.920 Y5.255 Z1.500 F400
G1 X-3.811 Y5.348 Z1.500 F400
G1 X-3.692 Y5.428 Z1.500 F400
G1 X-3.566 Y5.495 Z1.500 F400
G1 X-3.433 Y5.548 Z1.500 F400
G1 X-3.295 Y5.587 Z1.500 F400
G1 X-3.153 Y5.610 Z1.500 F400
G1 X-3.010 Y5.618 Z1.500 F400
G1 X36.873 Y5.618 Z1.500 F400
G1 X37.016 Y5.625 Z1.500 F400
G1 X37.158 Y5.648 Z1.500 F400
G1 X37.296 Y5.687 Z1.500 F400
G1 X37.429 Y5.740 Z1.500 F400
G1 X37.556 Y5.807 Z1.500 F400
G1 X37.674 Y5.887 Z1.500 F400
G1 X37.783 Y5.980 Z1.500 F400
G1 X37.882 Y6.084 Z1.500 F400
G1 X37.969 Y6.198 Z1.500 F400
G1 X38.043 Y6.321 Z1.500 F400
G1 X38.103 Y6.451 Z1.500 F400
G1 X38.148 Y6.587 Z1.500 F400
G1 X38.179 Y6.727 Z1.500 F400
G1 X38.195 Y6.869 Z1.500 F400
G1 X38.195 Y7.013 Z1.500 F400
G1 X38.179 Y7.155 Z1.500 F400
G1 X38.148 Y7.295 Z1.500 F400
G1 X38.103 Y7.431 Z1.500 F400
G1 X38.043 Y7.561 Z1.500 F400
G1 X37.969 Y7.684 Z1.500 F400
G1 X37.882 Y7.798 Z1.500 F400
G1 X37.783 Y7.902 Z1.500 F400
G1 X37.674 Y7.995 Z1.500 F400
G1 X37.556 Y8.075 Z1.500 F400
G1 X37.429 Y8.142 Z1.500 F400
G1 X37.296 Y8.195 Z1.500 F400
G1 X37.158 Y8.233 Z1.500 F400
G1 X37.016 Y8.257 Z1.500 F400
G1 X36.873 Y8.264 Z1.500 F400
G1 X-3.010 Y8.264 Z1.500 F400
G1 X-3.153 Y8.272 Z1.500 F400
G1 X-3.295 Y8.295 Z1.500 F400
G1 X-3.433 Y8.334 Z1.500 F400
G1 X-3.566 Y8.387 Z1.500 F400
G1 X-3.692 Y8.454 Z1.500 F400
G1 X-3.811 Y8.534 Z1.500 F400
G1 X-3.920 Y8.627 Z1.500 F400
G1 X-4.019 Y8.731 Z1.500 F400
G1 X-4.105 Y8.845 Z1.500 F400
G1 X-4.179 Y8.968 Z1.500 F400
G1 X-4.239 Y9.098 Z1.500 F400
G1 X-4.285 Y9.234 Z1.500 F400
G1 X-4.316 Y9.374 Z1.500 F400
G1 X-4.332 Y9.516 Z1.500 F400
G1 X-4.332 Y9.660 Z1.500 F400
G1 X-4.316 Y9.802 Z1.500 F400
G1 X-4.285 Y9.942 Z1.500 F400
G1 X-4.239 Y10.078 Z1.500 F400
G1 X-4.179 Y10.208 Z1.500 F400
G1 X-4.105 Y10.331 Z1.500 F400
G1 X-4.019 Y10.445 Z1.500 F400
G1 X-3.920 Y10.549 Z1.500 F400
G1 X-3.811 Y10.641 Z1.500 F400
G1 X-3.692 Y10.722 Z1.500 F400
G1 X-3.566 Y10.789 Z1.500 F400
G1 X-3.433 Y10.842 Z1.500 F400
G1 X-3.295 Y10.880 Z1.500 F400
G1 X-3.153 Y10.904 Z1.500 F400
G1 X-3.010 Y10.911 Z1.500 F400
G1 X36.873 Y10.911 Z1.500 F400
G1 X37.016 Y10.919 Z1.500 F400
G1 X37.158 Y10.942 Z1.500 F400
G1 X37.296 Y10.981 Z1.500 F400
G1 X37.429 Y11.034 Z1.500 F400
G1 X37.556 Y11.101 Z1.500 F400
G1 X37.674 Y11.181 Z1.500 F400
G1 X37.783 Y11.274 Z1.500 F400
G1 X37.882 Y11.378 Z1.500 F400
G1 X37.969 Y11.492 Z1.500 F400
G1 X38.043 Y11.615 Z1.500 F400
G1 X38.103 Y11.745 Z1.500 F400
G1 X38.148 Y11.881 Z1.500 F400
G1 X38.179 Y12.021 Z1.500 F400
G1 X38.195 Y12.163 Z1.500 F400
G1 X38.195 Y12.306 Z1.500 F400
G1 X38.179 Y12.449 Z1.500 F400
G1 X38.148 Y12.589 Z1.500 F400
G1 X38.103 Y12.725 Z1.500 F400
G1 X38.043 Y12.855 Z1.500 F400
G1 X37.969 Y12.977 Z1.500 F400
G1 X37.882 Y13.092 Z1.500 F400
G1 X37.783 Y13.196 Z1.500 F400
G1 X37.674 Y13.288 Z1.500 F400
G1 X37.556 Y13.369 Z1.500 F400
G1 X37.429 Y13.436 Z1.500 F400
G1 X37.296 Y13.489 Z1.500 F400
G1 X37.158 Y13.527 Z1.500 F400
G1 X37.016 Y13.550 Z1.500 F400
G1 X36.873 Y13.558 Z1.500 F400
G1 X-3.010 Y13.558 Z1.500 F400
G1 X-3.153 Y13.566 Z1.500 F400
G1 X-3.295 Y13.589 Z1.500 F400
G1 X-3.433 Y13.627 Z1.500 F400
G1 X-3.566 Y13.680 Z1.500 F400
G1 X-3.692 Y13.748 Z1.500 F400
G1 X-3.811 Y13.828 Z1.500 F400
G1 X-3.920 Y13.921 Z1.500 F400
G1 X-4.019 Y14.025 Z1.500 F400
G1 X-4.105 Y14.139 Z1.500 F400
G1 X-4.179 Y14.262 Z1.500 F400
G1 X-4.239 Y14.392 Z1.500 F400
G1 X-4.285 Y14.528 Z1.500 F400
G1 X-4.316 Y14.668 Z1.500 F400
G1 X-4.331 Y14.810 Z1.500 F400
G1 X-4.331 Y14.953 Z1.500 F400
G1 X-4.316 Y15.096 Z1.500 F400
G1 X-4.285 Y15.236 Z1.500 F400
G1 X-4.239 Y15.371 Z1.500 F400
G1 X-4.179 Y15.502 Z1.500 F400
G1 X-4.105 Y15.624 Z1.500 F400
G1 X-4.019 Y15.738 Z1.500 F400
G1 X-3.920 Y15.842 Z1.500 F400
G1 X-3.811 Y15.935 Z1.500 F400
G1 X-3.692 Y16.016 Z1.500 F400
G1 X-3.566 Y16.083 Z1.500 F400
G1 X-3.433 Y16.136 Z1.500 F400
G1 X-3.295 Y16.174 Z1.500 F400
G1 X-3.153 Y16.197 Z1.500 F400
G1 X-3.010 Y16.205 Z1.500 F400
G1 X36.873 Y16.205 Z1.500 F400
G1 X36.967 Y16.205 Z1.507 F3000
G1 X37.059 Y16.205 Z1.529 F3000
G1 X37.146 Y16.205 Z1.565 F3000
G1 X37.226 Y16.205 Z1.615 F3000
G1 X37.298 Y16.205 Z1.676 F3000
G1 X37.359 Y16.205 Z1.747 F3000
G1 X37.408 Y16.205 Z1.828 F3000
G1 X37.444 Y16.205 Z1.915 F3000
G1 X37.466 Y16.205 Z2.006 F3000
G1 X37.473 Y16.205 Z2.100 F3000
G1 X37.473 Y16.205 Z6.588 F400
G1 X37.746 Y-2.323 Z6.588 F400
G1 X37.746 Y-2.323 Z1.800 F150
G1 X37.739 Y-2.323 Z1.706 F400
G1 X37.717 Y-2.323 Z1.615 F400
G1 X37.681 Y-2.323 Z1.528 F400
G1 X37.632 Y-2.323 Z1.447 F400
G1 X37.571 Y-2.323 Z1.376 F400
G1 X37.499 Y-2.323 Z1.315 F400
G1 X37.419 Y-2.323 Z1.265 F400
G1 X37.332 Y-2.323 Z1.229 F400
G1 X37.240 Y-2.323 Z1.207 F400
G1 X37.146 Y-2.323 Z1.200 F400
G1 X36.873 Y-2.323 Z1.200 F400
G1 X-3.010 Y-2.323 Z1.200 F400
G1 X-3.153 Y-2.315 Z1.200 F400
G1 X-3.295 Y-2.292 Z1.200 F400
G1 X-3.433 Y-2.254 Z1.200 F400
G1 X-3.566 Y-2.201 Z1.200 F400
G1 X-3.692 Y-2.134 Z1.200 F400
G1 X-3.811 Y-2.053 Z1.200 F400
G1 X-3.920 Y-1.960 Z1.200 F400
G1 X-4.019 Y-1.856 Z1.200 F400
G1 X-4.105 Y-1.742 Z1.200 F400
G1 X-4.179 Y-1.620 Z1.200 F400
G1 X-4.239 Y-1.490 Z1.200 F400
G1 X-4.285 Y-1.354 Z1.200 F400
G1 X-4.316 Y-1.214 Z1.200 F400
G1 X-4.332 Y-1.071 Z1.200 F400
G1 X-4.332 Y-0.928 Z1.200 F400
G1 X-4.316 Y-0.786 Z1.200 F400
G1 X-4.285 Y-0.646 Z1.200 F400
G1 X-4.239 Y-0.510 Z1.200 F400
G1 X-4.179 Y-0.380 Z1.200 F400
G1 X-4.105 Y-0.257 Z1.200 F400
G1 X-4.019 Y-0.143 Z1.200 F400
G1 X-3.920 Y-0.039 Z1.200 F400
G1 X-3.811 Y0.054 Z1.200 F400
G1 X-3.692 Y0.134 Z1.200 F400
G1 X-3.566 Y0.201 Z1.200 F400
G1 X-3.433 Y0.254 Z1.200 F400
G1 X-3.295 Y0.293 Z1.200 F400
G1 X-3.153 Y0.316 Z1.200 F400
G1 X-3.010 Y0.324 Z1.200 F400
G1 X36.873 Y0.324 Z1.200 F400
G1 X37.016 Y0.332 Z1.200 F400
G1 X37.158 Y0.355 Z1.200 F400
G1 X37.296 Y0.393 Z1.200 F400
G1 X37.429 Y0.446 Z1.200 F400
G1 X37.556 Y0.513 Z1.200 F400
G1 X37.674 Y0.594 Z1.200 F400
G1 X37.783 Y0.686 Z1.200 F400
G1 X37.882 Y0.790 Z1.200 F400
G1 X37.969 Y0.905 Z1.200 F400
G1 X38.043 Y1.027 Z1.200 F400
G1 X38.103 Y1.157 Z1.200 F400
G1 X38.148 Y1.293 Z1.200 F400
G1 X38.179 Y1.433 Z1.200 F400
G1 X38.195 Y1.576 Z1.200 F400
G1 X38.195 Y1.719 Z1.200 F400
G1 X38.179 Y1.861 Z1.200 F400
G1 X38.148 Y2.001 Z1.200 F400
G1 X38.103 Y2.137 Z1.200 F400
G1 X38.043 Y2.267 Z1.200 F400
G1 X37.969 Y2.390 Z1.200 F400
G1 X37.882 Y2.504 Z1.200 F400
G1 X37.783 Y2.608 Z1.200 F400
G1 X37.674 Y2.701 Z1.200 F400
G1 X37.556 Y2.781 Z1.200 F400
G1 X37.429 Y2.848 Z1.200 F400
G1 X37.296 Y2.901 Z1.200 F400
G1 X37.158 Y2.940 Z1.200 F400
G1 X37.016 Y2.963 Z1.200 F400
G1 X36.873 Y2.971 Z1.200 F400
G1 X-3.010 Y2.971 Z1.200 F400
G1 X-3.153 Y2.978 Z1.200 F400
G1 X-3.295 Y3.002 Z1.200 F400
G1 X-3.433 Y3.040 Z1.200 F400
G1 X-3.566 Y3.093 Z1.200 F400
G1 X-3.692 Y3.160 Z1.200 F400
G1 X-3.811 Y3.241 Z1.200 F400
G1 X-3.920 Y3.333 Z1.200 F400
G1 X-4.019 Y3.437 Z1.200 F400
G1 X-4.105 Y3.551 Z1.200 F400
G1 X-4.179 Y3.674 Z1.200 F400
G1 X-4.239 Y3.804 Z1.200 F400
G1 X-4.285 Y3.940 Z1.200 F400
G1 X-4.316 Y4.080 Z1.200 F400
G1 X-4.332 Y4.222 Z1.200 F400
G1 X-4.332 Y4.366 Z1.200 F400
G1 X-4.316 Y4.508 Z1.200 F400
G1 X-4.285 Y4.648 Z1.200 F400
G1 X-4.239 Y4.784 Z1.200 F400
G1 X-4.179 Y4.914 Z1.200 F400
G1 X-4.105 Y5.037 Z1.200 F400
G1 X-4.019 Y5.151 Z1.200 F400
G1 X-3.920 Y5.255 Z1.200 F400
G1 X-3.811 Y5.348 Z1.200 F400
G1 X-3.692 Y5.428 Z1.200 F400
G1 X-3.566 Y5.495 Z1.200 F400
G1 X-3.433 Y5.548 Z1.200 F400
G1 X-3.295 Y5.587 Z1.200 F400
G1 X-3.153 Y5.610 Z1.200 F400
G1 X-3.010 Y5.618 Z1.200 F400
G1 X36.873 Y5.618 Z1.200 F400
G1 X37.016 Y5.625 Z1.200 F400
G1 X37.158 Y5.648 Z1.200 F400
G1 X37.296 Y5.687 Z1.200 F400
G1 X37.429 Y5.740 Z1.200 F400
G1 X37.556 Y5.807 Z1.200 F400
G1 X37.674 Y5.887 Z1.200 F400
G1 X37.783 Y5.980 Z1.200 F400
G1 X37.882 Y6.084 Z1.200 F400
G1 X37.969 Y6.198 Z1.200 F400
G1 X38.043 Y6.321 Z1.200 F400
G1 X38.103 Y6.451 Z1.200 F400
G1 X38.148 Y6.587 Z1.200 F400
G1 X38.179 Y6.727 Z1.200 F400
G1 X38.195 Y6.869 Z1.200 F400
G1 X38.195 Y7.013 Z1.200 F400
G1 X38.179 Y7.155 Z1.200 F400
G1 X38.148 Y7.295 Z1.200 F400
G1 X38.103 Y7.431 Z1.200 F400
G1 X38.043 Y7.561 Z1.200 F400
G1 X37.969 Y7.684 Z1.200 F400
G1 X37.882 Y7.798 Z1.200 F400
G1 X37.783 Y7.902 Z1.200 F400
G1 X37.674 Y7.995 Z1.200 F400
G1 X37.556 Y8.075 Z1.200 F400
G1 X37.429 Y8.142 Z1.200 F400
G1 X37.296 Y8.195 Z1.200 F400
G1 X37.158 Y8.233 Z1.200 F400
G1 X37.016 Y8.257 Z1.200 F400
G1 X36.873 Y8.264 Z1.200 F400
G1 X-3.010 Y8.264 Z1.200 F400
G1 X-3.153 Y8.272 Z1.200 F400
G1 X-3.295 Y8.295 Z1.200 F400
G1 X-3.433 Y8.334 Z1.200 F400
G1 X-3.566 Y8.387 Z1.200 F400
G1 X-3.692 Y8.454 Z1.200 F400
G1 X-3.811 Y8.534 Z1.200 F400
G1 X-3.920 Y8.627 Z1.200 F400
G1 X-4.019 Y8.731 Z1.200 F400
G1 X-4.105 Y8.845 Z1.200 F400
G1 X-4.179 Y8.968 Z1.200 F400
G1 X-4.239 Y9.098 Z1.200 F400
G1 X-4.285 Y9.234 Z1.200 F400
G1 X-4.316 Y9.374 Z1.200 F400
G1 X-4.332 Y9.516 Z1.200 F400
G1 X-4.332 Y9.660 Z1.200 F400
G1 X-4.316 Y9.802 Z1.200 F400
G1 X-4.285 Y9.942 Z1.200 F400
G1 X-4.239 Y10.078 Z1.200 F400
G1 X-4.179 Y10.208 Z1.200 F400
G1 X-4.105 Y10.331 Z1.200 F400
G1 X-4.019 Y10.445 Z1.200 F400
G1 X-3.920 Y10.549 Z1.200 F400
G1 X-3.811 Y10.641 Z1.200 F400
G1 X-3.692 Y10.722 Z1.200 F400
G1 X-3.566 Y10.789 Z1.200 F400
G1 X-3.433 Y10.842 Z1.200 F400
G1 X-3.295 Y10.880 Z1.200 F400
G1 X-3.153 Y10.904 Z1.200 F400
G1 X-3.010 Y10.911 Z1.200 F400
G1 X36.873 Y10.911 Z1.200 F400
G1 X37.016 Y10.919 Z1.200 F400
G1 X37.158 Y10.942 Z1.200 F400
G1 X37.296 Y10.981 Z1.200 F400
G1 X37.429 Y11.034 Z1.200 F400
G1 X37.556 Y11.101 Z1.200 F400
G1 X37.674 Y11.181 Z1.200 F400
G1 X37.783 Y11.274 Z1.200 F400
G1 X37.882 Y11.378 Z1.200 F400
G1 X37.969 Y11.492 Z1.200 F400
G1 X38.043 Y11.615 Z1.200 F400
G1 X38.103 Y11.745 Z1.200 F400
G1 X38.148 Y11.881 Z1.200 F400
G1 X38.179 Y12.021 Z1.200 F400
G1 X38.195 Y12.163 Z1.200 F400
G1 X38.195 Y12.306 Z1.200 F400
G1 X38.179 Y12.449 Z1.200 F400
G1 X38.148 Y12.589 Z1.200 F400
G1 X38.103 Y12.725 Z1.200 F400
G1 X38.043 Y12.855 Z1.200 F400
G1 X37.969 Y12.977 Z1.200 F400
G1 X37.882 Y13.092 Z1.200 F400
G1 X37.783 Y13.196 Z1.200 F400
G1 X37.674 Y13.288 Z1.200 F400
G1 X37.556 Y13.369 Z1.200 F400
G1 X37.429 Y13.436 Z1.200 F400
G1 X37.296 Y13.489 Z1.200 F400
G1 X37.158 Y13.527 Z1.200 F400
G1 X37.016 Y13.550 Z1.200 F400
G1 X36.873 Y13.558 Z1.200 F400
G1 X-3.010 Y13.558 Z1.200 F400
G1 X-3.153 Y13.566 Z1.200 F400
G1 X-3.295 Y13.589 Z1.200 F400
G1 X-3.433 Y13.627 Z1.200 F400
G1 X-3.566 Y13.680 Z1.200 F400
G1 X-3.692 Y13.748 Z1.200 F400
G1 X-3.811 Y13.828 Z1.200 F400
G1 X-3.920 Y13.921 Z1.200 F400
G1 X-4.019 Y14.025 Z1.200 F400
G1 X-4.105 Y14.139 Z1.200 F400
G1 X-4.179 Y14.262 Z1.200 F400
G1 X-4.239 Y14.392 Z1.200 F400
G1 X-4.285 Y14.528 Z1.200 F400
G1 X-4.316 Y14.668 Z1.200 F400
G1 X-4.331 Y14.810 Z1.200 F400
G1 X-4.331 Y14.953 Z1.200 F400
G1 X-4.316 Y15.096 Z1.200 F400
G1 X-4.285 Y15.236 Z1.200 F400
G1 X-4.239 Y15.371 Z1.200 F400
G1 X-4.179 Y15.502 Z1.200 F400
G1 X-4.105 Y15.624 Z1.200 F400
G1 X-4.019 Y15.738 Z1.200 F400
G1 X-3.920 Y15.842 Z1.200 F400
G1 X-3.811 Y15.935 Z1.200 F400
G1 X-3.692 Y16.016 Z1.200 F400
G1 X-3.566 Y16.083 Z1.200 F400
G1 X-3.433 Y16.136 Z1.200 F400
G1 X-3.295 Y16.174 Z1.200 F400
G1 X-3.153 Y16.197 Z1.200 F400
G1 X-3.010 Y16.205 Z1.200 F400
G1 X36.873 Y16.205 Z1.200 F400
G1 X36.967 Y16.205 Z1.207 F3000
G1 X37.059 Y16.205 Z1.229 F3000
G1 X37.146 Y16.205 Z1.265 F3000
G1 X37.226 Y16.205 Z1.315 F3000
G1 X37.298 Y16.205 Z1.376 F3000
G1 X37.359 Y16.205 Z1.447 F3000
G1 X37.408 Y16.205 Z1.528 F3000
G1 X37.444 Y16.205 Z1.615 F3000
G1 X37.466 Y16.205 Z1.706 F3000
G1 X37.473 Y16.205 Z1.800 F3000
G1 X37.473 Y16.205 Z6.588 F400
G1 X37.746 Y-2.323 Z6.588 F400
G1 X37.746 Y-2.323 Z1.500 F150
G1 X37.739 Y-2.323 Z1.406 F400
G1 X37.717 Y-2.323 Z1.315 F400
G1 X37.681 Y-2.323 Z1.228 F400
G1 X37.632 Y-2.323 Z1.147 F400
G1 X37.571 Y-2.323 Z1.076 F400
G1 X37.499 Y-2.323 Z1.015 F400
G1 X37.419 Y-2.323 Z0.965 F400
G1 X37.332 Y-2.323 Z0.929 F400
G1 X37.240 Y-2.323 Z0.907 F400
G1 X37.146 Y-2.323 Z0.900 F400
G1 X36.873 Y-2.323 Z0.900 F400
G1 X-3.010 Y-2.323 Z0.900 F400
G1 X-3.153 Y-2.315 Z0.900 F400
G1 X-3.295 Y-2.292 Z0.900 F400
G1 X-3.433 Y-2.254 Z0.900 F400
G1 X-3.566 Y-2.201 Z0.900 F400
G1 X-3.692 Y-2.134 Z0.900 F400
G1 X-3.811 Y-2.053 Z0.900 F400
G1 X-3.920 Y-1.960 Z0.900 F400
G1 X-4.019 Y-1.856 Z0.900 F400
G1 X-4.105 Y-1.742 Z0.900 F400
G1 X-4.179 Y-1.620 Z0.900 F400
G1 X-4.239 Y-1.490 Z0.900 F400
G1 X-4.285 Y-1.354 Z0.900 F400
G1 X-4.316 Y-1.214 Z0.900 F400
G1 X-4.332 Y-1.071 Z0.900 F400
G1 X-4.332 Y-0.928 Z0.900 F400
G1 X-4.316 Y-0.786 Z0.900 F400
G1 X-4.285 Y-0.646 Z0.900 F400
G1 X-4.239 Y-0.510 Z0.900 F400
G1 X-4.179 Y-0.380 Z0.900 F400
G1 X-4.105 Y-0.257 Z0.900 F400
G1 X-4.019 Y-0.143 Z0.900 F400
G1 X-3.920 Y-0.039 Z0.900 F400
G1 X-3.811 Y0.054 Z0.900 F400
G1 X-3.692 Y0.134 Z0.900 F400
G1 X-3.566 Y0.201 Z0.900 F400
G1 X-3.433 Y0.254 Z0.900 F400
G1 X-3.295 Y0.293 Z0.900 F400
G1 X-3.153 Y0.316 Z0.900 F400
G1 X-3.010 Y0.324 Z0.900 F400
G1 X36.873 Y0.324 Z0.900 F400
G1 X37.016 Y0.332 Z0.900 F400
G1 X37.158 Y0.355 Z0.900 F400
G1 X37.296 Y0.393 Z0.900 F400
G1 X37.429 Y0.446 Z0.900 F400
G1 X37.556 Y0.513 Z0.900 F400
G1 X37.674 Y0.594 Z0.900 F400
G1 X37.783 Y0.686 Z0.900 F400
G1 X37.882 Y0.790 Z0.900 F400
G1 X37.969 Y0.905 Z0.900 F400
G1 X38.043 Y1.027 Z0.900 F400
G1 X38.103 Y1.157 Z0.900 F400
G1 X38.148 Y1.293 Z0.900 F400
G1 X38.179 Y1.433 Z0.900 F400
G1 X38.195 Y1.576 Z0.900 F400
G1 X38.195 Y1.719 Z0.900 F400
G1 X38.179 Y1.861 Z0.900 F400
G1 X38.148 Y2.001 Z0.900 F400
G1 X38.103 Y2.137 Z0.900 F400
G1 X38.043 Y2.267 Z0.900 F400
G1 X37.969 Y2.390 Z0.900 F400
G1 X37.882 Y2.504 Z0.900 F400
G1 X37.783 Y2.608 Z0.900 F400
G1 X37.674 Y2.701 Z0.900 F400
G1 X37.556 Y2.781 Z0.900 F400
G1 X37.429 Y2.848 Z0.900 F400
G1 X37.296 Y2.901 Z0.900 F400
G1 X37.158 Y2.940 Z0.900 F400
G1 X37.016 Y2.963 Z0.900 F400
G1 X36.873 Y2.971 Z0.900 F400
G1 X-3.010 Y2.971 Z0.900 F400
G1 X-3.153 Y2.978 Z0.900 F400
G1 X-3.295 Y3.002 Z0.900 F400
G1 X-3.433 Y3.040 Z0.900 F400
G1 X-3.566 Y3.093 Z0.900 F400
G1 X-3.692 Y3.160 Z0.900 F400
G1 X-3.811 Y3.241 Z0.900 F400
G1 X-3.920 Y3.333 Z0.900 F400
G1 X-4.019 Y3.437 Z0.900 F400
G1 X-4.105 Y3.551 Z0.900 F400
G1 X-4.179 Y3.674 Z0.900 F400
G1 X-4.239 Y3.804 Z0.900 F400
G1 X-4.285 Y3.940 Z0.900 F400
G1 X-4.316 Y4.080 Z0.900 F400
G1 X-4.332 Y4.222 Z0.900 F400
G1 X-4.332 Y4.366 Z0.900 F400
G1 X-4.316 Y4.508 Z0.900 F400
G1 X-4.285 Y4.648 Z0.900 F400
G1 X-4.239 Y4.784 Z0.900 F400
G1 X-4.179 Y4.914 Z0.900 F400
G1 X-4.105 Y5.037 Z0.900 F400
G1 X-4.019 Y5.151 Z0.900 F400
G1 X-3.920 Y5.255 Z0.900 F400
G1 X-3.811 Y5.348 Z0.900 F400
G1 X-3.692 Y5.428 Z0.900 F400
G1 X-3.566 Y5.495 Z0.900 F400
G1 X-3.433 Y5.548 Z0.900 F400
G1 X-3.295 Y5.587 Z0.900 F400
G1 X-3.153 Y5.610 Z0.900 F400
G1 X-3.010 Y5.618 Z0.900 F400
G1 X36.873 Y5.618 Z0.900 F400
G1 X37.016 Y5.625 Z0.900 F400
G1 X37.158 Y5.648 Z0.900 F400
G1 X37.296 Y5.687 Z0.900 F400
G1 X37.429 Y5.740 Z0.900 F400
G1 X37.556 Y5.807 Z0.900 F400
G1 X37.674 Y5.887 Z0.900 F400
G1 X37.783 Y5.980 Z0.900 F400
G1 X37.882 Y6.084 Z0.900 F400
G1 X37.969 Y6.198 Z0.900 F400
G1 X38.043 Y6.321 Z0.900 F400
G1 X38.103 Y6.451 Z0.900 F400
G1 X38.148 Y6.587 Z0.900 F400
G1 X38.179 Y6.727 Z0.900 F400
G1 X38.195 Y6.869 Z0.900 F400
G1 X38.195 Y7.013 Z0.900 F400
G1 X38.179 Y7.155 Z0.900 F400
G1 X38.148 Y7.295 Z0.900 F400
G1 X38.103 Y7.431 Z0.900 F400
G1 X38.043 Y7.561 Z0.900 F400
G1 X37.969 Y7.684 Z0.900 F400
G1 X37.882 Y7.798 Z0.900 F400
G1 X37.783 Y7.902 Z0.900 F400
G1 X37.674 Y7.995 Z0.900 F400
G1 X37.556 Y8.075 Z0.900 F400
G1 X37.429 Y8.142 Z0.900 F400
G1 X37.296 Y8.195 Z0.900 F400
G1 X37.158 Y8.233 Z0.900 F400
G1 X37.016 Y8.257 Z0.900 F400
G1 X36.873 Y8.264 Z0.900 F400
G1 X-3.010 Y8.264 Z0.900 F400
G1 X-3.153 Y8.272 Z0.900 F400
G1 X-3.295 Y8.295 Z0.900 F400
G1 X-3.433 Y8.334 Z0.900 F400
G1 X-3.566 Y8.387 Z0.900 F400
G1 X-3.692 Y8.454 Z0.900 F400
G1 X-3.811 Y8.534 Z0.900 F400
G1 X-3.920 Y8.627 Z0.900 F400
G1 X-4.019 Y8.731 Z0.900 F400
G1 X-4.105 Y8.845 Z0.900 F400
G1 X-4.179 Y8.968 Z0.900 F400
G1 X-4.239 Y9.098 Z0.900 F400
G1 X-4.285 Y9.234 Z0.900 F400
G1 X-4.316 Y9.374 Z0.900 F400
G1 X-4.332 Y9.516 Z0.900 F400
G1 X-4.332 Y9.660 Z0.900 F400
G1 X-4.316 Y9.802 Z0.900 F400
G1 X-4.285 Y9.942 Z0.900 F400
G1 X-4.239 Y10.078 Z0.900 F400
G1 X-4.179 Y10.208 Z0.900 F400
G1 X-4.105 Y10.331 Z0.900 F400
G1 X-4.019 Y10.445 Z0.900 F400
G1 X-3.920 Y10.549 Z0.900 F400
G1 X-3.811 Y10.641 Z0.900 F400
G1 X-3.692 Y10.722 Z0.900 F400
G1 X-3.566 Y10.789 Z0.900 F400
G1 X-3.433 Y10.842 Z0.900 F400
G1 X-3.295 Y10.880 Z0.900 F400
G1 X-3.153 Y10.904 Z0.900 F400
G1 X-3.010 Y10.911 Z0.900 F400
G1 X36.873 Y10.911 Z0.900 F400
G1 X37.016 Y10.919 Z0.900 F400
G1 X37.158 Y10.942 Z0.900 F400
G1 X37.296 Y10.981 Z0.900 F400
G1 X37.429 Y11.034 Z0.900 F400
G1 X37.556 Y11.101 Z0.900 F400
G1 X37.674 Y11.181 Z0.900 F400
G1 X37.783 Y11.274 Z0.900 F400
G1 X37.882 Y11.378 Z0.900 F400
G1 X37.969 Y11.492 Z0.900 F400
G1 X38.043 Y11.615 Z0.900 F400
G1 X38.103 Y11.745 Z0.900 F400
G1 X38.148 Y11.881 Z0.900 F400
G1 X38.179 Y12.021 Z0.900 F400
G1 X38.195 Y12.163 Z0.900 F400
G1 X38.195 Y12.306 Z0.900 F400
G1 X38.179 Y12.449 Z0.900 F400
G1 X38.148 Y12.589 Z0.900 F400
G1 X38.103 Y12.725 Z0.900 F400
G1 X38.043 Y12.855 Z0.900 F400
G1 X37.969 Y12.977 Z0.900 F400
G1 X37.882 Y13.092 Z0.900 F400
G1 X37.783 Y13.196 Z0.900 F400
G1 X37.674 Y13.288 Z0.900 F400
G1 X37.556 Y13.369 Z0.900 F400
G1 X37.429 Y13.436 Z0.900 F400
G1 X37.296 Y13.489 Z0.900 F400
G1 X37.158 Y13.527 Z0.900 F400
G1 X37.016 Y13.550 Z0.900 F400
G1 X36.873 Y13.558 Z0.900 F400
G1 X-3.010 Y13.558 Z0.900 F400
G1 X-3.153 Y13.566 Z0.900 F400
G1 X-3.295 Y13.589 Z0.900 F400
G1 X-3.433 Y13.627 Z0.900 F400
G1 X-3.566 Y13.680 Z0.900 F400
G1 X-3.692 Y13.748 Z0.900 F400
G1 X-3.811 Y13.828 Z0.900 F400
G1 X-3.920 Y13.921 Z0.900 F400
G1 X-4.019 Y14.025 Z0.900 F400
G1 X-4.105 Y14.139 Z0.900 F400
G1 X-4.179 Y14.262 Z0.900 F400
G1 X-4.239 Y14.392 Z0.900 F400
G1 X-4.285 Y14.528 Z0.900 F400
G1 X-4.316 Y14.668 Z0.900 F400
G1 X-4.331 Y14.810 Z0.900 F400
G1 X-4.331 Y14.953 Z0.900 F400
G1 X-4.316 Y15.096 Z0.900 F400
G1 X-4.285 Y15.236 Z0.900 F400
G1 X-4.239 Y15.371 Z0.900 F400
G1 X-4.179 Y15.502 Z0.900 F400
G1 X-4.105 Y15.624 Z0.900 F400
G1 X-4.019 Y15.738 Z0.900 F400
G1 X-3.920 Y15.842 Z0.900 F400
G1 X-3.811 Y15.935 Z0.900 F400
G1 X-3.692 Y16.016 Z0.900 F400
G1 X-3.566 Y16.083 Z0.900 F400
G1 X-3.433 Y16.136 Z0.900 F400
G1 X-3.295 Y16.174 Z0.900 F400
G1 X-3.153 Y16.197 Z0.900 F400
G1 X-3.010 Y16.205 Z0.900 F400
G1 X36.873 Y16.205 Z0.900 F400
G1 X36.967 Y16.205 Z0.907 F3000
G1 X37.059 Y16.205 Z0.929 F3000
G1 X37.146 Y16.205 Z0.965 F3000
G1 X37.226 Y16.205 Z1.015 F3000
G1 X37.298 Y16.205 Z1.076 F3000
G1 X37.359 Y16.205 Z1.147 F3000
G1 X37.408 Y16.205 Z1.228 F3000
G1 X37.444 Y16.205 Z1.315 F3000
G1 X37.466 Y16.205 Z1.406 F3000
G1 X37.473 Y16.205 Z1.500 F3000
G1 X37.473 Y16.205 Z6.588 F400
G1 X37.746 Y-2.323 Z6.588 F400
G1 X37.746 Y-2.323 Z1.200 F150
G1 X37.739 Y-2.323 Z1.106 F400
G1 X37.717 Y-2.323 Z1.015 F400
G1 X37.681 Y-2.323 Z0.928 F400
G1 X37.632 Y-2.323 Z0.847 F400
G1 X37.571 Y-2.323 Z0.776 F400
G1 X37.499 Y-2.323 Z0.715 F400
G1 X37.419 Y-2.323 Z0.665 F400
G1 X37.332 Y-2.323 Z0.629 F400
G1 X37.240 Y-2.323 Z0.607 F400
G1 X37.146 Y-2.323 Z0.600 F400
G1 X36.873 Y-2.323 Z0.600 F400
G1 X-3.010 Y-2.323 Z0.600 F400
G1 X-3.153 Y-2.315 Z0.600 F400
G1 X-3.295 Y-2.292 Z0.600 F400
G1 X-3.433 Y-2.254 Z0.600 F400
G1 X-3.566 Y-2.201 Z0.600 F400
G1 X-3.692 Y-2.134 Z0.600 F400
G1 X-3.811 Y-2.053 Z0.600 F400
G1 X-3.920 Y-1.960 Z0.600 F400
G1 X-4.019 Y-1.856 Z0.600 F400
G1 X-4.105 Y-1.742 Z0.600 F400
G1 X-4.179 Y-1.620 Z0.600 F400
G1 X-4.239 Y-1.490 Z0.600 F400
G1 X-4.285 Y-1.354 Z0.600 F400
G1 X-4.316 Y-1.214 Z0.600 F400
G1 X-4.332 Y-1.071 Z0.600 F400
G1 X-4.332 Y-0.928 Z0.600 F400
G1 X-4.316 Y-0.786 Z0.600 F400
G1 X-4.285 Y-0.646 Z0.600 F400
G1 X-4.239 Y-0.510 Z0.600 F400
G1 X-4.179 Y-0.380 Z0.600 F400
G1 X-4.105 Y-0.257 Z0.600 F400
G1 X-4.019 Y-0.143 Z0.600 F400
G1 X-3.920 Y-0.039 Z0.600 F400
G1 X-3.811 Y0.054 Z0.600 F400
G1 X-3.692 Y0.134 Z0.600 F400
G1 X-3.566 Y0.201 Z0.600 F400
G1 X-3.433 Y0.254 Z0.600 F400
G1 X-3.295 Y0.293 Z0.600 F400
G1 X-3.153 Y0.316 Z0.600 F400
G1 X-3.010 Y0.324 Z0.600 F400
G1 X36.873 Y0.324 Z0.600 F400
G1 X37.016 Y0.332 Z0.600 F400
G1 X37.158 Y0.355 Z0.600 F400
G1 X37.296 Y0.393 Z0.600 F400
G1 X37.429 Y0.446 Z0.600 F400
G1 X37.556 Y0.513 Z0.600 F400
G1 X37.674 Y0.594 Z0.600 F400
G1 X37.783 Y0.686 Z0.600 F400
G1 X37.882 Y0.790 Z0.600 F400
G1 X37.969 Y0.905 Z0.600 F400
G1 X38.043 Y1.027 Z0.600 F400
G1 X38.103 Y1.157 Z0.600 F400
G1 X38.148 Y1.293 Z0.600 F400
G1 X38.179 Y1.433 Z0.600 F400
G1 X38.195 Y1.576 Z0.600 F400
G1 X38.195 Y1.719 Z0.600 F400
G1 X38.179 Y1.861 Z0.600 F400
G1 X38.148 Y2.001 Z0.600 F400
G1 X38.103 Y2.137 Z0.600 F400
G1 X38.043 Y2.267 Z0.600 F400
G1 X37.969 Y2.390 Z0.600 F400
G1 X37.882 Y2.504 Z0.600 F400
G1 X37.783 Y2.608 Z0.600 F400
G1 X37.674 Y2.701 Z0.600 F400
G1 X37.556 Y2.781 Z0.600 F400
G1 X37.429 Y2.848 Z0.600 F400
G1 X37.296 Y2.901 Z0.600 F400
G1 X37.158 Y2.940 Z0.600 F400
G1 X37.016 Y2.963 Z0.600 F400
G1 X36.873 Y2.971 Z0.600 F400
G1 X-3.010 Y2.971 Z0.600 F400
G1 X-3.153 Y2.978 Z0.600 F400
G1 X-3.295 Y3.002 Z0.600 F400
G1 X-3.433 Y3.040 Z0.600 F400
G1 X-3.566 Y3.093 Z0.600 F400
G1 X-3.692 Y3.160 Z0.600 F400
G1 X-3.811 Y3.241 Z0.600 F400
G1 X-3.920 Y3.333 Z0.600 F400
G1 X-4.019 Y3.437 Z0.600 F400
G1 X-4.105 Y3.551 Z0.600 F400
G1 X-4.179 Y3.674 Z0.600 F400
G1 X-4.239 Y3.804 Z0.600 F400
G1 X-4.285 Y3.940 Z0.600 F400
G1 X-4.316 Y4.080 Z0.600 F400
G1 X-4.332 Y4.222 Z0.600 F400
G1 X-4.332 Y4.366 Z0.600 F400
G1 X-4.316 Y4.508 Z0.600 F400
G1 X-4.285 Y4.648 Z0.600 F400
G1 X-4.239 Y4.784 Z0.600 F400
G1 X-4.179 Y4.914 Z0.600 F400
G1 X-4.105 Y5.037 Z0.600 F400
G1 X-4.019 Y5.151 Z0.600 F400
G1 X-3.920 Y5.255 Z0.600 F400
G1 X-3.811 Y5.348 Z0.600 F400
G1 X-3.692 Y5.428 Z0.600 F400
G1 X-3.566 Y5.495 Z0.600 F400
G1 X-3.433 Y5.548 Z0.600 F400
G1 X-3.295 Y5.587 Z0.600 F400
G1 X-3.153 Y5.610 Z0.600 F400
G1 X-3.010 Y5.618 Z0.600 F400
G1 X36.873 Y5.618 Z0.600 F400
G1 X37.016 Y5.625 Z0.600 F400
G1 X37.158 Y5.648 Z0.600 F400
G1 X37.296 Y5.687 Z0.600 F400
G1 X37.429 Y5.740 Z0.600 F400
G1 X37.556 Y5.807 Z0.600 F400
G1 X37.674 Y5.887 Z0.600 F400
G1 X37.783 Y5.980 Z0.600 F400
G1 X37.882 Y6.084 Z0.600 F400
G1 X37.969 Y6.198 Z0.600 F400
G1 X38.043 Y6.321 Z0.600 F400
G1 X38.103 Y6.451 Z0.600 F400
G1 X38.148 Y6.587 Z0.600 F400
G1 X38.179 Y6.727 Z0.600 F400
G1 X38.195 Y6.869 Z0.600 F400
G1 X38.195 Y7.013 Z0.600 F400
G1 X38.179 Y7.155 Z0.600 F400
G1 X38.148 Y7.295 Z0.600 F400
G1 X38.103 Y7.431 Z0.600 F400
G1 X38.043 Y7.561 Z0.600 F400
G1 X37.969 Y7.684 Z0.600 F400
G1 X37.882 Y7.798 Z0.600 F400
G1 X37.783 Y7.902 Z0.600 F400
G1 X37.674 Y7.995 Z0.600 F400
G1 X37.556 Y8.075 Z0.600 F400
G1 X37.429 Y8.142 Z0.600 F400
G1 X37.296 Y8.195 Z0.600 F400
G1 X37.158 Y8.233 Z0.600 F400
G1 X37.016 Y8.257 Z0.600 F400
G1 X36.873 Y8.264 Z0.600 F400
G1 X-3.010 Y8.264 Z0.600 F400
G1 X-3.153 Y8.272 Z0.600 F400
G1 X-3.295 Y8.295 Z0.600 F400
G1 X-3.433 Y8.334 Z0.600 F400
G1 X-3.566 Y8.387 Z0.600 F400
G1 X-3.692 Y8.454 Z0.600 F400
G1 X-3.811 Y8.534 Z0.600 F400
G1 X-3.920 Y8.627 Z0.600 F400
G1 X-4.019 Y8.731 Z0.600 F400
G1 X-4.105 Y8.845 Z0.600 F400
G1 X-4.179 Y8.968 Z0.600 F400
G1 X-4.239 Y9.098 Z0.600 F400
G1 X-4.285 Y9.234 Z0.600 F400
G1 X-4.316 Y9.374 Z0.600 F400
G1 X-4.332 Y9.516 Z0.600 F400
G1 X-4.332 Y9.660 Z0.600 F400
G1 X-4.316 Y9.802 Z0.600 F400
G1 X-4.285 Y9.942 Z0.600 F400
G1 X-4.239 Y10.078 Z0.600 F400
G1 X-4.179 Y10.208 Z0.600 F400
G1 X-4.105 Y10.331 Z0.600 F400
G1 X-4.019 Y10.445 Z0.600 F400
G1 X-3.920 Y10.549 Z0.600 F400
G1 X-3.811 Y10.641 Z0.600 F400
G1 X-3.692 Y10.722 Z0.600 F400
G1 X-3.566 Y10.789 Z0.600 F400
G1 X-3.433 Y10.842 Z0.600 F400
G1 X-3.295 Y10.880 Z0.600 F400
G1 X-3.153 Y10.904 Z0.600 F400
G1 X-3.010 Y10.911 Z0.600 F400
G1 X36.873 Y10.911 Z0.600 F400
G1 X37.016 Y10.919 Z0.600 F400
G1 X37.158 Y10.942 Z0.600 F400
G1 X37.296 Y10.981 Z0.600 F400
G1 X37.429 Y11.034 Z0.600 F400
G1 X37.556 Y11.101 Z0.600 F400
G1 X37.674 Y11.181 Z0.600 F400
G1 X37.783 Y11.274 Z0.600 F400
G1 X37.882 Y11.378 Z0.600 F400
G1 X37.969 Y11.492 Z0.600 F400
G1 X38.043 Y11.615 Z0.600 F400
G1 X38.103 Y11.745 Z0.600 F400
G1 X38.148 Y11.881 Z0.600 F400
G1 X38.179 Y12.021 Z0.600 F400
G1 X38.195 Y12.163 Z0.600 F400
G1 X38.195 Y12.306 Z0.600 F400
G1 X38.179 Y12.449 Z0.600 F400
G1 X38.148 Y12.589 Z0.600 F400
G1 X38.103 Y12.725 Z0.600 F400
G1 X38.043 Y12.855 Z0.600 F400
G1 X37.969 Y12.977 Z0.600 F400
G1 X37.882 Y13.092 Z0.600 F400
G1 X37.783 Y13.196 Z0.600 F400
G1 X37.674 Y13.288 Z0.600 F400
G1 X37.556 Y13.369 Z0.600 F400
G1 X37.429 Y13.436 Z0.600 F400
G1 X37.296 Y13.489 Z0.600 F400
G1 X37.158 Y13.527 Z0.600 F400
G1 X37.016 Y13.550 Z0.600 F400
G1 X36.873 Y13.558 Z0.600 F400
G1 X-3.010 Y13.558 Z0.600 F400
G1 X-3.153 Y13.566 Z0.600 F400
G1 X-3.295 Y13.589 Z0.600 F400
G1 X-3.433 Y13.627 Z0.600 F400
G1 X-3.566 Y13.680 Z0.600 F400
G1 X-3.692 Y13.748 Z0.600 F400
G1 X-3.811 Y13.828 Z0.600 F400
G1 X-3.920 Y13.921 Z0.600 F400
G1 X-4.019 Y14.025 Z0.600 F400
G1 X-4.105 Y14.139 Z0.600 F400
G1 X-4.179 Y14.262 Z0.600 F400
G1 X-4.239 Y14.392 Z0.600 F400
G1 X-4.285 Y14.528 Z0.600 F400
G1 X-4.316 Y14.668 Z0.600 F400
G1 X-4.331 Y14.810 Z0.600 F400
G1 X-4.331 Y14.953 Z0.600 F400
G1 X-4.316 Y15.096 Z0.600 F400
G1 X-4.285 Y15.236 Z0.600 F400
G1 X-4.239 Y15.371 Z0.600 F400
G1 X-4.179 Y15.502 Z0.600 F400
G1 X-4.105 Y15.624 Z0.600 F400
G1 X-4.019 Y15.738 Z0.600 F400
G1 X-3.920 Y15.842 Z0.600 F400
G1 X-3.811 Y15.935 Z0.600 F400
G1 X-3.692 Y16.016 Z0.600 F400
G1 X-3.566 Y16.083 Z0.600 F400
G1 X-3.433 Y16.136 Z0.600 F400
G1 X-3.295 Y16.174 Z0.600 F400
G1 X-3.153 Y16.197 Z0.600 F400
G1 X-3.010 Y16.205 Z0.600 F400
G1 X36.873 Y16.205 Z0.600 F400
G1 X36.967 Y16.205 Z0.607 F3000
G1 X37.059 Y16.205 Z0.629 F3000
G1 X37.146 Y16.205 Z0.665 F3000
G1 X37.226 Y16.205 Z0.715 F3000
G1 X37.298 Y16.205 Z0.776 F3000
G1 X37.359 Y16.205 Z0.847 F3000
G1 X37.408 Y16.205 Z0.928 F3000
G1 X37.444 Y16.205 Z1.015 F3000
G1 X37.466 Y16.205 Z1.106 F3000
G1 X37.473 Y16.205 Z1.200 F3000
G1 X37.473 Y16.205 Z6.588 F400
G1 X37.746 Y-2.323 Z6.588 F400
G1 X37.746 Y-2.323 Z0.900 F150
G1 X37.739 Y-2.323 Z0.806 F400
G1 X37.717 Y-2.323 Z0.715 F400
G1 X37.681 Y-2.323 Z0.628 F400
G1 X37.632 Y-2.323 Z0.547 F400
G1 X37.571 Y-2.323 Z0.476 F400
G1 X37.499 Y-2.323 Z0.415 F400
G1 X37.419 Y-2.323 Z0.365 F400
G1 X37.332 Y-2.323 Z0.329 F400
G1 X37.240 Y-2.323 Z0.307 F400
G1 X37.146 Y-2.323 Z0.300 F400
G1 X36.873 Y-2.323 Z0.300 F400
G1 X-3.010 Y-2.323 Z0.300 F400
G1 X-3.153 Y-2.315 Z0.300 F400
G1 X-3.295 Y-2.292 Z0.300 F400
G1 X-3.433 Y-2.254 Z0.300 F400
G1 X-3.566 Y-2.201 Z0.300 F400
G1 X-3.692 Y-2.134 Z0.300 F400
G1 X-3.811 Y-2.053 Z0.300 F400
G1 X-3.920 Y-1.960 Z0.300 F400
G1 X-4.019 Y-1.856 Z0.300 F400
G1 X-4.105 Y-1.742 Z0.300 F400
G1 X-4.179 Y-1.620 Z0.300 F400
G1 X-4.239 Y-1.490 Z0.300 F400
G1 X-4.285 Y-1.354 Z0.300 F400
G1 X-4.316 Y-1.214 Z0.300 F400
G1 X-4.332 Y-1.071 Z0.300 F400
G1 X-4.332 Y-0.928 Z0.300 F400
G1 X-4.316 Y-0.786 Z0.300 F400
G1 X-4.285 Y-0.646 Z0.300 F400
G1 X-4.239 Y-0.510 Z0.300 F400
G1 X-4.179 Y-0.380 Z0.300 F400
G1 X-4.105 Y-0.257 Z0.300 F400
G1 X-4.019 Y-0.143 Z0.300 F400
G1 X-3.920 Y-0.039 Z0.300 F400
G1 X-3.811 Y0.054 Z0.300 F400
G1 X-3.692 Y0.134 Z0.300 F400
G1 X-3.566 Y0.201 Z0.300 F400
G1 X-3.433 Y0.254 Z0.300 F400
G1 X-3.295 Y0.293 Z0.300 F400
G1 X-3.153 Y0.316 Z0.300 F400
G1 X-3.010 Y0.324 Z0.300 F400
G1 X36.873 Y0.324 Z0.300 F400
G1 X37.016 Y0.332 Z0.300 F400
G1 X37.158 Y0.355 Z0.300 F400
G1 X37.296 Y0.393 Z0.300 F400
G1 X37.429 Y0.446 Z0.300 F400
G1 X37.556 Y0.513 Z0.300 F400
G1 X37.674 Y0.594 Z0.300 F400
G1 X37.783 Y0.686 Z0.300 F400
G1 X37.882 Y0.790 Z0.300 F400
G1 X37.969 Y0.905 Z0.300 F400
G1 X38.043 Y1.027 Z0.300 F400
G1 X38.103 Y1.157 Z0.300 F400
G1 X38.148 Y1.293 Z0.300 F400
G1 X38.179 Y1.433 Z0.300 F400
G1 X38.195 Y1.576 Z0.300 F400
G1 X38.195 Y1.719 Z0.300 F400
G1 X38.179 Y1.861 Z0.300 F400
G1 X38.148 Y2.001 Z0.300 F400
G1 X38.103 Y2.137 Z0.300 F400
G1 X38.043 Y2.267 Z0.300 F400
G1 X37.969 Y2.390 Z0.300 F400
G1 X37.882 Y2.504 Z0.300 F400
G1 X37.783 Y2.608 Z0.300 F400
G1 X37.674 Y2.701 Z0.300 F400
G1 X37.556 Y2.781 Z0.300 F400
G1 X37.429 Y2.848 Z0.300 F400
G1 X37.296 Y2.901 Z0.300 F400
G1 X37.158 Y2.940 Z0.300 F400
G1 X37.016 Y2.963 Z0.300 F400
G1 X36.873 Y2.971 Z0.300 F400
G1 X-3.010 Y2.971 Z0.300 F400
G1 X-3.153 Y2.978 Z0.300 F400
G1 X-3.295 Y3.002 Z0.300 F400
G1 X-3.433 Y3.040 Z0.300 F400
G1 X-3.566 Y3.093 Z0.300 F400
G1 X-3.692 Y3.160 Z0.300 F400
G1 X-3.811 Y3.241 Z0.300 F400
G1 X-3.920 Y3.333 Z0.300 F400
G1 X-4.019 Y3.437 Z0.300 F400
G1 X-4.105 Y3.551 Z0.300 F400
G1 X-4.179 Y3.674 Z0.300 F400
G1 X-4.239 Y3.804 Z0.300 F400
G1 X-4.285 Y3.940 Z0.300 F400
G1 X-4.316 Y4.080 Z0.300 F400
G1 X-4.332 Y4.222 Z0.300 F400
G1 X-4.332 Y4.366 Z0.300 F400
G1 X-4.316 Y4.508 Z0.300 F400
G1 X-4.285 Y4.648 Z0.300 F400
G1 X-4.239 Y4.784 Z0.300 F400
G1 X-4.179 Y4.914 Z0.300 F400
G1 X-4.105 Y5.037 Z0.300 F400
G1 X-4.019 Y5.151 Z0.300 F400
G1 X-3.920 Y5.255 Z0.300 F400
G1 X-3.811 Y5.348 Z0.300 F400
G1 X-3.692 Y5.428 Z0.300 F400
G1 X-3.566 Y5.495 Z0.300 F400
G1 X-3.433 Y5.548 Z0.300 F400
G1 X-3.295 Y5.587 Z0.300 F400
G1 X-3.153 Y5.610 Z0.300 F400
G1 X-3.010 Y5.618 Z0.300 F400
G1 X36.873 Y5.618 Z0.300 F400
G1 X37.016 Y5.625 Z0.300 F400
G1 X37.158 Y5.648 Z0.300 F400
G1 X37.296 Y5.687 Z0.300 F400
G1 X37.429 Y5.740 Z0.300 F400
G1 X37.556 Y5.807 Z0.300 F400
G1 X37.674 Y5.887 Z0.300 F400
G1 X37.783 Y5.980 Z0.300 F400
G1 X37.882 Y6.084 Z0.300 F400
G1 X37.969 Y6.198 Z0.300 F400
G1 X38.043 Y6.321 Z0.300 F400
G1 X38.103 Y6.451 Z0.300 F400
G1 X38.148 Y6.587 Z0.300 F400
G1 X38.179 Y6.727 Z0.300 F400
G1 X38.195 Y6.869 Z0.300 F400
G1 X38.195 Y7.013 Z0.300 F400
G1 X38.179 Y7.155 Z0.300 F400
G1 X38.148 Y7.295 Z0.300 F400
G1 X38.103 Y7.431 Z0.300 F400
G1 X38.043 Y7.561 Z0.300 F400
G1 X37.969 Y7.684 Z0.300 F400
G1 X37.882 Y7.798 Z0.300 F400
G1 X37.783 Y7.902 Z0.300 F400
G1 X37.674 Y7.995 Z0.300 F400
G1 X37.556 Y8.075 Z0.300 F400
G1 X37.429 Y8.142 Z0.300 F400
G1 X37.296 Y8.195 Z0.300 F400
G1 X37.158 Y8.233 Z0.300 F400
G1 X37.016 Y8.257 Z0.300 F400
G1 X36.873 Y8.264 Z0.300 F400
G1 X-3.010 Y8.264 Z0.300 F400
G1 X-3.153 Y8.272 Z0.300 F400
G1 X-3.295 Y8.295 Z0.300 F400
G1 X-3.433 Y8.334 Z0.300 F400
G1 X-3.566 Y8.387 Z0.300 F400
G1 X-3.692 Y8.454 Z0.300 F400
G1 X-3.811 Y8.534 Z0.300 F400
G1 X-3.920 Y8.627 Z0.300 F400
G1 X-4.019 Y8.731 Z0.300 F400
G1 X-4.105 Y8.845 Z0.300 F400
G1 X-4.179 Y8.968 Z0.300 F400
G1 X-4.239 Y9.098 Z0.300 F400
G1 X-4.285 Y9.234 Z0.300 F400
G1 X-4.316 Y9.374 Z0.300 F400
G1 X-4.332 Y9.516 Z0.300 F400
G1 X-4.332 Y9.660 Z0.300 F400
G1 X-4.316 Y9.802 Z0.300 F400
G1 X-4.285 Y9.942 Z0.300 F400
G1 X-4.239 Y10.078 Z0.300 F400
G1 X-4.179 Y10.208 Z0.300 F400
G1 X-4.105 Y10.331 Z0.300 F400
G1 X-4.019 Y10.445 Z0.300 F400
G1 X-3.920 Y10.549 Z0.300 F400
G1 X-3.811 Y10.641 Z0.300 F400
G1 X-3.692 Y10.722 Z0.300 F400
G1 X-3.566 Y10.789 Z0.300 F400
G1 X-3.433 Y10.842 Z0.300 F400
G1 X-3.295 Y10.880 Z0.300 F400
G1 X-3.153 Y10.904 Z0.300 F400
G1 X-3.010 Y10.911 Z0.300 F400
G1 X36.873 Y10.911 Z0.300 F400
G1 X37.016 Y10.919 Z0.300 F400
G1 X37.158 Y10.942 Z0.300 F400
G1 X37.296 Y10.981 Z0.300 F400
G1 X37.429 Y11.034 Z0.300 F400
G1 X37.556 Y11.101 Z0.300 F400
G1 X37.674 Y11.181 Z0.300 F400
G1 X37.783 Y11.274 Z0.300 F400
G1 X37.882 Y11.378 Z0.300 F400
G1 X37.969 Y11.492 Z0.300 F400
G1 X38.043 Y11.615 Z0.300 F400
G1 X38.103 Y11.745 Z0.300 F400
G1 X38.148 Y11.881 Z0.300 F400
G1 X38.179 Y12.021 Z0.300 F400
G1 X38.195 Y12.163 Z0.300 F400
G1 X38.195 Y12.306 Z0.300 F400
G1 X38.179 Y12.449 Z0.300 F400
G1 X38.148 Y12.589 Z0.300 F400
G1 X38.103 Y12.725 Z0.300 F400
G1 X38.043 Y12.855 Z0.300 F400
G1 X37.969 Y12.977 Z0.300 F400
G1 X37.882 Y13.092 Z0.300 F400
G1 X37.783 Y13.196 Z0.300 F400
G1 X37.674 Y13.288 Z0.300 F400
G1 X37.556 Y13.369 Z0.300 F400
G1 X37.429 Y13.436 Z0.300 F400
G1 X37.296 Y13.489 Z0.300 F400
G1 X37.158 Y13.527 Z0.300 F400
G1 X37.016 Y13.550 Z0.300 F400
G1 X36.873 Y13.558 Z0.300 F400
G1 X-3.010 Y13.558 Z0.300 F400
G1 X-3.153 Y13.566 Z0.300 F400
G1 X-3.295 Y13.589 Z0.300 F400
G1 X-3.433 Y13.627 Z0.300 F400
G1 X-3.566 Y13.680 Z0.300 F400
G1 X-3.692 Y13.748 Z0.300 F400
G1 X-3.811 Y13.828 Z0.300 F400
G1 X-3.920 Y13.921 Z0.300 F400
G1 X-4.019 Y14.025 Z0.300 F400
G1 X-4.105 Y14.139 Z0.300 F400
G1 X-4.179 Y14.262 Z0.300 F400
G1 X-4.239 Y14.392 Z0.300 F400
G1 X-4.285 Y14.528 Z0.300 F400
G1 X-4.316 Y14.668 Z0.300 F400
G1 X-4.331 Y14.810 Z0.300 F400
G1 X-4.331 Y14.953 Z0.300 F400
G1 X-4.316 Y15.096 Z0.300 F400
G1 X-4.285 Y15.236 Z0.300 F400
G1 X-4.239 Y15.371 Z0.300 F400
G1 X-4.179 Y15.502 Z0.300 F400
G1 X-4.105 Y15.624 Z0.300 F400
G1 X-4.019 Y15.738 Z0.300 F400
G1 X-3.920 Y15.842 Z0.300 F400
G1 X-3.811 Y15.935 Z0.300 F400
G1 X-3.692 Y16.016 Z0.300 F400
G1 X-3.566 Y16.083 Z0.300 F400
G1 X-3.433 Y16.136 Z0.300 F400
G1 X-3.295 Y16.174 Z0.300 F400
G1 X-3.153 Y16.197 Z0.300 F400
G1 X-3.010 Y16.205 Z0.300 F400
G1 X36.873 Y16.205 Z0.300 F400
G1 X36.967 Y16.205 Z0.307 F3000
G1 X37.059 Y16.205 Z0.329 F3000
G1 X37.146 Y16.205 Z0.365 F3000
G1 X37.226 Y16.205 Z0.415 F3000
G1 X37.298 Y16.205 Z0.476 F3000
G1 X37.359 Y16.205 Z0.547 F3000
G1 X37.408 Y16.205 Z0.628 F3000
G1 X37.444 Y16.205 Z0.715 F3000
G1 X37.466 Y16.205 Z0.806 F3000
G1 X37.473 Y16.205 Z0.900 F3000
G1 X37.473 Y16.205 Z6.588 F400
G1 X37.746 Y-2.323 Z6.588 F400
G1 X37.746 Y-2.323 Z0.600 F150
G1 X37.739 Y-2.323 Z0.506 F400
G1 X37.717 Y-2.323 Z0.415 F400
G1 X37.681 Y-2.323 Z0.328 F400
G1 X37.632 Y-2.323 Z0.247 F400
G1 X37.571 Y-2.323 Z0.176 F400
G1 X37.499 Y-2.323 Z0.115 F400
G1 X37.419 Y-2.323 Z0.065 F400
G1 X37.332 Y-2.323 Z0.029 F400
G1 X37.240 Y-2.323 Z0.007 F400
G1 X37.146 Y-2.323 Z0.000 F400
G1 X36.873 Y-2.323 Z0.000 F400
G1 X-3.010 Y-2.323 Z0.000 F400
G1 X-3.153 Y-2.315 Z0.000 F400
G1 X-3.295 Y-2.292 Z0.000 F400
G1 X-3.433 Y-2.254 Z0.000 F400
G1 X-3.566 Y-2.201 Z0.000 F400
G1 X-3.692 Y-2.134 Z0.000 F400
G1 X-3.811 Y-2.053 Z0.000 F400
G1 X-3.920 Y-1.960 Z0.000 F400
G1 X-4.019 Y-1.856 Z0.000 F400
G1 X-4.105 Y-1.742 Z0.000 F400
G1 X-4.179 Y-1.620 Z0.000 F400
G1 X-4.239 Y-1.490 Z0.000 F400
G1 X-4.285 Y-1.354 Z0.000 F400
G1 X-4.316 Y-1.214 Z0.000 F400
G1 X-4.332 Y-1.071 Z0.000 F400
G1 X-4.332 Y-0.928 Z0.000 F400
G1 X-4.316 Y-0.786 Z0.000 F400
G1 X-4.285 Y-0.646 Z0.000 F400
G1 X-4.239 Y-0.510 Z0.000 F400
G1 X-4.179 Y-0.380 Z0.000 F400
G1 X-4.105 Y-0.257 Z0.000 F400
G1 X-4.019 Y-0.143 Z0.000 F400
G1 X-3.920 Y-0.039 Z0.000 F400
G1 X-3.811 Y0.054 Z0.000 F400
G1 X-3.692 Y0.134 Z0.000 F400
G1 X-3.566 Y0.201 Z0.000 F400
G1 X-3.433 Y0.254 Z0.000 F400
G1 X-3.295 Y0.293 Z0.000 F400
G1 X-3.153 Y0.316 Z0.000 F400
G1 X-3.010 Y0.324 Z0.000 F400
G1 X36.873 Y0.324 Z0.000 F400
G1 X37.016 Y0.332 Z0.000 F400
G1 X37.158 Y0.355 Z0.000 F400
G1 X37.296 Y0.393 Z0.000 F400
G1 X37.429 Y0.446 Z0.000 F400
G1 X37.556 Y0.513 Z0.000 F400
G1 X37.674 Y0.594 Z0.000 F400
G1 X37.783 Y0.686 Z0.000 F400
G1 X37.882 Y0.790 Z0.000 F400
G1 X37.969 Y0.905 Z0.000 F400
G1 X38.043 Y1.027 Z0.000 F400
G1 X38.103 Y1.157 Z0.000 F400
G1 X38.148 Y1.293 Z0.000 F400
G1 X38.179 Y1.433 Z0.000 F400
G1 X38.195 Y1.576 Z0.000 F400
G1 X38.195 Y1.719 Z0.000 F400
G1 X38.179 Y1.861 Z0.000 F400
G1 X38.148 Y2.001 Z0.000 F400
G1 X38.103 Y2.137 Z0.000 F400
G1 X38.043 Y2.267 Z0.000 F400
G1 X37.969 Y2.390 Z0.000 F400
G1 X37.882 Y2.504 Z0.000 F400
G1 X37.783 Y2.608 Z0.000 F400
G1 X37.674 Y2.701 Z0.000 F400
G1 X37.556 Y2.781 Z0.000 F400
G1 X37.429 Y2.848 Z0.000 F400
G1 X37.296 Y2.901 Z0.000 F400
G1 X37.158 Y2.940 Z0.000 F400
G1 X37.016 Y2.963 Z0.000 F400
G1 X36.873 Y2.971 Z0.000 F400
G1 X-3.010 Y2.971 Z0.000 F400
G1 X-3.153 Y2.978 Z0.000 F400
G1 X-3.295 Y3.002 Z0.000 F400
G1 X-3.433 Y3.040 Z0.000 F400
G1 X-3.566 Y3.093 Z0.000 F400
G1 X-3.692 Y3.160 Z0.000 F400
G1 X-3.811 Y3.241 Z0.000 F400
G1 X-3.920 Y3.333 Z0.000 F400
G1 X-4.019 Y3.437 Z0.000 F400
G1 X-4.105 Y3.551 Z0.000 F400
G1 X-4.179 Y3.674 Z0.000 F400
G1 X-4.239 Y3.804 Z0.000 F400
G1 X-4.285 Y3.940 Z0.000 F400
G1 X-4.316 Y4.080 Z0.000 F400
G1 X-4.332 Y4.222 Z0.000 F400
G1 X-4.332 Y4.366 Z0.000 F400
G1 X-4.316 Y4.508 Z0.000 F400
G1 X-4.285 Y4.648 Z0.000 F400
G1 X-4.239 Y4.784 Z0.000 F400
G1 X-4.179 Y4.914 Z0.000 F400
G1 X-4.105 Y5.037 Z0.000 F400
G1 X-4.019 Y5.151 Z0.000 F400
G1 X-3.920 Y5.255 Z0.000 F400
G1 X-3.811 Y5.348 Z0.000 F400
G1 X-3.692 Y5.428 Z0.000 F400
G1 X-3.566 Y5.495 Z0.000 F400
G1 X-3.433 Y5.548 Z0.000 F400
G1 X-3.295 Y5.587 Z0.000 F400
G1 X-3.153 Y5.610 Z0.000 F400
G1 X-3.010 Y5.618 Z0.000 F400
G1 X36.873 Y5.618 Z0.000 F400
G1 X37.016 Y5.625 Z0.000 F400
G1 X37.158 Y5.648 Z0.000 F400
G1 X37.296 Y5.687 Z0.000 F400
G1 X37.429 Y5.740 Z0.000 F400
G1 X37.556 Y5.807 Z0.000 F400
G1 X37.674 Y5.887 Z0.000 F400
G1 X37.783 Y5.980 Z0.000 F400
G1 X37.882 Y6.084 Z0.000 F400
G1 X37.969 Y6.198 Z0.000 F400
G1 X38.043 Y6.321 Z0.000 F400
G1 X38.103 Y6.451 Z0.000 F400
G1 X38.148 Y6.587 Z0.000 F400
G1 X38.179 Y6.727 Z0.000 F400
G1 X38.195 Y6.869 Z0.000 F400
G1 X38.195 Y7.013 Z0.000 F400
G1 X38.179 Y7.155 Z0.000 F400
G1 X38.148 Y7.295 Z0.000 F400
G1 X38.103 Y7.431 Z0.000 F400
G1 X38.043 Y7.561 Z0.000 F400
G1 X37.969 Y7.684 Z0.000 F400
G1 X37.882 Y7.798 Z0.000 F400
G1 X37.783 Y7.902 Z0.000 F400
G1 X37.674 Y7.995 Z0.000 F400
G1 X37.556 Y8.075 Z0.000 F400
G1 X37.429 Y8.142 Z0.000 F400
G1 X37.296 Y8.195 Z0.000 F400
G1 X37.158 Y8.233 Z0.000 F400
G1 X37.016 Y8.257 Z0.000 F400
G1 X36.873 Y8.264 Z0.000 F400
G1 X-3.010 Y8.264 Z0.000 F400
G1 X-3.153 Y8.272 Z0.000 F400
G1 X-3.295 Y8.295 Z0.000 F400
G1 X-3.433 Y8.334 Z0.000 F400
G1 X-3.566 Y8.387 Z0.000 F400
G1 X-3.692 Y8.454 Z0.000 F400
G1 X-3.811 Y8.534 Z0.000 F400
G1 X-3.920 Y8.627 Z0.000 F400
G1 X-4.019 Y8.731 Z0.000 F400
G1 X-4.105 Y8.845 Z0.000 F400
G1 X-4.179 Y8.968 Z0.000 F400
G1 X-4.239 Y9.098 Z0.000 F400
G1 X-4.285 Y9.234 Z0.000 F400
G1 X-4.316 Y9.374 Z0.000 F400
G1 X-4.332 Y9.516 Z0.000 F400
G1 X-4.332 Y9.660 Z0.000 F400
G1 X-4.316 Y9.802 Z0.000 F400
G1 X-4.285 Y9.942 Z0.000 F400
G1 X-4.239 Y10.078 Z0.000 F400
G1 X-4.179 Y10.208 Z0.000 F400
G1 X-4.105 Y10.331 Z0.000 F400
G1 X-4.019 Y10.445 Z0.000 F400
G1 X-3.920 Y10.549 Z0.000 F400
G1 X-3.811 Y10.641 Z0.000 F400
G1 X-3.692 Y10.722 Z0.000 F400
G1 X-3.566 Y10.789 Z0.000 F400
G1 X-3.433 Y10.842 Z0.000 F400
G1 X-3.295 Y10.880 Z0.000 F400
G1 X-3.153 Y10.904 Z0.000 F400
G1 X-3.010 Y10.911 Z0.000 F400
G1 X36.873 Y10.911 Z0.000 F400
G1 X37.016 Y10.919 Z0.000 F400
G1 X37.158 Y10.942 Z0.000 F400
G1 X37.296 Y10.981 Z0.000 F400
G1 X37.429 Y11.034 Z0.000 F400
G1 X37.556 Y11.101 Z0.000 F400
G1 X37.674 Y11.181 Z0.000 F400
G1 X37.783 Y11.274 Z0.000 F400
G1 X37.882 Y11.378 Z0.000 F400
G1 X37.969 Y11.492 Z0.000 F400
G1 X38.043 Y11.615 Z0.000 F400
G1 X38.103 Y11.745 Z0.000 F400
G1 X38.148 Y11.881 Z0.000 F400
G1 X38.179 Y12.021 Z0.000 F400
G1 X38.195 Y12.163 Z0.000 F400
G1 X38.195 Y12.306 Z0.000 F400
G1 X38.179 Y12.449 Z0.000 F400
G1 X38.148 Y12.589 Z0.000 F400
G1 X38.103 Y12.725 Z0.000 F400
G1 X38.043 Y12.855 Z0.000 F400
G1 X37.969 Y12.977 Z0.000 F400
G1 X37.882 Y13.092 Z0.000 F400
G1 X37.783 Y13.196 Z0.000 F400
G1 X37.674 Y13.288 Z0.000 F400
G1 X37.556 Y13.369 Z0.000 F400
G1 X37.429 Y13.436 Z0.000 F400
G1 X37.296 Y13.489 Z0.000 F400
G1 X37.158 Y13.527 Z0.000 F400
G1 X37.016 Y13.550 Z0.000 F400
G1 X36.873 Y13.558 Z0.000 F400
G1 X-3.010 Y13.558 Z0.000 F400
G1 X-3.153 Y13.566 Z0.000 F400
G1 X-3.295 Y13.589 Z0.000 F400
G1 X-3.433 Y13.627 Z0.000 F400
G1 X-3.566 Y13.680 Z0.000 F400
G1 X-3.692 Y13.748 Z0.000 F400
G1 X-3.811 Y13.828 Z0.000 F400
G1 X-3.920 Y13.921 Z0.000 F400
G1 X-4.019 Y14.025 Z0.000 F400
G1 X-4.105 Y14.139 Z0.000 F400
G1 X-4.179 Y14.262 Z0.000 F400
G1 X-4.239 Y14.392 Z0.000 F400
G1 X-4.285 Y14.528 Z0.000 F400
G1 X-4.316 Y14.668 Z0.000 F400
G1 X-4.331 Y14.810 Z0.000 F400
G1 X-4.331 Y14.953 Z0.000 F400
G1 X-4.316 Y15.096 Z0.000 F400
G1 X-4.285 Y15.236 Z0.000 F400
G1 X-4.239 Y15.371 Z0.000 F400
G1 X-4.179 Y15.502 Z0.000 F400
G1 X-4.105 Y15.624 Z0.000 F400
G1 X-4.019 Y15.738 Z0.000 F400
G1 X-3.920 Y15.842 Z0.000 F400
G1 X-3.811 Y15.935 Z0.000 F400
G1 X-3.692 Y16.016 Z0.000 F400
G1 X-3.566 Y16.083 Z0.000 F400
G1 X-3.433 Y16.136 Z0.000 F400
G1 X-3.295 Y16.174 Z0.000 F400
G1 X-3.153 Y16.197 Z0.000 F400
G1 X-3.010 Y16.205 Z0.000 F400
G1 X36.873 Y16.205 Z0.000 F400
G1 X36.967 Y16.205 Z0.007 F3000
G1 X37.059 Y16.205 Z0.029 F3000
G1 X37.146 Y16.205 Z0.065 F3000
G1 X37.226 Y16.205 Z0.115 F3000
G1 X37.298 Y16.205 Z0.176 F3000
G1 X37.359 Y16.205 Z0.247 F3000
G1 X37.408 Y16.205 Z0.328 F3000
G1 X37.444 Y16.205 Z0.415 F3000
G1 X37.466 Y16.205 Z0.506 F3000
G1 X37.473 Y16.205 Z0.600 F3000
G1 X37.473 Y16.205 Z56.588 F400
G0 X0.000 Y0.000
M5
