;Titan-1-Chamfers
;Machine
;vendor: Snapmaker
;model: Desktop CNC
;description: Generic Snapmaker Marlin v20180725
M3 P100
G4 S2
G21
G90
;When using Fusion for Personal Use, the feedrate of rapid
;moves is reduced to match the feedrate of cutting moves,
;which can increase machining time. Unrestricted rapid moves
;are available with a Fusion Subscription.

;Chamfers
G0 X20.436 Y10.662 Z56.588
G1 X20.436 Y10.662 Z56.588 F500
G1 X20.436 Y10.662 Z6.588 F500
G1 X20.436 Y10.662 Z2.223 F100
G1 X20.436 Y10.662 Z-0.703 F100
G1 X20.442 Y10.666 Z-0.773 F500
G1 X20.462 Y10.679 Z-0.840 F500
G1 X20.493 Y10.701 Z-0.900 F500
G1 X20.535 Y10.729 Z-0.951 F500
G1 X20.585 Y10.762 Z-0.989 F500
G1 X20.640 Y10.800 Z-1.012 F500
G1 X20.699 Y10.840 Z-1.020 F500
G1 X20.962 Y11.018 Z-1.020 F500
G1 X21.016 Y11.064 Z-1.020 F500
G1 X21.058 Y11.121 Z-1.020 F500
G1 X21.087 Y11.186 Z-1.020 F500
G1 X21.100 Y11.256 Z-1.020 F500
G1 X21.098 Y11.327 Z-1.020 F500
G1 X21.079 Y11.396 Z-1.020 F500
G1 X21.046 Y11.459 Z-1.020 F500
G1 X20.947 Y11.613 Z-1.020 F500
G1 X20.856 Y11.772 Z-1.020 F500
G1 X20.773 Y11.935 Z-1.020 F500
G1 X20.697 Y12.103 Z-1.020 F500
G1 X20.656 Y12.182 Z-1.020 F500
G1 X20.601 Y12.254 Z-1.020 F500
G1 X20.536 Y12.315 Z-1.020 F500
G1 X20.461 Y12.365 Z-1.020 F500
G1 X20.379 Y12.402 Z-1.020 F500
G1 X20.292 Y12.424 Z-1.020 F500
G1 X20.202 Y12.432 Z-1.020 F500
G1 X13.661 Y12.432 Z-1.020 F500
G1 X13.571 Y12.424 Z-1.020 F500
G1 X13.484 Y12.402 Z-1.020 F500
G1 X13.402 Y12.365 Z-1.020 F500
G1 X13.327 Y12.315 Z-1.020 F500
G1 X13.262 Y12.254 Z-1.020 F500
G1 X13.208 Y12.182 Z-1.020 F500
G1 X13.166 Y12.103 Z-1.020 F500
G1 X13.065 Y11.882 Z-1.020 F500
G1 X12.949 Y11.669 Z-1.020 F500
G1 X12.820 Y11.464 Z-1.020 F500
G1 X12.678 Y11.268 Z-1.020 F500
G1 X12.524 Y11.081 Z-1.020 F500
G1 X12.358 Y10.905 Z-1.020 F500
G1 X12.180 Y10.739 Z-1.020 F500
G1 X11.992 Y10.586 Z-1.020 F500
G1 X11.795 Y10.446 Z-1.020 F500
G1 X11.589 Y10.318 Z-1.020 F500
G1 X11.375 Y10.204 Z-1.020 F500
G1 X11.154 Y10.105 Z-1.020 F500
G1 X10.927 Y10.020 Z-1.020 F500
G1 X10.694 Y9.950 Z-1.020 F500
G1 X10.458 Y9.895 Z-1.020 F500
G1 X10.219 Y9.856 Z-1.020 F500
G1 X9.978 Y9.832 Z-1.020 F500
G1 X9.736 Y9.824 Z-1.020 F500
G1 X9.493 Y9.832 Z-1.020 F500
G1 X9.252 Y9.856 Z-1.020 F500
G1 X9.013 Y9.895 Z-1.020 F500
G1 X8.777 Y9.950 Z-1.020 F500
G1 X8.545 Y10.020 Z-1.020 F500
G1 X8.318 Y10.105 Z-1.020 F500
G1 X8.097 Y10.204 Z-1.020 F500
G1 X7.883 Y10.318 Z-1.020 F500
G1 X7.677 Y10.446 Z-1.020 F500
G1 X7.479 Y10.586 Z-1.020 F500
G1 X7.291 Y10.739 Z-1.020 F500
G1 X7.114 Y10.905 Z-1.020 F500
G1 X6.948 Y11.081 Z-1.020 F500
G1 X6.793 Y11.268 Z-1.020 F500
G1 X6.651 Y11.464 Z-1.020 F500
G1 X6.522 Y11.669 Z-1.020 F500
G1 X6.407 Y11.882 Z-1.020 F500
G1 X6.305 Y12.103 Z-1.020 F500
G1 X6.264 Y12.182 Z-1.020 F500
G1 X6.209 Y12.254 Z-1.020 F500
G1 X6.144 Y12.315 Z-1.020 F500
G1 X6.069 Y12.365 Z-1.020 F500
G1 X5.987 Y12.402 Z-1.020 F500
G1 X5.900 Y12.424 Z-1.020 F500
G1 X5.810 Y12.432 Z-1.020 F500
G1 X4.191 Y12.432 Z-1.020 F500
G1 X4.107 Y12.425 Z-1.020 F500
G1 X4.025 Y12.405 Z-1.020 F500
G1 X3.947 Y12.373 Z-1.020 F500
G1 X3.875 Y12.329 Z-1.020 F500
G1 X3.811 Y12.274 Z-1.020 F500
G1 X3.756 Y12.210 Z-1.020 F500
G1 X3.712 Y12.138 Z-1.020 F500
G1 X3.680 Y12.060 Z-1.020 F500
G1 X3.660 Y11.979 Z-1.020 F500
G1 X3.654 Y11.895 Z-1.020 F500
G1 X3.654 Y4.191 Z-1.020 F500
G1 X3.660 Y4.107 Z-1.020 F500
G1 X3.680 Y4.025 Z-1.020 F500
G1 X3.712 Y3.947 Z-1.020 F500
G1 X3.756 Y3.875 Z-1.020 F500
G1 X3.811 Y3.811 Z-1.020 F500
G1 X3.875 Y3.756 Z-1.020 F500
G1 X3.947 Y3.712 Z-1.020 F500
G1 X4.025 Y3.680 Z-1.020 F500
G1 X4.107 Y3.660 Z-1.020 F500
G1 X4.191 Y3.654 Z-1.020 F500
G1 X10.662 Y3.654 Z-1.020 F500
G1 X10.746 Y3.660 Z-1.020 F500
G1 X10.828 Y3.680 Z-1.020 F500
G1 X10.906 Y3.712 Z-1.020 F500
G1 X10.978 Y3.756 Z-1.020 F500
G1 X11.042 Y3.811 Z-1.020 F500
G1 X14.977 Y7.746 Z-1.020 F500
G1 X15.128 Y7.886 Z-1.020 F500
G1 X15.290 Y8.015 Z-1.020 F500
G1 X15.461 Y8.131 Z-1.020 F500
G1 X15.640 Y8.235 Z-1.020 F500
G1 X15.826 Y8.325 Z-1.020 F500
G1 X16.019 Y8.400 Z-1.020 F500
G1 X16.216 Y8.461 Z-1.020 F500
G1 X16.418 Y8.507 Z-1.020 F500
G1 X16.622 Y8.538 Z-1.020 F500
G1 X16.828 Y8.553 Z-1.020 F500
G1 X17.035 Y8.553 Z-1.020 F500
G1 X17.241 Y8.538 Z-1.020 F500
G1 X17.446 Y8.507 Z-1.020 F500
G1 X17.647 Y8.461 Z-1.020 F500
G1 X17.845 Y8.400 Z-1.020 F500
G1 X18.037 Y8.325 Z-1.020 F500
G1 X18.223 Y8.235 Z-1.020 F500
G1 X18.403 Y8.131 Z-1.020 F500
G1 X18.573 Y8.015 Z-1.020 F500
G1 X18.735 Y7.886 Z-1.020 F500
G1 X18.887 Y7.746 Z-1.020 F500
G1 X22.821 Y3.811 Z-1.020 F500
G1 X22.885 Y3.756 Z-1.020 F500
G1 X22.957 Y3.712 Z-1.020 F500
G1 X23.035 Y3.680 Z-1.020 F500
G1 X23.117 Y3.660 Z-1.020 F500
G1 X23.201 Y3.654 Z-1.020 F500
G1 X29.673 Y3.654 Z-1.020 F500
G1 X29.757 Y3.660 Z-1.020 F500
G1 X29.839 Y3.680 Z-1.020 F500
G1 X29.917 Y3.712 Z-1.020 F500
G1 X29.988 Y3.756 Z-1.020 F500
G1 X30.052 Y3.811 Z-1.020 F500
G1 X30.107 Y3.875 Z-1.020 F500
G1 X30.151 Y3.947 Z-1.020 F500
G1 X30.183 Y4.025 Z-1.020 F500
G1 X30.203 Y4.107 Z-1.020 F500
G1 X30.210 Y4.191 Z-1.020 F500
G1 X30.210 Y11.894 Z-1.020 F500
G1 X30.203 Y11.979 Z-1.020 F500
G1 X30.183 Y12.060 Z-1.020 F500
G1 X30.151 Y12.138 Z-1.020 F500
G1 X30.107 Y12.210 Z-1.020 F500
G1 X30.052 Y12.274 Z-1.020 F500
G1 X29.988 Y12.329 Z-1.020 F500
G1 X29.917 Y12.373 Z-1.020 F500
G1 X29.839 Y12.405 Z-1.020 F500
G1 X29.757 Y12.425 Z-1.020 F500
G1 X29.673 Y12.432 Z-1.020 F500
G1 X28.053 Y12.432 Z-1.020 F500
G1 X27.963 Y12.424 Z-1.020 F500
G1 X27.876 Y12.402 Z-1.020 F500
G1 X27.794 Y12.365 Z-1.020 F500
G1 X27.719 Y12.315 Z-1.020 F500
G1 X27.654 Y12.254 Z-1.020 F500
G1 X27.599 Y12.182 Z-1.020 F500
G1 X27.558 Y12.103 Z-1.020 F500
G1 X27.457 Y11.883 Z-1.020 F500
G1 X27.341 Y11.670 Z-1.020 F500
G1 X27.213 Y11.464 Z-1.020 F500
G1 X27.071 Y11.268 Z-1.020 F500
G1 X26.916 Y11.082 Z-1.020 F500
G1 X26.750 Y10.905 Z-1.020 F500
G1 X26.573 Y10.740 Z-1.020 F500
G1 X26.385 Y10.587 Z-1.020 F500
G1 X26.188 Y10.447 Z-1.020 F500
G1 X25.982 Y10.319 Z-1.020 F500
G1 X25.768 Y10.205 Z-1.020 F500
G1 X25.548 Y10.106 Z-1.020 F500
G1 X25.321 Y10.021 Z-1.020 F500
G1 X25.089 Y9.950 Z-1.020 F500
G1 X24.853 Y9.895 Z-1.020 F500
G1 X24.614 Y9.856 Z-1.020 F500
G1 X24.373 Y9.832 Z-1.020 F500
G1 X24.131 Y9.824 Z-1.020 F500
G1 X23.889 Y9.832 Z-1.020 F500
G1 X23.648 Y9.855 Z-1.020 F500
G1 X23.409 Y9.894 Z-1.020 F500
G1 X23.173 Y9.949 Z-1.020 F500
G1 X22.941 Y10.018 Z-1.020 F500
G1 X22.714 Y10.103 Z-1.020 F500
G1 X22.493 Y10.202 Z-1.020 F500
G1 X22.279 Y10.316 Z-1.020 F500
G1 X22.073 Y10.443 Z-1.020 F500
G1 X21.875 Y10.583 Z-1.020 F500
G1 X21.688 Y10.736 Z-1.020 F500
G1 X21.510 Y10.900 Z-1.020 F500
G1 X21.343 Y11.076 Z-1.020 F500
G1 X21.189 Y11.263 Z-1.020 F500
G1 X21.046 Y11.459 Z-1.020 F500
G1 X21.000 Y11.513 Z-1.020 F500
G1 X20.943 Y11.555 Z-1.020 F500
G1 X20.878 Y11.584 Z-1.020 F500
G1 X20.808 Y11.597 Z-1.020 F500
G1 X20.737 Y11.595 Z-1.020 F500
G1 X20.668 Y11.577 Z-1.020 F500
G1 X20.606 Y11.544 Z-1.020 F500
G1 X20.343 Y11.366 Z-1.020 F500
G1 X20.284 Y11.326 Z-1.012 F500
G1 X20.229 Y11.288 Z-0.989 F500
G1 X20.179 Y11.255 Z-0.951 F500
G1 X20.137 Y11.226 Z-0.900 F500
G1 X20.106 Y11.205 Z-0.840 F500
G1 X20.086 Y11.192 Z-0.773 F500
G1 X20.080 Y11.187 Z-0.703 F500
G1 X20.080 Y11.187 Z6.588 F500
G1 X-0.233 Y18.151 Z6.588 F500
G1 X-0.233 Y18.151 Z2.223 F100
G1 X-0.233 Y18.151 Z-0.703 F100
G1 X-0.233 Y18.143 Z-0.773 F500
G1 X-0.233 Y18.120 Z-0.840 F500
G1 X-0.233 Y18.082 Z-0.900 F500
G1 X-0.233 Y18.032 Z-0.951 F500
G1 X-0.233 Y17.972 Z-0.989 F500
G1 X-0.233 Y17.904 Z-1.012 F500
G1 X-0.233 Y17.834 Z-1.020 F500
G1 X-0.233 Y17.516 Z-1.020 F500
G1 X-0.225 Y17.446 Z-1.020 F500
G1 X-0.201 Y17.379 Z-1.020 F500
G1 X-0.164 Y17.318 Z-1.020 F500
G1 X-0.113 Y17.268 Z-1.020 F500
G1 X-0.053 Y17.230 Z-1.020 F500
G1 X0.014 Y17.207 Z-1.020 F500
G1 X0.085 Y17.199 Z-1.020 F500
G1 X33.779 Y17.199 Z-1.020 F500
G1 X33.913 Y17.191 Z-1.020 F500
G1 X34.045 Y17.169 Z-1.020 F500
G1 X34.174 Y17.132 Z-1.020 F500
G1 X34.299 Y17.080 Z-1.020 F500
G1 X34.416 Y17.015 Z-1.020 F500
G1 X34.526 Y16.937 Z-1.020 F500
G1 X34.626 Y16.848 Z-1.020 F500
G1 X34.716 Y16.748 Z-1.020 F500
G1 X34.793 Y16.638 Z-1.020 F500
G1 X34.858 Y16.520 Z-1.020 F500
G1 X34.910 Y16.396 Z-1.020 F500
G1 X34.947 Y16.267 Z-1.020 F500
G1 X34.970 Y16.135 Z-1.020 F500
G1 X34.977 Y16.000 Z-1.020 F500
G1 X34.977 Y0.085 Z-1.020 F500
G1 X34.970 Y-0.050 Z-1.020 F500
G1 X34.947 Y-0.182 Z-1.020 F500
G1 X34.910 Y-0.311 Z-1.020 F500
G1 X34.858 Y-0.435 Z-1.020 F500
G1 X34.793 Y-0.553 Z-1.020 F500
G1 X34.716 Y-0.663 Z-1.020 F500
G1 X34.626 Y-0.763 Z-1.020 F500
G1 X34.526 Y-0.852 Z-1.020 F500
G1 X34.416 Y-0.930 Z-1.020 F500
G1 X34.299 Y-0.995 Z-1.020 F500
G1 X34.174 Y-1.047 Z-1.020 F500
G1 X34.045 Y-1.084 Z-1.020 F500
G1 X33.913 Y-1.106 Z-1.020 F500
G1 X33.779 Y-1.114 Z-1.020 F500
G1 X22.066 Y-1.114 Z-1.020 F500
G1 X21.869 Y-1.107 Z-1.020 F500
G1 X21.673 Y-1.086 Z-1.020 F500
G1 X21.479 Y-1.051 Z-1.020 F500
G1 X21.288 Y-1.002 Z-1.020 F500
G1 X21.100 Y-0.939 Z-1.020 F500
G1 X20.918 Y-0.864 Z-1.020 F500
G1 X20.742 Y-0.776 Z-1.020 F500
G1 X20.572 Y-0.675 Z-1.020 F500
G1 X20.410 Y-0.562 Z-1.020 F500
G1 X20.256 Y-0.439 Z-1.020 F500
G1 X20.112 Y-0.304 Z-1.020 F500
G1 X17.311 Y2.496 Z-1.020 F500
G1 X17.247 Y2.551 Z-1.020 F500
G1 X17.175 Y2.595 Z-1.020 F500
G1 X17.098 Y2.627 Z-1.020 F500
G1 X17.016 Y2.647 Z-1.020 F500
G1 X16.932 Y2.653 Z-1.020 F500
G1 X16.848 Y2.647 Z-1.020 F500
G1 X16.766 Y2.627 Z-1.020 F500
G1 X16.688 Y2.595 Z-1.020 F500
G1 X16.616 Y2.551 Z-1.020 F500
G1 X16.552 Y2.496 Z-1.020 F500
G1 X13.752 Y-0.304 Z-1.020 F500
G1 X13.607 Y-0.439 Z-1.020 F500
G1 X13.454 Y-0.562 Z-1.020 F500
G1 X13.291 Y-0.675 Z-1.020 F500
G1 X13.122 Y-0.776 Z-1.020 F500
G1 X12.945 Y-0.864 Z-1.020 F500
G1 X12.763 Y-0.939 Z-1.020 F500
G1 X12.576 Y-1.002 Z-1.020 F500
G1 X12.384 Y-1.051 Z-1.020 F500
G1 X12.190 Y-1.086 Z-1.020 F500
G1 X11.994 Y-1.107 Z-1.020 F500
G1 X11.797 Y-1.114 Z-1.020 F500
G1 X0.085 Y-1.114 Z-1.020 F500
G1 X-0.050 Y-1.106 Z-1.020 F500
G1 X-0.182 Y-1.084 Z-1.020 F500
G1 X-0.311 Y-1.047 Z-1.020 F500
G1 X-0.435 Y-0.995 Z-1.020 F500
G1 X-0.553 Y-0.930 Z-1.020 F500
G1 X-0.663 Y-0.852 Z-1.020 F500
G1 X-0.763 Y-0.763 Z-1.020 F500
G1 X-0.852 Y-0.663 Z-1.020 F500
G1 X-0.930 Y-0.553 Z-1.020 F500
G1 X-0.995 Y-0.435 Z-1.020 F500
G1 X-1.047 Y-0.311 Z-1.020 F500
G1 X-1.084 Y-0.182 Z-1.020 F500
G1 X-1.106 Y-0.050 Z-1.020 F500
G1 X-1.114 Y0.085 Z-1.020 F500
G1 X-1.114 Y16.000 Z-1.020 F500
G1 X-1.106 Y16.135 Z-1.020 F500
G1 X-1.084 Y16.267 Z-1.020 F500
G1 X-1.047 Y16.396 Z-1.020 F500
G1 X-0.995 Y16.520 Z-1.020 F500
G1 X-0.930 Y16.638 Z-1.020 F500
G1 X-0.852 Y16.748 Z-1.020 F500
G1 X-0.763 Y16.848 Z-1.020 F500
G1 X-0.663 Y16.937 Z-1.020 F500
G1 X-0.553 Y17.015 Z-1.020 F500
G1 X-0.435 Y17.080 Z-1.020 F500
G1 X-0.311 Y17.132 Z-1.020 F500
G1 X-0.182 Y17.169 Z-1.020 F500
G1 X-0.050 Y17.191 Z-1.020 F500
G1 X0.085 Y17.199 Z-1.020 F500
G1 X0.155 Y17.207 Z-1.020 F500
G1 X0.222 Y17.230 Z-1.020 F500
G1 X0.283 Y17.268 Z-1.020 F500
G1 X0.333 Y17.318 Z-1.020 F500
G1 X0.371 Y17.379 Z-1.020 F500
G1 X0.394 Y17.446 Z-1.020 F500
G1 X0.402 Y17.516 Z-1.020 F500
G1 X0.402 Y17.834 Z-1.020 F500
G1 X0.402 Y17.904 Z-1.012 F500
G1 X0.402 Y17.972 Z-0.989 F500
G1 X0.402 Y18.032 Z-0.951 F500
G1 X0.402 Y18.082 Z-0.900 F500
G1 X0.402 Y18.120 Z-0.840 F500
G1 X0.402 Y18.143 Z-0.773 F500
G1 X0.402 Y18.151 Z-0.703 F500
G1 X0.402 Y18.151 Z56.588 F500
G0 X0.000 Y0.000
M5
