;Titan-1-Pockets
;Machine
;vendor: Snapmaker
;model: Desktop CNC
;description: Generic Snapmaker Marlin v20180725
;tool: 3/32 4 flute endmill

M3 P100
G4 S2
G21
G90
;When using Fusion for Personal Use, the feedrate of rapid
;moves is reduced to match the feedrate of cutting moves,
;which can increase machining time. Unrestricted rapid moves
;are available with a Fusion Subscription.

;Pockets
G0 X5.917 Y7.452 Z53.000
G1 X5.917 Y7.452 Z53.000 F500
G1 X5.917 Y7.452 Z3.000 F500
G1 X5.917 Y7.452 Z2.500 F500
G1 X5.874 Y7.322 Z2.495 F100
G1 X5.846 Y7.189 Z2.490 F100
G1 X5.833 Y7.053 Z2.486 F100
G1 X5.837 Y6.916 Z2.481 F100
G1 X5.856 Y6.781 Z2.476 F100
G1 X5.890 Y6.649 Z2.471 F100
G1 X5.939 Y6.522 Z2.467 F100
G1 X6.003 Y6.401 Z2.462 F100
G1 X6.080 Y6.289 Z2.457 F100
G1 X6.170 Y6.186 Z2.452 F100
G1 X6.271 Y6.094 Z2.448 F100
G1 X6.382 Y6.014 Z2.443 F100
G1 X6.501 Y5.948 Z2.438 F100
G1 X6.627 Y5.896 Z2.433 F100
G1 X6.759 Y5.858 Z2.428 F100
G1 X6.893 Y5.836 Z2.424 F100
G1 X7.030 Y5.830 Z2.419 F100
G1 X7.166 Y5.840 Z2.414 F100
G1 X7.300 Y5.865 Z2.409 F100
G1 X7.430 Y5.905 Z2.405 F100
G1 X7.555 Y5.960 Z2.400 F100
G1 X7.672 Y6.030 Z2.395 F100
G1 X7.781 Y6.112 Z2.390 F100
G1 X7.879 Y6.206 Z2.386 F100
G1 X7.966 Y6.311 Z2.381 F100
G1 X8.041 Y6.425 Z2.376 F100
G1 X8.102 Y6.547 Z2.371 F100
G1 X8.148 Y6.675 Z2.366 F100
G1 X8.179 Y6.808 Z2.362 F100
G1 X8.195 Y6.944 Z2.357 F100
G1 X8.195 Y7.080 Z2.352 F100
G1 X8.179 Y7.215 Z2.347 F100
G1 X8.148 Y7.348 Z2.343 F100
G1 X8.101 Y7.476 Z2.338 F100
G1 X8.041 Y7.598 Z2.333 F100
G1 X7.966 Y7.712 Z2.328 F100
G1 X7.879 Y7.817 Z2.324 F100
G1 X7.781 Y7.911 Z2.319 F100
G1 X7.672 Y7.993 Z2.314 F100
G1 X7.555 Y8.062 Z2.309 F100
G1 X7.430 Y8.117 Z2.304 F100
G1 X7.300 Y8.157 Z2.300 F100
G1 X7.166 Y8.182 Z2.295 F100
G1 X7.030 Y8.192 Z2.290 F100
G1 X6.894 Y8.186 Z2.285 F100
G1 X6.760 Y8.164 Z2.281 F100
G1 X6.629 Y8.126 Z2.276 F100
G1 X6.503 Y8.074 Z2.271 F100
G1 X6.384 Y8.008 Z2.266 F100
G1 X6.273 Y7.928 Z2.262 F100
G1 X6.173 Y7.837 Z2.257 F100
G1 X6.084 Y7.734 Z2.252 F100
G1 X6.007 Y7.622 Z2.247 F100
G1 X5.943 Y7.502 Z2.242 F100
G1 X5.894 Y7.375 Z2.238 F100
G1 X5.860 Y7.243 Z2.233 F100
G1 X5.841 Y7.108 Z2.228 F100
G1 X5.838 Y6.972 Z2.223 F100
G1 X5.850 Y6.837 Z2.219 F100
G1 X5.878 Y6.704 Z2.214 F100
G1 X5.922 Y6.575 Z2.209 F100
G1 X5.979 Y6.452 Z2.204 F100
G1 X6.051 Y6.336 Z2.200 F100
G1 X6.135 Y6.230 Z2.195 F100
G1 X6.231 Y6.133 Z2.190 F100
G1 X6.338 Y6.049 Z2.185 F100
G1 X6.454 Y5.977 Z2.180 F100
G1 X6.577 Y5.919 Z2.176 F100
G1 X6.706 Y5.876 Z2.171 F100
G1 X6.838 Y5.848 Z2.166 F100
G1 X6.974 Y5.835 Z2.161 F100
G1 X7.110 Y5.838 Z2.157 F100
G1 X7.244 Y5.857 Z2.152 F100
G1 X7.376 Y5.891 Z2.147 F100
G1 X7.502 Y5.940 Z2.142 F100
G1 X7.623 Y6.004 Z2.138 F100
G1 X7.735 Y6.080 Z2.133 F100
G1 X7.837 Y6.169 Z2.128 F100
G1 X7.929 Y6.270 Z2.123 F100
G1 X8.008 Y6.380 Z2.118 F100
G1 X8.074 Y6.499 Z2.114 F100
G1 X8.126 Y6.624 Z2.109 F100
G1 X8.164 Y6.755 Z2.104 F100
G1 X8.186 Y6.889 Z2.099 F100
G1 X8.192 Y7.024 Z2.095 F100
G1 X8.183 Y7.160 Z2.090 F100
G1 X8.158 Y7.293 Z2.085 F100
G1 X8.118 Y7.423 Z2.080 F100
G1 X8.063 Y7.547 Z2.076 F100
G1 X7.995 Y7.664 Z2.071 F100
G1 X7.913 Y7.772 Z2.066 F100
G1 X7.819 Y7.871 Z2.061 F100
G1 X7.715 Y7.957 Z2.056 F100
G1 X7.601 Y8.032 Z2.052 F100
G1 X7.480 Y8.092 Z2.047 F100
G1 X7.352 Y8.138 Z2.042 F100
G1 X7.220 Y8.170 Z2.037 F100
G1 X7.086 Y8.185 Z2.033 F100
G1 X6.950 Y8.185 Z2.028 F100
G1 X6.815 Y8.170 Z2.023 F100
G1 X6.683 Y8.139 Z2.018 F100
G1 X6.555 Y8.093 Z2.014 F100
G1 X6.434 Y8.033 Z2.009 F100
G1 X6.320 Y7.959 Z2.004 F100
G1 X6.216 Y7.873 Z1.999 F100
G1 X6.122 Y7.775 Z1.994 F100
G1 X6.040 Y7.667 Z1.990 F100
G1 X5.972 Y7.550 Z1.985 F100
G1 X5.917 Y7.426 Z1.980 F100
G1 X5.876 Y7.297 Z1.975 F100
G1 X5.851 Y7.163 Z1.971 F100
G1 X5.842 Y7.028 Z1.966 F100
G1 X5.848 Y6.893 Z1.961 F100
G1 X5.870 Y6.759 Z1.956 F100
G1 X5.906 Y6.629 Z1.952 F100
G1 X5.958 Y6.503 Z1.947 F100
G1 X6.024 Y6.385 Z1.942 F100
G1 X6.103 Y6.275 Z1.937 F100
G1 X6.194 Y6.174 Z1.932 F100
G1 X6.296 Y6.085 Z1.928 F100
G1 X6.408 Y6.009 Z1.923 F100
G1 X6.527 Y5.945 Z1.918 F100
G1 X6.653 Y5.896 Z1.913 F100
G1 X6.784 Y5.862 Z1.909 F100
G1 X6.918 Y5.843 Z1.904 F100
G1 X7.054 Y5.840 Z1.899 F100
G1 X7.189 Y5.852 Z1.894 F100
G1 X7.321 Y5.880 Z1.890 F100
G1 X7.449 Y5.923 Z1.885 F100
G1 X7.572 Y5.980 Z1.880 F100
G1 X7.687 Y6.051 Z1.875 F100
G1 X7.794 Y6.135 Z1.870 F100
G1 X7.889 Y6.230 Z1.866 F100
G1 X7.974 Y6.336 Z1.861 F100
G1 X8.045 Y6.451 Z1.856 F100
G1 X8.103 Y6.574 Z1.851 F100
G1 X8.146 Y6.702 Z1.847 F100
G1 X8.174 Y6.834 Z1.842 F100
G1 X8.187 Y6.969 Z1.837 F100
G1 X8.184 Y7.104 Z1.832 F100
G1 X8.166 Y7.238 Z1.828 F100
G1 X8.132 Y7.369 Z1.823 F100
G1 X8.083 Y7.495 Z1.818 F100
G1 X8.020 Y7.615 Z1.813 F100
G1 X7.944 Y7.726 Z1.808 F100
G1 X7.856 Y7.829 Z1.804 F100
G1 X7.756 Y7.920 Z1.799 F100
G1 X7.646 Y7.999 Z1.794 F100
G1 X7.528 Y8.065 Z1.789 F100
G1 X7.404 Y8.117 Z1.785 F100
G1 X7.274 Y8.154 Z1.780 F100
G1 X7.140 Y8.176 Z1.775 F100
G1 X7.005 Y8.183 Z1.770 F100
G1 X6.871 Y8.174 Z1.766 F100
G1 X6.738 Y8.149 Z1.761 F100
G1 X6.609 Y8.110 Z1.756 F100
G1 X6.485 Y8.055 Z1.751 F100
G1 X6.368 Y7.987 Z1.746 F100
G1 X6.260 Y7.906 Z1.742 F100
G1 X6.163 Y7.813 Z1.737 F100
G1 X6.076 Y7.709 Z1.732 F100
G1 X6.002 Y7.596 Z1.727 F100
G1 X5.942 Y7.476 Z1.723 F100
G1 X5.896 Y7.349 Z1.718 F100
G1 X5.864 Y7.217 Z1.713 F100
G1 X5.848 Y7.083 Z1.708 F100
G1 X5.848 Y6.948 Z1.703 F100
G1 X5.863 Y6.814 Z1.699 F100
G1 X5.894 Y6.682 Z1.694 F100
G1 X5.939 Y6.555 Z1.689 F100
G1 X5.999 Y6.434 Z1.684 F100
G1 X6.073 Y6.321 Z1.680 F100
G1 X6.159 Y6.217 Z1.675 F100
G1 X6.256 Y6.124 Z1.670 F100
G1 X6.363 Y6.042 Z1.665 F100
G1 X6.479 Y5.974 Z1.661 F100
G1 X6.603 Y5.919 Z1.656 F100
G1 X6.731 Y5.879 Z1.651 F100
G1 X6.864 Y5.854 Z1.646 F100
G1 X6.998 Y5.844 Z1.641 F100
G1 X7.133 Y5.850 Z1.637 F100
G1 X7.266 Y5.871 Z1.632 F100
G1 X7.396 Y5.908 Z1.627 F100
G1 X7.521 Y5.959 Z1.622 F100
G1 X7.639 Y6.024 Z1.618 F100
G1 X7.749 Y6.103 Z1.613 F100
G1 X7.848 Y6.193 Z1.608 F100
G1 X7.937 Y6.295 Z1.603 F100
G1 X8.014 Y6.406 Z1.599 F100
G1 X8.077 Y6.525 Z1.594 F100
G1 X8.126 Y6.650 Z1.589 F100
G1 X8.160 Y6.780 Z1.584 F100
G1 X8.179 Y6.914 Z1.579 F100
G1 X8.183 Y7.048 Z1.575 F100
G1 X8.171 Y7.183 Z1.570 F100
G1 X8.143 Y7.314 Z1.565 F100
G1 X8.101 Y7.442 Z1.560 F100
G1 X8.044 Y7.564 Z1.556 F100
G1 X7.973 Y7.679 Z1.551 F100
G1 X7.890 Y7.785 Z1.546 F100
G1 X7.795 Y7.881 Z1.541 F100
G1 X7.690 Y7.964 Z1.537 F100
G1 X7.575 Y8.036 Z1.532 F100
G1 X7.454 Y8.093 Z1.527 F100
G1 X7.326 Y8.137 Z1.522 F100
G1 X7.195 Y8.165 Z1.517 F100
G1 X7.061 Y8.178 Z1.513 F100
G1 X6.926 Y8.175 Z1.508 F100
G1 X6.793 Y8.157 Z1.503 F100
G1 X6.662 Y8.123 Z1.498 F100
G1 X6.537 Y8.075 Z1.494 F100
G1 X6.418 Y8.013 Z1.489 F100
G1 X6.306 Y7.937 Z1.484 F100
G1 X6.205 Y7.849 Z1.479 F100
G1 X6.114 Y7.750 Z1.475 F100
G1 X6.035 Y7.641 Z1.470 F100
G1 X5.969 Y7.524 Z1.465 F100
G1 X5.917 Y7.400 Z1.460 F100
G1 X5.880 Y7.270 Z1.455 F100
G1 X5.857 Y7.138 Z1.451 F100
G1 X5.851 Y7.003 Z1.446 F100
G1 X5.860 Y6.869 Z1.441 F100
G1 X5.884 Y6.737 Z1.436 F100
G1 X5.923 Y6.608 Z1.432 F100
G1 X5.977 Y6.485 Z1.427 F100
G1 X6.045 Y6.369 Z1.422 F100
G1 X6.125 Y6.262 Z1.417 F100
G1 X6.218 Y6.164 Z1.413 F100
G1 X6.321 Y6.078 Z1.408 F100
G1 X6.433 Y6.004 Z1.403 F100
G1 X6.553 Y5.944 Z1.398 F100
G1 X6.679 Y5.898 Z1.393 F100
G1 X6.810 Y5.867 Z1.389 F100
G1 X6.944 Y5.851 Z1.384 F100
G1 X7.078 Y5.850 Z1.379 F100
G1 X7.211 Y5.865 Z1.374 F100
G1 X7.342 Y5.895 Z1.370 F100
G1 X7.469 Y5.940 Z1.365 F100
G1 X7.589 Y6.000 Z1.360 F100
G1 X7.702 Y6.073 Z1.355 F100
G1 X7.806 Y6.158 Z1.351 F100
G1 X7.899 Y6.255 Z1.346 F100
G1 X7.980 Y6.362 Z1.341 F100
G1 X8.048 Y6.477 Z1.336 F100
G1 X8.103 Y6.600 Z1.331 F100
G1 X8.143 Y6.728 Z1.327 F100
G1 X8.169 Y6.859 Z1.322 F100
G1 X8.178 Y6.993 Z1.317 F100
G1 X8.173 Y7.127 Z1.312 F100
G1 X8.152 Y7.260 Z1.308 F100
G1 X8.115 Y7.389 Z1.303 F100
G1 X8.065 Y7.513 Z1.298 F100
G1 X8.000 Y7.631 Z1.293 F100
G1 X7.922 Y7.740 Z1.289 F100
G1 X7.832 Y7.840 Z1.284 F100
G1 X7.731 Y7.928 Z1.279 F100
G1 X7.621 Y8.004 Z1.274 F100
G1 X7.502 Y8.067 Z1.269 F100
G1 X7.378 Y8.116 Z1.265 F100
G1 X7.248 Y8.151 Z1.260 F100
G1 X7.115 Y8.170 Z1.255 F100
G1 X6.981 Y8.173 Z1.250 F100
G1 X6.848 Y8.162 Z1.246 F100
G1 X6.717 Y8.134 Z1.241 F100
G1 X6.589 Y8.092 Z1.236 F100
G1 X6.468 Y8.036 Z1.231 F100
G1 X6.353 Y7.966 Z1.227 F100
G1 X6.248 Y7.883 Z1.222 F100
G1 X6.153 Y7.789 Z1.217 F100
G1 X6.069 Y7.684 Z1.212 F100
G1 X5.998 Y7.570 Z1.207 F100
G1 X5.940 Y7.449 Z1.203 F100
G1 X5.897 Y7.322 Z1.198 F100
G1 X5.869 Y7.192 Z1.193 F100
G1 X5.856 Y7.058 Z1.188 F100
G1 X5.859 Y6.924 Z1.184 F100
G1 X5.877 Y6.792 Z1.179 F100
G1 X5.910 Y6.662 Z1.174 F100
G1 X5.957 Y6.537 Z1.169 F100
G1 X6.019 Y6.418 Z1.165 F100
G1 X6.094 Y6.307 Z1.160 F100
G1 X6.182 Y6.206 Z1.155 F100
G1 X6.280 Y6.115 Z1.150 F100
G1 X6.389 Y6.037 Z1.145 F100
G1 X6.505 Y5.971 Z1.141 F100
G1 X6.629 Y5.919 Z1.136 F100
G1 X6.757 Y5.882 Z1.131 F100
G1 X6.889 Y5.860 Z1.126 F100
G1 X7.023 Y5.853 Z1.122 F100
G1 X7.157 Y5.861 Z1.117 F100
G1 X7.288 Y5.885 Z1.112 F100
G1 X7.416 Y5.924 Z1.107 F100
G1 X7.539 Y5.978 Z1.103 F100
G1 X7.654 Y6.045 Z1.098 F100
G1 X7.761 Y6.125 Z1.093 F100
G1 X7.859 Y6.217 Z1.088 F100
G1 X7.945 Y6.319 Z1.083 F100
G1 X8.018 Y6.431 Z1.079 F100
G1 X8.078 Y6.550 Z1.074 F100
G1 X8.124 Y6.676 Z1.069 F100
G1 X8.156 Y6.806 Z1.064 F100
G1 X8.172 Y6.939 Z1.060 F100
G1 X8.172 Y7.072 Z1.055 F100
G1 X8.158 Y7.205 Z1.050 F100
G1 X8.128 Y7.336 Z1.045 F100
G1 X8.083 Y7.462 Z1.041 F100
G1 X8.024 Y7.582 Z1.036 F100
G1 X7.952 Y7.694 Z1.031 F100
G1 X7.867 Y7.797 Z1.026 F100
G1 X7.771 Y7.890 Z1.021 F100
G1 X7.665 Y7.971 Z1.017 F100
G1 X7.550 Y8.039 Z1.012 F100
G1 X7.428 Y8.094 Z1.007 F100
G1 X7.301 Y8.134 Z1.002 F100
G1 X7.169 Y8.159 Z0.998 F100
G1 X7.036 Y8.169 Z0.993 F100
G1 X6.903 Y8.164 Z0.988 F100
G1 X6.771 Y8.143 Z0.983 F100
G1 X6.642 Y8.107 Z0.979 F100
G1 X6.518 Y8.057 Z0.974 F100
G1 X6.401 Y7.992 Z0.969 F100
G1 X6.293 Y7.915 Z0.964 F100
G1 X6.193 Y7.825 Z0.959 F100
G1 X6.105 Y7.725 Z0.955 F100
G1 X6.029 Y7.616 Z0.950 F100
G1 X5.966 Y7.498 Z0.945 F100
G1 X5.918 Y7.374 Z0.940 F100
G1 X5.883 Y7.245 Z0.936 F100
G1 X5.864 Y7.113 Z0.931 F100
G1 X5.860 Y6.979 Z0.926 F100
G1 X5.872 Y6.847 Z0.921 F100
G1 X5.899 Y6.716 Z0.917 F100
G1 X5.940 Y6.589 Z0.912 F100
G1 X5.996 Y6.468 Z0.907 F100
G1 X6.066 Y6.354 Z0.902 F100
G1 X6.148 Y6.249 Z0.897 F100
G1 X6.242 Y6.154 Z0.893 F100
G1 X6.346 Y6.071 Z0.888 F100
G1 X6.459 Y6.000 Z0.883 F100
G1 X6.579 Y5.943 Z0.878 F100
G1 X6.706 Y5.900 Z0.874 F100
G1 X6.836 Y5.871 Z0.869 F100
G1 X6.968 Y5.858 Z0.864 F100
G1 X7.102 Y5.861 Z0.859 F100
G1 X7.234 Y5.878 Z0.855 F100
G1 X7.363 Y5.911 Z0.850 F100
G1 X7.487 Y5.958 Z0.845 F100
G1 X7.606 Y6.020 Z0.840 F100
G1 X7.716 Y6.094 Z0.835 F100
G1 X7.817 Y6.181 Z0.831 F100
G1 X7.907 Y6.279 Z0.826 F100
G1 X7.986 Y6.387 Z0.821 F100
G1 X8.051 Y6.503 Z0.816 F100
G1 X8.103 Y6.626 Z0.812 F100
G1 X8.140 Y6.754 Z0.807 F100
G1 X8.163 Y6.885 Z0.802 F100
G1 X8.169 Y7.018 Z0.797 F100
G1 X8.161 Y7.151 Z0.793 F100
G1 X8.137 Y7.282 Z0.788 F100
G1 X8.099 Y7.409 Z0.783 F100
G1 X8.046 Y7.531 Z0.778 F100
G1 X7.979 Y7.646 Z0.773 F100
G1 X7.900 Y7.753 Z0.769 F100
G1 X7.808 Y7.850 Z0.764 F100
G1 X7.707 Y7.935 Z0.759 F100
G1 X7.595 Y8.009 Z0.754 F100
G1 X7.477 Y8.069 Z0.750 F100
G1 X7.352 Y8.115 Z0.745 F100
G1 X7.223 Y8.146 Z0.740 F100
G1 X7.090 Y8.162 Z0.735 F100
G1 X6.957 Y8.163 Z0.731 F100
G1 X6.825 Y8.149 Z0.726 F100
G1 X6.695 Y8.119 Z0.721 F100
G1 X6.570 Y8.075 Z0.716 F100
G1 X6.451 Y8.016 Z0.711 F100
G1 X6.339 Y7.944 Z0.707 F100
G1 X6.236 Y7.860 Z0.702 F100
G1 X6.143 Y7.765 Z0.697 F100
G1 X6.063 Y7.659 Z0.692 F100
G1 X5.995 Y7.545 Z0.688 F100
G1 X5.940 Y7.424 Z0.683 F100
G1 X5.900 Y7.297 Z0.678 F100
G1 X5.875 Y7.167 Z0.673 F100
G1 X5.865 Y7.034 Z0.669 F100
G1 X5.870 Y6.901 Z0.664 F100
G1 X5.890 Y6.770 Z0.659 F100
G1 X5.926 Y6.642 Z0.654 F100
G1 X5.976 Y6.519 Z0.649 F100
G1 X6.040 Y6.402 Z0.645 F100
G1 X6.117 Y6.294 Z0.640 F100
G1 X6.206 Y6.195 Z0.635 F100
G1 X6.305 Y6.107 Z0.630 F100
G1 X6.414 Y6.031 Z0.626 F100
G1 X6.531 Y5.969 Z0.621 F100
G1 X6.655 Y5.920 Z0.616 F100
G1 X6.783 Y5.886 Z0.611 F100
G1 X6.914 Y5.866 Z0.607 F100
G1 X7.047 Y5.862 Z0.602 F100
G1 X7.179 Y5.874 Z0.597 F100
G1 X7.309 Y5.900 Z0.592 F100
G1 X7.435 Y5.941 Z0.587 F100
G1 X7.556 Y5.997 Z0.583 F100
G1 X7.669 Y6.066 Z0.578 F100
G1 X7.774 Y6.148 Z0.573 F100
G1 X7.868 Y6.241 Z0.568 F100
G1 X7.952 Y6.344 Z0.564 F100
G1 X8.022 Y6.457 Z0.559 F100
G1 X8.080 Y6.577 Z0.554 F100
G1 X8.123 Y6.702 Z0.549 F100
G1 X8.151 Y6.831 Z0.545 F100
G1 X8.164 Y6.963 Z0.540 F100
G1 X8.162 Y7.096 Z0.535 F100
G1 X8.145 Y7.227 Z0.530 F100
G1 X8.112 Y7.356 Z0.525 F100
G1 X8.065 Y7.480 Z0.521 F100
G1 X8.004 Y7.598 Z0.516 F100
G1 X7.930 Y7.708 Z0.511 F100
G1 X7.844 Y7.808 Z0.506 F100
G1 X7.746 Y7.898 Z0.502 F100
G1 X7.639 Y7.977 Z0.497 F100
G1 X7.524 Y8.042 Z0.492 F100
G1 X7.402 Y8.094 Z0.487 F100
G1 X7.275 Y8.131 Z0.483 F100
G1 X7.144 Y8.153 Z0.478 F100
G1 X7.012 Y8.160 Z0.473 F100
G1 X6.879 Y8.152 Z0.468 F100
G1 X6.749 Y8.129 Z0.463 F100
G1 X6.622 Y8.090 Z0.459 F100
G1 X6.501 Y8.038 Z0.454 F100
G1 X6.386 Y7.972 Z0.449 F100
G1 X6.280 Y7.893 Z0.444 F100
G1 X6.183 Y7.802 Z0.440 F100
G1 X6.098 Y7.701 Z0.435 F100
G1 X6.025 Y7.590 Z0.430 F100
G1 X5.965 Y7.472 Z0.425 F100
G1 X5.919 Y7.348 Z0.421 F100
G1 X5.888 Y7.219 Z0.416 F100
G1 X5.871 Y7.088 Z0.411 F100
G1 X5.870 Y6.956 Z0.406 F100
G1 X5.885 Y6.824 Z0.401 F100
G1 X5.914 Y6.695 Z0.397 F100
G1 X5.958 Y6.570 Z0.392 F100
G1 X6.016 Y6.451 Z0.387 F100
G1 X6.087 Y6.340 Z0.382 F100
G1 X6.171 Y6.237 Z0.378 F100
G1 X6.266 Y6.145 Z0.373 F100
G1 X6.371 Y6.065 Z0.368 F100
G1 X6.484 Y5.997 Z0.363 F100
G1 X6.605 Y5.942 Z0.359 F100
G1 X6.731 Y5.902 Z0.354 F100
G1 X6.861 Y5.877 Z0.349 F100
G1 X6.993 Y5.867 Z0.344 F100
G1 X7.125 Y5.872 Z0.339 F100
G1 X7.255 Y5.892 Z0.335 F100
G1 X7.383 Y5.927 Z0.330 F100
G1 X7.505 Y5.977 Z0.325 F100
G1 X7.622 Y6.040 Z0.320 F100
G1 X7.730 Y6.116 Z0.316 F100
G1 X7.828 Y6.205 Z0.311 F100
G1 X7.916 Y6.304 Z0.306 F100
G1 X7.991 Y6.412 Z0.301 F100
G1 X8.054 Y6.528 Z0.297 F100
G1 X8.102 Y6.651 Z0.292 F100
G1 X8.137 Y6.779 Z0.287 F100
G1 X8.156 Y6.909 Z0.282 F100
G1 X8.160 Y7.041 Z0.277 F100
G1 X8.149 Y7.173 Z0.273 F100
G1 X8.123 Y7.303 Z0.268 F100
G1 X8.082 Y7.428 Z0.263 F100
G1 X8.027 Y7.548 Z0.258 F100
G1 X7.958 Y7.661 Z0.254 F100
G1 X7.877 Y7.765 Z0.249 F100
G1 X7.784 Y7.860 Z0.244 F100
G1 X7.682 Y7.942 Z0.239 F100
G1 X7.570 Y8.013 Z0.234 F100
G1 X7.451 Y8.070 Z0.230 F100
G1 X7.326 Y8.113 Z0.225 F100
G1 X7.197 Y8.141 Z0.220 F100
G1 X7.066 Y8.155 Z0.215 F100
G1 X6.934 Y8.153 Z0.211 F100
G1 X6.803 Y8.136 Z0.206 F100
G1 X6.675 Y8.104 Z0.201 F100
G1 X6.552 Y8.057 Z0.196 F100
G1 X6.435 Y7.997 Z0.192 F100
G1 X6.325 Y7.923 Z0.187 F100
G1 X6.225 Y7.837 Z0.182 F100
G1 X6.135 Y7.740 Z0.177 F100
G1 X6.057 Y7.634 Z0.172 F100
G1 X5.992 Y7.519 Z0.168 F100
G1 X5.940 Y7.398 Z0.163 F100
G1 X5.903 Y7.271 Z0.158 F100
G1 X5.881 Y7.141 Z0.153 F100
G1 X5.873 Y7.010 Z0.149 F100
G1 X5.881 Y6.878 Z0.144 F100
G1 X5.904 Y6.748 Z0.139 F100
G1 X5.942 Y6.622 Z0.134 F100
G1 X5.994 Y6.501 Z0.130 F100
G1 X6.060 Y6.387 Z0.125 F100
G1 X6.139 Y6.281 Z0.120 F100
G1 X6.229 Y6.185 Z0.115 F100
G1 X6.329 Y6.100 Z0.110 F100
G1 X6.439 Y6.027 Z0.106 F100
G1 X6.557 Y5.967 Z0.101 F100
G1 X6.680 Y5.921 Z0.096 F100
G1 X6.808 Y5.890 Z0.091 F100
G1 X6.939 Y5.874 Z0.087 F100
G1 X7.071 Y5.872 Z0.082 F100
G1 X7.202 Y5.886 Z0.077 F100
G1 X7.330 Y5.915 Z0.072 F100
G1 X7.454 Y5.959 Z0.068 F100
G1 X7.573 Y6.016 Z0.063 F100
G1 X7.684 Y6.087 Z0.058 F100
G1 X7.786 Y6.170 Z0.053 F100
G1 X7.878 Y6.265 Z0.048 F100
G1 X7.958 Y6.369 Z0.044 F100
G1 X8.026 Y6.482 Z0.039 F100
G1 X8.080 Y6.602 Z0.034 F100
G1 X8.120 Y6.727 Z0.029 F100
G1 X8.145 Y6.856 Z0.025 F100
G1 X8.156 Y6.987 Z0.020 F100
G1 X8.151 Y7.119 Z0.015 F100
G1 X8.131 Y7.249 Z0.010 F100
G1 X8.096 Y7.376 Z0.006 F100
G1 X8.047 Y7.498 Z0.001 F100
G1 X7.984 Y7.614 Z-0.004 F100
G1 X7.908 Y7.721 Z-0.009 F100
G1 X7.820 Y7.819 Z-0.014 F100
G1 X7.722 Y7.907 Z-0.018 F100
G1 X7.614 Y7.982 Z-0.023 F100
G1 X7.499 Y8.044 Z-0.028 F100
G1 X7.376 Y8.093 Z-0.033 F100
G1 X7.250 Y8.127 Z-0.037 F100
G1 X7.120 Y8.147 Z-0.042 F100
G1 X6.988 Y8.151 Z-0.047 F100
G1 X6.857 Y8.140 Z-0.052 F100
G1 X6.728 Y8.114 Z-0.056 F100
G1 X6.603 Y8.074 Z-0.061 F100
G1 X6.484 Y8.019 Z-0.066 F100
G1 X6.371 Y7.951 Z-0.071 F100
G1 X6.268 Y7.870 Z-0.076 F100
G1 X6.174 Y7.778 Z-0.080 F100
G1 X6.091 Y7.676 Z-0.085 F100
G1 X6.021 Y7.565 Z-0.090 F100
G1 X5.964 Y7.446 Z-0.095 F100
G1 X5.921 Y7.322 Z-0.099 F100
G1 X5.892 Y7.194 Z-0.104 F100
G1 X5.879 Y7.064 Z-0.109 F100
G1 X5.881 Y6.932 Z-0.114 F100
G1 X5.898 Y6.802 Z-0.118 F100
G1 X5.929 Y6.675 Z-0.123 F100
G1 X5.976 Y6.552 Z-0.128 F100
G1 X6.036 Y6.435 Z-0.133 F100
G1 X6.109 Y6.326 Z-0.138 F100
G1 X6.194 Y6.226 Z-0.142 F100
G1 X6.290 Y6.137 Z-0.147 F100
G1 X6.396 Y6.059 Z-0.152 F100
G1 X6.510 Y5.994 Z-0.157 F100
G1 X6.631 Y5.943 Z-0.161 F100
G1 X6.756 Y5.905 Z-0.166 F100
G1 X6.886 Y5.883 Z-0.171 F100
G1 X7.017 Y5.875 Z-0.176 F100
G1 X7.148 Y5.883 Z-0.180 F100
G1 X7.277 Y5.906 Z-0.185 F100
G1 X7.403 Y5.943 Z-0.190 F100
G1 X7.523 Y5.995 Z-0.195 F100
G1 X7.637 Y6.060 Z-0.200 F100
G1 X7.742 Y6.138 Z-0.204 F100
G1 X7.838 Y6.228 Z-0.209 F100
G1 X7.923 Y6.328 Z-0.214 F100
G1 X7.995 Y6.437 Z-0.219 F100
G1 X8.055 Y6.554 Z-0.223 F100
G1 X8.101 Y6.677 Z-0.228 F100
G1 X8.132 Y6.804 Z-0.233 F100
G1 X8.149 Y6.934 Z-0.238 F100
G1 X8.150 Y7.065 Z-0.242 F100
G1 X8.136 Y7.196 Z-0.247 F100
G1 X8.108 Y7.323 Z-0.252 F100
G1 X8.064 Y7.447 Z-0.257 F100
G1 X8.007 Y7.565 Z-0.262 F100
G1 X7.937 Y7.676 Z-0.266 F100
G1 X7.854 Y7.777 Z-0.271 F100
G1 X7.761 Y7.869 Z-0.276 F100
G1 X7.657 Y7.949 Z-0.281 F100
G1 X7.545 Y8.016 Z-0.285 F100
G1 X7.426 Y8.070 Z-0.290 F100
G1 X7.301 Y8.110 Z-0.295 F100
G1 X7.172 Y8.136 Z-0.300 F100
G1 X7.042 Y8.146 Z-0.304 F100
G1 X6.911 Y8.142 Z-0.309 F100
G1 X6.782 Y8.122 Z-0.314 F100
G1 X6.655 Y8.088 Z-0.319 F100
G1 X6.534 Y8.039 Z-0.324 F100
G1 X6.419 Y7.976 Z-0.328 F100
G1 X6.312 Y7.901 Z-0.333 F100
G1 X6.214 Y7.814 Z-0.338 F100
G1 X6.127 Y7.716 Z-0.343 F100
G1 X6.052 Y7.609 Z-0.347 F100
G1 X5.990 Y7.494 Z-0.352 F100
G1 X5.941 Y7.373 Z-0.357 F100
G1 X5.907 Y7.246 Z-0.362 F100
G1 X5.887 Y7.117 Z-0.366 F100
G1 X5.883 Y6.986 Z-0.371 F100
G1 X5.893 Y6.856 Z-0.376 F100
G1 X5.919 Y6.728 Z-0.381 F100
G1 X5.959 Y6.603 Z-0.386 F100
G1 X6.013 Y6.484 Z-0.390 F100
G1 X6.081 Y6.372 Z-0.395 F100
G1 X6.161 Y6.269 Z-0.400 F100
G1 X6.253 Y6.175 Z-0.405 F100
G1 X6.354 Y6.093 Z-0.409 F100
G1 X6.465 Y6.023 Z-0.414 F100
G1 X6.582 Y5.966 Z-0.419 F100
G1 X6.706 Y5.923 Z-0.424 F100
G1 X6.833 Y5.895 Z-0.428 F100
G1 X6.963 Y5.881 Z-0.433 F100
G1 X7.094 Y5.883 Z-0.438 F100
G1 X7.223 Y5.899 Z-0.443 F100
G1 X7.350 Y5.931 Z-0.448 F100
G1 X7.472 Y5.976 Z-0.452 F100
G1 X7.589 Y6.036 Z-0.457 F100
G1 X7.697 Y6.109 Z-0.462 F100
G1 X7.797 Y6.193 Z-0.467 F100
G1 X7.886 Y6.289 Z-0.471 F100
G1 X7.963 Y6.394 Z-0.476 F100
G1 X8.028 Y6.507 Z-0.481 F100
G1 X8.080 Y6.627 Z-0.486 F100
G1 X8.117 Y6.753 Z-0.490 F100
G1 X8.139 Y6.881 Z-0.495 F100
G1 X8.147 Y7.012 Z-0.500 F100
G1 X8.139 Y7.146 Z-0.500 F100
G1 X8.115 Y7.278 Z-0.500 F100
G1 X8.076 Y7.406 Z-0.500 F100
G1 X8.022 Y7.529 Z-0.500 F100
G1 X7.954 Y7.644 Z-0.500 F100
G1 X7.872 Y7.751 Z-0.500 F100
G1 X7.779 Y7.847 Z-0.500 F100
G1 X7.675 Y7.931 Z-0.500 F100
G1 X7.562 Y8.003 Z-0.500 F100
G1 X7.440 Y8.061 Z-0.500 F100
G1 X7.313 Y8.103 Z-0.500 F100
G1 X7.182 Y8.131 Z-0.500 F100
G1 X7.049 Y8.143 Z-0.500 F100
G1 X6.915 Y8.139 Z-0.500 F100
G1 X6.782 Y8.119 Z-0.500 F100
G1 X6.653 Y8.084 Z-0.500 F100
G1 X6.528 Y8.033 Z-0.500 F100
G1 X6.411 Y7.969 Z-0.500 F100
G1 X6.302 Y7.891 Z-0.500 F100
G1 X6.203 Y7.800 Z-0.500 F100
G1 X6.115 Y7.698 Z-0.500 F100
G1 X6.041 Y7.587 Z-0.500 F100
G1 X5.979 Y7.468 Z-0.500 F100
G1 X5.933 Y7.342 Z-0.500 F100
G1 X5.901 Y7.212 Z-0.500 F100
G1 X5.885 Y7.079 Z-0.500 F100
G1 X5.885 Y6.945 Z-0.500 F100
G1 X5.901 Y6.812 Z-0.500 F100
G1 X5.933 Y6.681 Z-0.500 F100
G1 X5.979 Y6.555 Z-0.500 F100
G1 X6.041 Y6.436 Z-0.500 F100
G1 X6.115 Y6.325 Z-0.500 F100
G1 X6.203 Y6.223 Z-0.500 F100
G1 X6.302 Y6.133 Z-0.500 F100
G1 X6.411 Y6.055 Z-0.500 F100
G1 X6.528 Y5.990 Z-0.500 F100
G1 X6.653 Y5.940 Z-0.500 F100
G1 X6.782 Y5.904 Z-0.500 F100
G1 X6.915 Y5.884 Z-0.500 F100
G1 X7.049 Y5.880 Z-0.500 F100
G1 X7.182 Y5.892 Z-0.500 F100
G1 X7.313 Y5.920 Z-0.500 F100
G1 X7.440 Y5.963 Z-0.500 F100
G1 X7.562 Y6.021 Z-0.500 F100
G1 X7.675 Y6.092 Z-0.500 F100
G1 X7.779 Y6.177 Z-0.500 F100
G1 X7.872 Y6.273 Z-0.500 F100
G1 X7.954 Y6.379 Z-0.500 F100
G1 X8.022 Y6.495 Z-0.500 F100
G1 X8.076 Y6.618 Z-0.500 F100
G1 X8.115 Y6.746 Z-0.500 F100
G1 X8.139 Y6.878 Z-0.500 F100
G1 X8.147 Y7.012 Z-0.500 F100
G1 X8.182 Y7.565 Z-0.500 F500
G1 X8.210 Y7.701 Z-0.500 F500
G1 X8.204 Y7.851 Z-0.500 F500
G1 X8.167 Y7.996 Z-0.500 F500
G1 X8.105 Y8.133 Z-0.500 F500
G1 X8.023 Y8.259 Z-0.500 F500
G1 X7.925 Y8.372 Z-0.500 F500
G1 X7.813 Y8.472 Z-0.500 F500
G1 X7.690 Y8.558 Z-0.500 F500
G1 X7.558 Y8.629 Z-0.500 F500
G1 X7.419 Y8.686 Z-0.500 F500
G1 X7.275 Y8.728 Z-0.500 F500
G1 X7.127 Y8.755 Z-0.500 F500
G1 X6.978 Y8.768 Z-0.500 F500
G1 X6.828 Y8.767 Z-0.500 F500
G1 X6.679 Y8.752 Z-0.500 F500
G1 X6.532 Y8.723 Z-0.500 F500
G1 X6.388 Y8.681 Z-0.500 F500
G1 X6.248 Y8.627 Z-0.500 F500
G1 X6.113 Y8.560 Z-0.500 F500
G1 X5.985 Y8.482 Z-0.500 F500
G1 X5.865 Y8.393 Z-0.500 F500
G1 X5.752 Y8.294 Z-0.500 F500
G1 X5.648 Y8.186 Z-0.500 F500
G1 X5.554 Y8.069 Z-0.500 F500
G1 X5.470 Y7.945 Z-0.500 F500
G1 X5.397 Y7.814 Z-0.500 F500
G1 X5.335 Y7.677 Z-0.500 F500
G1 X5.284 Y7.536 Z-0.500 F500
G1 X5.246 Y7.391 Z-0.500 F500
G1 X5.220 Y7.243 Z-0.500 F500
G1 X5.207 Y7.094 Z-0.500 F500
G1 X5.206 Y6.944 Z-0.500 F500
G1 X5.217 Y6.794 Z-0.500 F500
G1 X5.241 Y6.646 Z-0.500 F500
G1 X5.277 Y6.500 Z-0.500 F500
G1 X5.325 Y6.358 Z-0.500 F500
G1 X5.385 Y6.221 Z-0.500 F500
G1 X5.455 Y6.088 Z-0.500 F500
G1 X5.537 Y5.963 Z-0.500 F500
G1 X5.629 Y5.844 Z-0.500 F500
G1 X5.730 Y5.733 Z-0.500 F500
G1 X5.840 Y5.631 Z-0.500 F500
G1 X5.958 Y5.539 Z-0.500 F500
G1 X6.083 Y5.456 Z-0.500 F500
G1 X6.215 Y5.385 Z-0.500 F500
G1 X6.352 Y5.324 Z-0.500 F500
G1 X6.494 Y5.275 Z-0.500 F500
G1 X6.639 Y5.238 Z-0.500 F500
G1 X6.787 Y5.213 Z-0.500 F500
G1 X6.937 Y5.200 Z-0.500 F500
G1 X7.087 Y5.200 Z-0.500 F500
G1 X7.236 Y5.212 Z-0.500 F500
G1 X7.384 Y5.236 Z-0.500 F500
G1 X7.530 Y5.273 Z-0.500 F500
G1 X7.672 Y5.321 Z-0.500 F500
G1 X7.809 Y5.381 Z-0.500 F500
G1 X7.941 Y5.453 Z-0.500 F500
G1 X8.067 Y5.534 Z-0.500 F500
G1 X8.185 Y5.626 Z-0.500 F500
G1 X8.296 Y5.728 Z-0.500 F500
G1 X8.398 Y5.838 Z-0.500 F500
G1 X8.490 Y5.956 Z-0.500 F500
G1 X8.572 Y6.082 Z-0.500 F500
G1 X8.662 Y6.247 Z-0.500 F500
G1 X8.777 Y6.506 Z-0.500 F500
G1 X8.869 Y6.768 Z-0.500 F500
G1 X8.929 Y6.994 Z-0.500 F500
G1 X8.963 Y7.184 Z-0.500 F500
G1 X8.979 Y7.358 Z-0.500 F500
G1 X8.982 Y7.533 Z-0.500 F500
G1 X8.972 Y7.691 Z-0.500 F500
G1 X8.949 Y7.850 Z-0.500 F500
G1 X8.914 Y8.006 Z-0.500 F500
G1 X8.868 Y8.150 Z-0.500 F500
G1 X8.809 Y8.297 Z-0.500 F500
G1 X8.738 Y8.437 Z-0.500 F500
G1 X8.658 Y8.568 Z-0.500 F500
G1 X8.565 Y8.698 Z-0.500 F500
G1 X8.459 Y8.821 Z-0.500 F500
G1 X8.346 Y8.934 Z-0.500 F500
G1 X8.222 Y9.039 Z-0.500 F500
G1 X8.086 Y9.137 Z-0.500 F500
G1 X7.939 Y9.226 Z-0.500 F500
G1 X7.787 Y9.302 Z-0.500 F500
G1 X7.628 Y9.365 Z-0.500 F500
G1 X7.461 Y9.418 Z-0.500 F500
G1 X7.286 Y9.457 Z-0.500 F500
G1 X7.105 Y9.482 Z-0.500 F500
G1 X6.922 Y9.494 Z-0.500 F500
G1 X6.737 Y9.490 Z-0.500 F500
G1 X6.552 Y9.471 Z-0.500 F500
G1 X6.368 Y9.438 Z-0.500 F500
G1 X6.184 Y9.389 Z-0.500 F500
G1 X6.003 Y9.325 Z-0.500 F500
G1 X5.826 Y9.245 Z-0.500 F500
G1 X5.654 Y9.151 Z-0.500 F500
G1 X5.489 Y9.043 Z-0.500 F500
G1 X5.333 Y8.921 Z-0.500 F500
G1 X5.186 Y8.786 Z-0.500 F500
G1 X5.051 Y8.640 Z-0.500 F500
G1 X4.927 Y8.482 Z-0.500 F500
G1 X4.816 Y8.315 Z-0.500 F500
G1 X4.718 Y8.139 Z-0.500 F500
G1 X4.634 Y7.955 Z-0.500 F500
G1 X4.566 Y7.765 Z-0.500 F500
G1 X4.513 Y7.569 Z-0.500 F500
G1 X4.475 Y7.369 Z-0.500 F500
G1 X4.454 Y7.166 Z-0.500 F500
G1 X4.449 Y6.962 Z-0.500 F500
G1 X4.460 Y6.758 Z-0.500 F500
G1 X4.488 Y6.554 Z-0.500 F500
G1 X4.532 Y6.354 Z-0.500 F500
G1 X4.592 Y6.157 Z-0.500 F500
G1 X4.668 Y5.966 Z-0.500 F500
G1 X4.759 Y5.781 Z-0.500 F500
G1 X4.864 Y5.604 Z-0.500 F500
G1 X4.984 Y5.436 Z-0.500 F500
G1 X5.116 Y5.278 Z-0.500 F500
G1 X5.261 Y5.132 Z-0.500 F500
G1 X5.418 Y4.997 Z-0.500 F500
G1 X5.584 Y4.875 Z-0.500 F500
G1 X5.760 Y4.767 Z-0.500 F500
G1 X5.944 Y4.673 Z-0.500 F500
G1 X6.135 Y4.595 Z-0.500 F500
G1 X6.332 Y4.532 Z-0.500 F500
G1 X6.533 Y4.485 Z-0.500 F500
G1 X6.737 Y4.454 Z-0.500 F500
G1 X6.943 Y4.440 Z-0.500 F500
G1 X7.150 Y4.442 Z-0.500 F500
G1 X7.355 Y4.461 Z-0.500 F500
G1 X7.559 Y4.496 Z-0.500 F500
G1 X7.758 Y4.548 Z-0.500 F500
G1 X7.953 Y4.615 Z-0.500 F500
G1 X8.142 Y4.698 Z-0.500 F500
G1 X8.324 Y4.796 Z-0.500 F500
G1 X8.498 Y4.908 Z-0.500 F500
G1 X8.662 Y5.034 Z-0.500 F500
G1 X8.821 Y5.178 Z-0.500 F500
G1 X8.987 Y5.353 Z-0.500 F500
G1 X9.145 Y5.551 Z-0.500 F500
G1 X9.292 Y5.769 Z-0.500 F500
G1 X9.426 Y6.004 Z-0.500 F500
G1 X9.538 Y6.247 Z-0.500 F500
G1 X9.628 Y6.491 Z-0.500 F500
G1 X9.697 Y6.734 Z-0.500 F500
G1 X9.744 Y6.974 Z-0.500 F500
G1 X9.771 Y7.213 Z-0.500 F500
G1 X9.779 Y7.447 Z-0.500 F500
G1 X9.768 Y7.679 Z-0.500 F500
G1 X9.738 Y7.907 Z-0.500 F500
G1 X9.691 Y8.130 Z-0.500 F500
G1 X9.627 Y8.346 Z-0.500 F500
G1 X9.545 Y8.557 Z-0.500 F500
G1 X9.448 Y8.760 Z-0.500 F500
G1 X9.334 Y8.954 Z-0.500 F500
G1 X9.204 Y9.139 Z-0.500 F500
G1 X9.060 Y9.315 Z-0.500 F500
G1 X8.900 Y9.479 Z-0.500 F500
G1 X8.728 Y9.630 Z-0.500 F500
G1 X8.542 Y9.768 Z-0.500 F500
G1 X8.344 Y9.892 Z-0.500 F500
G1 X8.135 Y10.001 Z-0.500 F500
G1 X7.916 Y10.093 Z-0.500 F500
G1 X7.688 Y10.168 Z-0.500 F500
G1 X7.453 Y10.225 Z-0.500 F500
G1 X7.212 Y10.263 Z-0.500 F500
G1 X6.968 Y10.282 Z-0.500 F500
G1 X6.721 Y10.281 Z-0.500 F500
G1 X6.472 Y10.260 Z-0.500 F500
G1 X6.224 Y10.219 Z-0.500 F500
G1 X5.979 Y10.158 Z-0.500 F500
G1 X5.737 Y10.077 Z-0.500 F500
G1 X5.502 Y9.976 Z-0.500 F500
G1 X5.273 Y9.855 Z-0.500 F500
G1 X5.054 Y9.716 Z-0.500 F500
G1 X4.846 Y9.560 Z-0.500 F500
G1 X4.651 Y9.386 Z-0.500 F500
G1 X4.469 Y9.196 Z-0.500 F500
G1 X4.302 Y8.992 Z-0.500 F500
G1 X4.152 Y8.774 Z-0.500 F500
G1 X4.020 Y8.544 Z-0.500 F500
G1 X3.906 Y8.304 Z-0.500 F500
G1 X3.812 Y8.055 Z-0.500 F500
G1 X3.753 Y7.852 Z-0.500 F500
G1 X3.741 Y7.802 Z-0.500 F500
G1 X3.733 Y7.750 Z-0.500 F500
G1 X3.731 Y7.698 Z-0.500 F500
G1 X3.731 Y6.744 Z-0.500 F500
G1 X3.743 Y6.508 Z-0.500 F500
G1 X3.772 Y6.282 Z-0.500 F500
G1 X3.822 Y6.051 Z-0.500 F500
G1 X3.891 Y5.819 Z-0.500 F500
G1 X3.981 Y5.587 Z-0.500 F500
G1 X4.092 Y5.360 Z-0.500 F500
G1 X4.222 Y5.140 Z-0.500 F500
G1 X4.370 Y4.928 Z-0.500 F500
G1 X4.537 Y4.727 Z-0.500 F500
G1 X4.721 Y4.539 Z-0.500 F500
G1 X4.920 Y4.365 Z-0.500 F500
G1 X5.134 Y4.207 Z-0.500 F500
G1 X5.361 Y4.065 Z-0.500 F500
G1 X5.599 Y3.942 Z-0.500 F500
G1 X5.848 Y3.839 Z-0.500 F500
G1 X6.104 Y3.755 Z-0.500 F500
G1 X6.140 Y3.746 Z-0.500 F500
G1 X6.183 Y3.738 Z-0.500 F500
G1 X6.226 Y3.733 Z-0.500 F500
G1 X6.270 Y3.731 Z-0.500 F500
G1 X6.323 Y3.739 Z-0.471 F500
G1 X6.372 Y3.758 Z-0.443 F500
G1 X6.416 Y3.788 Z-0.414 F500
G1 X6.453 Y3.827 Z-0.386 F500
G1 X6.480 Y3.873 Z-0.357 F500
G1 X6.496 Y3.924 Z-0.329 F500
G1 X6.500 Y3.977 Z-0.300 F500
G1 X6.492 Y4.029 Z-0.300 F500
G1 X6.474 Y4.078 Z-0.300 F500
G1 X6.445 Y4.121 Z-0.300 F500
G1 X6.315 Y4.279 Z-0.300 F500
G1 X4.255 Y6.764 Z-0.300 F500
G1 X4.153 Y6.888 Z-0.300 F500
G1 X4.117 Y6.923 Z-0.300 F500
G1 X4.074 Y6.949 Z-0.300 F500
G1 X4.027 Y6.967 Z-0.300 F500
G1 X3.977 Y6.974 Z-0.300 F500
G1 X3.924 Y6.969 Z-0.329 F500
G1 X3.873 Y6.954 Z-0.357 F500
G1 X3.827 Y6.927 Z-0.386 F500
G1 X3.788 Y6.890 Z-0.414 F500
G1 X3.758 Y6.846 Z-0.443 F500
G1 X3.739 Y6.797 Z-0.471 F500
G1 X3.731 Y6.744 Z-0.500 F500
G1 X3.731 Y5.231 Z-0.500 F500
G1 X3.739 Y5.081 Z-0.500 F500
G1 X3.762 Y4.933 Z-0.500 F500
G1 X3.801 Y4.788 Z-0.500 F500
G1 X3.854 Y4.642 Z-0.500 F500
G1 X3.923 Y4.491 Z-0.500 F500
G1 X4.015 Y4.324 Z-0.500 F500
G1 X4.124 Y4.162 Z-0.500 F500
G1 X4.259 Y3.990 Z-0.500 F500
G1 X4.336 Y3.908 Z-0.500 F500
G1 X4.453 Y3.812 Z-0.500 F500
G1 X4.592 Y3.752 Z-0.500 F500
G1 X4.743 Y3.731 Z-0.500 F500
G1 X4.795 Y3.739 Z-0.471 F500
G1 X4.845 Y3.758 Z-0.443 F500
G1 X4.889 Y3.788 Z-0.414 F500
G1 X4.926 Y3.827 Z-0.386 F500
G1 X4.952 Y3.873 Z-0.357 F500
G1 X4.968 Y3.924 Z-0.329 F500
G1 X4.972 Y3.977 Z-0.300 F500
G1 X4.963 Y4.038 Z-0.300 F500
G1 X4.938 Y4.093 Z-0.300 F500
G1 X4.813 Y4.297 Z-0.300 F500
G1 X4.238 Y5.239 Z-0.300 F500
G1 X4.172 Y5.347 Z-0.300 F500
G1 X4.136 Y5.393 Z-0.300 F500
G1 X4.089 Y5.428 Z-0.300 F500
G1 X4.035 Y5.451 Z-0.300 F500
G1 X3.977 Y5.461 Z-0.300 F500
G1 X3.924 Y5.456 Z-0.329 F500
G1 X3.873 Y5.441 Z-0.357 F500
G1 X3.827 Y5.414 Z-0.386 F500
G1 X3.788 Y5.377 Z-0.414 F500
G1 X3.758 Y5.333 Z-0.443 F500
G1 X3.739 Y5.283 Z-0.471 F500
G1 X3.731 Y5.231 Z-0.500 F500
G1 X3.731 Y4.348 Z-0.500 F500
G1 X3.732 Y4.317 Z-0.500 F500
G1 X3.736 Y4.285 Z-0.500 F500
G1 X3.780 Y4.064 Z-0.500 F500
G1 X3.789 Y4.033 Z-0.500 F500
G1 X3.805 Y4.001 Z-0.500 F500
G1 X3.824 Y3.970 Z-0.500 F500
G1 X3.849 Y3.932 Z-0.500 F500
G1 X3.868 Y3.905 Z-0.500 F500
G1 X3.894 Y3.879 Z-0.500 F500
G1 X3.940 Y3.844 Z-0.500 F500
G1 X3.975 Y3.820 Z-0.500 F500
G1 X4.006 Y3.802 Z-0.500 F500
G1 X4.038 Y3.788 Z-0.500 F500
G1 X4.101 Y3.772 Z-0.500 F500
G1 X4.290 Y3.735 Z-0.500 F500
G1 X4.353 Y3.731 Z-0.500 F500
G1 X7.249 Y3.731 Z-0.500 F500
G1 X7.541 Y3.746 Z-0.500 F500
G1 X7.765 Y3.775 Z-0.500 F500
G1 X7.991 Y3.823 Z-0.500 F500
G1 X8.218 Y3.891 Z-0.500 F500
G1 X8.444 Y3.979 Z-0.500 F500
G1 X8.670 Y4.089 Z-0.500 F500
G1 X8.896 Y4.222 Z-0.500 F500
G1 X9.121 Y4.380 Z-0.500 F500
G1 X9.342 Y4.564 Z-0.500 F500
G1 X9.556 Y4.772 Z-0.500 F500
G1 X9.756 Y5.002 Z-0.500 F500
G1 X9.940 Y5.250 Z-0.500 F500
G1 X10.105 Y5.516 Z-0.500 F500
G1 X10.249 Y5.795 Z-0.500 F500
G1 X10.370 Y6.083 Z-0.500 F500
G1 X10.466 Y6.378 Z-0.500 F500
G1 X10.538 Y6.678 Z-0.500 F500
G1 X10.585 Y6.979 Z-0.500 F500
G1 X10.607 Y7.280 Z-0.500 F500
G1 X10.606 Y7.580 Z-0.500 F500
G1 X10.580 Y7.877 Z-0.500 F500
G1 X10.531 Y8.170 Z-0.500 F500
G1 X10.459 Y8.456 Z-0.500 F500
G1 X10.364 Y8.735 Z-0.500 F500
G1 X10.247 Y9.006 Z-0.500 F500
G1 X10.109 Y9.266 Z-0.500 F500
G1 X9.951 Y9.514 Z-0.500 F500
G1 X9.924 Y9.549 Z-0.500 F500
G1 X9.820 Y9.654 Z-0.500 F500
G1 X9.692 Y9.728 Z-0.500 F500
G1 X9.549 Y9.765 Z-0.500 F500
G1 X9.510 Y9.770 Z-0.500 F500
G1 X9.390 Y9.792 Z-0.500 F500
G1 X8.634 Y9.941 Z-0.500 F500
G1 X8.509 Y9.969 Z-0.500 F500
G1 X8.383 Y10.000 Z-0.500 F500
G1 X8.326 Y10.022 Z-0.500 F500
G1 X8.257 Y10.051 Z-0.500 F500
G1 X8.131 Y10.116 Z-0.500 F500
G1 X8.005 Y10.194 Z-0.500 F500
G1 X7.375 Y10.613 Z-0.500 F500
G1 X7.316 Y10.653 Z-0.500 F500
G1 X7.188 Y10.731 Z-0.500 F500
G1 X7.051 Y10.792 Z-0.500 F500
G1 X6.909 Y10.840 Z-0.500 F500
G1 X6.752 Y10.879 Z-0.500 F500
G1 X6.589 Y10.905 Z-0.500 F500
G1 X6.401 Y10.920 Z-0.500 F500
G1 X6.196 Y10.920 Z-0.500 F500
G1 X5.985 Y10.903 Z-0.500 F500
G1 X5.755 Y10.865 Z-0.500 F500
G1 X5.511 Y10.805 Z-0.500 F500
G1 X5.261 Y10.721 Z-0.500 F500
G1 X5.013 Y10.616 Z-0.500 F500
G1 X4.764 Y10.485 Z-0.500 F500
G1 X4.516 Y10.328 Z-0.500 F500
G1 X4.274 Y10.147 Z-0.500 F500
G1 X4.042 Y9.942 Z-0.500 F500
G1 X3.886 Y9.780 Z-0.500 F500
G1 X3.802 Y9.666 Z-0.500 F500
G1 X3.749 Y9.535 Z-0.500 F500
G1 X3.731 Y9.394 Z-0.500 F500
G1 X3.739 Y9.342 Z-0.471 F500
G1 X3.758 Y9.292 Z-0.443 F500
G1 X3.788 Y9.248 Z-0.414 F500
G1 X3.827 Y9.211 Z-0.386 F500
G1 X3.873 Y9.185 Z-0.357 F500
G1 X3.924 Y9.169 Z-0.329 F500
G1 X3.977 Y9.165 Z-0.300 F500
G1 X4.011 Y9.168 Z-0.300 F500
G1 X4.044 Y9.177 Z-0.300 F500
G1 X4.322 Y9.268 Z-0.300 F500
G1 X7.048 Y10.167 Z-0.300 F500
G1 X7.250 Y10.234 Z-0.300 F500
G1 X7.295 Y10.254 Z-0.300 F500
G1 X7.335 Y10.283 Z-0.300 F500
G1 X7.368 Y10.320 Z-0.300 F500
G1 X7.394 Y10.366 Z-0.329 F500
G1 X7.410 Y10.417 Z-0.357 F500
G1 X7.413 Y10.471 Z-0.386 F500
G1 X7.405 Y10.523 Z-0.414 F500
G1 X7.385 Y10.573 Z-0.443 F500
G1 X7.355 Y10.617 Z-0.471 F500
G1 X7.316 Y10.653 Z-0.500 F500
G1 X7.249 Y10.698 Z-0.500 F500
G1 X7.140 Y10.779 Z-0.500 F500
G1 X7.123 Y10.792 Z-0.500 F500
G1 X7.065 Y10.846 Z-0.500 F500
G1 X7.007 Y10.905 Z-0.500 F500
G1 X6.997 Y10.917 Z-0.500 F500
G1 X6.913 Y11.031 Z-0.500 F500
G1 X6.890 Y11.064 Z-0.500 F500
G1 X6.799 Y11.184 Z-0.500 F500
G1 X6.682 Y11.278 Z-0.500 F500
G1 X6.554 Y11.355 Z-0.500 F500
G1 X6.416 Y11.415 Z-0.500 F500
G1 X6.273 Y11.461 Z-0.500 F500
G1 X6.127 Y11.494 Z-0.500 F500
G1 X5.960 Y11.518 Z-0.500 F500
G1 X5.785 Y11.528 Z-0.500 F500
G1 X5.589 Y11.523 Z-0.500 F500
G1 X5.371 Y11.501 Z-0.500 F500
G1 X5.150 Y11.460 Z-0.500 F500
G1 X4.907 Y11.395 Z-0.500 F500
G1 X4.646 Y11.302 Z-0.500 F500
G1 X4.382 Y11.183 Z-0.500 F500
G1 X4.120 Y11.038 Z-0.500 F500
G1 X3.980 Y10.945 Z-0.500 F500
G1 X3.847 Y10.821 Z-0.500 F500
G1 X3.761 Y10.661 Z-0.500 F500
G1 X3.731 Y10.482 Z-0.500 F500
G1 X3.739 Y10.429 Z-0.471 F500
G1 X3.758 Y10.379 Z-0.443 F500
G1 X3.788 Y10.335 Z-0.414 F500
G1 X3.827 Y10.299 Z-0.386 F500
G1 X3.873 Y10.272 Z-0.357 F500
G1 X3.924 Y10.256 Z-0.329 F500
G1 X3.977 Y10.252 Z-0.300 F500
G1 X4.008 Y10.255 Z-0.300 F500
G1 X4.334 Y10.308 Z-0.300 F500
G1 X6.466 Y10.659 Z-0.300 F500
G1 X6.727 Y10.702 Z-0.300 F500
G1 X6.774 Y10.714 Z-0.300 F500
G1 X6.816 Y10.736 Z-0.300 F500
G1 X6.858 Y10.769 Z-0.329 F500
G1 X6.891 Y10.811 Z-0.357 F500
G1 X6.914 Y10.859 Z-0.386 F500
G1 X6.926 Y10.911 Z-0.414 F500
G1 X6.925 Y10.964 Z-0.443 F500
G1 X6.913 Y11.016 Z-0.471 F500
G1 X6.890 Y11.064 Z-0.500 F500
G1 X6.619 Y11.461 Z-0.500 F500
G1 X6.493 Y11.648 Z-0.500 F500
G1 X6.403 Y11.768 Z-0.500 F500
G1 X6.291 Y11.867 Z-0.500 F500
G1 X6.165 Y11.949 Z-0.500 F500
G1 X6.031 Y12.016 Z-0.500 F500
G1 X5.891 Y12.068 Z-0.500 F500
G1 X5.746 Y12.108 Z-0.500 F500
G1 X5.587 Y12.138 Z-0.500 F500
G1 X5.407 Y12.157 Z-0.500 F500
G1 X5.217 Y12.162 Z-0.500 F500
G1 X4.998 Y12.149 Z-0.500 F500
G1 X4.771 Y12.118 Z-0.500 F500
G1 X4.527 Y12.065 Z-0.500 F500
G1 X4.313 Y11.999 Z-0.500 F500
G1 X4.114 Y11.920 Z-0.500 F500
G1 X4.041 Y11.884 Z-0.500 F500
G1 X3.914 Y11.798 Z-0.500 F500
G1 X3.815 Y11.679 Z-0.500 F500
G1 X3.752 Y11.538 Z-0.500 F500
G1 X3.731 Y11.386 Z-0.500 F500
G1 X3.739 Y11.333 Z-0.471 F500
G1 X3.758 Y11.283 Z-0.443 F500
G1 X3.788 Y11.239 Z-0.414 F500
G1 X3.827 Y11.203 Z-0.386 F500
G1 X3.873 Y11.176 Z-0.357 F500
G1 X3.924 Y11.160 Z-0.329 F500
G1 X3.977 Y11.156 Z-0.300 F500
G1 X3.982 Y11.156 Z-0.300 F500
G1 X4.338 Y11.176 Z-0.300 F500
G1 X6.064 Y11.270 Z-0.300 F500
G1 X6.304 Y11.283 Z-0.300 F500
G1 X6.363 Y11.294 Z-0.300 F500
G1 X6.418 Y11.319 Z-0.300 F500
G1 X6.460 Y11.353 Z-0.329 F500
G1 X6.493 Y11.394 Z-0.357 F500
G1 X6.516 Y11.442 Z-0.386 F500
G1 X6.528 Y11.494 Z-0.414 F500
G1 X6.528 Y11.547 Z-0.443 F500
G1 X6.517 Y11.599 Z-0.471 F500
G1 X6.493 Y11.648 Z-0.500 F500
G1 X6.143 Y12.166 Z-0.500 F500
G1 X6.116 Y12.197 Z-0.500 F500
G1 X6.084 Y12.226 Z-0.500 F500
G1 X6.053 Y12.248 Z-0.500 F500
G1 X5.990 Y12.285 Z-0.500 F500
G1 X5.975 Y12.292 Z-0.500 F500
G1 X5.948 Y12.302 Z-0.500 F500
G1 X5.920 Y12.309 Z-0.500 F500
G1 X5.738 Y12.345 Z-0.500 F500
G1 X5.675 Y12.354 Z-0.500 F500
G1 X4.353 Y12.354 Z-0.500 F500
G1 X4.290 Y12.350 Z-0.500 F500
G1 X4.101 Y12.313 Z-0.500 F500
G1 X4.027 Y12.292 Z-0.500 F500
G1 X4.001 Y12.280 Z-0.500 F500
G1 X3.975 Y12.265 Z-0.500 F500
G1 X3.916 Y12.225 Z-0.500 F500
G1 X3.900 Y12.212 Z-0.500 F500
G1 X3.883 Y12.196 Z-0.500 F500
G1 X3.858 Y12.166 Z-0.500 F500
G1 X3.811 Y12.096 Z-0.500 F500
G1 X3.797 Y12.068 Z-0.500 F500
G1 X3.786 Y12.040 Z-0.500 F500
G1 X3.758 Y11.914 Z-0.500 F500
G1 X3.734 Y11.788 Z-0.500 F500
G1 X3.731 Y11.661 Z-0.500 F500
G1 X3.731 Y7.698 Z-0.500 F500
G1 X3.739 Y7.644 Z-0.471 F500
G1 X3.759 Y7.593 Z-0.442 F500
G1 X3.790 Y7.549 Z-0.413 F500
G1 X3.929 Y7.391 Z-0.300 F500
G1 X4.168 Y7.120 Z-0.300 F500
G1 X6.721 Y4.218 Z-0.300 F500
G1 X6.960 Y3.947 Z-0.300 F500
G1 X7.079 Y3.812 Z-0.396 F500
G1 X7.114 Y3.779 Z-0.422 F500
G1 X7.156 Y3.754 Z-0.448 F500
G1 X7.201 Y3.738 Z-0.474 F500
G1 X7.249 Y3.731 Z-0.500 F500
G1 X8.760 Y3.731 Z-0.500 F500
G1 X8.924 Y3.739 Z-0.500 F500
G1 X9.073 Y3.759 Z-0.500 F500
G1 X9.219 Y3.794 Z-0.500 F500
G1 X9.361 Y3.841 Z-0.500 F500
G1 X9.525 Y3.910 Z-0.500 F500
G1 X9.687 Y3.994 Z-0.500 F500
G1 X9.870 Y4.109 Z-0.500 F500
G1 X10.051 Y4.244 Z-0.500 F500
G1 X10.239 Y4.409 Z-0.500 F500
G1 X10.432 Y4.608 Z-0.500 F500
G1 X10.620 Y4.837 Z-0.500 F500
G1 X10.793 Y5.085 Z-0.500 F500
G1 X10.955 Y5.363 Z-0.500 F500
G1 X11.100 Y5.666 Z-0.500 F500
G1 X11.225 Y5.989 Z-0.500 F500
G1 X11.325 Y6.328 Z-0.500 F500
G1 X11.398 Y6.677 Z-0.500 F500
G1 X11.444 Y7.034 Z-0.500 F500
G1 X11.460 Y7.395 Z-0.500 F500
G1 X11.448 Y7.757 Z-0.500 F500
G1 X11.407 Y8.117 Z-0.500 F500
G1 X11.337 Y8.472 Z-0.500 F500
G1 X11.238 Y8.821 Z-0.500 F500
G1 X11.114 Y9.156 Z-0.500 F500
G1 X11.005 Y9.389 Z-0.500 F500
G1 X10.903 Y9.569 Z-0.500 F500
G1 X10.879 Y9.604 Z-0.500 F500
G1 X10.769 Y9.724 Z-0.500 F500
G1 X10.630 Y9.806 Z-0.500 F500
G1 X10.473 Y9.845 Z-0.500 F500
G1 X10.311 Y9.837 Z-0.500 F500
G1 X10.020 Y9.780 Z-0.500 F500
G1 X9.965 Y9.770 Z-0.500 F500
G1 X9.894 Y9.758 Z-0.500 F500
G1 X9.768 Y9.748 Z-0.500 F500
G1 X9.642 Y9.754 Z-0.500 F500
G1 X9.549 Y9.765 Z-0.500 F500
G1 X9.489 Y9.763 Z-0.468 F500
G1 X9.431 Y9.745 Z-0.435 F500
G1 X9.380 Y9.714 Z-0.403 F500
G1 X9.338 Y9.670 Z-0.371 F500
G1 X9.308 Y9.618 Z-0.338 F500
G1 X9.292 Y9.560 Z-0.306 F500
G1 X9.291 Y9.549 Z-0.300 F500
G1 X9.242 Y9.191 Z-0.300 F500
G1 X8.578 Y4.335 Z-0.300 F500
G1 X8.533 Y4.001 Z-0.300 F500
G1 X8.531 Y3.977 Z-0.300 F500
G1 X8.535 Y3.924 Z-0.329 F500
G1 X8.551 Y3.873 Z-0.357 F500
G1 X8.577 Y3.827 Z-0.386 F500
G1 X8.614 Y3.788 Z-0.414 F500
G1 X8.658 Y3.758 Z-0.443 F500
G1 X8.708 Y3.739 Z-0.471 F500
G1 X8.760 Y3.731 Z-0.500 F500
G1 X9.894 Y3.731 Z-0.500 F500
G1 X10.044 Y3.739 Z-0.500 F500
G1 X10.191 Y3.767 Z-0.500 F500
G1 X10.334 Y3.811 Z-0.500 F500
G1 X10.473 Y3.868 Z-0.500 F500
G1 X10.617 Y3.942 Z-0.500 F500
G1 X10.771 Y4.038 Z-0.500 F500
G1 X10.935 Y4.158 Z-0.500 F500
G1 X11.099 Y4.300 Z-0.500 F500
G1 X11.277 Y4.481 Z-0.500 F500
G1 X11.445 Y4.683 Z-0.500 F500
G1 X11.613 Y4.921 Z-0.500 F500
G1 X11.777 Y5.199 Z-0.500 F500
G1 X11.930 Y5.511 Z-0.500 F500
G1 X12.061 Y5.845 Z-0.500 F500
G1 X12.168 Y6.201 Z-0.500 F500
G1 X12.251 Y6.582 Z-0.500 F500
G1 X12.304 Y6.983 Z-0.500 F500
G1 X12.326 Y7.395 Z-0.500 F500
G1 X12.314 Y7.814 Z-0.500 F500
G1 X12.269 Y8.235 Z-0.500 F500
G1 X12.189 Y8.653 Z-0.500 F500
G1 X12.086 Y9.026 Z-0.500 F500
G1 X11.991 Y9.288 Z-0.500 F500
G1 X11.891 Y9.506 Z-0.500 F500
G1 X11.805 Y9.660 Z-0.500 F500
G1 X11.707 Y9.807 Z-0.500 F500
G1 X11.696 Y9.820 Z-0.500 F500
G1 X11.576 Y9.933 Z-0.500 F500
G1 X11.427 Y10.005 Z-0.500 F500
G1 X11.264 Y10.030 Z-0.500 F500
G1 X11.101 Y10.007 Z-0.500 F500
G1 X11.027 Y9.985 Z-0.500 F500
G1 X10.901 Y9.954 Z-0.500 F500
G1 X10.311 Y9.837 Z-0.500 F500
G1 X10.255 Y9.816 Z-0.468 F500
G1 X10.206 Y9.782 Z-0.436 F500
G1 X10.167 Y9.737 Z-0.404 F500
G1 X10.140 Y9.683 Z-0.372 F500
G1 X10.128 Y9.625 Z-0.340 F500
G1 X10.122 Y9.551 Z-0.300 F500
G1 X10.092 Y9.191 Z-0.300 F500
G1 X9.693 Y4.337 Z-0.300 F500
G1 X9.665 Y3.989 Z-0.300 F500
G1 X9.664 Y3.977 Z-0.300 F500
G1 X9.668 Y3.924 Z-0.329 F500
G1 X9.684 Y3.873 Z-0.357 F500
G1 X9.711 Y3.827 Z-0.386 F500
G1 X9.747 Y3.788 Z-0.414 F500
G1 X9.791 Y3.758 Z-0.443 F500
G1 X9.841 Y3.739 Z-0.471 F500
G1 X9.894 Y3.731 Z-0.500 F500
G1 X10.524 Y3.731 Z-0.500 F500
G1 X10.555 Y3.734 Z-0.500 F500
G1 X10.775 Y3.777 Z-0.500 F500
G1 X10.807 Y3.785 Z-0.500 F500
G1 X10.838 Y3.798 Z-0.500 F500
G1 X10.901 Y3.836 Z-0.500 F500
G1 X11.059 Y3.942 Z-0.500 F500
G1 X11.091 Y3.970 Z-0.500 F500
G1 X12.352 Y5.231 Z-0.500 F500
G1 X12.476 Y5.367 Z-0.500 F500
G1 X12.587 Y5.512 Z-0.500 F500
G1 X12.690 Y5.670 Z-0.500 F500
G1 X12.801 Y5.876 Z-0.500 F500
G1 X12.897 Y6.096 Z-0.500 F500
G1 X12.993 Y6.373 Z-0.500 F500
G1 X13.071 Y6.675 Z-0.500 F500
G1 X13.131 Y7.014 Z-0.500 F500
G1 X13.166 Y7.399 Z-0.500 F500
G1 X13.171 Y7.816 Z-0.500 F500
G1 X13.142 Y8.245 Z-0.500 F500
G1 X13.082 Y8.646 Z-0.500 F500
G1 X12.997 Y9.014 Z-0.500 F500
G1 X12.894 Y9.335 Z-0.500 F500
G1 X12.799 Y9.566 Z-0.500 F500
G1 X12.698 Y9.766 Z-0.500 F500
G1 X12.608 Y9.913 Z-0.500 F500
G1 X12.512 Y10.045 Z-0.500 F500
G1 X12.410 Y10.162 Z-0.500 F500
G1 X12.304 Y10.268 Z-0.500 F500
G1 X12.296 Y10.274 Z-0.500 F500
G1 X12.144 Y10.363 Z-0.500 F500
G1 X11.971 Y10.399 Z-0.500 F500
G1 X11.796 Y10.380 Z-0.500 F500
G1 X11.636 Y10.307 Z-0.500 F500
G1 X11.396 Y10.148 Z-0.500 F500
G1 X11.279 Y10.082 Z-0.500 F500
G1 X11.152 Y10.022 Z-0.500 F500
G1 X11.101 Y10.007 Z-0.500 F500
G1 X11.049 Y9.982 Z-0.469 F500
G1 X11.004 Y9.945 Z-0.437 F500
G1 X10.969 Y9.897 Z-0.406 F500
G1 X10.947 Y9.843 Z-0.375 F500
G1 X10.939 Y9.786 Z-0.344 F500
G1 X10.945 Y9.728 Z-0.312 F500
G1 X10.951 Y9.705 Z-0.300 F500
G1 X11.032 Y9.353 Z-0.300 F500
G1 X11.905 Y5.582 Z-0.300 F500
G1 X11.958 Y5.351 Z-0.300 F500
G1 X11.971 Y5.312 Z-0.300 F500
G1 X11.990 Y5.275 Z-0.300 F500
G1 X12.016 Y5.242 Z-0.300 F500
G1 X12.056 Y5.208 Z-0.329 F500
G1 X12.104 Y5.183 Z-0.357 F500
G1 X12.155 Y5.169 Z-0.386 F500
G1 X12.208 Y5.167 Z-0.414 F500
G1 X12.261 Y5.178 Z-0.443 F500
G1 X12.310 Y5.199 Z-0.471 F500
G1 X12.352 Y5.231 Z-0.500 F500
G1 X13.361 Y6.239 Z-0.500 F500
G1 X13.462 Y6.351 Z-0.500 F500
G1 X13.550 Y6.472 Z-0.500 F500
G1 X13.627 Y6.601 Z-0.500 F500
G1 X13.708 Y6.763 Z-0.500 F500
G1 X13.781 Y6.947 Z-0.500 F500
G1 X13.849 Y7.166 Z-0.500 F500
G1 X13.905 Y7.416 Z-0.500 F500
G1 X13.947 Y7.715 Z-0.500 F500
G1 X13.965 Y8.022 Z-0.500 F500
G1 X13.957 Y8.366 Z-0.500 F500
G1 X13.921 Y8.725 Z-0.500 F500
G1 X13.857 Y9.068 Z-0.500 F500
G1 X13.772 Y9.388 Z-0.500 F500
G1 X13.673 Y9.664 Z-0.500 F500
G1 X13.560 Y9.914 Z-0.500 F500
G1 X13.439 Y10.134 Z-0.500 F500
G1 X13.335 Y10.291 Z-0.500 F500
G1 X13.216 Y10.443 Z-0.500 F500
G1 X13.113 Y10.555 Z-0.500 F500
G1 X13.003 Y10.657 Z-0.500 F500
G1 X12.928 Y10.715 Z-0.500 F500
G1 X12.773 Y10.800 Z-0.500 F500
G1 X12.599 Y10.832 Z-0.500 F500
G1 X12.424 Y10.808 Z-0.500 F500
G1 X12.265 Y10.730 Z-0.500 F500
G1 X12.156 Y10.653 Z-0.500 F500
G1 X11.636 Y10.307 Z-0.500 F500
G1 X11.597 Y10.272 Z-0.472 F500
G1 X11.567 Y10.230 Z-0.444 F500
G1 X11.547 Y10.182 Z-0.416 F500
G1 X11.537 Y10.130 Z-0.388 F500
G1 X11.539 Y10.078 Z-0.360 F500
G1 X11.553 Y10.028 Z-0.332 F500
G1 X11.574 Y9.971 Z-0.300 F500
G1 X11.704 Y9.634 Z-0.300 F500
G1 X12.879 Y6.580 Z-0.300 F500
G1 X12.976 Y6.328 Z-0.300 F500
G1 X12.997 Y6.287 Z-0.300 F500
G1 X13.025 Y6.251 Z-0.300 F500
G1 X13.065 Y6.216 Z-0.329 F500
G1 X13.112 Y6.192 Z-0.357 F500
G1 X13.164 Y6.178 Z-0.386 F500
G1 X13.217 Y6.176 Z-0.414 F500
G1 X13.270 Y6.186 Z-0.443 F500
G1 X13.318 Y6.208 Z-0.471 F500
G1 X13.361 Y6.239 Z-0.500 F500
G1 X14.176 Y7.054 Z-0.500 F500
G1 X14.276 Y7.165 Z-0.500 F500
G1 X14.364 Y7.287 Z-0.500 F500
G1 X14.439 Y7.417 Z-0.500 F500
G1 X14.504 Y7.555 Z-0.500 F500
G1 X14.565 Y7.720 Z-0.500 F500
G1 X14.619 Y7.910 Z-0.500 F500
G1 X14.662 Y8.128 Z-0.500 F500
G1 X14.690 Y8.365 Z-0.500 F500
G1 X14.699 Y8.637 Z-0.500 F500
G1 X14.686 Y8.926 Z-0.500 F500
G1 X14.649 Y9.219 Z-0.500 F500
G1 X14.587 Y9.516 Z-0.500 F500
G1 X14.501 Y9.809 Z-0.500 F500
G1 X14.397 Y10.078 Z-0.500 F500
G1 X14.280 Y10.323 Z-0.500 F500
G1 X14.150 Y10.546 Z-0.500 F500
G1 X14.026 Y10.725 Z-0.500 F500
G1 X13.893 Y10.886 Z-0.500 F500
G1 X13.776 Y11.007 Z-0.500 F500
G1 X13.663 Y11.106 Z-0.500 F500
G1 X13.537 Y11.200 Z-0.500 F500
G1 X13.410 Y11.280 Z-0.500 F500
G1 X13.337 Y11.316 Z-0.500 F500
G1 X13.147 Y11.372 Z-0.500 F500
G1 X12.949 Y11.358 Z-0.500 F500
G1 X12.768 Y11.275 Z-0.500 F500
G1 X12.629 Y11.133 Z-0.500 F500
G1 X12.539 Y11.001 Z-0.500 F500
G1 X12.462 Y10.905 Z-0.500 F500
G1 X12.413 Y10.852 Z-0.500 F500
G1 X12.333 Y10.779 Z-0.500 F500
G1 X12.265 Y10.730 Z-0.500 F500
G1 X12.226 Y10.693 Z-0.471 F500
G1 X12.196 Y10.647 Z-0.442 F500
G1 X12.178 Y10.596 Z-0.413 F500
G1 X12.171 Y10.542 Z-0.384 F500
G1 X12.177 Y10.488 Z-0.354 F500
G1 X12.195 Y10.437 Z-0.325 F500
G1 X12.216 Y10.394 Z-0.300 F500
G1 X12.373 Y10.069 Z-0.300 F500
G1 X13.673 Y7.385 Z-0.300 F500
G1 X13.799 Y7.124 Z-0.300 F500
G1 X13.817 Y7.094 Z-0.300 F500
G1 X13.839 Y7.066 Z-0.300 F500
G1 X13.880 Y7.031 Z-0.329 F500
G1 X13.927 Y7.006 Z-0.357 F500
G1 X13.978 Y6.993 Z-0.386 F500
G1 X14.032 Y6.991 Z-0.414 F500
G1 X14.084 Y7.001 Z-0.443 F500
G1 X14.133 Y7.022 Z-0.471 F500
G1 X14.176 Y7.054 Z-0.500 F500
G1 X14.931 Y7.809 Z-0.500 F500
G1 X15.038 Y7.915 Z-0.500 F500
G1 X15.121 Y8.039 Z-0.500 F500
G1 X15.192 Y8.172 Z-0.500 F500
G1 X15.249 Y8.311 Z-0.500 F500
G1 X15.298 Y8.465 Z-0.500 F500
G1 X15.341 Y8.646 Z-0.500 F500
G1 X15.370 Y8.839 Z-0.500 F500
G1 X15.386 Y9.066 Z-0.500 F500
G1 X15.384 Y9.304 Z-0.500 F500
G1 X15.361 Y9.556 Z-0.500 F500
G1 X15.315 Y9.824 Z-0.500 F500
G1 X15.244 Y10.100 Z-0.500 F500
G1 X15.152 Y10.368 Z-0.500 F500
G1 X15.039 Y10.626 Z-0.500 F500
G1 X14.911 Y10.864 Z-0.500 F500
G1 X14.772 Y11.081 Z-0.500 F500
G1 X14.622 Y11.277 Z-0.500 F500
G1 X14.471 Y11.444 Z-0.500 F500
G1 X14.338 Y11.570 Z-0.500 F500
G1 X14.186 Y11.692 Z-0.500 F500
G1 X14.057 Y11.780 Z-0.500 F500
G1 X13.927 Y11.854 Z-0.500 F500
G1 X13.789 Y11.916 Z-0.500 F500
G1 X13.648 Y11.967 Z-0.500 F500
G1 X13.641 Y11.969 Z-0.500 F500
G1 X13.472 Y11.986 Z-0.500 F500
G1 X13.305 Y11.951 Z-0.500 F500
G1 X13.157 Y11.867 Z-0.500 F500
G1 X13.041 Y11.742 Z-0.500 F500
G1 X12.790 Y11.370 Z-0.500 F500
G1 X12.629 Y11.133 Z-0.500 F500
G1 X12.605 Y11.084 Z-0.471 F500
G1 X12.593 Y11.031 Z-0.442 F500
G1 X12.593 Y10.977 Z-0.412 F500
G1 X12.606 Y10.924 Z-0.383 F500
G1 X12.631 Y10.875 Z-0.354 F500
G1 X12.686 Y10.790 Z-0.300 F500
G1 X12.884 Y10.488 Z-0.300 F500
G1 X14.402 Y8.170 Z-0.300 F500
G1 X14.596 Y7.874 Z-0.300 F500
G1 X14.600 Y7.868 Z-0.300 F500
G1 X14.635 Y7.828 Z-0.329 F500
G1 X14.678 Y7.797 Z-0.357 F500
G1 X14.727 Y7.776 Z-0.386 F500
G1 X14.780 Y7.767 Z-0.414 F500
G1 X14.833 Y7.769 Z-0.443 F500
G1 X14.884 Y7.784 Z-0.471 F500
G1 X14.931 Y7.809 Z-0.500 F500
G1 X15.057 Y7.902 Z-0.500 F500
G1 X15.309 Y8.085 Z-0.500 F500
G1 X15.377 Y8.131 Z-0.500 F500
G1 X15.435 Y8.169 Z-0.500 F500
G1 X15.557 Y8.257 Z-0.500 F500
G1 X15.666 Y8.360 Z-0.500 F500
G1 X15.759 Y8.477 Z-0.500 F500
G1 X15.838 Y8.605 Z-0.500 F500
G1 X15.902 Y8.740 Z-0.500 F500
G1 X15.955 Y8.881 Z-0.500 F500
G1 X16.001 Y9.043 Z-0.500 F500
G1 X16.037 Y9.220 Z-0.500 F500
G1 X16.060 Y9.417 Z-0.500 F500
G1 X16.068 Y9.641 Z-0.500 F500
G1 X16.058 Y9.872 Z-0.500 F500
G1 X16.027 Y10.121 Z-0.500 F500
G1 X15.972 Y10.385 Z-0.500 F500
G1 X15.893 Y10.655 Z-0.500 F500
G1 X15.790 Y10.924 Z-0.500 F500
G1 X15.666 Y11.185 Z-0.500 F500
G1 X15.525 Y11.427 Z-0.500 F500
G1 X15.368 Y11.653 Z-0.500 F500
G1 X15.201 Y11.857 Z-0.500 F500
G1 X15.028 Y12.037 Z-0.500 F500
G1 X14.848 Y12.195 Z-0.500 F500
G1 X14.785 Y12.243 Z-0.500 F500
G1 X14.682 Y12.304 Z-0.500 F500
G1 X14.570 Y12.341 Z-0.500 F500
G1 X14.451 Y12.354 Z-0.500 F500
G1 X13.798 Y12.354 Z-0.500 F500
G1 X13.766 Y12.351 Z-0.500 F500
G1 X13.546 Y12.308 Z-0.500 F500
G1 X13.520 Y12.302 Z-0.500 F500
G1 X13.494 Y12.292 Z-0.500 F500
G1 X13.420 Y12.248 Z-0.500 F500
G1 X13.374 Y12.216 Z-0.500 F500
G1 X13.349 Y12.191 Z-0.500 F500
G1 X13.328 Y12.166 Z-0.500 F500
G1 X13.041 Y11.742 Z-0.500 F500
G1 X13.018 Y11.693 Z-0.471 F500
G1 X13.007 Y11.641 Z-0.443 F500
G1 X13.007 Y11.587 Z-0.414 F500
G1 X13.019 Y11.535 Z-0.385 F500
G1 X13.043 Y11.487 Z-0.356 F500
G1 X13.099 Y11.398 Z-0.300 F500
G1 X13.294 Y11.094 Z-0.300 F500
G1 X14.914 Y8.555 Z-0.300 F500
G1 X15.108 Y8.250 Z-0.300 F500
G1 X15.111 Y8.245 Z-0.303 F500
G1 X15.151 Y8.198 Z-0.336 F500
G1 X15.201 Y8.163 Z-0.369 F500
G1 X15.258 Y8.141 Z-0.402 F500
G1 X15.319 Y8.135 Z-0.434 F500
G1 X15.379 Y8.144 Z-0.467 F500
G1 X15.435 Y8.169 Z-0.500 F500
G1 X15.687 Y8.332 Z-0.500 F500
G1 X15.778 Y8.383 Z-0.500 F500
G1 X15.813 Y8.399 Z-0.500 F500
G1 X15.939 Y8.448 Z-0.500 F500
G1 X15.977 Y8.459 Z-0.500 F500
G1 X16.119 Y8.506 Z-0.500 F500
G1 X16.241 Y8.594 Z-0.500 F500
G1 X16.348 Y8.699 Z-0.500 F500
G1 X16.440 Y8.817 Z-0.500 F500
G1 X16.519 Y8.945 Z-0.500 F500
G1 X16.586 Y9.079 Z-0.500 F500
G1 X16.644 Y9.227 Z-0.500 F500
G1 X16.691 Y9.386 Z-0.500 F500
G1 X16.732 Y9.574 Z-0.500 F500
G1 X16.758 Y9.771 Z-0.500 F500
G1 X16.769 Y9.991 Z-0.500 F500
G1 X16.762 Y10.238 Z-0.500 F500
G1 X16.734 Y10.492 Z-0.500 F500
G1 X16.683 Y10.757 Z-0.500 F500
G1 X16.606 Y11.036 Z-0.500 F500
G1 X16.502 Y11.319 Z-0.500 F500
G1 X16.374 Y11.599 Z-0.500 F500
G1 X16.222 Y11.870 Z-0.500 F500
G1 X16.049 Y12.127 Z-0.500 F500
G1 X16.036 Y12.144 Z-0.500 F500
G1 X15.914 Y12.257 Z-0.500 F500
G1 X15.765 Y12.329 Z-0.500 F500
G1 X15.600 Y12.354 Z-0.500 F500
G1 X14.451 Y12.354 Z-0.500 F500
G1 X14.399 Y12.346 Z-0.471 F500
G1 X14.349 Y12.327 Z-0.443 F500
G1 X14.305 Y12.297 Z-0.414 F500
G1 X14.268 Y12.258 Z-0.386 F500
G1 X14.242 Y12.212 Z-0.357 F500
G1 X14.226 Y12.161 Z-0.329 F500
G1 X14.222 Y12.108 Z-0.300 F500
G1 X14.227 Y12.064 Z-0.300 F500
G1 X14.241 Y12.022 Z-0.300 F500
G1 X14.348 Y11.771 Z-0.300 F500
G1 X15.544 Y8.965 Z-0.300 F500
G1 X15.686 Y8.633 Z-0.300 F500
G1 X15.701 Y8.597 Z-0.321 F500
G1 X15.729 Y8.548 Z-0.351 F500
G1 X15.767 Y8.508 Z-0.381 F500
G1 X15.814 Y8.477 Z-0.410 F500
G1 X15.866 Y8.458 Z-0.440 F500
G1 X15.922 Y8.452 Z-0.470 F500
G1 X15.977 Y8.459 Z-0.500 F500
G1 X16.065 Y8.483 Z-0.500 F500
G1 X16.443 Y8.559 Z-0.500 F500
G1 X16.481 Y8.565 Z-0.500 F500
G1 X16.627 Y8.599 Z-0.500 F500
G1 X16.763 Y8.663 Z-0.500 F500
G1 X16.886 Y8.749 Z-0.500 F500
G1 X16.996 Y8.851 Z-0.500 F500
G1 X17.093 Y8.965 Z-0.500 F500
G1 X17.178 Y9.088 Z-0.500 F500
G1 X17.252 Y9.219 Z-0.500 F500
G1 X17.321 Y9.368 Z-0.500 F500
G1 X17.381 Y9.533 Z-0.500 F500
G1 X17.431 Y9.715 Z-0.500 F500
G1 X17.472 Y9.926 Z-0.500 F500
G1 X17.496 Y10.147 Z-0.500 F500
G1 X17.503 Y10.390 Z-0.500 F500
G1 X17.489 Y10.659 Z-0.500 F500
G1 X17.450 Y10.945 Z-0.500 F500
G1 X17.388 Y11.234 Z-0.500 F500
G1 X17.297 Y11.535 Z-0.500 F500
G1 X17.184 Y11.824 Z-0.500 F500
G1 X17.083 Y12.032 Z-0.500 F500
G1 X17.054 Y12.081 Z-0.500 F500
G1 X16.929 Y12.226 Z-0.500 F500
G1 X16.763 Y12.321 Z-0.500 F500
G1 X16.575 Y12.354 Z-0.500 F500
G1 X15.600 Y12.354 Z-0.500 F500
G1 X15.548 Y12.346 Z-0.471 F500
G1 X15.498 Y12.327 Z-0.443 F500
G1 X15.454 Y12.297 Z-0.414 F500
G1 X15.417 Y12.258 Z-0.386 F500
G1 X15.391 Y12.212 Z-0.357 F500
G1 X15.375 Y12.161 Z-0.329 F500
G1 X15.371 Y12.108 Z-0.300 F500
G1 X15.378 Y12.057 Z-0.300 F500
G1 X15.454 Y11.757 Z-0.300 F500
G1 X16.122 Y9.118 Z-0.300 F500
G1 X16.210 Y8.768 Z-0.300 F500
G1 X16.217 Y8.743 Z-0.314 F500
G1 X16.238 Y8.689 Z-0.345 F500
G1 X16.271 Y8.642 Z-0.376 F500
G1 X16.315 Y8.604 Z-0.407 F500
G1 X16.366 Y8.578 Z-0.438 F500
G1 X16.423 Y8.564 Z-0.469 F500
G1 X16.481 Y8.565 Z-0.500 F500
G1 X16.569 Y8.581 Z-0.500 F500
G1 X16.883 Y8.630 Z-0.500 F500
G1 X16.899 Y8.631 Z-0.500 F500
G1 X16.984 Y8.627 Z-0.500 F500
G1 X17.134 Y8.628 Z-0.500 F500
G1 X17.279 Y8.666 Z-0.500 F500
G1 X17.415 Y8.731 Z-0.500 F500
G1 X17.540 Y8.814 Z-0.500 F500
G1 X17.653 Y8.912 Z-0.500 F500
G1 X17.756 Y9.022 Z-0.500 F500
G1 X17.847 Y9.141 Z-0.500 F500
G1 X17.929 Y9.269 Z-0.500 F500
G1 X18.011 Y9.422 Z-0.500 F500
G1 X18.081 Y9.585 Z-0.500 F500
G1 X18.147 Y9.777 Z-0.500 F500
G1 X18.201 Y9.990 Z-0.500 F500
G1 X18.240 Y10.218 Z-0.500 F500
G1 X18.263 Y10.476 Z-0.500 F500
G1 X18.265 Y10.759 Z-0.500 F500
G1 X18.243 Y11.049 Z-0.500 F500
G1 X18.196 Y11.354 Z-0.500 F500
G1 X18.133 Y11.622 Z-0.500 F500
G1 X18.066 Y11.829 Z-0.500 F500
G1 X17.988 Y12.015 Z-0.500 F500
G1 X17.969 Y12.052 Z-0.500 F500
G1 X17.846 Y12.212 Z-0.500 F500
G1 X17.673 Y12.317 Z-0.500 F500
G1 X17.475 Y12.354 Z-0.500 F500
G1 X16.575 Y12.354 Z-0.500 F500
G1 X16.522 Y12.346 Z-0.471 F500
G1 X16.473 Y12.327 Z-0.443 F500
G1 X16.429 Y12.297 Z-0.414 F500
G1 X16.392 Y12.258 Z-0.386 F500
G1 X16.365 Y12.212 Z-0.357 F500
G1 X16.349 Y12.161 Z-0.329 F500
G1 X16.345 Y12.108 Z-0.300 F500
G1 X16.347 Y12.085 Z-0.300 F500
G1 X16.391 Y11.749 Z-0.300 F500
G1 X16.715 Y9.242 Z-0.300 F500
G1 X16.761 Y8.884 Z-0.300 F500
G1 X16.768 Y8.834 Z-0.327 F500
G1 X16.780 Y8.782 Z-0.356 F500
G1 X16.805 Y8.734 Z-0.384 F500
G1 X16.839 Y8.692 Z-0.413 F500
G1 X16.882 Y8.660 Z-0.442 F500
G1 X16.932 Y8.638 Z-0.471 F500
G1 X16.984 Y8.627 Z-0.500 F500
G1 X17.072 Y8.623 Z-0.500 F500
G1 X17.198 Y8.602 Z-0.500 F500
G1 X17.324 Y8.578 Z-0.500 F500
G1 X17.450 Y8.553 Z-0.500 F500
G1 X17.599 Y8.531 Z-0.500 F500
G1 X17.748 Y8.545 Z-0.500 F500
G1 X17.892 Y8.586 Z-0.500 F500
G1 X18.029 Y8.647 Z-0.500 F500
G1 X18.157 Y8.726 Z-0.500 F500
G1 X18.276 Y8.817 Z-0.500 F500
G1 X18.385 Y8.920 Z-0.500 F500
G1 X18.487 Y9.034 Z-0.500 F500
G1 X18.587 Y9.167 Z-0.500 F500
G1 X18.681 Y9.313 Z-0.500 F500
G1 X18.774 Y9.489 Z-0.500 F500
G1 X18.856 Y9.681 Z-0.500 F500
G1 X18.929 Y9.896 Z-0.500 F500
G1 X18.990 Y10.141 Z-0.500 F500
G1 X19.035 Y10.408 Z-0.500 F500
G1 X19.059 Y10.687 Z-0.500 F500
G1 X19.060 Y10.982 Z-0.500 F500
G1 X19.038 Y11.273 Z-0.500 F500
G1 X18.998 Y11.529 Z-0.500 F500
G1 X18.951 Y11.725 Z-0.500 F500
G1 X18.887 Y11.917 Z-0.500 F500
G1 X18.847 Y12.013 Z-0.500 F500
G1 X18.763 Y12.152 Z-0.500 F500
G1 X18.642 Y12.261 Z-0.500 F500
G1 X18.495 Y12.330 Z-0.500 F500
G1 X18.334 Y12.354 Z-0.500 F500
G1 X17.475 Y12.354 Z-0.500 F500
G1 X17.414 Y12.344 Z-0.467 F500
G1 X17.359 Y12.319 Z-0.435 F500
G1 X17.311 Y12.281 Z-0.402 F500
G1 X17.275 Y12.232 Z-0.369 F500
G1 X17.252 Y12.175 Z-0.336 F500
G1 X17.245 Y12.114 Z-0.304 F500
G1 X17.245 Y12.108 Z-0.300 F500
G1 X17.247 Y11.747 Z-0.300 F500
G1 X17.264 Y9.201 Z-0.300 F500
G1 X17.266 Y8.840 Z-0.300 F500
G1 X17.266 Y8.783 Z-0.330 F500
G1 X17.273 Y8.731 Z-0.358 F500
G1 X17.290 Y8.681 Z-0.387 F500
G1 X17.318 Y8.636 Z-0.415 F500
G1 X17.356 Y8.599 Z-0.443 F500
G1 X17.400 Y8.571 Z-0.472 F500
G1 X17.450 Y8.553 Z-0.500 F500
G1 X17.702 Y8.503 Z-0.500 F500
G1 X17.828 Y8.476 Z-0.500 F500
G1 X17.954 Y8.439 Z-0.500 F500
G1 X17.992 Y8.423 Z-0.500 F500
G1 X18.132 Y8.370 Z-0.500 F500
G1 X18.282 Y8.374 Z-0.500 F500
G1 X18.430 Y8.403 Z-0.500 F500
G1 X18.572 Y8.452 Z-0.500 F500
G1 X18.707 Y8.517 Z-0.500 F500
G1 X18.834 Y8.596 Z-0.500 F500
G1 X18.954 Y8.686 Z-0.500 F500
G1 X19.067 Y8.788 Z-0.500 F500
G1 X19.182 Y8.910 Z-0.500 F500
G1 X19.300 Y9.056 Z-0.500 F500
G1 X19.409 Y9.216 Z-0.500 F500
G1 X19.517 Y9.405 Z-0.500 F500
G1 X19.618 Y9.622 Z-0.500 F500
G1 X19.703 Y9.851 Z-0.500 F500
G1 X19.776 Y10.109 Z-0.500 F500
G1 X19.833 Y10.393 Z-0.500 F500
G1 X19.867 Y10.688 Z-0.500 F500
G1 X19.877 Y10.979 Z-0.500 F500
G1 X19.865 Y11.264 Z-0.500 F500
G1 X19.835 Y11.499 Z-0.500 F500
G1 X19.790 Y11.714 Z-0.500 F500
G1 X19.743 Y11.874 Z-0.500 F500
G1 X19.683 Y12.030 Z-0.500 F500
G1 X19.679 Y12.038 Z-0.500 F500
G1 X19.593 Y12.168 Z-0.500 F500
G1 X19.474 Y12.269 Z-0.500 F500
G1 X19.332 Y12.332 Z-0.500 F500
G1 X19.178 Y12.354 Z-0.500 F500
G1 X18.334 Y12.354 Z-0.500 F500
G1 X18.277 Y12.345 Z-0.469 F500
G1 X18.224 Y12.322 Z-0.438 F500
G1 X18.177 Y12.287 Z-0.407 F500
G1 X18.141 Y12.242 Z-0.376 F500
G1 X18.116 Y12.190 Z-0.345 F500
G1 X18.105 Y12.133 Z-0.313 F500
G1 X18.103 Y12.108 Z-0.300 F500
G1 X18.078 Y11.748 Z-0.300 F500
G1 X17.888 Y9.104 Z-0.300 F500
G1 X17.863 Y8.743 Z-0.300 F500
G1 X17.856 Y8.655 Z-0.347 F500
G1 X17.859 Y8.598 Z-0.378 F500
G1 X17.875 Y8.544 Z-0.408 F500
G1 X17.904 Y8.494 Z-0.439 F500
G1 X17.944 Y8.453 Z-0.469 F500
G1 X17.992 Y8.423 Z-0.500 F500
G1 X18.083 Y8.383 Z-0.500 F500
G1 X18.206 Y8.317 Z-0.500 F500
G1 X18.332 Y8.235 Z-0.500 F500
G1 X18.460 Y8.158 Z-0.500 F500
G1 X18.605 Y8.119 Z-0.500 F500
G1 X18.755 Y8.109 Z-0.500 F500
G1 X18.904 Y8.123 Z-0.500 F500
G1 X19.051 Y8.155 Z-0.500 F500
G1 X19.192 Y8.205 Z-0.500 F500
G1 X19.328 Y8.268 Z-0.500 F500
G1 X19.458 Y8.344 Z-0.500 F500
G1 X19.586 Y8.432 Z-0.500 F500
G1 X19.722 Y8.545 Z-0.500 F500
G1 X19.854 Y8.673 Z-0.500 F500
G1 X19.986 Y8.823 Z-0.500 F500
G1 X20.120 Y9.003 Z-0.500 F500
G1 X20.244 Y9.200 Z-0.500 F500
G1 X20.360 Y9.423 Z-0.500 F500
G1 X20.467 Y9.677 Z-0.500 F500
G1 X20.560 Y9.957 Z-0.500 F500
G1 X20.632 Y10.252 Z-0.500 F500
G1 X20.680 Y10.556 Z-0.500 F500
G1 X20.704 Y10.858 Z-0.500 F500
G1 X20.703 Y11.145 Z-0.500 F500
G1 X20.681 Y11.415 Z-0.500 F500
G1 X20.648 Y11.618 Z-0.500 F500
G1 X20.601 Y11.807 Z-0.500 F500
G1 X20.552 Y11.953 Z-0.500 F500
G1 X20.523 Y12.020 Z-0.500 F500
G1 X20.426 Y12.172 Z-0.500 F500
G1 X20.286 Y12.285 Z-0.500 F500
G1 X20.116 Y12.347 Z-0.500 F500
G1 X20.095 Y12.351 Z-0.500 F500
G1 X19.969 Y12.354 Z-0.500 F500
G1 X19.178 Y12.354 Z-0.500 F500
G1 X19.125 Y12.346 Z-0.471 F500
G1 X19.075 Y12.327 Z-0.443 F500
G1 X19.031 Y12.297 Z-0.414 F500
G1 X18.995 Y12.258 Z-0.386 F500
G1 X18.968 Y12.212 Z-0.357 F500
G1 X18.952 Y12.161 Z-0.329 F500
G1 X18.942 Y12.109 Z-0.300 F500
G1 X18.873 Y11.754 Z-0.300 F500
G1 X18.325 Y8.929 Z-0.300 F500
G1 X18.256 Y8.575 Z-0.300 F500
G1 X18.237 Y8.474 Z-0.355 F500
G1 X18.233 Y8.420 Z-0.384 F500
G1 X18.241 Y8.366 Z-0.413 F500
G1 X18.261 Y8.316 Z-0.442 F500
G1 X18.292 Y8.272 Z-0.471 F500
G1 X18.332 Y8.235 Z-0.500 F500
G1 X18.584 Y8.066 Z-0.500 F500
G1 X18.709 Y7.981 Z-0.500 F500
G1 X18.779 Y7.931 Z-0.500 F500
G1 X18.905 Y7.851 Z-0.500 F500
G1 X19.047 Y7.801 Z-0.500 F500
G1 X19.195 Y7.778 Z-0.500 F500
G1 X19.345 Y7.776 Z-0.500 F500
G1 X19.494 Y7.793 Z-0.500 F500
G1 X19.640 Y7.826 Z-0.500 F500
G1 X19.782 Y7.874 Z-0.500 F500
G1 X19.920 Y7.933 Z-0.500 F500
G1 X20.062 Y8.009 Z-0.500 F500
G1 X20.214 Y8.107 Z-0.500 F500
G1 X20.362 Y8.220 Z-0.500 F500
G1 X20.515 Y8.357 Z-0.500 F500
G1 X20.673 Y8.523 Z-0.500 F500
G1 X20.822 Y8.708 Z-0.500 F500
G1 X20.967 Y8.920 Z-0.500 F500
G1 X21.107 Y9.166 Z-0.500 F500
G1 X21.235 Y9.441 Z-0.500 F500
G1 X21.345 Y9.735 Z-0.500 F500
G1 X21.433 Y10.044 Z-0.500 F500
G1 X21.497 Y10.367 Z-0.500 F500
G1 X21.513 Y10.502 Z-0.500 F500
G1 X21.509 Y10.661 Z-0.500 F500
G1 X21.460 Y10.812 Z-0.500 F500
G1 X21.370 Y10.943 Z-0.500 F500
G1 X21.354 Y10.960 Z-0.500 F500
G1 X21.303 Y11.031 Z-0.500 F500
G1 X21.216 Y11.157 Z-0.500 F500
G1 X20.535 Y12.166 Z-0.500 F500
G1 X20.509 Y12.197 Z-0.500 F500
G1 X20.491 Y12.215 Z-0.500 F500
G1 X20.473 Y12.229 Z-0.500 F500
G1 X20.420 Y12.264 Z-0.500 F500
G1 X20.393 Y12.280 Z-0.500 F500
G1 X20.367 Y12.292 Z-0.500 F500
G1 X20.347 Y12.300 Z-0.500 F500
G1 X20.221 Y12.327 Z-0.500 F500
G1 X20.116 Y12.347 Z-0.500 F500
G1 X20.059 Y12.349 Z-0.469 F500
G1 X20.003 Y12.337 Z-0.439 F500
G1 X19.952 Y12.313 Z-0.408 F500
G1 X19.908 Y12.276 Z-0.377 F500
G1 X19.873 Y12.231 Z-0.347 F500
G1 X19.851 Y12.178 Z-0.316 F500
G1 X19.843 Y12.149 Z-0.300 F500
G1 X19.742 Y11.802 Z-0.300 F500
G1 X18.819 Y8.619 Z-0.300 F500
G1 X18.719 Y8.272 Z-0.300 F500
G1 X18.694 Y8.187 Z-0.347 F500
G1 X18.685 Y8.131 Z-0.378 F500
G1 X18.690 Y8.074 Z-0.408 F500
G1 X18.708 Y8.020 Z-0.439 F500
G1 X18.738 Y7.971 Z-0.469 F500
G1 X18.779 Y7.931 Z-0.500 F500
G1 X18.835 Y7.891 Z-0.500 F500
G1 X18.985 Y7.753 Z-0.500 F500
G1 X19.087 Y7.654 Z-0.500 F500
G1 X19.115 Y7.627 Z-0.500 F500
G1 X19.226 Y7.526 Z-0.500 F500
G1 X19.356 Y7.450 Z-0.500 F500
G1 X19.497 Y7.399 Z-0.500 F500
G1 X19.644 Y7.371 Z-0.500 F500
G1 X19.794 Y7.362 Z-0.500 F500
G1 X19.944 Y7.370 Z-0.500 F500
G1 X20.092 Y7.393 Z-0.500 F500
G1 X20.237 Y7.429 Z-0.500 F500
G1 X20.392 Y7.482 Z-0.500 F500
G1 X20.546 Y7.548 Z-0.500 F500
G1 X20.713 Y7.637 Z-0.500 F500
G1 X20.886 Y7.747 Z-0.500 F500
G1 X21.055 Y7.876 Z-0.500 F500
G1 X21.234 Y8.035 Z-0.500 F500
G1 X21.415 Y8.225 Z-0.500 F500
G1 X21.584 Y8.434 Z-0.500 F500
G1 X21.750 Y8.676 Z-0.500 F500
G1 X21.908 Y8.951 Z-0.500 F500
G1 X22.051 Y9.256 Z-0.500 F500
G1 X22.152 Y9.525 Z-0.500 F500
G1 X22.220 Y9.761 Z-0.500 F500
G1 X22.244 Y9.881 Z-0.500 F500
G1 X22.252 Y10.044 Z-0.500 F500
G1 X22.212 Y10.203 Z-0.500 F500
G1 X22.128 Y10.344 Z-0.500 F500
G1 X22.006 Y10.453 Z-0.500 F500
G1 X21.707 Y10.653 Z-0.500 F500
G1 X21.606 Y10.722 Z-0.500 F500
G1 X21.505 Y10.803 Z-0.500 F500
G1 X21.480 Y10.823 Z-0.500 F500
G1 X21.370 Y10.943 Z-0.500 F500
G1 X21.329 Y10.977 Z-0.471 F500
G1 X21.281 Y11.000 Z-0.443 F500
G1 X21.229 Y11.012 Z-0.414 F500
G1 X21.176 Y11.013 Z-0.386 F500
G1 X21.124 Y11.001 Z-0.357 F500
G1 X21.075 Y10.978 Z-0.329 F500
G1 X21.033 Y10.945 Z-0.300 F500
G1 X21.000 Y10.904 Z-0.300 F500
G1 X20.834 Y10.645 Z-0.300 F500
G1 X19.316 Y8.272 Z-0.300 F500
G1 X19.121 Y7.968 Z-0.300 F500
G1 X19.089 Y7.917 Z-0.332 F500
G1 X19.066 Y7.871 Z-0.360 F500
G1 X19.053 Y7.820 Z-0.388 F500
G1 X19.052 Y7.767 Z-0.416 F500
G1 X19.063 Y7.716 Z-0.444 F500
G1 X19.084 Y7.668 Z-0.472 F500
G1 X19.115 Y7.627 Z-0.500 F500
G1 X19.547 Y7.195 Z-0.500 F500
G1 X19.658 Y7.094 Z-0.500 F500
G1 X19.785 Y7.014 Z-0.500 F500
G1 X19.924 Y6.958 Z-0.500 F500
G1 X20.070 Y6.922 Z-0.500 F500
G1 X20.219 Y6.904 Z-0.500 F500
G1 X20.369 Y6.902 Z-0.500 F500
G1 X20.518 Y6.914 Z-0.500 F500
G1 X20.671 Y6.941 Z-0.500 F500
G1 X20.833 Y6.982 Z-0.500 F500
G1 X21.001 Y7.039 Z-0.500 F500
G1 X21.186 Y7.120 Z-0.500 F500
G1 X21.371 Y7.219 Z-0.500 F500
G1 X21.563 Y7.342 Z-0.500 F500
G1 X21.765 Y7.496 Z-0.500 F500
G1 X21.966 Y7.677 Z-0.500 F500
G1 X22.161 Y7.883 Z-0.500 F500
G1 X22.358 Y8.127 Z-0.500 F500
G1 X22.540 Y8.394 Z-0.500 F500
G1 X22.699 Y8.673 Z-0.500 F500
G1 X22.808 Y8.907 Z-0.500 F500
G1 X22.888 Y9.122 Z-0.500 F500
G1 X22.934 Y9.285 Z-0.500 F500
G1 X22.968 Y9.457 Z-0.500 F500
G1 X22.971 Y9.480 Z-0.500 F500
G1 X22.962 Y9.660 Z-0.500 F500
G1 X22.897 Y9.828 Z-0.500 F500
G1 X22.781 Y9.966 Z-0.500 F500
G1 X22.628 Y10.060 Z-0.500 F500
G1 X22.614 Y10.065 Z-0.500 F500
G1 X22.469 Y10.148 Z-0.500 F500
G1 X22.362 Y10.217 Z-0.500 F500
G1 X22.006 Y10.453 Z-0.500 F500
G1 X21.953 Y10.478 Z-0.469 F500
G1 X21.895 Y10.488 Z-0.437 F500
G1 X21.837 Y10.485 Z-0.406 F500
G1 X21.781 Y10.467 Z-0.374 F500
G1 X21.731 Y10.435 Z-0.343 F500
G1 X21.691 Y10.393 Z-0.311 F500
G1 X21.678 Y10.376 Z-0.300 F500
G1 X21.462 Y10.087 Z-0.300 F500
G1 X19.772 Y7.823 Z-0.300 F500
G1 X19.556 Y7.534 Z-0.300 F500
G1 X19.530 Y7.500 Z-0.323 F500
G1 X19.503 Y7.452 Z-0.352 F500
G1 X19.487 Y7.399 Z-0.382 F500
G1 X19.483 Y7.344 Z-0.411 F500
G1 X19.493 Y7.290 Z-0.441 F500
G1 X19.514 Y7.239 Z-0.470 F500
G1 X19.547 Y7.195 Z-0.500 F500
G1 X20.051 Y6.690 Z-0.500 F500
G1 X20.162 Y6.590 Z-0.500 F500
G1 X20.293 Y6.516 Z-0.500 F500
G1 X20.434 Y6.464 Z-0.500 F500
G1 X20.580 Y6.429 Z-0.500 F500
G1 X20.729 Y6.411 Z-0.500 F500
G1 X20.878 Y6.407 Z-0.500 F500
G1 X21.033 Y6.417 Z-0.500 F500
G1 X21.191 Y6.440 Z-0.500 F500
G1 X21.371 Y6.482 Z-0.500 F500
G1 X21.554 Y6.539 Z-0.500 F500
G1 X21.750 Y6.619 Z-0.500 F500
G1 X21.962 Y6.725 Z-0.500 F500
G1 X22.172 Y6.854 Z-0.500 F500
G1 X22.390 Y7.011 Z-0.500 F500
G1 X22.615 Y7.204 Z-0.500 F500
G1 X22.840 Y7.429 Z-0.500 F500
G1 X23.046 Y7.673 Z-0.500 F500
G1 X23.230 Y7.928 Z-0.500 F500
G1 X23.382 Y8.181 Z-0.500 F500
G1 X23.505 Y8.428 Z-0.500 F500
G1 X23.581 Y8.617 Z-0.500 F500
G1 X23.641 Y8.812 Z-0.500 F500
G1 X23.676 Y8.964 Z-0.500 F500
G1 X23.697 Y9.115 Z-0.500 F500
G1 X23.706 Y9.265 Z-0.500 F500
G1 X23.703 Y9.415 Z-0.500 F500
G1 X23.656 Y9.583 Z-0.500 F500
G1 X23.559 Y9.728 Z-0.500 F500
G1 X23.422 Y9.835 Z-0.500 F500
G1 X23.259 Y9.895 Z-0.500 F500
G1 X22.865 Y9.978 Z-0.500 F500
G1 X22.740 Y10.015 Z-0.500 F500
G1 X22.628 Y10.060 Z-0.500 F500
G1 X22.569 Y10.073 Z-0.468 F500
G1 X22.510 Y10.071 Z-0.436 F500
G1 X22.452 Y10.055 Z-0.404 F500
G1 X22.400 Y10.024 Z-0.372 F500
G1 X22.358 Y9.982 Z-0.339 F500
G1 X22.313 Y9.924 Z-0.300 F500
G1 X22.091 Y9.639 Z-0.300 F500
G1 X20.282 Y7.314 Z-0.300 F500
G1 X20.061 Y7.029 Z-0.300 F500
G1 X20.037 Y6.999 Z-0.320 F500
G1 X20.008 Y6.951 Z-0.350 F500
G1 X19.991 Y6.898 Z-0.380 F500
G1 X19.987 Y6.842 Z-0.410 F500
G1 X19.996 Y6.787 Z-0.440 F500
G1 X20.018 Y6.736 Z-0.470 F500
G1 X20.051 Y6.690 Z-0.500 F500
G1 X20.531 Y6.210 Z-0.500 F500
G1 X20.643 Y6.110 Z-0.500 F500
G1 X20.770 Y6.030 Z-0.500 F500
G1 X20.908 Y5.971 Z-0.500 F500
G1 X21.052 Y5.930 Z-0.500 F500
G1 X21.200 Y5.905 Z-0.500 F500
G1 X21.350 Y5.895 Z-0.500 F500
G1 X21.500 Y5.897 Z-0.500 F500
G1 X21.671 Y5.913 Z-0.500 F500
G1 X21.848 Y5.945 Z-0.500 F500
G1 X22.042 Y5.995 Z-0.500 F500
G1 X22.255 Y6.070 Z-0.500 F500
G1 X22.466 Y6.163 Z-0.500 F500
G1 X22.697 Y6.288 Z-0.500 F500
G1 X22.939 Y6.446 Z-0.500 F500
G1 X23.177 Y6.630 Z-0.500 F500
G1 X23.408 Y6.840 Z-0.500 F500
G1 X23.631 Y7.078 Z-0.500 F500
G1 X23.837 Y7.336 Z-0.500 F500
G1 X24.011 Y7.595 Z-0.500 F500
G1 X24.152 Y7.847 Z-0.500 F500
G1 X24.265 Y8.092 Z-0.500 F500
G1 X24.353 Y8.333 Z-0.500 F500
G1 X24.415 Y8.555 Z-0.500 F500
G1 X24.449 Y8.732 Z-0.500 F500
G1 X24.469 Y8.913 Z-0.500 F500
G1 X24.473 Y9.063 Z-0.500 F500
G1 X24.465 Y9.213 Z-0.500 F500
G1 X24.455 Y9.284 Z-0.500 F500
G1 X24.404 Y9.451 Z-0.500 F500
G1 X24.304 Y9.595 Z-0.500 F500
G1 X24.163 Y9.700 Z-0.500 F500
G1 X23.997 Y9.756 Z-0.500 F500
G1 X23.873 Y9.776 Z-0.500 F500
G1 X23.747 Y9.799 Z-0.500 F500
G1 X23.259 Y9.895 Z-0.500 F500
G1 X23.208 Y9.898 Z-0.473 F500
G1 X23.157 Y9.890 Z-0.445 F500
G1 X23.109 Y9.871 Z-0.418 F500
G1 X23.067 Y9.842 Z-0.390 F500
G1 X23.032 Y9.805 Z-0.363 F500
G1 X22.960 Y9.712 Z-0.300 F500
G1 X22.741 Y9.425 Z-0.300 F500
G1 X20.760 Y6.836 Z-0.300 F500
G1 X20.540 Y6.549 Z-0.300 F500
G1 X20.516 Y6.518 Z-0.321 F500
G1 X20.488 Y6.470 Z-0.351 F500
G1 X20.471 Y6.417 Z-0.381 F500
G1 X20.468 Y6.361 Z-0.411 F500
G1 X20.477 Y6.306 Z-0.440 F500
G1 X20.498 Y6.255 Z-0.470 F500
G1 X20.531 Y6.210 Z-0.500 F500
G1 X21.059 Y5.682 Z-0.500 F500
G1 X21.170 Y5.582 Z-0.500 F500
G1 X21.298 Y5.503 Z-0.500 F500
G1 X21.436 Y5.444 Z-0.500 F500
G1 X21.580 Y5.403 Z-0.500 F500
G1 X21.728 Y5.376 Z-0.500 F500
G1 X21.877 Y5.363 Z-0.500 F500
G1 X22.035 Y5.363 Z-0.500 F500
G1 X22.209 Y5.376 Z-0.500 F500
G1 X22.403 Y5.407 Z-0.500 F500
G1 X22.602 Y5.455 Z-0.500 F500
G1 X22.826 Y5.529 Z-0.500 F500
G1 X23.059 Y5.627 Z-0.500 F500
G1 X23.294 Y5.749 Z-0.500 F500
G1 X23.545 Y5.906 Z-0.500 F500
G1 X23.802 Y6.097 Z-0.500 F500
G1 X24.053 Y6.317 Z-0.500 F500
G1 X24.288 Y6.560 Z-0.500 F500
G1 X24.505 Y6.822 Z-0.500 F500
G1 X24.698 Y7.099 Z-0.500 F500
G1 X24.863 Y7.382 Z-0.500 F500
G1 X24.997 Y7.659 Z-0.500 F500
G1 X25.102 Y7.932 Z-0.500 F500
G1 X25.180 Y8.194 Z-0.500 F500
G1 X25.230 Y8.430 Z-0.500 F500
G1 X25.255 Y8.628 Z-0.500 F500
G1 X25.265 Y8.821 Z-0.500 F500
G1 X25.260 Y8.971 Z-0.500 F500
G1 X25.242 Y9.126 Z-0.500 F500
G1 X25.213 Y9.273 Z-0.500 F500
G1 X25.172 Y9.417 Z-0.500 F500
G1 X25.154 Y9.463 Z-0.500 F500
G1 X25.053 Y9.626 Z-0.500 F500
G1 X24.903 Y9.746 Z-0.500 F500
G1 X24.721 Y9.807 Z-0.500 F500
G1 X24.529 Y9.803 Z-0.500 F500
G1 X24.377 Y9.773 Z-0.500 F500
G1 X24.251 Y9.757 Z-0.500 F500
G1 X24.125 Y9.750 Z-0.500 F500
G1 X23.997 Y9.756 Z-0.500 F500
G1 X23.947 Y9.757 Z-0.473 F500
G1 X23.897 Y9.747 Z-0.446 F500
G1 X23.850 Y9.728 Z-0.419 F500
G1 X23.809 Y9.699 Z-0.392 F500
G1 X23.775 Y9.661 Z-0.365 F500
G1 X23.703 Y9.565 Z-0.300 F500
G1 X23.487 Y9.275 Z-0.300 F500
G1 X21.283 Y6.311 Z-0.300 F500
G1 X21.068 Y6.021 Z-0.300 F500
G1 X21.042 Y5.987 Z-0.323 F500
G1 X21.015 Y5.939 Z-0.352 F500
G1 X20.999 Y5.887 Z-0.382 F500
G1 X20.996 Y5.832 Z-0.411 F500
G1 X21.005 Y5.777 Z-0.441 F500
G1 X21.027 Y5.727 Z-0.470 F500
G1 X21.059 Y5.682 Z-0.500 F500
G1 X21.606 Y5.136 Z-0.500 F500
G1 X21.717 Y5.035 Z-0.500 F500
G1 X21.846 Y4.958 Z-0.500 F500
G1 X21.984 Y4.900 Z-0.500 F500
G1 X22.128 Y4.858 Z-0.500 F500
G1 X22.276 Y4.830 Z-0.500 F500
G1 X22.430 Y4.816 Z-0.500 F500
G1 X22.592 Y4.814 Z-0.500 F500
G1 X22.774 Y4.826 Z-0.500 F500
G1 X22.973 Y4.856 Z-0.500 F500
G1 X23.182 Y4.904 Z-0.500 F500
G1 X23.418 Y4.980 Z-0.500 F500
G1 X23.658 Y5.078 Z-0.500 F500
G1 X23.909 Y5.206 Z-0.500 F500
G1 X24.175 Y5.369 Z-0.500 F500
G1 X24.446 Y5.567 Z-0.500 F500
G1 X24.712 Y5.795 Z-0.500 F500
G1 X24.963 Y6.049 Z-0.500 F500
G1 X25.199 Y6.330 Z-0.500 F500
G1 X25.413 Y6.630 Z-0.500 F500
G1 X25.601 Y6.944 Z-0.500 F500
G1 X25.756 Y7.260 Z-0.500 F500
G1 X25.877 Y7.564 Z-0.500 F500
G1 X25.968 Y7.860 Z-0.500 F500
G1 X26.030 Y8.140 Z-0.500 F500
G1 X26.066 Y8.404 Z-0.500 F500
G1 X26.080 Y8.653 Z-0.500 F500
G1 X26.075 Y8.863 Z-0.500 F500
G1 X26.056 Y9.045 Z-0.500 F500
G1 X26.023 Y9.224 Z-0.500 F500
G1 X25.984 Y9.369 Z-0.500 F500
G1 X25.932 Y9.510 Z-0.500 F500
G1 X25.869 Y9.646 Z-0.500 F500
G1 X25.851 Y9.678 Z-0.500 F500
G1 X25.743 Y9.813 Z-0.500 F500
G1 X25.598 Y9.909 Z-0.500 F500
G1 X25.431 Y9.955 Z-0.500 F500
G1 X25.258 Y9.948 Z-0.500 F500
G1 X24.529 Y9.803 Z-0.500 F500
G1 X24.473 Y9.782 Z-0.468 F500
G1 X24.423 Y9.747 Z-0.435 F500
G1 X24.384 Y9.702 Z-0.403 F500
G1 X24.278 Y9.540 Z-0.300 F500
G1 X24.080 Y9.238 Z-0.300 F500
G1 X21.810 Y5.778 Z-0.300 F500
G1 X21.612 Y5.476 Z-0.300 F500
G1 X21.581 Y5.429 Z-0.330 F500
G1 X21.557 Y5.382 Z-0.359 F500
G1 X21.544 Y5.331 Z-0.387 F500
G1 X21.543 Y5.278 Z-0.415 F500
G1 X21.553 Y5.226 Z-0.443 F500
G1 X21.575 Y5.178 Z-0.472 F500
G1 X21.606 Y5.136 Z-0.500 F500
G1 X22.141 Y4.600 Z-0.500 F500
G1 X22.253 Y4.500 Z-0.500 F500
G1 X22.379 Y4.419 Z-0.500 F500
G1 X22.516 Y4.357 Z-0.500 F500
G1 X22.658 Y4.311 Z-0.500 F500
G1 X22.805 Y4.280 Z-0.500 F500
G1 X22.958 Y4.262 Z-0.500 F500
G1 X23.119 Y4.255 Z-0.500 F500
G1 X23.308 Y4.263 Z-0.500 F500
G1 X23.500 Y4.287 Z-0.500 F500
G1 X23.720 Y4.332 Z-0.500 F500
G1 X23.956 Y4.400 Z-0.500 F500
G1 X24.200 Y4.493 Z-0.500 F500
G1 X24.469 Y4.621 Z-0.500 F500
G1 X24.750 Y4.783 Z-0.500 F500
G1 X25.024 Y4.972 Z-0.500 F500
G1 X25.302 Y5.199 Z-0.500 F500
G1 X25.578 Y5.464 Z-0.500 F500
G1 X25.843 Y5.762 Z-0.500 F500
G1 X26.086 Y6.086 Z-0.500 F500
G1 X26.302 Y6.426 Z-0.500 F500
G1 X26.487 Y6.776 Z-0.500 F500
G1 X26.637 Y7.129 Z-0.500 F500
G1 X26.755 Y7.479 Z-0.500 F500
G1 X26.840 Y7.819 Z-0.500 F500
G1 X26.891 Y8.131 Z-0.500 F500
G1 X26.916 Y8.427 Z-0.500 F500
G1 X26.916 Y8.703 Z-0.500 F500
G1 X26.896 Y8.961 Z-0.500 F500
G1 X26.861 Y9.185 Z-0.500 F500
G1 X26.816 Y9.370 Z-0.500 F500
G1 X26.758 Y9.544 Z-0.500 F500
G1 X26.700 Y9.682 Z-0.500 F500
G1 X26.629 Y9.818 Z-0.500 F500
G1 X26.549 Y9.945 Z-0.500 F500
G1 X26.506 Y10.002 Z-0.500 F500
G1 X26.354 Y10.139 Z-0.500 F500
G1 X26.163 Y10.212 Z-0.500 F500
G1 X25.958 Y10.211 Z-0.500 F500
G1 X25.768 Y10.136 Z-0.500 F500
G1 X25.734 Y10.108 Z-0.476 F500
G1 X25.705 Y10.075 Z-0.453 F500
G1 X25.543 Y9.840 Z-0.300 F500
G1 X25.337 Y9.543 Z-0.300 F500
G1 X22.354 Y5.237 Z-0.300 F500
G1 X22.149 Y4.940 Z-0.300 F500
G1 X22.120 Y4.898 Z-0.327 F500
G1 X22.094 Y4.851 Z-0.356 F500
G1 X22.080 Y4.799 Z-0.385 F500
G1 X22.078 Y4.746 Z-0.414 F500
G1 X22.088 Y4.693 Z-0.442 F500
G1 X22.109 Y4.643 Z-0.471 F500
G1 X22.141 Y4.600 Z-0.500 F500
G1 X22.697 Y4.044 Z-0.500 F500
G1 X22.721 Y4.021 Z-0.500 F500
G1 X22.740 Y4.002 Z-0.500 F500
G1 X22.811 Y3.938 Z-0.500 F500
G1 X22.818 Y3.932 Z-0.500 F500
G1 X22.864 Y3.905 Z-0.471 F500
G1 X22.915 Y3.888 Z-0.443 F500
G1 X22.968 Y3.883 Z-0.414 F500
G1 X23.021 Y3.891 Z-0.386 F500
G1 X23.070 Y3.909 Z-0.357 F500
G1 X23.115 Y3.939 Z-0.329 F500
G1 X23.152 Y3.977 Z-0.300 F500
G1 X23.182 Y4.028 Z-0.300 F500
G1 X23.198 Y4.085 Z-0.300 F500
G1 X23.199 Y4.145 Z-0.300 F500
G1 X23.186 Y4.203 Z-0.300 F500
G1 X23.159 Y4.255 Z-0.300 F500
G1 X23.120 Y4.300 Z-0.300 F500
G1 X23.117 Y4.303 Z-0.300 F500
G1 X23.079 Y4.337 Z-0.300 F500
G1 X23.072 Y4.343 Z-0.300 F500
G1 X23.023 Y4.376 Z-0.300 F500
G1 X22.969 Y4.396 Z-0.300 F500
G1 X22.911 Y4.403 Z-0.300 F500
G1 X22.853 Y4.395 Z-0.300 F500
G1 X22.798 Y4.373 Z-0.300 F500
G1 X22.751 Y4.339 Z-0.300 F500
G1 X22.716 Y4.298 Z-0.329 F500
G1 X22.692 Y4.251 Z-0.357 F500
G1 X22.678 Y4.199 Z-0.386 F500
G1 X22.676 Y4.146 Z-0.414 F500
G1 X22.686 Y4.094 Z-0.443 F500
G1 X22.708 Y4.045 Z-0.471 F500
G1 X22.740 Y4.002 Z-0.500 F500
G1 X22.772 Y3.970 Z-0.500 F500
G1 X22.819 Y3.932 Z-0.500 F500
G1 X22.844 Y3.914 Z-0.500 F500
G1 X22.865 Y3.900 Z-0.500 F500
G1 X22.994 Y3.823 Z-0.500 F500
G1 X23.088 Y3.786 Z-0.500 F500
G1 X23.119 Y3.775 Z-0.500 F500
G1 X23.152 Y3.765 Z-0.500 F500
G1 X23.184 Y3.758 Z-0.500 F500
G1 X23.237 Y3.755 Z-0.471 F500
G1 X23.290 Y3.764 Z-0.443 F500
G1 X23.339 Y3.785 Z-0.414 F500
G1 X23.382 Y3.816 Z-0.386 F500
G1 X23.418 Y3.856 Z-0.357 F500
G1 X23.443 Y3.903 Z-0.329 F500
G1 X23.458 Y3.954 Z-0.300 F500
G1 X23.460 Y4.006 Z-0.300 F500
G1 X23.452 Y4.057 Z-0.300 F500
G1 X23.433 Y4.105 Z-0.300 F500
G1 X23.404 Y4.147 Z-0.300 F500
G1 X23.367 Y4.183 Z-0.300 F500
G1 X23.322 Y4.209 Z-0.300 F500
G1 X23.276 Y4.231 Z-0.300 F500
G1 X23.134 Y4.296 Z-0.300 F500
G1 X23.105 Y4.310 Z-0.300 F500
G1 X23.053 Y4.327 Z-0.300 F500
G1 X22.998 Y4.332 Z-0.300 F500
G1 X22.944 Y4.324 Z-0.300 F500
G1 X22.893 Y4.304 Z-0.300 F500
G1 X22.848 Y4.273 Z-0.300 F500
G1 X22.811 Y4.233 Z-0.300 F500
G1 X22.785 Y4.186 Z-0.329 F500
G1 X22.770 Y4.135 Z-0.357 F500
G1 X22.767 Y4.082 Z-0.386 F500
G1 X22.775 Y4.029 Z-0.414 F500
G1 X22.795 Y3.980 Z-0.443 F500
G1 X22.826 Y3.936 Z-0.471 F500
G1 X22.865 Y3.900 Z-0.500 F500
G1 X22.991 Y3.816 Z-0.500 F500
G1 X23.023 Y3.800 Z-0.500 F500
G1 X23.054 Y3.786 Z-0.500 F500
G1 X23.117 Y3.771 Z-0.500 F500
G1 X23.306 Y3.734 Z-0.500 F500
G1 X23.369 Y3.731 Z-0.500 F500
G1 X23.747 Y3.731 Z-0.500 F500
G1 X23.997 Y3.744 Z-0.500 F500
G1 X24.204 Y3.771 Z-0.500 F500
G1 X24.413 Y3.815 Z-0.500 F500
G1 X24.651 Y3.887 Z-0.500 F500
G1 X24.908 Y3.987 Z-0.500 F500
G1 X25.166 Y4.112 Z-0.500 F500
G1 X25.449 Y4.279 Z-0.500 F500
G1 X25.748 Y4.488 Z-0.500 F500
G1 X26.042 Y4.733 Z-0.500 F500
G1 X26.326 Y5.010 Z-0.500 F500
G1 X26.604 Y5.328 Z-0.500 F500
G1 X26.865 Y5.680 Z-0.500 F500
G1 X27.099 Y6.057 Z-0.500 F500
G1 X27.302 Y6.450 Z-0.500 F500
G1 X27.469 Y6.851 Z-0.500 F500
G1 X27.599 Y7.248 Z-0.500 F500
G1 X27.691 Y7.633 Z-0.500 F500
G1 X27.749 Y8.000 Z-0.500 F500
G1 X27.775 Y8.348 Z-0.500 F500
G1 X27.773 Y8.673 Z-0.500 F500
G1 X27.746 Y8.977 Z-0.500 F500
G1 X27.701 Y9.246 Z-0.500 F500
G1 X27.639 Y9.494 Z-0.500 F500
G1 X27.569 Y9.700 Z-0.500 F500
G1 X27.492 Y9.877 Z-0.500 F500
G1 X27.405 Y10.042 Z-0.500 F500
G1 X27.324 Y10.168 Z-0.500 F500
G1 X27.234 Y10.288 Z-0.500 F500
G1 X27.132 Y10.399 Z-0.500 F500
G1 X27.023 Y10.501 Z-0.500 F500
G1 X27.012 Y10.509 Z-0.500 F500
G1 X26.861 Y10.592 Z-0.500 F500
G1 X26.693 Y10.624 Z-0.500 F500
G1 X26.522 Y10.603 Z-0.500 F500
G1 X26.366 Y10.531 Z-0.500 F500
G1 X25.888 Y10.214 Z-0.500 F500
G1 X25.768 Y10.136 Z-0.500 F500
G1 X25.729 Y10.104 Z-0.473 F500
G1 X25.699 Y10.065 Z-0.446 F500
G1 X25.677 Y10.020 Z-0.420 F500
G1 X25.601 Y9.809 Z-0.300 F500
G1 X25.479 Y9.469 Z-0.300 F500
G1 X23.628 Y4.320 Z-0.300 F500
G1 X23.531 Y4.050 Z-0.300 F500
G1 X23.521 Y4.014 Z-0.300 F500
G1 X23.517 Y3.977 Z-0.300 F500
G1 X23.521 Y3.924 Z-0.329 F500
G1 X23.537 Y3.873 Z-0.357 F500
G1 X23.564 Y3.827 Z-0.386 F500
G1 X23.600 Y3.788 Z-0.414 F500
G1 X23.645 Y3.758 Z-0.443 F500
G1 X23.694 Y3.739 Z-0.471 F500
G1 X23.747 Y3.731 Z-0.500 F500
G1 X25.258 Y3.731 Z-0.500 F500
G1 X25.420 Y3.739 Z-0.500 F500
G1 X25.569 Y3.759 Z-0.500 F500
G1 X25.719 Y3.792 Z-0.500 F500
G1 X25.880 Y3.842 Z-0.500 F500
G1 X26.069 Y3.918 Z-0.500 F500
G1 X26.260 Y4.012 Z-0.500 F500
G1 X26.483 Y4.146 Z-0.500 F500
G1 X26.708 Y4.308 Z-0.500 F500
G1 X26.953 Y4.514 Z-0.500 F500
G1 X27.215 Y4.774 Z-0.500 F500
G1 X27.465 Y5.066 Z-0.500 F500
G1 X27.708 Y5.401 Z-0.500 F500
G1 X27.940 Y5.781 Z-0.500 F500
G1 X28.147 Y6.192 Z-0.500 F500
G1 X28.322 Y6.621 Z-0.500 F500
G1 X28.459 Y7.055 Z-0.500 F500
G1 X28.559 Y7.487 Z-0.500 F500
G1 X28.621 Y7.909 Z-0.500 F500
G1 X28.647 Y8.313 Z-0.500 F500
G1 X28.642 Y8.688 Z-0.500 F500
G1 X28.609 Y9.034 Z-0.500 F500
G1 X28.552 Y9.354 Z-0.500 F500
G1 X28.475 Y9.649 Z-0.500 F500
G1 X28.385 Y9.907 Z-0.500 F500
G1 X28.283 Y10.139 Z-0.500 F500
G1 X28.167 Y10.352 Z-0.500 F500
G1 X28.065 Y10.509 Z-0.500 F500
G1 X27.950 Y10.658 Z-0.500 F500
G1 X27.844 Y10.774 Z-0.500 F500
G1 X27.734 Y10.877 Z-0.500 F500
G1 X27.617 Y10.970 Z-0.500 F500
G1 X27.562 Y11.006 Z-0.500 F500
G1 X27.383 Y11.082 Z-0.500 F500
G1 X27.189 Y11.090 Z-0.500 F500
G1 X27.005 Y11.028 Z-0.500 F500
G1 X26.855 Y10.905 Z-0.500 F500
G1 X26.770 Y10.818 Z-0.500 F500
G1 X26.518 Y10.635 Z-0.500 F500
G1 X26.366 Y10.531 Z-0.500 F500
G1 X26.322 Y10.491 Z-0.468 F500
G1 X26.290 Y10.440 Z-0.436 F500
G1 X26.271 Y10.383 Z-0.404 F500
G1 X26.234 Y10.193 Z-0.300 F500
G1 X26.165 Y9.839 Z-0.300 F500
G1 X25.094 Y4.332 Z-0.300 F500
G1 X25.033 Y4.015 Z-0.300 F500
G1 X25.028 Y3.977 Z-0.300 F500
G1 X25.033 Y3.924 Z-0.329 F500
G1 X25.049 Y3.873 Z-0.357 F500
G1 X25.075 Y3.827 Z-0.386 F500
G1 X25.112 Y3.788 Z-0.414 F500
G1 X25.156 Y3.758 Z-0.443 F500
G1 X25.206 Y3.739 Z-0.471 F500
G1 X25.258 Y3.731 Z-0.500 F500
G1 X26.518 Y3.731 Z-0.500 F500
G1 X26.667 Y3.739 Z-0.500 F500
G1 X26.815 Y3.768 Z-0.500 F500
G1 X26.958 Y3.811 Z-0.500 F500
G1 X27.109 Y3.870 Z-0.500 F500
G1 X27.286 Y3.957 Z-0.500 F500
G1 X27.461 Y4.060 Z-0.500 F500
G1 X27.668 Y4.205 Z-0.500 F500
G1 X27.869 Y4.372 Z-0.500 F500
G1 X28.094 Y4.592 Z-0.500 F500
G1 X28.328 Y4.861 Z-0.500 F500
G1 X28.548 Y5.160 Z-0.500 F500
G1 X28.771 Y5.519 Z-0.500 F500
G1 X28.980 Y5.925 Z-0.500 F500
G1 X29.163 Y6.364 Z-0.500 F500
G1 X29.312 Y6.822 Z-0.500 F500
G1 X29.423 Y7.290 Z-0.500 F500
G1 X29.495 Y7.754 Z-0.500 F500
G1 X29.528 Y8.205 Z-0.500 F500
G1 X29.525 Y8.639 Z-0.500 F500
G1 X29.489 Y9.053 Z-0.500 F500
G1 X29.424 Y9.439 Z-0.500 F500
G1 X29.335 Y9.791 Z-0.500 F500
G1 X29.228 Y10.103 Z-0.500 F500
G1 X29.105 Y10.387 Z-0.500 F500
G1 X28.970 Y10.642 Z-0.500 F500
G1 X28.828 Y10.863 Z-0.500 F500
G1 X28.690 Y11.045 Z-0.500 F500
G1 X28.563 Y11.187 Z-0.500 F500
G1 X28.423 Y11.320 Z-0.500 F500
G1 X28.307 Y11.414 Z-0.500 F500
G1 X28.183 Y11.499 Z-0.500 F500
G1 X28.052 Y11.572 Z-0.500 F500
G1 X27.916 Y11.635 Z-0.500 F500
G1 X27.871 Y11.651 Z-0.500 F500
G1 X27.692 Y11.681 Z-0.500 F500
G1 X27.513 Y11.653 Z-0.500 F500
G1 X27.352 Y11.568 Z-0.500 F500
G1 X27.227 Y11.436 Z-0.500 F500
G1 X27.124 Y11.283 Z-0.500 F500
G1 X26.951 Y11.031 Z-0.500 F500
G1 X26.895 Y10.953 Z-0.500 F500
G1 X26.855 Y10.905 Z-0.500 F500
G1 X26.830 Y10.865 Z-0.475 F500
G1 X26.813 Y10.822 Z-0.450 F500
G1 X26.804 Y10.775 Z-0.425 F500
G1 X26.787 Y10.543 Z-0.300 F500
G1 X26.759 Y10.183 Z-0.300 F500
G1 X26.315 Y4.337 Z-0.300 F500
G1 X26.288 Y3.987 Z-0.300 F500
G1 X26.288 Y3.977 Z-0.300 F500
G1 X26.292 Y3.924 Z-0.329 F500
G1 X26.308 Y3.873 Z-0.357 F500
G1 X26.335 Y3.827 Z-0.386 F500
G1 X26.371 Y3.788 Z-0.414 F500
G1 X26.415 Y3.758 Z-0.443 F500
G1 X26.465 Y3.739 Z-0.471 F500
G1 X26.518 Y3.731 Z-0.500 F500
G1 X27.525 Y3.731 Z-0.500 F500
G1 X27.675 Y3.739 Z-0.500 F500
G1 X27.823 Y3.761 Z-0.500 F500
G1 X27.968 Y3.800 Z-0.500 F500
G1 X28.113 Y3.854 Z-0.500 F500
G1 X28.257 Y3.922 Z-0.500 F500
G1 X28.428 Y4.019 Z-0.500 F500
G1 X28.595 Y4.133 Z-0.500 F500
G1 X28.792 Y4.292 Z-0.500 F500
G1 X28.980 Y4.471 Z-0.500 F500
G1 X29.194 Y4.710 Z-0.500 F500
G1 X29.404 Y4.985 Z-0.500 F500
G1 X29.611 Y5.308 Z-0.500 F500
G1 X29.817 Y5.694 Z-0.500 F500
G1 X30.005 Y6.128 Z-0.500 F500
G1 X30.102 Y6.413 Z-0.500 F500
G1 X30.119 Y6.471 Z-0.500 F500
G1 X30.129 Y6.531 Z-0.500 F500
G1 X30.132 Y6.592 Z-0.500 F500
G1 X30.124 Y6.645 Z-0.471 F500
G1 X30.105 Y6.695 Z-0.443 F500
G1 X30.075 Y6.739 Z-0.414 F500
G1 X30.036 Y6.775 Z-0.386 F500
G1 X29.990 Y6.802 Z-0.357 F500
G1 X29.939 Y6.818 Z-0.329 F500
G1 X29.886 Y6.822 Z-0.300 F500
G1 X29.839 Y6.816 Z-0.300 F500
G1 X29.794 Y6.800 Z-0.300 F500
G1 X29.753 Y6.776 Z-0.300 F500
G1 X29.717 Y6.744 Z-0.300 F500
G1 X29.603 Y6.617 Z-0.300 F500
G1 X27.487 Y4.273 Z-0.300 F500
G1 X27.357 Y4.129 Z-0.300 F500
G1 X27.325 Y4.084 Z-0.300 F500
G1 X27.304 Y4.032 Z-0.300 F500
G1 X27.295 Y3.977 Z-0.300 F500
G1 X27.300 Y3.924 Z-0.329 F500
G1 X27.315 Y3.873 Z-0.357 F500
G1 X27.342 Y3.827 Z-0.386 F500
G1 X27.379 Y3.788 Z-0.414 F500
G1 X27.423 Y3.758 Z-0.443 F500
G1 X27.472 Y3.739 Z-0.471 F500
G1 X27.525 Y3.731 Z-0.500 F500
G1 X28.533 Y3.731 Z-0.500 F500
G1 X28.682 Y3.739 Z-0.500 F500
G1 X28.831 Y3.761 Z-0.500 F500
G1 X28.975 Y3.802 Z-0.500 F500
G1 X29.115 Y3.856 Z-0.500 F500
G1 X29.266 Y3.929 Z-0.500 F500
G1 X29.415 Y4.018 Z-0.500 F500
G1 X29.591 Y4.142 Z-0.500 F500
G1 X29.760 Y4.283 Z-0.500 F500
G1 X29.957 Y4.477 Z-0.500 F500
G1 X29.996 Y4.522 Z-0.500 F500
G1 X30.070 Y4.631 Z-0.500 F500
G1 X30.117 Y4.755 Z-0.500 F500
G1 X30.132 Y4.886 Z-0.500 F500
G1 X30.124 Y4.939 Z-0.471 F500
G1 X30.105 Y4.988 Z-0.443 F500
G1 X30.075 Y5.033 Z-0.414 F500
G1 X30.036 Y5.069 Z-0.386 F500
G1 X29.990 Y5.096 Z-0.357 F500
G1 X29.939 Y5.112 Z-0.329 F500
G1 X29.886 Y5.116 Z-0.300 F500
G1 X29.842 Y5.110 Z-0.300 F500
G1 X29.800 Y5.097 Z-0.300 F500
G1 X29.761 Y5.075 Z-0.300 F500
G1 X29.572 Y4.948 Z-0.300 F500
G1 X28.521 Y4.243 Z-0.300 F500
G1 X28.408 Y4.167 Z-0.300 F500
G1 X28.366 Y4.130 Z-0.300 F500
G1 X28.333 Y4.085 Z-0.300 F500
G1 X28.311 Y4.033 Z-0.300 F500
G1 X28.303 Y3.977 Z-0.300 F500
G1 X28.307 Y3.924 Z-0.329 F500
G1 X28.323 Y3.873 Z-0.357 F500
G1 X28.350 Y3.827 Z-0.386 F500
G1 X28.386 Y3.788 Z-0.414 F500
G1 X28.430 Y3.758 Z-0.443 F500
G1 X28.480 Y3.739 Z-0.471 F500
G1 X28.533 Y3.731 Z-0.500 F500
G1 X29.540 Y3.732 Z-0.500 F500
G1 X29.666 Y3.753 Z-0.500 F500
G1 X29.792 Y3.778 Z-0.500 F500
G1 X29.824 Y3.787 Z-0.500 F500
G1 X29.855 Y3.800 Z-0.500 F500
G1 X29.924 Y3.844 Z-0.500 F500
G1 X29.959 Y3.870 Z-0.500 F500
G1 X29.995 Y3.907 Z-0.500 F500
G1 X30.044 Y3.976 Z-0.500 F500
G1 X30.061 Y4.006 Z-0.500 F500
G1 X30.075 Y4.036 Z-0.500 F500
G1 X30.090 Y4.096 Z-0.500 F500
G1 X30.128 Y4.285 Z-0.500 F500
G1 X30.132 Y4.317 Z-0.500 F500
G1 X30.132 Y4.348 Z-0.500 F500
G1 X30.132 Y9.392 Z-0.500 F500
G1 X30.119 Y9.661 Z-0.500 F500
G1 X30.086 Y9.910 Z-0.500 F500
G1 X30.029 Y10.177 Z-0.500 F500
G1 X29.947 Y10.451 Z-0.500 F500
G1 X29.842 Y10.719 Z-0.500 F500
G1 X29.720 Y10.972 Z-0.500 F500
G1 X29.580 Y11.209 Z-0.500 F500
G1 X29.430 Y11.424 Z-0.500 F500
G1 X29.272 Y11.614 Z-0.500 F500
G1 X29.105 Y11.784 Z-0.500 F500
G1 X28.946 Y11.923 Z-0.500 F500
G1 X28.803 Y12.029 Z-0.500 F500
G1 X28.648 Y12.126 Z-0.500 F500
G1 X28.515 Y12.194 Z-0.500 F500
G1 X28.376 Y12.252 Z-0.500 F500
G1 X28.233 Y12.297 Z-0.500 F500
G1 X28.188 Y12.307 Z-0.500 F500
G1 X28.108 Y12.319 Z-0.500 F500
G1 X28.026 Y12.320 Z-0.500 F500
G1 X27.946 Y12.308 Z-0.500 F500
G1 X27.896 Y12.289 Z-0.471 F500
G1 X27.852 Y12.259 Z-0.443 F500
G1 X27.815 Y12.221 Z-0.414 F500
G1 X27.788 Y12.175 Z-0.386 F500
G1 X27.772 Y12.124 Z-0.357 F500
G1 X27.767 Y12.071 Z-0.329 F500
G1 X27.774 Y12.018 Z-0.300 F500
G1 X27.789 Y11.977 Z-0.300 F500
G1 X27.810 Y11.940 Z-0.300 F500
G1 X27.969 Y11.715 Z-0.300 F500
G1 X29.618 Y9.378 Z-0.300 F500
G1 X29.699 Y9.263 Z-0.300 F500
G1 X29.736 Y9.222 Z-0.300 F500
G1 X29.781 Y9.190 Z-0.300 F500
G1 X29.832 Y9.170 Z-0.300 F500
G1 X29.886 Y9.162 Z-0.300 F500
G1 X29.939 Y9.166 Z-0.329 F500
G1 X29.990 Y9.182 Z-0.357 F500
G1 X30.036 Y9.209 Z-0.386 F500
G1 X30.075 Y9.245 Z-0.414 F500
G1 X30.105 Y9.289 Z-0.443 F500
G1 X30.124 Y9.339 Z-0.471 F500
G1 X30.132 Y9.392 Z-0.500 F500
G1 X30.132 Y11.031 Z-0.500 F500
G1 X30.125 Y11.181 Z-0.500 F500
G1 X30.103 Y11.329 Z-0.500 F500
G1 X30.067 Y11.475 Z-0.500 F500
G1 X30.019 Y11.617 Z-0.500 F500
G1 X29.953 Y11.768 Z-0.500 F500
G1 X29.871 Y11.923 Z-0.500 F500
G1 X29.772 Y12.077 Z-0.500 F500
G1 X29.728 Y12.134 Z-0.500 F500
G1 X29.606 Y12.253 Z-0.500 F500
G1 X29.454 Y12.328 Z-0.500 F500
G1 X29.286 Y12.354 Z-0.500 F500
G1 X29.233 Y12.346 Z-0.471 F500
G1 X29.183 Y12.327 Z-0.443 F500
G1 X29.139 Y12.297 Z-0.414 F500
G1 X29.103 Y12.258 Z-0.386 F500
G1 X29.076 Y12.212 Z-0.357 F500
G1 X29.060 Y12.161 Z-0.329 F500
G1 X29.056 Y12.108 Z-0.300 F500
G1 X29.064 Y12.052 Z-0.300 F500
G1 X29.086 Y12.000 Z-0.300 F500
G1 X29.207 Y11.783 Z-0.300 F500
G1 X29.629 Y11.025 Z-0.300 F500
G1 X29.686 Y10.923 Z-0.300 F500
G1 X29.722 Y10.874 Z-0.300 F500
G1 X29.770 Y10.836 Z-0.300 F500
G1 X29.826 Y10.811 Z-0.300 F500
G1 X29.886 Y10.801 Z-0.300 F500
G1 X29.939 Y10.805 Z-0.329 F500
G1 X29.990 Y10.821 Z-0.357 F500
G1 X30.036 Y10.848 Z-0.386 F500
G1 X30.075 Y10.884 Z-0.414 F500
G1 X30.105 Y10.929 Z-0.443 F500
G1 X30.124 Y10.978 Z-0.471 F500
G1 X30.132 Y11.031 Z-0.500 F500
G1 X30.132 Y11.661 Z-0.500 F500
G1 X30.130 Y11.788 Z-0.500 F500
G1 X30.105 Y11.914 Z-0.500 F500
G1 X30.078 Y12.040 Z-0.500 F500
G1 X30.064 Y12.074 Z-0.500 F500
G1 X30.044 Y12.109 Z-0.500 F500
G1 X30.006 Y12.166 Z-0.500 F500
G1 X29.987 Y12.189 Z-0.500 F500
G1 X29.962 Y12.212 Z-0.500 F500
G1 X29.918 Y12.245 Z-0.500 F500
G1 X29.877 Y12.272 Z-0.500 F500
G1 X29.836 Y12.292 Z-0.500 F500
G1 X29.792 Y12.307 Z-0.500 F500
G1 X29.666 Y12.332 Z-0.500 F500
G1 X29.540 Y12.353 Z-0.500 F500
G1 X28.785 Y12.354 Z-0.500 F500
G1 X28.281 Y12.354 Z-0.500 F500
G1 X28.155 Y12.351 Z-0.500 F500
G1 X28.029 Y12.326 Z-0.500 F500
G1 X27.903 Y12.298 Z-0.500 F500
G1 X27.887 Y12.292 Z-0.500 F500
G1 X27.832 Y12.262 Z-0.500 F500
G1 X27.777 Y12.224 Z-0.500 F500
G1 X27.744 Y12.195 Z-0.500 F500
G1 X27.720 Y12.166 Z-0.500 F500
G1 X27.227 Y11.436 Z-0.500 F500
G1 X27.202 Y11.381 Z-0.500 F500
G1 X27.191 Y11.322 Z-0.500 F500
G1 X27.196 Y11.261 Z-0.500 F500
G1 X27.216 Y11.204 Z-0.500 F500
G1 X27.250 Y11.154 Z-0.500 F500
G1 X27.295 Y11.113 Z-0.500 F500
G1 X27.349 Y11.086 Z-0.500 F500
G1 X27.408 Y11.073 Z-0.500 F500
G1 X27.469 Y11.075 Z-0.500 F500
G1 X27.512 Y11.096 Z-0.495 F500
G1 X27.553 Y11.116 Z-0.480 F500
G1 X27.590 Y11.134 Z-0.457 F500
G1 X27.611 Y11.159 Z-0.430 F500
G1 X27.628 Y11.179 Z-0.398 F500
G1 X27.639 Y11.200 Z-0.356 F500
G1 X27.646 Y11.212 Z-0.310 F500
G1 X27.648 Y11.217 Z-0.262 F500
G1 X27.648 Y11.217 Z3.000 F500
G1 X5.916 Y7.452 Z3.000 F500
G1 X5.916 Y7.452 Z2.000 F500
G1 X5.872 Y7.322 Z1.995 F100
G1 X5.844 Y7.189 Z1.990 F100
G1 X5.832 Y7.053 Z1.986 F100
G1 X5.835 Y6.916 Z1.981 F100
G1 X5.854 Y6.781 Z1.976 F100
G1 X5.889 Y6.649 Z1.971 F100
G1 X5.938 Y6.522 Z1.967 F100
G1 X6.002 Y6.401 Z1.962 F100
G1 X6.079 Y6.289 Z1.957 F100
G1 X6.169 Y6.186 Z1.952 F100
G1 X6.270 Y6.094 Z1.948 F100
G1 X6.380 Y6.014 Z1.943 F100
G1 X6.500 Y5.948 Z1.938 F100
G1 X6.626 Y5.896 Z1.933 F100
G1 X6.757 Y5.858 Z1.928 F100
G1 X6.892 Y5.837 Z1.924 F100
G1 X7.028 Y5.830 Z1.919 F100
G1 X7.164 Y5.840 Z1.914 F100
G1 X7.298 Y5.865 Z1.909 F100
G1 X7.429 Y5.905 Z1.905 F100
G1 X7.553 Y5.960 Z1.900 F100
G1 X7.671 Y6.030 Z1.895 F100
G1 X7.780 Y6.112 Z1.890 F100
G1 X7.878 Y6.206 Z1.886 F100
G1 X7.965 Y6.311 Z1.881 F100
G1 X8.040 Y6.425 Z1.876 F100
G1 X8.100 Y6.547 Z1.871 F100
G1 X8.146 Y6.676 Z1.866 F100
G1 X8.178 Y6.808 Z1.862 F100
G1 X8.193 Y6.944 Z1.857 F100
G1 X8.193 Y7.080 Z1.852 F100
G1 X8.178 Y7.215 Z1.847 F100
G1 X8.146 Y7.348 Z1.843 F100
G1 X8.100 Y7.476 Z1.838 F100
G1 X8.039 Y7.598 Z1.833 F100
G1 X7.965 Y7.712 Z1.828 F100
G1 X7.878 Y7.817 Z1.824 F100
G1 X7.779 Y7.911 Z1.819 F100
G1 X7.671 Y7.993 Z1.814 F100
G1 X7.553 Y8.062 Z1.809 F100
G1 X7.429 Y8.117 Z1.804 F100
G1 X7.299 Y8.157 Z1.800 F100
G1 X7.165 Y8.182 Z1.795 F100
G1 X7.029 Y8.192 Z1.790 F100
G1 X6.893 Y8.186 Z1.785 F100
G1 X6.758 Y8.164 Z1.781 F100
G1 X6.627 Y8.126 Z1.776 F100
G1 X6.502 Y8.074 Z1.771 F100
G1 X6.383 Y8.008 Z1.766 F100
G1 X6.272 Y7.929 Z1.762 F100
G1 X6.171 Y7.837 Z1.757 F100
G1 X6.082 Y7.734 Z1.752 F100
G1 X6.005 Y7.622 Z1.747 F100
G1 X5.942 Y7.502 Z1.742 F100
G1 X5.893 Y7.375 Z1.738 F100
G1 X5.858 Y7.243 Z1.733 F100
G1 X5.840 Y7.109 Z1.728 F100
G1 X5.836 Y6.973 Z1.723 F100
G1 X5.849 Y6.837 Z1.719 F100
G1 X5.877 Y6.704 Z1.714 F100
G1 X5.920 Y6.575 Z1.709 F100
G1 X5.978 Y6.452 Z1.704 F100
G1 X6.050 Y6.336 Z1.700 F100
G1 X6.134 Y6.230 Z1.695 F100
G1 X6.230 Y6.133 Z1.690 F100
G1 X6.337 Y6.049 Z1.685 F100
G1 X6.452 Y5.977 Z1.680 F100
G1 X6.575 Y5.919 Z1.676 F100
G1 X6.704 Y5.876 Z1.671 F100
G1 X6.837 Y5.848 Z1.666 F100
G1 X6.972 Y5.835 Z1.661 F100
G1 X7.108 Y5.838 Z1.657 F100
G1 X7.243 Y5.857 Z1.652 F100
G1 X7.374 Y5.891 Z1.647 F100
G1 X7.501 Y5.940 Z1.642 F100
G1 X7.621 Y6.004 Z1.638 F100
G1 X7.733 Y6.080 Z1.633 F100
G1 X7.836 Y6.169 Z1.628 F100
G1 X7.927 Y6.270 Z1.623 F100
G1 X8.007 Y6.380 Z1.618 F100
G1 X8.073 Y6.499 Z1.614 F100
G1 X8.125 Y6.624 Z1.609 F100
G1 X8.162 Y6.755 Z1.604 F100
G1 X8.184 Y6.889 Z1.599 F100
G1 X8.191 Y7.024 Z1.595 F100
G1 X8.181 Y7.160 Z1.590 F100
G1 X8.157 Y7.293 Z1.585 F100
G1 X8.117 Y7.423 Z1.580 F100
G1 X8.062 Y7.547 Z1.576 F100
G1 X7.993 Y7.664 Z1.571 F100
G1 X7.912 Y7.772 Z1.566 F100
G1 X7.818 Y7.871 Z1.561 F100
G1 X7.714 Y7.957 Z1.556 F100
G1 X7.600 Y8.032 Z1.552 F100
G1 X7.479 Y8.092 Z1.547 F100
G1 X7.351 Y8.138 Z1.542 F100
G1 X7.219 Y8.170 Z1.537 F100
G1 X7.084 Y8.185 Z1.533 F100
G1 X6.949 Y8.186 Z1.528 F100
G1 X6.814 Y8.170 Z1.523 F100
G1 X6.682 Y8.139 Z1.518 F100
G1 X6.554 Y8.093 Z1.514 F100
G1 X6.433 Y8.033 Z1.509 F100
G1 X6.319 Y7.959 Z1.504 F100
G1 X6.215 Y7.873 Z1.499 F100
G1 X6.121 Y7.775 Z1.494 F100
G1 X6.039 Y7.667 Z1.490 F100
G1 X5.970 Y7.550 Z1.485 F100
G1 X5.915 Y7.426 Z1.480 F100
G1 X5.875 Y7.297 Z1.475 F100
G1 X5.850 Y7.163 Z1.471 F100
G1 X5.840 Y7.028 Z1.466 F100
G1 X5.847 Y6.893 Z1.461 F100
G1 X5.868 Y6.759 Z1.456 F100
G1 X5.905 Y6.629 Z1.452 F100
G1 X5.957 Y6.503 Z1.447 F100
G1 X6.023 Y6.385 Z1.442 F100
G1 X6.102 Y6.275 Z1.437 F100
G1 X6.193 Y6.174 Z1.432 F100
G1 X6.295 Y6.085 Z1.428 F100
G1 X6.406 Y6.009 Z1.423 F100
G1 X6.526 Y5.945 Z1.418 F100
G1 X6.652 Y5.896 Z1.413 F100
G1 X6.783 Y5.862 Z1.409 F100
G1 X6.917 Y5.843 Z1.404 F100
G1 X7.052 Y5.840 Z1.399 F100
G1 X7.187 Y5.852 Z1.394 F100
G1 X7.320 Y5.880 Z1.390 F100
G1 X7.448 Y5.923 Z1.385 F100
G1 X7.571 Y5.980 Z1.380 F100
G1 X7.686 Y6.051 Z1.375 F100
G1 X7.792 Y6.135 Z1.370 F100
G1 X7.888 Y6.230 Z1.366 F100
G1 X7.972 Y6.336 Z1.361 F100
G1 X8.044 Y6.451 Z1.356 F100
G1 X8.101 Y6.574 Z1.351 F100
G1 X8.145 Y6.702 Z1.347 F100
G1 X8.173 Y6.834 Z1.342 F100
G1 X8.186 Y6.969 Z1.337 F100
G1 X8.183 Y7.104 Z1.332 F100
G1 X8.164 Y7.238 Z1.328 F100
G1 X8.131 Y7.369 Z1.323 F100
G1 X8.082 Y7.495 Z1.318 F100
G1 X8.019 Y7.615 Z1.313 F100
G1 X7.943 Y7.726 Z1.308 F100
G1 X7.854 Y7.829 Z1.304 F100
G1 X7.755 Y7.920 Z1.299 F100
G1 X7.645 Y7.999 Z1.294 F100
G1 X7.527 Y8.065 Z1.289 F100
G1 X7.402 Y8.117 Z1.285 F100
G1 X7.272 Y8.154 Z1.280 F100
G1 X7.139 Y8.176 Z1.275 F100
G1 X7.004 Y8.183 Z1.270 F100
G1 X6.869 Y8.174 Z1.266 F100
G1 X6.736 Y8.149 Z1.261 F100
G1 X6.607 Y8.110 Z1.256 F100
G1 X6.484 Y8.055 Z1.251 F100
G1 X6.367 Y7.987 Z1.246 F100
G1 X6.259 Y7.906 Z1.242 F100
G1 X6.161 Y7.813 Z1.237 F100
G1 X6.075 Y7.709 Z1.232 F100
G1 X6.001 Y7.596 Z1.227 F100
G1 X5.940 Y7.476 Z1.223 F100
G1 X5.894 Y7.349 Z1.218 F100
G1 X5.863 Y7.217 Z1.213 F100
G1 X5.847 Y7.083 Z1.208 F100
G1 X5.847 Y6.948 Z1.203 F100
G1 X5.862 Y6.814 Z1.199 F100
G1 X5.893 Y6.683 Z1.194 F100
G1 X5.938 Y6.555 Z1.189 F100
G1 X5.998 Y6.435 Z1.184 F100
G1 X6.071 Y6.321 Z1.180 F100
G1 X6.157 Y6.217 Z1.175 F100
G1 X6.254 Y6.124 Z1.170 F100
G1 X6.362 Y6.042 Z1.165 F100
G1 X6.478 Y5.974 Z1.161 F100
G1 X6.601 Y5.919 Z1.156 F100
G1 X6.730 Y5.879 Z1.151 F100
G1 X6.862 Y5.854 Z1.146 F100
G1 X6.997 Y5.844 Z1.141 F100
G1 X7.132 Y5.850 Z1.137 F100
G1 X7.265 Y5.871 Z1.132 F100
G1 X7.395 Y5.908 Z1.127 F100
G1 X7.519 Y5.959 Z1.122 F100
G1 X7.637 Y6.024 Z1.118 F100
G1 X7.747 Y6.103 Z1.113 F100
G1 X7.847 Y6.193 Z1.108 F100
G1 X7.936 Y6.295 Z1.103 F100
G1 X8.012 Y6.406 Z1.099 F100
G1 X8.075 Y6.525 Z1.094 F100
G1 X8.124 Y6.650 Z1.089 F100
G1 X8.159 Y6.780 Z1.084 F100
G1 X8.178 Y6.914 Z1.079 F100
G1 X8.181 Y7.048 Z1.075 F100
G1 X8.169 Y7.183 Z1.070 F100
G1 X8.142 Y7.314 Z1.065 F100
G1 X8.099 Y7.442 Z1.060 F100
G1 X8.042 Y7.564 Z1.056 F100
G1 X7.972 Y7.679 Z1.051 F100
G1 X7.889 Y7.785 Z1.046 F100
G1 X7.794 Y7.881 Z1.041 F100
G1 X7.688 Y7.965 Z1.037 F100
G1 X7.574 Y8.036 Z1.032 F100
G1 X7.452 Y8.093 Z1.027 F100
G1 X7.325 Y8.137 Z1.022 F100
G1 X7.193 Y8.165 Z1.017 F100
G1 X7.059 Y8.178 Z1.013 F100
G1 X6.925 Y8.175 Z1.008 F100
G1 X6.791 Y8.157 Z1.003 F100
G1 X6.661 Y8.123 Z0.998 F100
G1 X6.535 Y8.075 Z0.994 F100
G1 X6.416 Y8.013 Z0.989 F100
G1 X6.305 Y7.937 Z0.984 F100
G1 X6.203 Y7.849 Z0.979 F100
G1 X6.112 Y7.750 Z0.975 F100
G1 X6.033 Y7.641 Z0.970 F100
G1 X5.967 Y7.524 Z0.965 F100
G1 X5.916 Y7.400 Z0.960 F100
G1 X5.878 Y7.270 Z0.955 F100
G1 X5.856 Y7.138 Z0.951 F100
G1 X5.849 Y7.003 Z0.946 F100
G1 X5.858 Y6.869 Z0.941 F100
G1 X5.883 Y6.737 Z0.936 F100
G1 X5.922 Y6.609 Z0.932 F100
G1 X5.976 Y6.485 Z0.927 F100
G1 X6.043 Y6.369 Z0.922 F100
G1 X6.124 Y6.262 Z0.917 F100
G1 X6.216 Y6.164 Z0.913 F100
G1 X6.319 Y6.078 Z0.908 F100
G1 X6.432 Y6.004 Z0.903 F100
G1 X6.552 Y5.944 Z0.898 F100
G1 X6.678 Y5.898 Z0.893 F100
G1 X6.809 Y5.867 Z0.889 F100
G1 X6.942 Y5.851 Z0.884 F100
G1 X7.077 Y5.850 Z0.879 F100
G1 X7.210 Y5.865 Z0.874 F100
G1 X7.341 Y5.895 Z0.870 F100
G1 X7.468 Y5.940 Z0.865 F100
G1 X7.588 Y6.000 Z0.860 F100
G1 X7.701 Y6.073 Z0.855 F100
G1 X7.804 Y6.158 Z0.851 F100
G1 X7.897 Y6.255 Z0.846 F100
G1 X7.979 Y6.362 Z0.841 F100
G1 X8.047 Y6.477 Z0.836 F100
G1 X8.102 Y6.600 Z0.831 F100
G1 X8.142 Y6.728 Z0.827 F100
G1 X8.167 Y6.859 Z0.822 F100
G1 X8.177 Y6.993 Z0.817 F100
G1 X8.171 Y7.127 Z0.812 F100
G1 X8.150 Y7.260 Z0.808 F100
G1 X8.114 Y7.389 Z0.803 F100
G1 X8.063 Y7.513 Z0.798 F100
G1 X7.998 Y7.631 Z0.793 F100
G1 X7.920 Y7.740 Z0.789 F100
G1 X7.830 Y7.840 Z0.784 F100
G1 X7.730 Y7.928 Z0.779 F100
G1 X7.619 Y8.004 Z0.774 F100
G1 X7.501 Y8.067 Z0.769 F100
G1 X7.376 Y8.116 Z0.765 F100
G1 X7.247 Y8.151 Z0.760 F100
G1 X7.114 Y8.170 Z0.755 F100
G1 X6.980 Y8.173 Z0.750 F100
G1 X6.846 Y8.162 Z0.746 F100
G1 X6.715 Y8.134 Z0.741 F100
G1 X6.588 Y8.092 Z0.736 F100
G1 X6.466 Y8.036 Z0.731 F100
G1 X6.352 Y7.966 Z0.727 F100
G1 X6.247 Y7.883 Z0.722 F100
G1 X6.151 Y7.789 Z0.717 F100
G1 X6.068 Y7.684 Z0.712 F100
G1 X5.997 Y7.570 Z0.707 F100
G1 X5.939 Y7.449 Z0.703 F100
G1 X5.896 Y7.323 Z0.698 F100
G1 X5.868 Y7.192 Z0.693 F100
G1 X5.855 Y7.058 Z0.688 F100
G1 X5.857 Y6.925 Z0.684 F100
G1 X5.875 Y6.792 Z0.679 F100
G1 X5.908 Y6.662 Z0.674 F100
G1 X5.956 Y6.537 Z0.669 F100
G1 X6.018 Y6.418 Z0.665 F100
G1 X6.093 Y6.307 Z0.660 F100
G1 X6.180 Y6.206 Z0.655 F100
G1 X6.279 Y6.115 Z0.650 F100
G1 X6.387 Y6.037 Z0.645 F100
G1 X6.504 Y5.971 Z0.641 F100
G1 X6.627 Y5.919 Z0.636 F100
G1 X6.756 Y5.882 Z0.631 F100
G1 X6.888 Y5.860 Z0.626 F100
G1 X7.022 Y5.853 Z0.622 F100
G1 X7.155 Y5.862 Z0.617 F100
G1 X7.287 Y5.885 Z0.612 F100
G1 X7.415 Y5.924 Z0.607 F100
G1 X7.537 Y5.978 Z0.603 F100
G1 X7.653 Y6.045 Z0.598 F100
G1 X7.760 Y6.125 Z0.593 F100
G1 X7.857 Y6.217 Z0.588 F100
G1 X7.943 Y6.319 Z0.583 F100
G1 X8.017 Y6.431 Z0.579 F100
G1 X8.077 Y6.550 Z0.574 F100
G1 X8.123 Y6.676 Z0.569 F100
G1 X8.154 Y6.806 Z0.564 F100
G1 X8.170 Y6.939 Z0.560 F100
G1 X8.171 Y7.073 Z0.555 F100
G1 X8.156 Y7.205 Z0.550 F100
G1 X8.126 Y7.336 Z0.545 F100
G1 X8.082 Y7.462 Z0.541 F100
G1 X8.023 Y7.582 Z0.536 F100
G1 X7.950 Y7.694 Z0.531 F100
G1 X7.866 Y7.797 Z0.526 F100
G1 X7.769 Y7.890 Z0.521 F100
G1 X7.663 Y7.971 Z0.517 F100
G1 X7.548 Y8.039 Z0.512 F100
G1 X7.427 Y8.094 Z0.507 F100
G1 X7.299 Y8.134 Z0.502 F100
G1 X7.168 Y8.159 Z0.498 F100
G1 X7.035 Y8.169 Z0.493 F100
G1 X6.901 Y8.164 Z0.488 F100
G1 X6.769 Y8.143 Z0.483 F100
G1 X6.641 Y8.107 Z0.479 F100
G1 X6.517 Y8.057 Z0.474 F100
G1 X6.400 Y7.992 Z0.469 F100
G1 X6.291 Y7.915 Z0.464 F100
G1 X6.192 Y7.825 Z0.459 F100
G1 X6.104 Y7.725 Z0.455 F100
G1 X6.028 Y7.616 Z0.450 F100
G1 X5.965 Y7.498 Z0.445 F100
G1 X5.916 Y7.374 Z0.440 F100
G1 X5.882 Y7.245 Z0.436 F100
G1 X5.863 Y7.113 Z0.431 F100
G1 X5.859 Y6.980 Z0.426 F100
G1 X5.870 Y6.847 Z0.421 F100
G1 X5.897 Y6.716 Z0.417 F100
G1 X5.939 Y6.589 Z0.412 F100
G1 X5.995 Y6.468 Z0.407 F100
G1 X6.065 Y6.354 Z0.402 F100
G1 X6.147 Y6.249 Z0.397 F100
G1 X6.241 Y6.154 Z0.393 F100
G1 X6.345 Y6.071 Z0.388 F100
G1 X6.458 Y6.000 Z0.383 F100
G1 X6.578 Y5.943 Z0.378 F100
G1 X6.704 Y5.900 Z0.374 F100
G1 X6.834 Y5.871 Z0.369 F100
G1 X6.967 Y5.858 Z0.364 F100
G1 X7.100 Y5.861 Z0.359 F100
G1 X7.232 Y5.878 Z0.355 F100
G1 X7.361 Y5.911 Z0.350 F100
G1 X7.486 Y5.958 Z0.345 F100
G1 X7.604 Y6.020 Z0.340 F100
G1 X7.715 Y6.094 Z0.335 F100
G1 X7.816 Y6.181 Z0.331 F100
G1 X7.906 Y6.279 Z0.326 F100
G1 X7.984 Y6.387 Z0.321 F100
G1 X8.050 Y6.503 Z0.316 F100
G1 X8.102 Y6.626 Z0.312 F100
G1 X8.139 Y6.754 Z0.307 F100
G1 X8.161 Y6.885 Z0.302 F100
G1 X8.168 Y7.018 Z0.297 F100
G1 X8.160 Y7.151 Z0.293 F100
G1 X8.136 Y7.282 Z0.288 F100
G1 X8.098 Y7.409 Z0.283 F100
G1 X8.045 Y7.531 Z0.278 F100
G1 X7.978 Y7.646 Z0.273 F100
G1 X7.898 Y7.753 Z0.269 F100
G1 X7.807 Y7.850 Z0.264 F100
G1 X7.705 Y7.935 Z0.259 F100
G1 X7.594 Y8.009 Z0.254 F100
G1 X7.475 Y8.069 Z0.250 F100
G1 X7.351 Y8.115 Z0.245 F100
G1 X7.221 Y8.146 Z0.240 F100
G1 X7.089 Y8.162 Z0.235 F100
G1 X6.956 Y8.163 Z0.231 F100
G1 X6.824 Y8.149 Z0.226 F100
G1 X6.694 Y8.119 Z0.221 F100
G1 X6.569 Y8.075 Z0.216 F100
G1 X6.449 Y8.016 Z0.211 F100
G1 X6.337 Y7.944 Z0.207 F100
G1 X6.235 Y7.860 Z0.202 F100
G1 X6.142 Y7.765 Z0.197 F100
G1 X6.061 Y7.659 Z0.192 F100
G1 X5.993 Y7.545 Z0.188 F100
G1 X5.939 Y7.424 Z0.183 F100
G1 X5.899 Y7.297 Z0.178 F100
G1 X5.873 Y7.167 Z0.173 F100
G1 X5.863 Y7.034 Z0.169 F100
G1 X5.868 Y6.901 Z0.164 F100
G1 X5.889 Y6.770 Z0.159 F100
G1 X5.924 Y6.642 Z0.154 F100
G1 X5.975 Y6.519 Z0.149 F100
G1 X6.038 Y6.402 Z0.145 F100
G1 X6.115 Y6.294 Z0.140 F100
G1 X6.204 Y6.195 Z0.135 F100
G1 X6.304 Y6.107 Z0.130 F100
G1 X6.413 Y6.031 Z0.126 F100
G1 X6.530 Y5.969 Z0.121 F100
G1 X6.653 Y5.920 Z0.116 F100
G1 X6.781 Y5.886 Z0.111 F100
G1 X6.913 Y5.866 Z0.107 F100
G1 X7.045 Y5.862 Z0.102 F100
G1 X7.178 Y5.874 Z0.097 F100
G1 X7.308 Y5.900 Z0.092 F100
G1 X7.434 Y5.941 Z0.087 F100
G1 X7.554 Y5.997 Z0.083 F100
G1 X7.668 Y6.066 Z0.078 F100
G1 X7.772 Y6.148 Z0.073 F100
G1 X7.867 Y6.241 Z0.068 F100
G1 X7.950 Y6.344 Z0.064 F100
G1 X8.021 Y6.457 Z0.059 F100
G1 X8.078 Y6.577 Z0.054 F100
G1 X8.121 Y6.702 Z0.049 F100
G1 X8.149 Y6.832 Z0.045 F100
G1 X8.163 Y6.963 Z0.040 F100
G1 X8.161 Y7.096 Z0.035 F100
G1 X8.143 Y7.227 Z0.030 F100
G1 X8.111 Y7.356 Z0.025 F100
G1 X8.064 Y7.480 Z0.021 F100
G1 X8.003 Y7.598 Z0.016 F100
G1 X7.929 Y7.708 Z0.011 F100
G1 X7.842 Y7.808 Z0.006 F100
G1 X7.745 Y7.898 Z0.002 F100
G1 X7.638 Y7.977 Z-0.003 F100
G1 X7.523 Y8.042 Z-0.008 F100
G1 X7.401 Y8.094 Z-0.013 F100
G1 X7.273 Y8.131 Z-0.017 F100
G1 X7.143 Y8.153 Z-0.022 F100
G1 X7.010 Y8.160 Z-0.027 F100
G1 X6.878 Y8.152 Z-0.032 F100
G1 X6.748 Y8.129 Z-0.037 F100
G1 X6.621 Y8.091 Z-0.041 F100
G1 X6.499 Y8.038 Z-0.046 F100
G1 X6.385 Y7.972 Z-0.051 F100
G1 X6.278 Y7.893 Z-0.056 F100
G1 X6.182 Y7.802 Z-0.060 F100
G1 X6.097 Y7.701 Z-0.065 F100
G1 X6.023 Y7.590 Z-0.070 F100
G1 X5.964 Y7.472 Z-0.075 F100
G1 X5.918 Y7.348 Z-0.079 F100
G1 X5.886 Y7.219 Z-0.084 F100
G1 X5.870 Y7.088 Z-0.089 F100
G1 X5.869 Y6.956 Z-0.094 F100
G1 X5.883 Y6.824 Z-0.099 F100
G1 X5.913 Y6.695 Z-0.103 F100
G1 X5.957 Y6.570 Z-0.108 F100
G1 X6.015 Y6.451 Z-0.113 F100
