O1001
(FOR BEST MACHINING RESULTS THE FOLLOWING)
(PARAMETER SETTINGS ARE RECOMMENDED BY MAZAK)
(F85 BIT 2 IS 0 TYPE OF COORDINATE SYSTEM FOR CONTROLLING TOOL TIP POINT)
(F86 BIT 6 IS 1 TABLE ROTARY AXIS REFERENCE POSITION FOR TOOL TIP POINT CONTROL)
(F96 BIT 1 IS 1 AUTOMATIC CORRECTION)
(F114 BIT 1 IS 1 G49 ALLOWED MOVEMENT)
(F144 BIT 1 IS 1 TABLE ROTARY AXIS REFERENCE FOR INCLINED PLANE MACHINING)
(F162 BIT 0 IS 1 TOOL TIP POINT CONTROL MOVEMENT)

(T2 D=0.2362 CR=0. - ZMIN=-0.125 - FLAT END MILL)

N10 G90 G94 G17 G49
N15 G20
(WHEN USING FUSION FOR PERSONAL USE, THE FEEDRATE OF RAPID)
(MOVES IS REDUCED TO MATCH THE FEEDRATE OF CUTTING MOVES,)
(WHICH CAN INCREASE MACHINING TIME. UNRESTRICTED RAPID MOVES)
(ARE AVAILABLE WITH A FUSION SUBSCRIPTION.)
N20 G53 G0 Z0.

(FACE2)
N25 T2 M6
N30 S18000 M3
N35 G90 G94 G17
N40 G54
N45 M8
N50 G0 X0.9451 Y-0.4104
N55 G43 Z0.6 H2
N60 G1 Z0.2 F54.
N65 Z0.0186 F18.
N70 G18 G3 X0.9215 Z-0.005 I-0.0236 K0. F54.
N75 G1 X0.9101
N80 X-0.9101
N85 G17 G2 Y-0.2628 I0. J0.0738
N90 G1 X0.9101
N95 G3 Y-0.1152 I0. J0.0738
N100 G1 X-0.9101
N105 G2 Y0.0325 I0. J0.0738
N110 G1 X0.9101
N115 G3 Y0.1801 I0. J0.0738
N120 G1 X-0.9101
N125 G2 Y0.3278 I0. J0.0738
N130 G1 X0.9101
N135 G18 G2 X0.9337 Z0.0186 I0. K0.0236
N140 G1 Z0.2
N145 X0.9451 Y-0.4104
N150 Z-0.0014 F18.
N155 G3 X0.9215 Z-0.025 I-0.0236 K0. F54.
N160 G1 X0.9101
N165 X-0.9101
N170 G17 G2 Y-0.2628 I0. J0.0738
N175 G1 X0.9101
N180 G3 Y-0.1152 I0. J0.0738
N185 G1 X-0.9101
N190 G2 Y0.0325 I0. J0.0738
N195 G1 X0.9101
N200 G3 Y0.1801 I0. J0.0738
N205 G1 X-0.9101
N210 G2 Y0.3278 I0. J0.0738
N215 G1 X0.9101
N220 G18 G2 X0.9337 Z-0.0014 I0. K0.0236
N225 G1 Z0.2
N230 X0.9451 Y-0.4104
N235 Z-0.0214 F18.
N240 G3 X0.9215 Z-0.045 I-0.0236 K0. F54.
N245 G1 X0.9101
N250 X-0.9101
N255 G17 G2 Y-0.2628 I0. J0.0738
N260 G1 X0.9101
N265 G3 Y-0.1152 I0. J0.0738
N270 G1 X-0.9101
N275 G2 Y0.0325 I0. J0.0738
N280 G1 X0.9101
N285 G3 Y0.1801 I0. J0.0738
N290 G1 X-0.9101
N295 G2 Y0.3278 I0. J0.0738
N300 G1 X0.9101
N305 G18 G2 X0.9337 Z-0.0214 I0. K0.0236
N310 G1 Z0.2
N315 X0.9451 Y-0.4104
N320 Z-0.0414 F18.
N325 G3 X0.9215 Z-0.065 I-0.0236 K0. F54.
N330 G1 X0.9101
N335 X-0.9101
N340 G17 G2 Y-0.2628 I0. J0.0738
N345 G1 X0.9101
N350 G3 Y-0.1152 I0. J0.0738
N355 G1 X-0.9101
N360 G2 Y0.0325 I0. J0.0738
N365 G1 X0.9101
N370 G3 Y0.1801 I0. J0.0738
N375 G1 X-0.9101
N380 G2 Y0.3278 I0. J0.0738
N385 G1 X0.9101
N390 G18 G2 X0.9337 Z-0.0414 I0. K0.0236
N395 G1 Z0.2
N400 X0.9451 Y-0.4104
N405 Z-0.0614 F18.
N410 G3 X0.9215 Z-0.085 I-0.0236 K0. F54.
N415 G1 X0.9101
N420 X-0.9101
N425 G17 G2 Y-0.2628 I0. J0.0738
N430 G1 X0.9101
N435 G3 Y-0.1152 I0. J0.0738
N440 G1 X-0.9101
N445 G2 Y0.0325 I0. J0.0738
N450 G1 X0.9101
N455 G3 Y0.1801 I0. J0.0738
N460 G1 X-0.9101
N465 G2 Y0.3278 I0. J0.0738
N470 G1 X0.9101
N475 G18 G2 X0.9337 Z-0.0614 I0. K0.0236
N480 G1 Z0.2
N485 X0.9451 Y-0.4104
N490 Z-0.0814 F18.
N495 G3 X0.9215 Z-0.105 I-0.0236 K0. F54.
N500 G1 X0.9101
N505 X-0.9101
N510 G17 G2 Y-0.2628 I0. J0.0738
N515 G1 X0.9101
N520 G3 Y-0.1152 I0. J0.0738
N525 G1 X-0.9101
N530 G2 Y0.0325 I0. J0.0738
N535 G1 X0.9101
N540 G3 Y0.1801 I0. J0.0738
N545 G1 X-0.9101
N550 G2 Y0.3278 I0. J0.0738
N555 G1 X0.9101
N560 G18 G2 X0.9337 Z-0.0814 I0. K0.0236
N565 G1 Z0.2
N570 X0.9451 Y-0.4104
N575 Z-0.1014 F18.
N580 G3 X0.9215 Z-0.125 I-0.0236 K0. F54.
N585 G1 X0.9101
N590 X-0.9101
N595 G17 G2 Y-0.2628 I0. J0.0738
N600 G1 X0.9101
N605 G3 Y-0.1152 I0. J0.0738
N610 G1 X-0.9101
N615 G2 Y0.0325 I0. J0.0738
N620 G1 X0.9101
N625 G3 Y0.1801 I0. J0.0738
N630 G1 X-0.9101
N635 G2 Y0.3278 I0. J0.0738
N640 G1 X0.9101
N645 G18 G2 X0.9337 Z-0.1014 I0. K0.0236
N650 G1 Z0.6
N655 G17

N660 M5
N665 M9
N670 G53 G0 Z0.
N675 G49
N680 M30
