O1002
(FOR BEST MACHINING RESULTS THE FOLLOWING)
(PARAMETER SETTINGS ARE RECOMMENDED BY MAZAK)
(F85 BIT 2 IS 0 TYPE OF COORDINATE SYSTEM FOR CONTROLLING TOOL TIP POINT)
(F86 BIT 6 IS 1 TABLE ROTARY AXIS REFERENCE POSITION FOR TOOL TIP POINT CONTROL)
(F96 BIT 1 IS 1 AUTOMATIC CORRECTION)
(F114 BIT 1 IS 1 G49 ALLOWED MOVEMENT)
(F144 BIT 1 IS 1 TABLE ROTARY AXIS REFERENCE FOR INCLINED PLANE MACHINING)
(F162 BIT 0 IS 1 TOOL TIP POINT CONTROL MOVEMENT)

(T3 D=0.0938 CR=0. - ZMIN=-0.2716 - FLAT END MILL)

N10 G90 G94 G17 G49
N15 G20
(WHEN USING FUSION FOR PERSONAL USE, THE FEEDRATE OF RAPID)
(MOVES IS REDUCED TO MATCH THE FEEDRATE OF CUTTING MOVES,)
(WHICH CAN INCREASE MACHINING TIME. UNRESTRICTED RAPID MOVES)
(ARE AVAILABLE WITH A FUSION SUBSCRIPTION.)
N20 G53 G0 Z0.

(2D POCKET3)
N25 T3 M6
N30 S18000 M3
N35 G90 G94 G17
N40 G54
N45 M8
N50 G0 X0.0566 Y-0.3734
N55 G43 Z0.6 H3
N60 G1 Z0.0885 F72.
N65 Z-0.1215 F24.
N70 X0.0564 Y-0.3732 Z-0.1236 F72.
N75 X0.056 Y-0.3727 Z-0.1256
N80 X0.0552 Y-0.3719 Z-0.1274
N85 X0.0542 Y-0.3709 Z-0.1289
N90 X0.0529 Y-0.3696 Z-0.13
N95 X0.0516 Y-0.3681 Z-0.1307
N100 X0.0502 Y-0.3666 Z-0.1309
N105 X0.0401 Y-0.3559
N110 G3 X0.009 Y-0.324 I-1.1231 J-1.0601
N115 X-0.009 I-0.009 J-0.009
N120 X-0.0403 Y-0.3561 I1.0921 J-1.0921
N125 X-0.0345 Y-0.3696 I0.0058 J-0.0055
N130 G1 X0.1109 Y-0.37
N135 G3 X0.116 Y-0.3559 I0. J0.008
N140 G2 X0.1065 Y-0.3473 I0.0861 J0.1042
N145 G1 X0. Y-0.2407
N150 X-0.1065 Y-0.3473
N155 G2 X-0.1162 Y-0.356 I-0.0956 J0.0956
N160 G3 X-0.1118 Y-0.3702 I0.0051 J-0.0062
N165 G1 X0.0469 Y-0.3835
N170 G3 X0.0534 Y-0.3701 I0.0007 J0.008
N175 G1 X0.052 Y-0.3686 Z-0.1311
N180 X0.0506 Y-0.3671 Z-0.1318
N185 X0.0494 Y-0.3658 Z-0.1329
N190 X0.0484 Y-0.3647 Z-0.1344
N195 X0.0476 Y-0.3639 Z-0.1362
N200 X0.0472 Y-0.3634 Z-0.1382
N205 X0.047 Y-0.3633 Z-0.1403
N210 Z-0.1409
N215 X0.0468 Y-0.3631 Z-0.143
N220 X0.0464 Y-0.3626 Z-0.145
N225 X0.0456 Y-0.3618 Z-0.1468
N230 X0.0446 Y-0.3607 Z-0.1482
N235 X0.0433 Y-0.3594 Z-0.1494
N240 X0.042 Y-0.3579 Z-0.1501
N245 X0.0406 Y-0.3564 Z-0.1503
N250 X0.0401 Y-0.3559
N255 G3 X0.009 Y-0.324 I-1.1231 J-1.0601
N260 X-0.009 I-0.009 J-0.009
N265 X-0.0403 Y-0.3561 I1.0921 J-1.0921
N270 X-0.0345 Y-0.3696 I0.0058 J-0.0055
N275 G1 X0.1109 Y-0.37
N280 G3 X0.116 Y-0.3559 I0. J0.008
N285 G2 X0.1065 Y-0.3473 I0.0861 J0.1042
N290 G1 X0. Y-0.2407
N295 X-0.1065 Y-0.3473
N300 G2 X-0.1162 Y-0.356 I-0.0956 J0.0956
N305 G3 X-0.1118 Y-0.3702 I0.0051 J-0.0062
N310 G1 X0.0469 Y-0.3835
N315 G3 X0.0534 Y-0.3701 I0.0007 J0.008
N320 G1 X0.052 Y-0.3686 Z-0.1505
N325 X0.0506 Y-0.3671 Z-0.1512
N330 X0.0494 Y-0.3658 Z-0.1523
N335 X0.0484 Y-0.3647 Z-0.1538
N340 X0.0476 Y-0.3639 Z-0.1556
N345 X0.0472 Y-0.3634 Z-0.1576
N350 X0.047 Y-0.3633 Z-0.1597
N355 Z-0.1603
N360 X0.0468 Y-0.3631 Z-0.1624
N365 X0.0464 Y-0.3626 Z-0.1644
N370 X0.0456 Y-0.3618 Z-0.1662
N375 X0.0446 Y-0.3607 Z-0.1676
N380 X0.0433 Y-0.3594 Z-0.1688
N385 X0.042 Y-0.3579 Z-0.1694
N390 X0.0406 Y-0.3564 Z-0.1697
N395 X0.0401 Y-0.3559
N400 G3 X0.009 Y-0.324 I-1.1231 J-1.0601
N405 X-0.009 I-0.009 J-0.009
N410 X-0.0403 Y-0.3561 I1.0921 J-1.0921
N415 X-0.0345 Y-0.3696 I0.0058 J-0.0055
N420 G1 X0.1109 Y-0.37
N425 G3 X0.116 Y-0.3559 I0. J0.008
N430 G2 X0.1065 Y-0.3473 I0.0861 J0.1042
N435 G1 X0. Y-0.2407
N440 X-0.1065 Y-0.3473
N445 G2 X-0.1162 Y-0.356 I-0.0956 J0.0956
N450 G3 X-0.1118 Y-0.3702 I0.0051 J-0.0062
N455 G1 X0.0469 Y-0.3835
N460 G3 X0.0534 Y-0.3701 I0.0007 J0.008
N465 G1 X0.052 Y-0.3686 Z-0.1699
N470 X0.0506 Y-0.3671 Z-0.1706
N475 X0.0494 Y-0.3658 Z-0.1717
N480 X0.0484 Y-0.3647 Z-0.1732
N485 X0.0476 Y-0.3639 Z-0.175
N490 X0.0472 Y-0.3634 Z-0.177
N495 X0.047 Y-0.3633 Z-0.1791
N500 Z-0.1797
N505 X0.0468 Y-0.3631 Z-0.1818
N510 X0.0464 Y-0.3626 Z-0.1838
N515 X0.0456 Y-0.3618 Z-0.1855
N520 X0.0446 Y-0.3607 Z-0.187
N525 X0.0433 Y-0.3594 Z-0.1881
N530 X0.042 Y-0.3579 Z-0.1888
N535 X0.0406 Y-0.3564 Z-0.1891
N540 X0.0401 Y-0.3559
N545 G3 X0.009 Y-0.324 I-1.1231 J-1.0601
N550 X-0.009 I-0.009 J-0.009
N555 X-0.0403 Y-0.3561 I1.0921 J-1.0921
N560 X-0.0345 Y-0.3696 I0.0058 J-0.0055
N565 G1 X0.1109 Y-0.37
N570 G3 X0.116 Y-0.3559 I0. J0.008
N575 G2 X0.1065 Y-0.3473 I0.0861 J0.1042
N580 G1 X0. Y-0.2407
N585 X-0.1065 Y-0.3473
N590 G2 X-0.1162 Y-0.356 I-0.0956 J0.0956
N595 G3 X-0.1118 Y-0.3702 I0.0051 J-0.0062
N600 G1 X0.0469 Y-0.3835
N605 G3 X0.0534 Y-0.3701 I0.0007 J0.008
N610 G1 X0.052 Y-0.3686 Z-0.1893
N615 X0.0506 Y-0.3671 Z-0.19
N620 X0.0494 Y-0.3658 Z-0.1911
N625 X0.0484 Y-0.3647 Z-0.1926
N630 X0.0476 Y-0.3639 Z-0.1944
N635 X0.0472 Y-0.3634 Z-0.1964
N640 X0.047 Y-0.3633 Z-0.1985
N645 Z-0.1991
N650 X0.0468 Y-0.3631 Z-0.2012
N655 X0.0464 Y-0.3626 Z-0.2032
N660 X0.0456 Y-0.3618 Z-0.2049
N665 X0.0446 Y-0.3607 Z-0.2064
N670 X0.0433 Y-0.3594 Z-0.2075
N675 X0.042 Y-0.3579 Z-0.2082
N680 X0.0406 Y-0.3564 Z-0.2085
N685 X0.0401 Y-0.3559
N690 G3 X0.009 Y-0.324 I-1.1231 J-1.0601
N695 X-0.009 I-0.009 J-0.009
N700 X-0.0403 Y-0.3561 I1.0921 J-1.0921
N705 X-0.0345 Y-0.3696 I0.0058 J-0.0055
N710 G1 X0.1109 Y-0.37
N715 G3 X0.116 Y-0.3559 I0. J0.008
N720 G2 X0.1065 Y-0.3473 I0.0861 J0.1042
N725 G1 X0. Y-0.2407
N730 X-0.1065 Y-0.3473
N735 G2 X-0.1162 Y-0.356 I-0.0956 J0.0956
N740 G3 X-0.1118 Y-0.3702 I0.0051 J-0.0062
N745 G1 X0.0469 Y-0.3835
N750 G3 X0.0534 Y-0.3701 I0.0007 J0.008
N755 G1 X0.052 Y-0.3686 Z-0.2087
N760 X0.0506 Y-0.3671 Z-0.2094
N765 X0.0494 Y-0.3658 Z-0.2105
N770 X0.0484 Y-0.3647 Z-0.212
N775 X0.0476 Y-0.3639 Z-0.2138
N780 X0.0472 Y-0.3634 Z-0.2158
N785 X0.047 Y-0.3633 Z-0.2178
N790 Z-0.2185
N795 X0.0468 Y-0.3631 Z-0.2206
N800 X0.0464 Y-0.3626 Z-0.2226
N805 X0.0456 Y-0.3618 Z-0.2243
N810 X0.0446 Y-0.3607 Z-0.2258
N815 X0.0433 Y-0.3594 Z-0.2269
N820 X0.042 Y-0.3579 Z-0.2276
N825 X0.0406 Y-0.3564 Z-0.2279
N830 X0.0401 Y-0.3559
N835 G3 X0.009 Y-0.324 I-1.1231 J-1.0601
N840 X-0.009 I-0.009 J-0.009
N845 X-0.0403 Y-0.3561 I1.0921 J-1.0921
N850 X-0.0345 Y-0.3696 I0.0058 J-0.0055
N855 G1 X0.1109 Y-0.37
N860 G3 X0.116 Y-0.3559 I0. J0.008
N865 G2 X0.1065 Y-0.3473 I0.0861 J0.1042
N870 G1 X0. Y-0.2407
N875 X-0.1065 Y-0.3473
N880 G2 X-0.1162 Y-0.356 I-0.0956 J0.0956
N885 G3 X-0.1118 Y-0.3702 I0.0051 J-0.0062
N890 G1 X0.0469 Y-0.3835
N895 G3 X0.0534 Y-0.3701 I0.0007 J0.008
N900 G1 X0.052 Y-0.3686 Z-0.2281
N905 X0.0506 Y-0.3671 Z-0.2288
N910 X0.0494 Y-0.3658 Z-0.2299
N915 X0.0484 Y-0.3647 Z-0.2314
N920 X0.0476 Y-0.3639 Z-0.2332
N925 X0.0472 Y-0.3634 Z-0.2352
N930 X0.047 Y-0.3633 Z-0.2372
N935 Z-0.2379
N940 X0.0468 Y-0.3631 Z-0.24
N945 X0.0464 Y-0.3626 Z-0.2419
N950 X0.0456 Y-0.3618 Z-0.2437
N955 X0.0446 Y-0.3607 Z-0.2452
N960 X0.0433 Y-0.3594 Z-0.2463
N965 X0.042 Y-0.3579 Z-0.247
N970 X0.0406 Y-0.3564 Z-0.2473
N975 X0.0401 Y-0.3559
N980 G3 X0.009 Y-0.324 I-1.1231 J-1.0601
N985 X-0.009 I-0.009 J-0.009
N990 X-0.0403 Y-0.3561 I1.0921 J-1.0921
N995 X-0.0345 Y-0.3696 I0.0058 J-0.0055
N1000 G1 X0.1109 Y-0.37
N1005 G3 X0.116 Y-0.3559 I0. J0.008
N1010 G2 X0.1065 Y-0.3473 I0.0861 J0.1042
N1015 G1 X0. Y-0.2407
N1020 X-0.1065 Y-0.3473
N1025 G2 X-0.1162 Y-0.356 I-0.0956 J0.0956
N1030 G3 X-0.1118 Y-0.3702 I0.0051 J-0.0062
N1035 G1 X0.0469 Y-0.3835
N1040 G3 X0.0534 Y-0.3701 I0.0007 J0.008
N1045 G1 X0.052 Y-0.3686 Z-0.2475
N1050 X0.0506 Y-0.3671 Z-0.2482
N1055 X0.0494 Y-0.3658 Z-0.2493
N1060 X0.0484 Y-0.3647 Z-0.2508
N1065 X0.0476 Y-0.3639 Z-0.2526
N1070 X0.0472 Y-0.3634 Z-0.2545
N1075 X0.047 Y-0.3633 Z-0.2566
N1080 Z-0.2573
N1085 X0.0468 Y-0.3631 Z-0.2594
N1090 X0.0464 Y-0.3626 Z-0.2613
N1095 X0.0456 Y-0.3618 Z-0.2631
N1100 X0.0446 Y-0.3607 Z-0.2646
N1105 X0.0433 Y-0.3594 Z-0.2657
N1110 X0.042 Y-0.3579 Z-0.2664
N1115 X0.0406 Y-0.3564 Z-0.2667
N1120 X0.0401 Y-0.3559
N1125 G3 X0.009 Y-0.324 I-1.1231 J-1.0601
N1130 X-0.009 I-0.009 J-0.009
N1135 X-0.0403 Y-0.3561 I1.0921 J-1.0921
N1140 X-0.0345 Y-0.3696 I0.0058 J-0.0055
N1145 G1 X0.1109 Y-0.37
N1150 G3 X0.116 Y-0.3559 I0. J0.008
N1155 G2 X0.1065 Y-0.3473 I0.0861 J0.1042
N1160 G1 X0. Y-0.2407
N1165 X-0.1065 Y-0.3473
N1170 G2 X-0.1162 Y-0.356 I-0.0956 J0.0956
N1175 G3 X-0.086 Y-0.4349 Z-0.2685 I0.0283 J-0.0344 F24.
N1180 G1 X0.0095 Y-0.431 Z-0.27
N1185 G3 X0.0401 Y-0.3559 Z-0.2716 I-0.0018 J0.0445
N1190 X0.009 Y-0.324 I-1.1231 J-1.0601 F72.
N1195 X-0.009 I-0.009 J-0.009
N1200 X-0.0403 Y-0.3561 I1.0921 J-1.0921
N1205 X-0.0345 Y-0.3696 I0.0058 J-0.0055
N1210 G1 X0.1109 Y-0.37
N1215 G3 X0.116 Y-0.3559 I0. J0.008
N1220 G2 X0.1065 Y-0.3473 I0.0861 J0.1042
N1225 G1 X0. Y-0.2407
N1230 X-0.1065 Y-0.3473
N1235 G2 X-0.1162 Y-0.356 I-0.0956 J0.0956
N1240 G1 X-0.1235 Y-0.3621
N1245 X-0.1251 Y-0.3634 Z-0.2714
N1250 X-0.1267 Y-0.3647 Z-0.2707
N1255 X-0.1281 Y-0.3658 Z-0.2696
N1260 X-0.1292 Y-0.3667 Z-0.2681
N1265 X-0.1301 Y-0.3674 Z-0.2663
N1270 X-0.1306 Y-0.3679 Z-0.2644
N1275 X-0.1308 Y-0.368 Z-0.2623
N1280 Z0.6

N1285 M5
N1290 M9
N1295 G53 G0 Z0.
N1300 G49
N1305 M30
