O1003
(FOR BEST MACHINING RESULTS THE FOLLOWING)
(PARAMETER SETTINGS ARE RECOMMENDED BY MAZAK)
(F85 BIT 2 IS 0 TYPE OF COORDINATE SYSTEM FOR CONTROLLING TOOL TIP POINT)
(F86 BIT 6 IS 1 TABLE ROTARY AXIS REFERENCE POSITION FOR TOOL TIP POINT CONTROL)
(F96 BIT 1 IS 1 AUTOMATIC CORRECTION)
(F114 BIT 1 IS 1 G49 ALLOWED MOVEMENT)
(F144 BIT 1 IS 1 TABLE ROTARY AXIS REFERENCE FOR INCLINED PLANE MACHINING)
(F162 BIT 0 IS 1 TOOL TIP POINT CONTROL MOVEMENT)

(T3 D=0.0938 CR=0. - ZMIN=-0.2916 - FLAT END MILL)

N10 G90 G94 G17 G49
N15 G20
(WHEN USING FUSION FOR PERSONAL USE, THE FEEDRATE OF RAPID)
(MOVES IS REDUCED TO MATCH THE FEEDRATE OF CUTTING MOVES,)
(WHICH CAN INCREASE MACHINING TIME. UNRESTRICTED RAPID MOVES)
(ARE AVAILABLE WITH A FUSION SUBSCRIPTION.)
N20 G53 G0 Z0.

(2D POCKET5)
N25 T3 M6
N30 S18000 M3
N35 G90 G94 G17
N40 G54
N45 M8
N50 G0 X0.3757 Y-0.0848
N55 G43 Z0.3703 H3
N60 G1 Z0.0866 F72.
N65 Z-0.004 F24.
N70 X0.3769 Y-0.0847 Z-0.0086
N75 X0.3801 Y-0.0841 Z-0.012
N80 X0.3845 Y-0.0828 Z-0.0134
N85 G3 X0.3562 Y0.0017 Z-0.0183 I-0.0141 J0.0423
N90 X0.3845 Y-0.0828 Z-0.0231 I0.0141 J-0.0423
N95 X0.3562 Y0.0017 Z-0.028 I-0.0141 J0.0423
N100 X0.3845 Y-0.0828 Z-0.0329 I0.0141 J-0.0423
N105 X0.3562 Y0.0017 Z-0.0378 I-0.0141 J0.0423
N110 X0.3845 Y-0.0828 Z-0.0427 I0.0141 J-0.0423
N115 X0.3562 Y0.0017 Z-0.0476 I-0.0141 J0.0423
N120 X0.3845 Y-0.0828 Z-0.0525 I0.0141 J-0.0423
N125 X0.3562 Y0.0017 Z-0.0574 I-0.0141 J0.0423
N130 X0.3845 Y-0.0828 Z-0.0623 I0.0141 J-0.0423
N135 X0.3562 Y0.0017 Z-0.0671 I-0.0141 J0.0423
N140 X0.3845 Y-0.0828 Z-0.072 I0.0141 J-0.0423
N145 X0.3562 Y0.0017 Z-0.0769 I-0.0141 J0.0423
N150 X0.3845 Y-0.0828 Z-0.0818 I0.0141 J-0.0423
N155 X0.3562 Y0.0017 Z-0.0867 I-0.0141 J0.0423
N160 X0.3845 Y-0.0828 Z-0.0916 I0.0141 J-0.0423
N165 X0.3562 Y0.0017 Z-0.0965 I-0.0141 J0.0423
N170 X0.3845 Y-0.0828 Z-0.1014 I0.0141 J-0.0423
N175 X0.3562 Y0.0017 Z-0.1062 I-0.0141 J0.0423
N180 X0.3845 Y-0.0828 Z-0.1111 I0.0141 J-0.0423
N185 X0.3562 Y0.0017 Z-0.116 I-0.0141 J0.0423
N190 X0.3845 Y-0.0828 Z-0.1209 I0.0141 J-0.0423
N195 X0.3562 Y0.0017 Z-0.1258 I-0.0141 J0.0423
N200 X0.3845 Y-0.0828 Z-0.1307 I0.0141 J-0.0423
N205 X0.4149 Y-0.0406 Z-0.1326 I-0.0141 J0.0423
N210 G1 Y-0.0129 F72.
N215 G3 X0.4048 Y-0.0068 I-0.0069 J0.
N220 G2 X0.2676 Y-0.0372 I-0.1215 J0.2235
N225 G1 X0.2659 Y-0.0374
N230 X0.2643 Y-0.0382
N235 X0.2631 Y-0.0395
N240 X0.2624 Y-0.0411
N245 X0.2622 Y-0.0428
N250 X0.2627 Y-0.0445
N255 X0.2637 Y-0.0459
N260 X0.2791 Y-0.0613
N265 X0.281 Y-0.0629
N270 X0.2831 Y-0.064
N275 X0.2854 Y-0.0647
N280 X0.2879 Y-0.0649
N285 X0.4024
N290 G3 X0.4149 Y-0.0524 I0. J0.0125
N295 G1 Y-0.0406
N300 X0.4146 Y-0.0383 Z-0.132
N305 X0.4138 Y-0.0361 Z-0.1314
N310 X0.4128 Y-0.0347 Z-0.1297
N315 X0.4116 Y-0.0335 Z-0.1279
N320 X0.4106 Y-0.0327 Z-0.1232
N325 Z-0.0946
N330 X0.3575 Y-0.0462
N335 Z-0.1326
N340 X0.3565 Y-0.0454
N345 X0.3553 Y-0.0449
N350 X0.2014 Y-0.0067
N355 G2 X0.0612 Y0.0564 I0.1035 J0.4168
N360 G3 X-0.0898 Y0.0856 I-0.1088 J-0.1579
N365 X-0.1795 Y0.0272 I0.0339 J-0.1502
N370 G2 X-0.2627 Y-0.0402 I-0.1734 J0.1289
N375 G1 X-0.2644 Y-0.0407
N380 X-0.2652 Y-0.0411
N385 X-0.2656 Y-0.042
N390 X-0.2655 Y-0.0429
N395 X-0.2649 Y-0.0437
N400 X-0.2641 Y-0.044
N405 X-0.2632 Y-0.0438
N410 X-0.2625 Y-0.0432
N415 X-0.2622 Y-0.0423
N420 X-0.2625 Y-0.0407
N425 X-0.2633 Y-0.0392
N430 X-0.2645 Y-0.0381
N435 X-0.266 Y-0.0374
N440 X-0.2676 Y-0.0372
N445 G2 X-0.4048 Y-0.0068 I-0.0157 J0.2539
N450 G3 X-0.4149 Y-0.0129 I-0.0033 J-0.006
N455 G1 Y-0.0524
N460 G3 X-0.4024 Y-0.0649 I0.0125 J0.
N465 G1 X-0.2879
N470 X-0.2854 Y-0.0647
N475 X-0.2831 Y-0.064
N480 X-0.281 Y-0.0629
N485 X-0.2791 Y-0.0613
N490 X-0.2637 Y-0.0459
N495 X-0.2629 Y-0.0449
N500 X-0.2624 Y-0.0436
N505 X-0.2622 Y-0.0423
N510 G2 X-0.1937 Y0.015 I0.0581 J0.0002
N515 G3 X-0.1075 Y0.038 I0.0187 J0.1026
N520 G2 X0.1175 Y0.0288 I0.1075 J-0.1267
N525 X0.182 Y-0.0369 I-3.3338 J-3.3338
N530 G3 X0.2465 Y-0.1027 I3.3983 J3.268
N535 X0.2817 Y-0.1173 I0.0352 J0.0352
N540 G1 X0.4545
N545 G3 X0.4672 Y-0.1045 I0. J0.0128
N550 G1 Y0.1117
N555 G3 X0.4575 Y0.1144 I-0.0052 J0.
N560 G2 X0.1156 Y0.1039 I-0.1742 J0.1023
N565 G3 X0.0906 Y0.1173 I-0.025 J-0.0168
N570 G1 X-0.0906
N575 G3 X-0.1156 Y0.1039 I0. J-0.0302
N580 G2 X-0.4575 Y0.1144 I-0.1677 J0.1127
N585 G3 X-0.4672 Y0.1117 I-0.0045 J-0.0026
N590 G1 Y-0.1045
N595 G3 X-0.4545 Y-0.1173 I0.0128 J0.
N600 G1 X-0.2817
N605 G3 X-0.2465 Y-0.1027 I0. J0.0497
N610 G1 X-0.113 Y0.0332
N615 X-0.1075 Y0.038
N620 G2 X-0.0511 Y0.0408 I0.03 J-0.0353
N625 G3 X0.0027 Y0.0232 I0.0561 J0.0807
N630 G2 X0.0791 Y-0.0095 I-0.0027 J-0.1119
N635 G1 X0.234 Y-0.1644
N640 G3 X0.2468 Y-0.1697 I0.0128 J0.0128
N645 G1 X0.5016
N650 G3 X0.5197 Y-0.1517 I0. J0.0181
N655 G1 Y0.1517
N660 G3 X0.5016 Y0.1697 I-0.0181 J0.
N665 G1 X0.4378
N670 G3 X0.4212 Y0.1587 I0. J-0.0181
N675 G2 X0.1454 I-0.1379 J0.058
N680 G3 X0.1288 Y0.1697 I-0.0167 J-0.007
N685 G1 X-0.1288
N690 G3 X-0.1454 Y0.1587 I0. J-0.0181
N695 G2 X-0.4212 I-0.1379 J0.058
N700 G3 X-0.4378 Y0.1697 I-0.0167 J-0.007
N705 G1 X-0.5016
N710 G3 X-0.5197 Y0.1517 I0. J-0.0181
N715 G1 Y-0.1517
N720 G3 X-0.5016 Y-0.1697 I0.0181 J0.
N725 G1 X-0.2468
N730 G3 X-0.234 Y-0.1644 I0. J0.0181
N735 G1 X-0.0791 Y-0.0095
N740 G2 X0.0027 Y0.0232 I0.0791 J-0.0791
N745 G1 X0.0039 Y0.0233
N750 X0.005 Y0.0238
N755 X0.006 Y0.0245
N760 X0.0294 Y0.0464
N765 X0.0307 Y0.0472
N770 X0.0321 Y0.0476
N775 X0.0336 Y0.0475
N780 X0.3968 Y-0.0319
N785 X0.4105 Y-0.0355
N790 X0.4116 Y-0.0356
N795 X0.4127 Y-0.0352
N800 X0.4136 Y-0.0344
N805 X0.4141 Y-0.0333
N810 Y-0.0321
N815 G3 X0.3266 Y-0.0491 Z-0.1375 I-0.0437 J-0.0085 F24.
N820 X0.4141 Y-0.0321 Z-0.1424 I0.0437 J0.0085
N825 X0.3266 Y-0.0491 Z-0.1473 I-0.0437 J-0.0085
N830 X0.4149 Y-0.0406 Z-0.1519 I0.0437 J0.0085
N835 G1 Y-0.0129 F72.
N840 G3 X0.4048 Y-0.0068 I-0.0069 J0.
N845 G2 X0.2676 Y-0.0372 I-0.1215 J0.2235
N850 G1 X0.2659 Y-0.0374
N855 X0.2643 Y-0.0382
N860 X0.2631 Y-0.0395
N865 X0.2624 Y-0.0411
N870 X0.2622 Y-0.0428
N875 X0.2627 Y-0.0445
N880 X0.2637 Y-0.0459
N885 X0.2791 Y-0.0613
N890 X0.281 Y-0.0629
N895 X0.2831 Y-0.064
N900 X0.2854 Y-0.0647
N905 X0.2879 Y-0.0649
N910 X0.4024
N915 G3 X0.4149 Y-0.0524 I0. J0.0125
N920 G1 Y-0.0406
N925 X0.4146 Y-0.0383 Z-0.1512
N930 X0.4138 Y-0.0361 Z-0.1506
N935 X0.4128 Y-0.0347 Z-0.1489
N940 X0.4116 Y-0.0335 Z-0.1472
N945 X0.4106 Y-0.0327 Z-0.1425
N950 Z-0.1139
N955 X0.3575 Y-0.0462
N960 Z-0.1519
N965 X0.3565 Y-0.0454
N970 X0.3553 Y-0.0449
N975 X0.2014 Y-0.0067
N980 G2 X0.0612 Y0.0564 I0.1035 J0.4168
N985 G3 X-0.0898 Y0.0856 I-0.1088 J-0.1579
N990 X-0.1795 Y0.0272 I0.0339 J-0.1502
N995 G2 X-0.2627 Y-0.0402 I-0.1734 J0.1289
N1000 G1 X-0.2644 Y-0.0407
N1005 X-0.2652 Y-0.0411
N1010 X-0.2656 Y-0.042
N1015 X-0.2655 Y-0.0429
N1020 X-0.2649 Y-0.0437
N1025 X-0.2641 Y-0.044
N1030 X-0.2632 Y-0.0438
N1035 X-0.2625 Y-0.0432
N1040 X-0.2622 Y-0.0423
N1045 X-0.2625 Y-0.0407
N1050 X-0.2633 Y-0.0392
N1055 X-0.2645 Y-0.0381
N1060 X-0.266 Y-0.0374
N1065 X-0.2676 Y-0.0372
N1070 G2 X-0.4048 Y-0.0068 I-0.0157 J0.2539
N1075 G3 X-0.4149 Y-0.0129 I-0.0033 J-0.006
N1080 G1 Y-0.0524
N1085 G3 X-0.4024 Y-0.0649 I0.0125 J0.
N1090 G1 X-0.2879
N1095 X-0.2854 Y-0.0647
N1100 X-0.2831 Y-0.064
N1105 X-0.281 Y-0.0629
N1110 X-0.2791 Y-0.0613
N1115 X-0.2637 Y-0.0459
N1120 X-0.2629 Y-0.0449
N1125 X-0.2624 Y-0.0436
N1130 X-0.2622 Y-0.0423
N1135 G2 X-0.1937 Y0.015 I0.0581 J0.0002
N1140 G3 X-0.1075 Y0.038 I0.0187 J0.1026
N1145 G2 X0.1175 Y0.0288 I0.1075 J-0.1267
N1150 X0.182 Y-0.0369 I-3.3338 J-3.3338
N1155 G3 X0.2465 Y-0.1027 I3.3983 J3.268
N1160 X0.2817 Y-0.1173 I0.0352 J0.0352
N1165 G1 X0.4545
N1170 G3 X0.4672 Y-0.1045 I0. J0.0128
N1175 G1 Y0.1117
N1180 G3 X0.4575 Y0.1144 I-0.0052 J0.
N1185 G2 X0.1156 Y0.1039 I-0.1742 J0.1023
N1190 G3 X0.0906 Y0.1173 I-0.025 J-0.0168
N1195 G1 X-0.0906
N1200 G3 X-0.1156 Y0.1039 I0. J-0.0302
N1205 G2 X-0.4575 Y0.1144 I-0.1677 J0.1127
N1210 G3 X-0.4672 Y0.1117 I-0.0045 J-0.0026
N1215 G1 Y-0.1045
N1220 G3 X-0.4545 Y-0.1173 I0.0128 J0.
N1225 G1 X-0.2817
N1230 G3 X-0.2465 Y-0.1027 I0. J0.0497
N1235 G1 X-0.113 Y0.0332
N1240 X-0.1075 Y0.038
N1245 G2 X-0.0511 Y0.0408 I0.03 J-0.0353
N1250 G3 X0.0027 Y0.0232 I0.0561 J0.0807
N1255 G2 X0.0791 Y-0.0095 I-0.0027 J-0.1119
N1260 G1 X0.234 Y-0.1644
N1265 G3 X0.2468 Y-0.1697 I0.0128 J0.0128
N1270 G1 X0.5016
N1275 G3 X0.5197 Y-0.1517 I0. J0.0181
N1280 G1 Y0.1517
N1285 G3 X0.5016 Y0.1697 I-0.0181 J0.
N1290 G1 X0.4378
N1295 G3 X0.4212 Y0.1587 I0. J-0.0181
N1300 G2 X0.1454 I-0.1379 J0.058
N1305 G3 X0.1288 Y0.1697 I-0.0167 J-0.007
N1310 G1 X-0.1288
N1315 G3 X-0.1454 Y0.1587 I0. J-0.0181
N1320 G2 X-0.4212 I-0.1379 J0.058
N1325 G3 X-0.4378 Y0.1697 I-0.0167 J-0.007
N1330 G1 X-0.5016
N1335 G3 X-0.5197 Y0.1517 I0. J-0.0181
N1340 G1 Y-0.1517
N1345 G3 X-0.5016 Y-0.1697 I0.0181 J0.
N1350 G1 X-0.2468
N1355 G3 X-0.234 Y-0.1644 I0. J0.0181
N1360 G1 X-0.0791 Y-0.0095
N1365 G2 X0.0027 Y0.0232 I0.0791 J-0.0791
N1370 G1 X0.0039 Y0.0233
N1375 X0.005 Y0.0238
N1380 X0.006 Y0.0245
N1385 X0.0294 Y0.0464
N1390 X0.0307 Y0.0472
N1395 X0.0321 Y0.0476
N1400 X0.0336 Y0.0475
N1405 X0.3968 Y-0.0319
N1410 X0.4105 Y-0.0355
N1415 X0.4116 Y-0.0356
N1420 X0.4127 Y-0.0352
N1425 X0.4136 Y-0.0344
N1430 X0.4141 Y-0.0333
N1435 Y-0.0321
N1440 G3 X0.3266 Y-0.0491 Z-0.1568 I-0.0437 J-0.0085 F24.
N1445 X0.4141 Y-0.0321 Z-0.1617 I0.0437 J0.0085
N1450 X0.3266 Y-0.0491 Z-0.1665 I-0.0437 J-0.0085
N1455 X0.4149 Y-0.0406 Z-0.1711 I0.0437 J0.0085
N1460 G1 Y-0.0129 F72.
N1465 G3 X0.4048 Y-0.0068 I-0.0069 J0.
N1470 G2 X0.2676 Y-0.0372 I-0.1215 J0.2235
N1475 G1 X0.2659 Y-0.0374
N1480 X0.2643 Y-0.0382
N1485 X0.2631 Y-0.0395
N1490 X0.2624 Y-0.0411
N1495 X0.2622 Y-0.0428
N1500 X0.2627 Y-0.0445
N1505 X0.2637 Y-0.0459
N1510 X0.2791 Y-0.0613
N1515 X0.281 Y-0.0629
N1520 X0.2831 Y-0.064
N1525 X0.2854 Y-0.0647
N1530 X0.2879 Y-0.0649
N1535 X0.4024
N1540 G3 X0.4149 Y-0.0524 I0. J0.0125
N1545 G1 Y-0.0406
N1550 X0.4146 Y-0.0383 Z-0.1705
N1555 X0.4138 Y-0.0361 Z-0.1699
N1560 X0.4128 Y-0.0347 Z-0.1682
N1565 X0.4116 Y-0.0335 Z-0.1664
N1570 X0.4106 Y-0.0327 Z-0.1618
N1575 Z-0.1331
N1580 X0.3575 Y-0.0462
N1585 Z-0.1711
N1590 X0.3565 Y-0.0454
N1595 X0.3553 Y-0.0449
N1600 X0.2014 Y-0.0067
N1605 G2 X0.0612 Y0.0564 I0.1035 J0.4168
N1610 G3 X-0.0898 Y0.0856 I-0.1088 J-0.1579
N1615 X-0.1795 Y0.0272 I0.0339 J-0.1502
N1620 G2 X-0.2627 Y-0.0402 I-0.1734 J0.1289
N1625 G1 X-0.2644 Y-0.0407
N1630 X-0.2652 Y-0.0411
N1635 X-0.2656 Y-0.042
N1640 X-0.2655 Y-0.0429
N1645 X-0.2649 Y-0.0437
N1650 X-0.2641 Y-0.044
N1655 X-0.2632 Y-0.0438
N1660 X-0.2625 Y-0.0432
N1665 X-0.2622 Y-0.0423
N1670 X-0.2625 Y-0.0407
N1675 X-0.2633 Y-0.0392
N1680 X-0.2645 Y-0.0381
N1685 X-0.266 Y-0.0374
N1690 X-0.2676 Y-0.0372
N1695 G2 X-0.4048 Y-0.0068 I-0.0157 J0.2539
N1700 G3 X-0.4149 Y-0.0129 I-0.0033 J-0.006
N1705 G1 Y-0.0524
N1710 G3 X-0.4024 Y-0.0649 I0.0125 J0.
N1715 G1 X-0.2879
N1720 X-0.2854 Y-0.0647
N1725 X-0.2831 Y-0.064
N1730 X-0.281 Y-0.0629
N1735 X-0.2791 Y-0.0613
N1740 X-0.2637 Y-0.0459
N1745 X-0.2629 Y-0.0449
N1750 X-0.2624 Y-0.0436
N1755 X-0.2622 Y-0.0423
N1760 G2 X-0.1937 Y0.015 I0.0581 J0.0002
N1765 G3 X-0.1075 Y0.038 I0.0187 J0.1026
N1770 G2 X0.1175 Y0.0288 I0.1075 J-0.1267
N1775 X0.182 Y-0.0369 I-3.3338 J-3.3338
N1780 G3 X0.2465 Y-0.1027 I3.3983 J3.268
N1785 X0.2817 Y-0.1173 I0.0352 J0.0352
N1790 G1 X0.4545
N1795 G3 X0.4672 Y-0.1045 I0. J0.0128
N1800 G1 Y0.1117
N1805 G3 X0.4575 Y0.1144 I-0.0052 J0.
N1810 G2 X0.1156 Y0.1039 I-0.1742 J0.1023
N1815 G3 X0.0906 Y0.1173 I-0.025 J-0.0168
N1820 G1 X-0.0906
N1825 G3 X-0.1156 Y0.1039 I0. J-0.0302
N1830 G2 X-0.4575 Y0.1144 I-0.1677 J0.1127
N1835 G3 X-0.4672 Y0.1117 I-0.0045 J-0.0026
N1840 G1 Y-0.1045
N1845 G3 X-0.4545 Y-0.1173 I0.0128 J0.
N1850 G1 X-0.2817
N1855 G3 X-0.2465 Y-0.1027 I0. J0.0497
N1860 G1 X-0.113 Y0.0332
N1865 X-0.1075 Y0.038
N1870 G2 X-0.0511 Y0.0408 I0.03 J-0.0353
N1875 G3 X0.0027 Y0.0232 I0.0561 J0.0807
N1880 G2 X0.0791 Y-0.0095 I-0.0027 J-0.1119
N1885 G1 X0.234 Y-0.1644
N1890 G3 X0.2468 Y-0.1697 I0.0128 J0.0128
N1895 G1 X0.5016
N1900 G3 X0.5197 Y-0.1517 I0. J0.0181
N1905 G1 Y0.1517
N1910 G3 X0.5016 Y0.1697 I-0.0181 J0.
N1915 G1 X0.4378
N1920 G3 X0.4212 Y0.1587 I0. J-0.0181
N1925 G2 X0.1454 I-0.1379 J0.058
N1930 G3 X0.1288 Y0.1697 I-0.0167 J-0.007
N1935 G1 X-0.1288
N1940 G3 X-0.1454 Y0.1587 I0. J-0.0181
N1945 G2 X-0.4212 I-0.1379 J0.058
N1950 G3 X-0.4378 Y0.1697 I-0.0167 J-0.007
N1955 G1 X-0.5016
N1960 G3 X-0.5197 Y0.1517 I0. J-0.0181
N1965 G1 Y-0.1517
N1970 G3 X-0.5016 Y-0.1697 I0.0181 J0.
N1975 G1 X-0.2468
N1980 G3 X-0.234 Y-0.1644 I0. J0.0181
N1985 G1 X-0.0791 Y-0.0095
N1990 G2 X0.0027 Y0.0232 I0.0791 J-0.0791
N1995 G1 X0.0039 Y0.0233
N2000 X0.005 Y0.0238
N2005 X0.006 Y0.0245
N2010 X0.0294 Y0.0464
N2015 X0.0307 Y0.0472
N2020 X0.0321 Y0.0476
N2025 X0.0336 Y0.0475
N2030 X0.3968 Y-0.0319
N2035 X0.4105 Y-0.0355
N2040 X0.4116 Y-0.0356
N2045 X0.4127 Y-0.0352
N2050 X0.4136 Y-0.0344
N2055 X0.4141 Y-0.0333
N2060 Y-0.0321
N2065 G3 X0.3266 Y-0.0491 Z-0.176 I-0.0437 J-0.0085 F24.
N2070 X0.4141 Y-0.0321 Z-0.1809 I0.0437 J0.0085
N2075 X0.3266 Y-0.0491 Z-0.1858 I-0.0437 J-0.0085
N2080 X0.4149 Y-0.0406 Z-0.1904 I0.0437 J0.0085
N2085 G1 Y-0.0129 F72.
N2090 G3 X0.4048 Y-0.0068 I-0.0069 J0.
N2095 G2 X0.2676 Y-0.0372 I-0.1215 J0.2235
N2100 G1 X0.2659 Y-0.0374
N2105 X0.2643 Y-0.0382
N2110 X0.2631 Y-0.0395
N2115 X0.2624 Y-0.0411
N2120 X0.2622 Y-0.0428
N2125 X0.2627 Y-0.0445
N2130 X0.2637 Y-0.0459
N2135 X0.2791 Y-0.0613
N2140 X0.281 Y-0.0629
N2145 X0.2831 Y-0.064
N2150 X0.2854 Y-0.0647
N2155 X0.2879 Y-0.0649
N2160 X0.4024
N2165 G3 X0.4149 Y-0.0524 I0. J0.0125
N2170 G1 Y-0.0406
N2175 X0.4146 Y-0.0383 Z-0.1898
N2180 X0.4138 Y-0.0361 Z-0.1891
N2185 X0.4128 Y-0.0347 Z-0.1874
N2190 X0.4116 Y-0.0335 Z-0.1857
N2195 X0.4106 Y-0.0327 Z-0.181
N2200 Z-0.1524
N2205 X0.3575 Y-0.0462
N2210 Z-0.1904
N2215 X0.3565 Y-0.0454
N2220 X0.3553 Y-0.0449
N2225 X0.2014 Y-0.0067
N2230 G2 X0.0612 Y0.0564 I0.1035 J0.4168
N2235 G3 X-0.0898 Y0.0856 I-0.1088 J-0.1579
N2240 X-0.1795 Y0.0272 I0.0339 J-0.1502
N2245 G2 X-0.2627 Y-0.0402 I-0.1734 J0.1289
N2250 G1 X-0.2644 Y-0.0407
N2255 X-0.2652 Y-0.0411
N2260 X-0.2656 Y-0.042
N2265 X-0.2655 Y-0.0429
N2270 X-0.2649 Y-0.0437
N2275 X-0.2641 Y-0.044
N2280 X-0.2632 Y-0.0438
N2285 X-0.2625 Y-0.0432
N2290 X-0.2622 Y-0.0423
N2295 X-0.2625 Y-0.0407
N2300 X-0.2633 Y-0.0392
N2305 X-0.2645 Y-0.0381
N2310 X-0.266 Y-0.0374
N2315 X-0.2676 Y-0.0372
N2320 G2 X-0.4048 Y-0.0068 I-0.0157 J0.2539
N2325 G3 X-0.4149 Y-0.0129 I-0.0033 J-0.006
N2330 G1 Y-0.0524
N2335 G3 X-0.4024 Y-0.0649 I0.0125 J0.
N2340 G1 X-0.2879
N2345 X-0.2854 Y-0.0647
N2350 X-0.2831 Y-0.064
N2355 X-0.281 Y-0.0629
N2360 X-0.2791 Y-0.0613
N2365 X-0.2637 Y-0.0459
N2370 X-0.2629 Y-0.0449
N2375 X-0.2624 Y-0.0436
N2380 X-0.2622 Y-0.0423
N2385 G2 X-0.1937 Y0.015 I0.0581 J0.0002
N2390 G3 X-0.1075 Y0.038 I0.0187 J0.1026
N2395 G2 X0.1175 Y0.0288 I0.1075 J-0.1267
N2400 X0.182 Y-0.0369 I-3.3338 J-3.3338
N2405 G3 X0.2465 Y-0.1027 I3.3983 J3.268
N2410 X0.2817 Y-0.1173 I0.0352 J0.0352
N2415 G1 X0.4545
N2420 G3 X0.4672 Y-0.1045 I0. J0.0128
N2425 G1 Y0.1117
N2430 G3 X0.4575 Y0.1144 I-0.0052 J0.
N2435 G2 X0.1156 Y0.1039 I-0.1742 J0.1023
N2440 G3 X0.0906 Y0.1173 I-0.025 J-0.0168
N2445 G1 X-0.0906
N2450 G3 X-0.1156 Y0.1039 I0. J-0.0302
N2455 G2 X-0.4575 Y0.1144 I-0.1677 J0.1127
N2460 G3 X-0.4672 Y0.1117 I-0.0045 J-0.0026
N2465 G1 Y-0.1045
N2470 G3 X-0.4545 Y-0.1173 I0.0128 J0.
N2475 G1 X-0.2817
N2480 G3 X-0.2465 Y-0.1027 I0. J0.0497
N2485 G1 X-0.113 Y0.0332
N2490 X-0.1075 Y0.038
N2495 G2 X-0.0511 Y0.0408 I0.03 J-0.0353
N2500 G3 X0.0027 Y0.0232 I0.0561 J0.0807
N2505 G2 X0.0791 Y-0.0095 I-0.0027 J-0.1119
N2510 G1 X0.234 Y-0.1644
N2515 G3 X0.2468 Y-0.1697 I0.0128 J0.0128
N2520 G1 X0.5016
N2525 G3 X0.5197 Y-0.1517 I0. J0.0181
N2530 G1 Y0.1517
N2535 G3 X0.5016 Y0.1697 I-0.0181 J0.
N2540 G1 X0.4378
N2545 G3 X0.4212 Y0.1587 I0. J-0.0181
N2550 G2 X0.1454 I-0.1379 J0.058
N2555 G3 X0.1288 Y0.1697 I-0.0167 J-0.007
N2560 G1 X-0.1288
N2565 G3 X-0.1454 Y0.1587 I0. J-0.0181
N2570 G2 X-0.4212 I-0.1379 J0.058
N2575 G3 X-0.4378 Y0.1697 I-0.0167 J-0.007
N2580 G1 X-0.5016
N2585 G3 X-0.5197 Y0.1517 I0. J-0.0181
N2590 G1 Y-0.1517
N2595 G3 X-0.5016 Y-0.1697 I0.0181 J0.
N2600 G1 X-0.2468
N2605 G3 X-0.234 Y-0.1644 I0. J0.0181
N2610 G1 X-0.0791 Y-0.0095
N2615 G2 X0.0027 Y0.0232 I0.0791 J-0.0791
N2620 G1 X0.0039 Y0.0233
N2625 X0.005 Y0.0238
N2630 X0.006 Y0.0245
N2635 X0.0294 Y0.0464
N2640 X0.0307 Y0.0472
N2645 X0.0321 Y0.0476
N2650 X0.0336 Y0.0475
N2655 X0.3968 Y-0.0319
N2660 X0.4105 Y-0.0355
N2665 X0.4116 Y-0.0356
N2670 X0.4127 Y-0.0352
N2675 X0.4136 Y-0.0344
N2680 X0.4141 Y-0.0333
N2685 Y-0.0321
N2690 G3 X0.3266 Y-0.0491 Z-0.1953 I-0.0437 J-0.0085 F24.
N2695 X0.4141 Y-0.0321 Z-0.2002 I0.0437 J0.0085
N2700 X0.3266 Y-0.0491 Z-0.205 I-0.0437 J-0.0085
N2705 X0.4149 Y-0.0406 Z-0.2096 I0.0437 J0.0085
N2710 G1 Y-0.0129 F72.
N2715 G3 X0.4048 Y-0.0068 I-0.0069 J0.
N2720 G2 X0.2676 Y-0.0372 I-0.1215 J0.2235
N2725 G1 X0.2659 Y-0.0374
N2730 X0.2643 Y-0.0382
N2735 X0.2631 Y-0.0395
N2740 X0.2624 Y-0.0411
N2745 X0.2622 Y-0.0428
N2750 X0.2627 Y-0.0445
N2755 X0.2637 Y-0.0459
N2760 X0.2791 Y-0.0613
N2765 X0.281 Y-0.0629
N2770 X0.2831 Y-0.064
N2775 X0.2854 Y-0.0647
N2780 X0.2879 Y-0.0649
N2785 X0.4024
N2790 G3 X0.4149 Y-0.0524 I0. J0.0125
N2795 G1 Y-0.0406
N2800 X0.4146 Y-0.0383 Z-0.209
N2805 X0.4138 Y-0.0361 Z-0.2084
N2810 X0.4128 Y-0.0347 Z-0.2067
N2815 X0.4116 Y-0.0335 Z-0.2049
N2820 X0.4106 Y-0.0327 Z-0.2003
N2825 Z-0.1716
N2830 X0.3575 Y-0.0462
N2835 Z-0.2096
N2840 X0.3565 Y-0.0454
N2845 X0.3553 Y-0.0449
N2850 X0.2014 Y-0.0067
N2855 G2 X0.0612 Y0.0564 I0.1035 J0.4168
N2860 G3 X-0.0898 Y0.0856 I-0.1088 J-0.1579
N2865 X-0.1795 Y0.0272 I0.0339 J-0.1502
N2870 G2 X-0.2627 Y-0.0402 I-0.1734 J0.1289
N2875 G1 X-0.2644 Y-0.0407
N2880 X-0.2652 Y-0.0411
N2885 X-0.2656 Y-0.042
N2890 X-0.2655 Y-0.0429
N2895 X-0.2649 Y-0.0437
N2900 X-0.2641 Y-0.044
N2905 X-0.2632 Y-0.0438
N2910 X-0.2625 Y-0.0432
N2915 X-0.2622 Y-0.0423
N2920 X-0.2625 Y-0.0407
N2925 X-0.2633 Y-0.0392
N2930 X-0.2645 Y-0.0381
N2935 X-0.266 Y-0.0374
N2940 X-0.2676 Y-0.0372
N2945 G2 X-0.4048 Y-0.0068 I-0.0157 J0.2539
N2950 G3 X-0.4149 Y-0.0129 I-0.0033 J-0.006
N2955 G1 Y-0.0524
N2960 G3 X-0.4024 Y-0.0649 I0.0125 J0.
N2965 G1 X-0.2879
N2970 X-0.2854 Y-0.0647
N2975 X-0.2831 Y-0.064
N2980 X-0.281 Y-0.0629
N2985 X-0.2791 Y-0.0613
N2990 X-0.2637 Y-0.0459
N2995 X-0.2629 Y-0.0449
N3000 X-0.2624 Y-0.0436
N3005 X-0.2622 Y-0.0423
N3010 G2 X-0.1937 Y0.015 I0.0581 J0.0002
N3015 G3 X-0.1075 Y0.038 I0.0187 J0.1026
N3020 G2 X0.1175 Y0.0288 I0.1075 J-0.1267
N3025 X0.182 Y-0.0369 I-3.3338 J-3.3338
N3030 G3 X0.2465 Y-0.1027 I3.3983 J3.268
N3035 X0.2817 Y-0.1173 I0.0352 J0.0352
N3040 G1 X0.4545
N3045 G3 X0.4672 Y-0.1045 I0. J0.0128
N3050 G1 Y0.1117
N3055 G3 X0.4575 Y0.1144 I-0.0052 J0.
N3060 G2 X0.1156 Y0.1039 I-0.1742 J0.1023
N3065 G3 X0.0906 Y0.1173 I-0.025 J-0.0168
N3070 G1 X-0.0906
N3075 G3 X-0.1156 Y0.1039 I0. J-0.0302
N3080 G2 X-0.4575 Y0.1144 I-0.1677 J0.1127
N3085 G3 X-0.4672 Y0.1117 I-0.0045 J-0.0026
N3090 G1 Y-0.1045
N3095 G3 X-0.4545 Y-0.1173 I0.0128 J0.
N3100 G1 X-0.2817
N3105 G3 X-0.2465 Y-0.1027 I0. J0.0497
N3110 G1 X-0.113 Y0.0332
N3115 X-0.1075 Y0.038
N3120 G2 X-0.0511 Y0.0408 I0.03 J-0.0353
N3125 G3 X0.0027 Y0.0232 I0.0561 J0.0807
N3130 G2 X0.0791 Y-0.0095 I-0.0027 J-0.1119
N3135 G1 X0.234 Y-0.1644
N3140 G3 X0.2468 Y-0.1697 I0.0128 J0.0128
N3145 G1 X0.5016
N3150 G3 X0.5197 Y-0.1517 I0. J0.0181
N3155 G1 Y0.1517
N3160 G3 X0.5016 Y0.1697 I-0.0181 J0.
N3165 G1 X0.4378
N3170 G3 X0.4212 Y0.1587 I0. J-0.0181
N3175 G2 X0.1454 I-0.1379 J0.058
N3180 G3 X0.1288 Y0.1697 I-0.0167 J-0.007
N3185 G1 X-0.1288
N3190 G3 X-0.1454 Y0.1587 I0. J-0.0181
N3195 G2 X-0.4212 I-0.1379 J0.058
N3200 G3 X-0.4378 Y0.1697 I-0.0167 J-0.007
N3205 G1 X-0.5016
N3210 G3 X-0.5197 Y0.1517 I0. J-0.0181
N3215 G1 Y-0.1517
N3220 G3 X-0.5016 Y-0.1697 I0.0181 J0.
N3225 G1 X-0.2468
N3230 G3 X-0.234 Y-0.1644 I0. J0.0181
N3235 G1 X-0.0791 Y-0.0095
N3240 G2 X0.0027 Y0.0232 I0.0791 J-0.0791
N3245 G1 X0.0039 Y0.0233
N3250 X0.005 Y0.0238
N3255 X0.006 Y0.0245
N3260 X0.0294 Y0.0464
N3265 X0.0307 Y0.0472
N3270 X0.0321 Y0.0476
N3275 X0.0336 Y0.0475
N3280 X0.3968 Y-0.0319
N3285 X0.4105 Y-0.0355
N3290 X0.4116 Y-0.0356
N3295 X0.4127 Y-0.0352
N3300 X0.4136 Y-0.0344
N3305 X0.4141 Y-0.0333
N3310 Y-0.0321
N3315 G3 X0.3266 Y-0.0491 Z-0.2145 I-0.0437 J-0.0085 F24.
N3320 X0.4141 Y-0.0321 Z-0.2194 I0.0437 J0.0085
N3325 X0.3266 Y-0.0491 Z-0.2243 I-0.0437 J-0.0085
N3330 X0.4149 Y-0.0406 Z-0.2289 I0.0437 J0.0085
N3335 G1 Y-0.0129 F72.
N3340 G3 X0.4048 Y-0.0068 I-0.0069 J0.
N3345 G2 X0.2676 Y-0.0372 I-0.1215 J0.2235
N3350 G1 X0.2659 Y-0.0374
N3355 X0.2643 Y-0.0382
N3360 X0.2631 Y-0.0395
N3365 X0.2624 Y-0.0411
N3370 X0.2622 Y-0.0428
N3375 X0.2627 Y-0.0445
N3380 X0.2637 Y-0.0459
N3385 X0.2791 Y-0.0613
N3390 X0.281 Y-0.0629
N3395 X0.2831 Y-0.064
N3400 X0.2854 Y-0.0647
N3405 X0.2879 Y-0.0649
N3410 X0.4024
N3415 G3 X0.4149 Y-0.0524 I0. J0.0125
N3420 G1 Y-0.0406
N3425 X0.4146 Y-0.0383 Z-0.2283
N3430 X0.4138 Y-0.0361 Z-0.2276
N3435 X0.4128 Y-0.0347 Z-0.2259
N3440 X0.4116 Y-0.0335 Z-0.2242
N3445 X0.4106 Y-0.0327 Z-0.2195
N3450 Z-0.1909
N3455 X0.3575 Y-0.0462
N3460 Z-0.2289
N3465 X0.3565 Y-0.0454
N3470 X0.3553 Y-0.0449
N3475 X0.2014 Y-0.0067
N3480 G2 X0.0612 Y0.0564 I0.1035 J0.4168
N3485 G3 X-0.0898 Y0.0856 I-0.1088 J-0.1579
N3490 X-0.1795 Y0.0272 I0.0339 J-0.1502
N3495 G2 X-0.2627 Y-0.0402 I-0.1734 J0.1289
N3500 G1 X-0.2644 Y-0.0407
N3505 X-0.2652 Y-0.0411
N3510 X-0.2656 Y-0.042
N3515 X-0.2655 Y-0.0429
N3520 X-0.2649 Y-0.0437
N3525 X-0.2641 Y-0.044
N3530 X-0.2632 Y-0.0438
N3535 X-0.2625 Y-0.0432
N3540 X-0.2622 Y-0.0423
N3545 X-0.2625 Y-0.0407
N3550 X-0.2633 Y-0.0392
N3555 X-0.2645 Y-0.0381
N3560 X-0.266 Y-0.0374
N3565 X-0.2676 Y-0.0372
N3570 G2 X-0.4048 Y-0.0068 I-0.0157 J0.2539
N3575 G3 X-0.4149 Y-0.0129 I-0.0033 J-0.006
N3580 G1 Y-0.0524
N3585 G3 X-0.4024 Y-0.0649 I0.0125 J0.
N3590 G1 X-0.2879
N3595 X-0.2854 Y-0.0647
N3600 X-0.2831 Y-0.064
N3605 X-0.281 Y-0.0629
N3610 X-0.2791 Y-0.0613
N3615 X-0.2637 Y-0.0459
N3620 X-0.2629 Y-0.0449
N3625 X-0.2624 Y-0.0436
N3630 X-0.2622 Y-0.0423
N3635 G2 X-0.1937 Y0.015 I0.0581 J0.0002
N3640 G3 X-0.1075 Y0.038 I0.0187 J0.1026
N3645 G2 X0.1175 Y0.0288 I0.1075 J-0.1267
N3650 X0.182 Y-0.0369 I-3.3338 J-3.3338
N3655 G3 X0.2465 Y-0.1027 I3.3983 J3.268
N3660 X0.2817 Y-0.1173 I0.0352 J0.0352
N3665 G1 X0.4545
N3670 G3 X0.4672 Y-0.1045 I0. J0.0128
N3675 G1 Y0.1117
N3680 G3 X0.4575 Y0.1144 I-0.0052 J0.
N3685 G2 X0.1156 Y0.1039 I-0.1742 J0.1023
N3690 G3 X0.0906 Y0.1173 I-0.025 J-0.0168
N3695 G1 X-0.0906
N3700 G3 X-0.1156 Y0.1039 I0. J-0.0302
N3705 G2 X-0.4575 Y0.1144 I-0.1677 J0.1127
N3710 G3 X-0.4672 Y0.1117 I-0.0045 J-0.0026
N3715 G1 Y-0.1045
N3720 G3 X-0.4545 Y-0.1173 I0.0128 J0.
N3725 G1 X-0.2817
N3730 G3 X-0.2465 Y-0.1027 I0. J0.0497
N3735 G1 X-0.113 Y0.0332
N3740 X-0.1075 Y0.038
N3745 G2 X-0.0511 Y0.0408 I0.03 J-0.0353
N3750 G3 X0.0027 Y0.0232 I0.0561 J0.0807
N3755 G2 X0.0791 Y-0.0095 I-0.0027 J-0.1119
N3760 G1 X0.234 Y-0.1644
N3765 G3 X0.2468 Y-0.1697 I0.0128 J0.0128
N3770 G1 X0.5016
N3775 G3 X0.5197 Y-0.1517 I0. J0.0181
N3780 G1 Y0.1517
N3785 G3 X0.5016 Y0.1697 I-0.0181 J0.
N3790 G1 X0.4378
N3795 G3 X0.4212 Y0.1587 I0. J-0.0181
N3800 G2 X0.1454 I-0.1379 J0.058
N3805 G3 X0.1288 Y0.1697 I-0.0167 J-0.007
N3810 G1 X-0.1288
N3815 G3 X-0.1454 Y0.1587 I0. J-0.0181
N3820 G2 X-0.4212 I-0.1379 J0.058
N3825 G3 X-0.4378 Y0.1697 I-0.0167 J-0.007
N3830 G1 X-0.5016
N3835 G3 X-0.5197 Y0.1517 I0. J-0.0181
N3840 G1 Y-0.1517
N3845 G3 X-0.5016 Y-0.1697 I0.0181 J0.
N3850 G1 X-0.2468
N3855 G3 X-0.234 Y-0.1644 I0. J0.0181
N3860 G1 X-0.0791 Y-0.0095
N3865 G2 X0.0027 Y0.0232 I0.0791 J-0.0791
N3870 G1 X0.0039 Y0.0233
N3875 X0.005 Y0.0238
N3880 X0.006 Y0.0245
N3885 X0.0294 Y0.0464
N3890 X0.0307 Y0.0472
N3895 X0.0321 Y0.0476
N3900 X0.0336 Y0.0475
N3905 X0.3968 Y-0.0319
N3910 X0.4105 Y-0.0355
N3915 X0.4116 Y-0.0356
N3920 X0.4127 Y-0.0352
N3925 X0.4136 Y-0.0344
N3930 X0.4141 Y-0.0333
N3935 Y-0.0321
N3940 G3 X0.3266 Y-0.0491 Z-0.2338 I-0.0437 J-0.0085 F24.
N3945 X0.4141 Y-0.0321 Z-0.2387 I0.0437 J0.0085
N3950 X0.3266 Y-0.0491 Z-0.2436 I-0.0437 J-0.0085
N3955 X0.4149 Y-0.0406 Z-0.2481 I0.0437 J0.0085
N3960 G1 Y-0.0129 F72.
N3965 G3 X0.4048 Y-0.0068 I-0.0069 J0.
N3970 G2 X0.2676 Y-0.0372 I-0.1215 J0.2235
N3975 G1 X0.2659 Y-0.0374
N3980 X0.2643 Y-0.0382
N3985 X0.2631 Y-0.0395
N3990 X0.2624 Y-0.0411
N3995 X0.2622 Y-0.0428
N4000 X0.2627 Y-0.0445
N4005 X0.2637 Y-0.0459
N4010 X0.2791 Y-0.0613
N4015 X0.281 Y-0.0629
N4020 X0.2831 Y-0.064
N4025 X0.2854 Y-0.0647
N4030 X0.2879 Y-0.0649
N4035 X0.4024
N4040 G3 X0.4149 Y-0.0524 I0. J0.0125
N4045 G1 Y-0.0406
N4050 X0.4146 Y-0.0383 Z-0.2475
N4055 X0.4138 Y-0.0361 Z-0.2469
N4060 X0.4128 Y-0.0347 Z-0.2452
N4065 X0.4116 Y-0.0335 Z-0.2435
N4070 X0.4106 Y-0.0327 Z-0.2388
N4075 Z-0.2101
N4080 X0.3575 Y-0.0462
N4085 Z-0.2481
N4090 X0.3565 Y-0.0454
N4095 X0.3553 Y-0.0449
N4100 X0.2014 Y-0.0067
N4105 G2 X0.0612 Y0.0564 I0.1035 J0.4168
N4110 G3 X-0.0898 Y0.0856 I-0.1088 J-0.1579
N4115 X-0.1795 Y0.0272 I0.0339 J-0.1502
N4120 G2 X-0.2627 Y-0.0402 I-0.1734 J0.1289
N4125 G1 X-0.2644 Y-0.0407
N4130 X-0.2652 Y-0.0411
N4135 X-0.2656 Y-0.042
N4140 X-0.2655 Y-0.0429
N4145 X-0.2649 Y-0.0437
N4150 X-0.2641 Y-0.044
N4155 X-0.2632 Y-0.0438
N4160 X-0.2625 Y-0.0432
N4165 X-0.2622 Y-0.0423
N4170 X-0.2625 Y-0.0407
N4175 X-0.2633 Y-0.0392
N4180 X-0.2645 Y-0.0381
N4185 X-0.266 Y-0.0374
N4190 X-0.2676 Y-0.0372
N4195 G2 X-0.4048 Y-0.0068 I-0.0157 J0.2539
N4200 G3 X-0.4149 Y-0.0129 I-0.0033 J-0.006
N4205 G1 Y-0.0524
N4210 G3 X-0.4024 Y-0.0649 I0.0125 J0.
N4215 G1 X-0.2879
N4220 X-0.2854 Y-0.0647
N4225 X-0.2831 Y-0.064
N4230 X-0.281 Y-0.0629
N4235 X-0.2791 Y-0.0613
N4240 X-0.2637 Y-0.0459
N4245 X-0.2629 Y-0.0449
N4250 X-0.2624 Y-0.0436
N4255 X-0.2622 Y-0.0423
N4260 G2 X-0.1937 Y0.015 I0.0581 J0.0002
N4265 G3 X-0.1075 Y0.038 I0.0187 J0.1026
N4270 G2 X0.1175 Y0.0288 I0.1075 J-0.1267
N4275 X0.182 Y-0.0369 I-3.3338 J-3.3338
N4280 G3 X0.2465 Y-0.1027 I3.3983 J3.268
N4285 X0.2817 Y-0.1173 I0.0352 J0.0352
N4290 G1 X0.4545
N4295 G3 X0.4672 Y-0.1045 I0. J0.0128
N4300 G1 Y0.1117
N4305 G3 X0.4575 Y0.1144 I-0.0052 J0.
N4310 G2 X0.1156 Y0.1039 I-0.1742 J0.1023
N4315 G3 X0.0906 Y0.1173 I-0.025 J-0.0168
N4320 G1 X-0.0906
N4325 G3 X-0.1156 Y0.1039 I0. J-0.0302
N4330 G2 X-0.4575 Y0.1144 I-0.1677 J0.1127
N4335 G3 X-0.4672 Y0.1117 I-0.0045 J-0.0026
N4340 G1 Y-0.1045
N4345 G3 X-0.4545 Y-0.1173 I0.0128 J0.
N4350 G1 X-0.2817
N4355 G3 X-0.2465 Y-0.1027 I0. J0.0497
N4360 G1 X-0.113 Y0.0332
N4365 X-0.1075 Y0.038
N4370 G2 X-0.0511 Y0.0408 I0.03 J-0.0353
N4375 G3 X0.0027 Y0.0232 I0.0561 J0.0807
N4380 G2 X0.0791 Y-0.0095 I-0.0027 J-0.1119
N4385 G1 X0.234 Y-0.1644
N4390 G3 X0.2468 Y-0.1697 I0.0128 J0.0128
N4395 G1 X0.5016
N4400 G3 X0.5197 Y-0.1517 I0. J0.0181
N4405 G1 Y0.1517
N4410 G3 X0.5016 Y0.1697 I-0.0181 J0.
N4415 G1 X0.4378
N4420 G3 X0.4212 Y0.1587 I0. J-0.0181
N4425 G2 X0.1454 I-0.1379 J0.058
N4430 G3 X0.1288 Y0.1697 I-0.0167 J-0.007
N4435 G1 X-0.1288
N4440 G3 X-0.1454 Y0.1587 I0. J-0.0181
N4445 G2 X-0.4212 I-0.1379 J0.058
N4450 G3 X-0.4378 Y0.1697 I-0.0167 J-0.007
N4455 G1 X-0.5016
N4460 G3 X-0.5197 Y0.1517 I0. J-0.0181
N4465 G1 Y-0.1517
N4470 G3 X-0.5016 Y-0.1697 I0.0181 J0.
N4475 G1 X-0.2468
N4480 G3 X-0.234 Y-0.1644 I0. J0.0181
N4485 G1 X-0.0791 Y-0.0095
N4490 G2 X0.0027 Y0.0232 I0.0791 J-0.0791
N4495 G1 X0.0039 Y0.0233
N4500 X0.005 Y0.0238
N4505 X0.006 Y0.0245
N4510 X0.0294 Y0.0464
N4515 X0.0307 Y0.0472
N4520 X0.0321 Y0.0476
N4525 X0.0336 Y0.0475
N4530 X0.3968 Y-0.0319
N4535 X0.4105 Y-0.0355
N4540 X0.4116 Y-0.0356
N4545 X0.4127 Y-0.0352
N4550 X0.4136 Y-0.0344
N4555 X0.4141 Y-0.0333
N4560 Y-0.0321
N4565 G3 X0.3266 Y-0.0491 Z-0.253 I-0.0437 J-0.0085 F24.
N4570 X0.4141 Y-0.0321 Z-0.2579 I0.0437 J0.0085
N4575 X0.3266 Y-0.0491 Z-0.2628 I-0.0437 J-0.0085
N4580 X0.4149 Y-0.0406 Z-0.2674 I0.0437 J0.0085
N4585 G1 Y-0.0129 F72.
N4590 G3 X0.4048 Y-0.0068 I-0.0069 J0.
N4595 G2 X0.2676 Y-0.0372 I-0.1215 J0.2235
N4600 G1 X0.2659 Y-0.0374
N4605 X0.2643 Y-0.0382
N4610 X0.2631 Y-0.0395
N4615 X0.2624 Y-0.0411
N4620 X0.2622 Y-0.0428
N4625 X0.2627 Y-0.0445
N4630 X0.2637 Y-0.0459
N4635 X0.2791 Y-0.0613
N4640 X0.281 Y-0.0629
N4645 X0.2831 Y-0.064
N4650 X0.2854 Y-0.0647
N4655 X0.2879 Y-0.0649
N4660 X0.4024
N4665 G3 X0.4149 Y-0.0524 I0. J0.0125
N4670 G1 Y-0.0406
N4675 X0.4146 Y-0.0383 Z-0.2668
N4680 X0.4138 Y-0.0361 Z-0.2661
N4685 X0.4128 Y-0.0347 Z-0.2644
N4690 X0.4116 Y-0.0335 Z-0.2627
N4695 X0.4106 Y-0.0327 Z-0.258
N4700 Z-0.2294
N4705 X0.3575 Y-0.0462
N4710 Z-0.2674
N4715 X0.3565 Y-0.0454
N4720 X0.3553 Y-0.0449
N4725 X0.2014 Y-0.0067
N4730 G2 X0.0612 Y0.0564 I0.1035 J0.4168
N4735 G3 X-0.0898 Y0.0856 I-0.1088 J-0.1579
N4740 X-0.1795 Y0.0272 I0.0339 J-0.1502
N4745 G2 X-0.2627 Y-0.0402 I-0.1734 J0.1289
N4750 G1 X-0.2644 Y-0.0407
N4755 X-0.2652 Y-0.0411
N4760 X-0.2656 Y-0.042
N4765 X-0.2655 Y-0.0429
N4770 X-0.2649 Y-0.0437
N4775 X-0.2641 Y-0.044
N4780 X-0.2632 Y-0.0438
N4785 X-0.2625 Y-0.0432
N4790 X-0.2622 Y-0.0423
N4795 X-0.2625 Y-0.0407
N4800 X-0.2633 Y-0.0392
N4805 X-0.2645 Y-0.0381
N4810 X-0.266 Y-0.0374
N4815 X-0.2676 Y-0.0372
N4820 G2 X-0.4048 Y-0.0068 I-0.0157 J0.2539
N4825 G3 X-0.4149 Y-0.0129 I-0.0033 J-0.006
N4830 G1 Y-0.0524
N4835 G3 X-0.4024 Y-0.0649 I0.0125 J0.
N4840 G1 X-0.2879
N4845 X-0.2854 Y-0.0647
N4850 X-0.2831 Y-0.064
N4855 X-0.281 Y-0.0629
N4860 X-0.2791 Y-0.0613
N4865 X-0.2637 Y-0.0459
N4870 X-0.2629 Y-0.0449
N4875 X-0.2624 Y-0.0436
N4880 X-0.2622 Y-0.0423
N4885 G2 X-0.1937 Y0.015 I0.0581 J0.0002
N4890 G3 X-0.1075 Y0.038 I0.0187 J0.1026
N4895 G2 X0.1175 Y0.0288 I0.1075 J-0.1267
N4900 X0.182 Y-0.0369 I-3.3338 J-3.3338
N4905 G3 X0.2465 Y-0.1027 I3.3983 J3.268
N4910 X0.2817 Y-0.1173 I0.0352 J0.0352
N4915 G1 X0.4545
N4920 G3 X0.4672 Y-0.1045 I0. J0.0128
N4925 G1 Y0.1117
N4930 G3 X0.4575 Y0.1144 I-0.0052 J0.
N4935 G2 X0.1156 Y0.1039 I-0.1742 J0.1023
N4940 G3 X0.0906 Y0.1173 I-0.025 J-0.0168
N4945 G1 X-0.0906
N4950 G3 X-0.1156 Y0.1039 I0. J-0.0302
N4955 G2 X-0.4575 Y0.1144 I-0.1677 J0.1127
N4960 G3 X-0.4672 Y0.1117 I-0.0045 J-0.0026
N4965 G1 Y-0.1045
N4970 G3 X-0.4545 Y-0.1173 I0.0128 J0.
N4975 G1 X-0.2817
N4980 G3 X-0.2465 Y-0.1027 I0. J0.0497
N4985 G1 X-0.113 Y0.0332
N4990 X-0.1075 Y0.038
N4995 G2 X-0.0511 Y0.0408 I0.03 J-0.0353
N5000 G3 X0.0027 Y0.0232 I0.0561 J0.0807
N5005 G2 X0.0791 Y-0.0095 I-0.0027 J-0.1119
N5010 G1 X0.234 Y-0.1644
N5015 G3 X0.2468 Y-0.1697 I0.0128 J0.0128
N5020 G1 X0.5016
N5025 G3 X0.5197 Y-0.1517 I0. J0.0181
N5030 G1 Y0.1517
N5035 G3 X0.5016 Y0.1697 I-0.0181 J0.
N5040 G1 X0.4378
N5045 G3 X0.4212 Y0.1587 I0. J-0.0181
N5050 G2 X0.1454 I-0.1379 J0.058
N5055 G3 X0.1288 Y0.1697 I-0.0167 J-0.007
N5060 G1 X-0.1288
N5065 G3 X-0.1454 Y0.1587 I0. J-0.0181
N5070 G2 X-0.4212 I-0.1379 J0.058
N5075 G3 X-0.4378 Y0.1697 I-0.0167 J-0.007
N5080 G1 X-0.5016
N5085 G3 X-0.5197 Y0.1517 I0. J-0.0181
N5090 G1 Y-0.1517
N5095 G3 X-0.5016 Y-0.1697 I0.0181 J0.
N5100 G1 X-0.2468
N5105 G3 X-0.234 Y-0.1644 I0. J0.0181
N5110 G1 X-0.0791 Y-0.0095
N5115 G2 X0.0027 Y0.0232 I0.0791 J-0.0791
N5120 G1 X0.0039 Y0.0233
N5125 X0.005 Y0.0238
N5130 X0.006 Y0.0245
N5135 X0.0294 Y0.0464
N5140 X0.0307 Y0.0472
N5145 X0.0321 Y0.0476
N5150 X0.0336 Y0.0475
N5155 X0.3968 Y-0.0319
N5160 X0.4105 Y-0.0355
N5165 X0.4116 Y-0.0356
N5170 X0.4127 Y-0.0352
N5175 X0.4136 Y-0.0344
N5180 X0.4141 Y-0.0333
N5185 Y-0.0321
N5190 G3 X0.3266 Y-0.0491 Z-0.2723 I-0.0437 J-0.0085 F24.
N5195 X0.4141 Y-0.0321 Z-0.2772 I0.0437 J0.0085
N5200 X0.3266 Y-0.0491 Z-0.2821 I-0.0437 J-0.0085
N5205 X0.4149 Y-0.0406 Z-0.2867 I0.0437 J0.0085
N5210 G1 Y-0.0129 F72.
N5215 G3 X0.4048 Y-0.0068 I-0.0069 J0.
N5220 G2 X0.2676 Y-0.0372 I-0.1215 J0.2235
N5225 G1 X0.2659 Y-0.0374
N5230 X0.2643 Y-0.0382
N5235 X0.2631 Y-0.0395
N5240 X0.2624 Y-0.0411
N5245 X0.2622 Y-0.0428
N5250 X0.2627 Y-0.0445
N5255 X0.2637 Y-0.0459
N5260 X0.2791 Y-0.0613
N5265 X0.281 Y-0.0629
N5270 X0.2831 Y-0.064
N5275 X0.2854 Y-0.0647
N5280 X0.2879 Y-0.0649
N5285 X0.4024
N5290 G3 X0.4149 Y-0.0524 I0. J0.0125
N5295 G1 Y-0.0406
N5300 X0.4146 Y-0.0383 Z-0.286
N5305 X0.4138 Y-0.0361 Z-0.2854
N5310 X0.4128 Y-0.0347 Z-0.2837
N5315 X0.4116 Y-0.0335 Z-0.282
N5320 X0.4106 Y-0.0327 Z-0.2773
N5325 Z-0.2486
N5330 X0.3575 Y-0.0462
N5335 Z-0.2867
N5340 X0.3565 Y-0.0454
N5345 X0.3553 Y-0.0449
N5350 X0.2014 Y-0.0067
N5355 G2 X0.0612 Y0.0564 I0.1035 J0.4168
N5360 G3 X-0.0898 Y0.0856 I-0.1088 J-0.1579
N5365 X-0.1795 Y0.0272 I0.0339 J-0.1502
N5370 G2 X-0.2627 Y-0.0402 I-0.1734 J0.1289
N5375 G1 X-0.2644 Y-0.0407
N5380 X-0.2652 Y-0.0411
N5385 X-0.2656 Y-0.042
N5390 X-0.2655 Y-0.0429
N5395 X-0.2649 Y-0.0437
N5400 X-0.2641 Y-0.044
N5405 X-0.2632 Y-0.0438
N5410 X-0.2625 Y-0.0432
N5415 X-0.2622 Y-0.0423
N5420 X-0.2625 Y-0.0407
N5425 X-0.2633 Y-0.0392
N5430 X-0.2645 Y-0.0381
N5435 X-0.266 Y-0.0374
N5440 X-0.2676 Y-0.0372
N5445 G2 X-0.4048 Y-0.0068 I-0.0157 J0.2539
N5450 G3 X-0.4149 Y-0.0129 I-0.0033 J-0.006
N5455 G1 Y-0.0524
N5460 G3 X-0.4024 Y-0.0649 I0.0125 J0.
N5465 G1 X-0.2879
N5470 X-0.2854 Y-0.0647
N5475 X-0.2831 Y-0.064
N5480 X-0.281 Y-0.0629
N5485 X-0.2791 Y-0.0613
N5490 X-0.2637 Y-0.0459
N5495 X-0.2629 Y-0.0449
N5500 X-0.2624 Y-0.0436
N5505 X-0.2622 Y-0.0423
N5510 G2 X-0.1937 Y0.015 I0.0581 J0.0002
N5515 G3 X-0.1075 Y0.038 I0.0187 J0.1026
N5520 G2 X0.1175 Y0.0288 I0.1075 J-0.1267
N5525 X0.182 Y-0.0369 I-3.3338 J-3.3338
N5530 G3 X0.2465 Y-0.1027 I3.3983 J3.268
N5535 X0.2817 Y-0.1173 I0.0352 J0.0352
N5540 G1 X0.4545
N5545 G3 X0.4672 Y-0.1045 I0. J0.0128
N5550 G1 Y0.1117
N5555 G3 X0.4575 Y0.1144 I-0.0052 J0.
N5560 G2 X0.1156 Y0.1039 I-0.1742 J0.1023
N5565 G3 X0.0906 Y0.1173 I-0.025 J-0.0168
N5570 G1 X-0.0906
N5575 G3 X-0.1156 Y0.1039 I0. J-0.0302
N5580 G2 X-0.4575 Y0.1144 I-0.1677 J0.1127
N5585 G3 X-0.4672 Y0.1117 I-0.0045 J-0.0026
N5590 G1 Y-0.1045
N5595 G3 X-0.4545 Y-0.1173 I0.0128 J0.
N5600 G1 X-0.2817
N5605 G3 X-0.2465 Y-0.1027 I0. J0.0497
N5610 G1 X-0.113 Y0.0332
N5615 X-0.1075 Y0.038
N5620 G2 X-0.0511 Y0.0408 I0.03 J-0.0353
N5625 G3 X0.0027 Y0.0232 I0.0561 J0.0807
N5630 G2 X0.0791 Y-0.0095 I-0.0027 J-0.1119
N5635 G1 X0.234 Y-0.1644
N5640 G3 X0.2468 Y-0.1697 I0.0128 J0.0128
N5645 G1 X0.5016
N5650 G3 X0.5197 Y-0.1517 I0. J0.0181
N5655 G1 Y0.1517
N5660 G3 X0.5016 Y0.1697 I-0.0181 J0.
N5665 G1 X0.4378
N5670 G3 X0.4212 Y0.1587 I0. J-0.0181
N5675 G2 X0.1454 I-0.1379 J0.058
N5680 G3 X0.1288 Y0.1697 I-0.0167 J-0.007
N5685 G1 X-0.1288
N5690 G3 X-0.1454 Y0.1587 I0. J-0.0181
N5695 G2 X-0.4212 I-0.1379 J0.058
N5700 G3 X-0.4378 Y0.1697 I-0.0167 J-0.007
N5705 G1 X-0.5016
N5710 G3 X-0.5197 Y0.1517 I0. J-0.0181
N5715 G1 Y-0.1517
N5720 G3 X-0.5016 Y-0.1697 I0.0181 J0.
N5725 G1 X-0.2468
N5730 G3 X-0.234 Y-0.1644 I0. J0.0181
N5735 G1 X-0.0791 Y-0.0095
N5740 G2 X0.0027 Y0.0232 I0.0791 J-0.0791
N5745 G1 X0.0041 Y0.0234
N5750 X0.0053 Y0.024
N5755 X0.0063 Y0.025
N5760 X0.0113 Y0.0317
N5765 X0.0122 Y0.0326
N5770 X0.0133 Y0.0332
N5775 X0.0145 Y0.0335
N5780 X0.0157 Y0.0334
N5785 X0.3261 Y-0.0359
N5790 X0.3259 Y-0.0374
N5795 G3 X0.3688 Y-0.0851 Z-0.2891 I0.0444 J-0.0032 F24.
N5800 X0.4149 Y-0.0406 Z-0.2916 I0.0016 J0.0445
N5805 G1 Y-0.0129 F72.
N5810 G3 X0.4048 Y-0.0068 I-0.0069 J0.
N5815 G2 X0.2676 Y-0.0372 I-0.1215 J0.2235
N5820 G1 X0.2659 Y-0.0374
N5825 X0.2643 Y-0.0382
N5830 X0.2631 Y-0.0395
N5835 X0.2624 Y-0.0411
N5840 X0.2622 Y-0.0428
N5845 X0.2627 Y-0.0445
N5850 X0.2637 Y-0.0459
N5855 X0.2791 Y-0.0613
N5860 X0.281 Y-0.0629
N5865 X0.2831 Y-0.064
N5870 X0.2854 Y-0.0647
N5875 X0.2879 Y-0.0649
N5880 X0.4024
N5885 G3 X0.4149 Y-0.0524 I0. J0.0125
N5890 G1 Y-0.0406
N5895 X0.4146 Y-0.0383 Z-0.291
N5900 X0.4138 Y-0.0361 Z-0.2904
N5905 X0.4128 Y-0.0347 Z-0.2887
N5910 X0.4116 Y-0.0335 Z-0.287
N5915 X0.4106 Y-0.0327 Z-0.2823
N5920 Z-0.2679
N5925 X0.3575 Y-0.0462
N5930 Z-0.2916
N5935 X0.3565 Y-0.0454
N5940 X0.3553 Y-0.0449
N5945 X0.2014 Y-0.0067
N5950 G2 X0.0612 Y0.0564 I0.1035 J0.4168
N5955 G3 X-0.0898 Y0.0856 I-0.1088 J-0.1579
N5960 X-0.1795 Y0.0272 I0.0339 J-0.1502
N5965 G2 X-0.2627 Y-0.0402 I-0.1734 J0.1289
N5970 G1 X-0.2644 Y-0.0407
N5975 X-0.2652 Y-0.0411
N5980 X-0.2656 Y-0.042
N5985 X-0.2655 Y-0.0429
N5990 X-0.2649 Y-0.0437
N5995 X-0.2641 Y-0.044
N6000 X-0.2632 Y-0.0438
N6005 X-0.2625 Y-0.0432
N6010 X-0.2622 Y-0.0423
N6015 X-0.2625 Y-0.0407
N6020 X-0.2633 Y-0.0392
N6025 X-0.2645 Y-0.0381
N6030 X-0.266 Y-0.0374
N6035 X-0.2676 Y-0.0372
N6040 G2 X-0.4048 Y-0.0068 I-0.0157 J0.2539
N6045 G3 X-0.4149 Y-0.0129 I-0.0033 J-0.006
N6050 G1 Y-0.0524
N6055 G3 X-0.4024 Y-0.0649 I0.0125 J0.
N6060 G1 X-0.2879
N6065 X-0.2854 Y-0.0647
N6070 X-0.2831 Y-0.064
N6075 X-0.281 Y-0.0629
N6080 X-0.2791 Y-0.0613
N6085 X-0.2637 Y-0.0459
N6090 X-0.2629 Y-0.0449
N6095 X-0.2624 Y-0.0436
N6100 X-0.2622 Y-0.0423
N6105 G2 X-0.1937 Y0.015 I0.0581 J0.0002
N6110 G3 X-0.1075 Y0.038 I0.0187 J0.1026
N6115 G2 X0.1175 Y0.0288 I0.1075 J-0.1267
N6120 X0.182 Y-0.0369 I-3.3338 J-3.3338
N6125 G3 X0.2465 Y-0.1027 I3.3983 J3.268
N6130 X0.2817 Y-0.1173 I0.0352 J0.0352
N6135 G1 X0.4545
N6140 G3 X0.4672 Y-0.1045 I0. J0.0128
N6145 G1 Y0.1117
N6150 G3 X0.4575 Y0.1144 I-0.0052 J0.
N6155 G2 X0.1156 Y0.1039 I-0.1742 J0.1023
N6160 G3 X0.0906 Y0.1173 I-0.025 J-0.0168
N6165 G1 X-0.0906
N6170 G3 X-0.1156 Y0.1039 I0. J-0.0302
N6175 G2 X-0.4575 Y0.1144 I-0.1677 J0.1127
N6180 G3 X-0.4672 Y0.1117 I-0.0045 J-0.0026
N6185 G1 Y-0.1045
N6190 G3 X-0.4545 Y-0.1173 I0.0128 J0.
N6195 G1 X-0.2817
N6200 G3 X-0.2465 Y-0.1027 I0. J0.0497
N6205 G1 X-0.113 Y0.0332
N6210 X-0.1075 Y0.038
N6215 G2 X-0.0511 Y0.0408 I0.03 J-0.0353
N6220 G3 X0.0027 Y0.0232 I0.0561 J0.0807
N6225 G2 X0.0791 Y-0.0095 I-0.0027 J-0.1119
N6230 G1 X0.234 Y-0.1644
N6235 G3 X0.2468 Y-0.1697 I0.0128 J0.0128
N6240 G1 X0.5016
N6245 G3 X0.5197 Y-0.1517 I0. J0.0181
N6250 G1 Y0.1517
N6255 G3 X0.5016 Y0.1697 I-0.0181 J0.
N6260 G1 X0.4378
N6265 G3 X0.4212 Y0.1587 I0. J-0.0181
N6270 G2 X0.1454 I-0.1379 J0.058
N6275 G3 X0.1288 Y0.1697 I-0.0167 J-0.007
N6280 G1 X-0.1288
N6285 G3 X-0.1454 Y0.1587 I0. J-0.0181
N6290 G2 X-0.4212 I-0.1379 J0.058
N6295 G3 X-0.4378 Y0.1697 I-0.0167 J-0.007
N6300 G1 X-0.5016
N6305 G3 X-0.5197 Y0.1517 I0. J-0.0181
N6310 G1 Y-0.1517
N6315 G3 X-0.5016 Y-0.1697 I0.0181 J0.
N6320 G1 X-0.2468
N6325 G3 X-0.234 Y-0.1644 I0. J0.0181
N6330 G1 X-0.0791 Y-0.0095
N6335 G2 X0.0027 Y0.0232 I0.0791 J-0.0791
N6340 G1 X0.005 Y0.0234 Z-0.291
N6345 X0.0072 Y0.0242 Z-0.2904
N6350 X0.0086 Y0.0252 Z-0.2887
N6355 X0.0099 Y0.0263 Z-0.287
N6360 X0.0107 Y0.0273 Z-0.2823
N6365 Z0.3703

N6370 M5
N6375 M9
N6380 G53 G0 Z0.
N6385 G49
N6390 M30
