O1005
(FOR BEST MACHINING RESULTS THE FOLLOWING)
(PARAMETER SETTINGS ARE RECOMMENDED BY MAZAK)
(F85 BIT 2 IS 0 TYPE OF COORDINATE SYSTEM FOR CONTROLLING TOOL TIP POINT)
(F86 BIT 6 IS 1 TABLE ROTARY AXIS REFERENCE POSITION FOR TOOL TIP POINT CONTROL)
(F96 BIT 1 IS 1 AUTOMATIC CORRECTION)
(F114 BIT 1 IS 1 G49 ALLOWED MOVEMENT)
(F144 BIT 1 IS 1 TABLE ROTARY AXIS REFERENCE FOR INCLINED PLANE MACHINING)
(F162 BIT 0 IS 1 TOOL TIP POINT CONTROL MOVEMENT)

(T3 D=0.0938 CR=0. - ZMIN=-0.2916 - FLAT END MILL)

N10 G90 G94 G17 G49
N15 G20
(WHEN USING FUSION FOR PERSONAL USE, THE FEEDRATE OF RAPID)
(MOVES IS REDUCED TO MATCH THE FEEDRATE OF CUTTING MOVES,)
(WHICH CAN INCREASE MACHINING TIME. UNRESTRICTED RAPID MOVES)
(ARE AVAILABLE WITH A FUSION SUBSCRIPTION.)
N20 G53 G0 Z0.

(2D CONTOUR10)
N25 T3 M6
N30 S18000 M3
N35 G90 G94 G17
N40 G54
N45 M8
N50 G0 X0.6726 Y-0.3883
N55 G43 Z0.6 H3
N60 G1 Z0.0843 F72.
N65 Z-0.0969 F24.
N70 Z-0.1263
N75 G19 G3 Y-0.379 Z-0.1357 J0.0094 K0. F72.
N80 G1 Y-0.3696
N85 G17 G3 X0.6633 Y-0.3602 I-0.0094 J0.
N90 G1 X0.2022 F10.
N95 G2 X0.1254 Y-0.3284 I0. J0.1086
N100 G1 X0.0152 Y-0.2182
N105 G3 X-0.0152 I-0.0152 J-0.0152
N110 G1 X-0.1254 Y-0.3284
N115 G2 X-0.2022 Y-0.3602 I-0.0768 J0.0768
N120 G1 X-0.6633
N125 G2 X-0.7102 Y-0.3133 I0. J0.0469
N130 G1 Y0.3133
N135 G2 X-0.6633 Y0.3602 I0.0469 J0.
N140 G1 X0.6633
N145 G2 X0.7102 Y0.3133 I0. J-0.0469
N150 G1 Y-0.3133
N155 G2 X0.6633 Y-0.3602 I-0.0469 J0.
N160 G3 X0.6539 Y-0.3696 I0. J-0.0094 F72.
N165 G1 Y-0.379
N170 G19 G2 Y-0.3883 Z-0.1263 J0. K0.0094
N175 G1 Z0.2
N180 X0.6726
N185 Z0.0843
N190 Z-0.1169 F24.
N195 Z-0.1463
N200 G3 Y-0.379 Z-0.1557 J0.0094 K0. F72.
N205 G1 Y-0.3696
N210 G17 G3 X0.6633 Y-0.3602 I-0.0094 J0.
N215 G1 X0.2022 F10.
N220 G2 X0.1254 Y-0.3284 I0. J0.1086
N225 G1 X0.0152 Y-0.2182
N230 G3 X-0.0152 I-0.0152 J-0.0152
N235 G1 X-0.1254 Y-0.3284
N240 G2 X-0.2022 Y-0.3602 I-0.0768 J0.0768
N245 G1 X-0.6633
N250 G2 X-0.7102 Y-0.3133 I0. J0.0469
N255 G1 Y0.3133
N260 G2 X-0.6633 Y0.3602 I0.0469 J0.
N265 G1 X0.6633
N270 G2 X0.7102 Y0.3133 I0. J-0.0469
N275 G1 Y-0.3133
N280 G2 X0.6633 Y-0.3602 I-0.0469 J0.
N285 G3 X0.6539 Y-0.3696 I0. J-0.0094 F72.
N290 G1 Y-0.379
N295 G19 G2 Y-0.3883 Z-0.1463 J0. K0.0094
N300 G1 Z0.2
N305 X0.6726
N310 Z0.0843
N315 Z-0.1369 F24.
N320 Z-0.1663
N325 G3 Y-0.379 Z-0.1757 J0.0094 K0. F72.
N330 G1 Y-0.3696
N335 G17 G3 X0.6633 Y-0.3602 I-0.0094 J0.
N340 G1 X0.2022 F10.
N345 G2 X0.1254 Y-0.3284 I0. J0.1086
N350 G1 X0.0152 Y-0.2182
N355 G3 X-0.0152 I-0.0152 J-0.0152
N360 G1 X-0.1254 Y-0.3284
N365 G2 X-0.2022 Y-0.3602 I-0.0768 J0.0768
N370 G1 X-0.6633
N375 G2 X-0.7102 Y-0.3133 I0. J0.0469
N380 G1 Y0.3133
N385 G2 X-0.6633 Y0.3602 I0.0469 J0.
N390 G1 X0.6633
N395 G2 X0.7102 Y0.3133 I0. J-0.0469
N400 G1 Y-0.3133
N405 G2 X0.6633 Y-0.3602 I-0.0469 J0.
N410 G3 X0.6539 Y-0.3696 I0. J-0.0094 F72.
N415 G1 Y-0.379
N420 G19 G2 Y-0.3883 Z-0.1663 J0. K0.0094
N425 G1 Z0.2
N430 X0.6726
N435 Z0.0843
N440 Z-0.1569 F24.
N445 Z-0.1863
N450 G3 Y-0.379 Z-0.1957 J0.0094 K0. F72.
N455 G1 Y-0.3696
N460 G17 G3 X0.6633 Y-0.3602 I-0.0094 J0.
N465 G1 X0.2022 F10.
N470 G2 X0.1254 Y-0.3284 I0. J0.1086
N475 G1 X0.0152 Y-0.2182
N480 G3 X-0.0152 I-0.0152 J-0.0152
N485 G1 X-0.1254 Y-0.3284
N490 G2 X-0.2022 Y-0.3602 I-0.0768 J0.0768
N495 G1 X-0.6633
N500 G2 X-0.7102 Y-0.3133 I0. J0.0469
N505 G1 Y0.3133
N510 G2 X-0.6633 Y0.3602 I0.0469 J0.
N515 G1 X0.6633
N520 G2 X0.7102 Y0.3133 I0. J-0.0469
N525 G1 Y-0.3133
N530 G2 X0.6633 Y-0.3602 I-0.0469 J0.
N535 G3 X0.6539 Y-0.3696 I0. J-0.0094 F72.
N540 G1 Y-0.379
N545 G19 G2 Y-0.3883 Z-0.1863 J0. K0.0094
N550 G1 Z0.2
N555 X0.6726
N560 Z0.0843
N565 Z-0.1769 F24.
N570 Z-0.2063
N575 G3 Y-0.379 Z-0.2157 J0.0094 K0. F72.
N580 G1 Y-0.3696
N585 G17 G3 X0.6633 Y-0.3602 I-0.0094 J0.
N590 G1 X0.2022 F10.
N595 G2 X0.1254 Y-0.3284 I0. J0.1086
N600 G1 X0.0152 Y-0.2182
N605 G3 X-0.0152 I-0.0152 J-0.0152
N610 G1 X-0.1254 Y-0.3284
N615 G2 X-0.2022 Y-0.3602 I-0.0768 J0.0768
N620 G1 X-0.6633
N625 G2 X-0.7102 Y-0.3133 I0. J0.0469
N630 G1 Y0.3133
N635 G2 X-0.6633 Y0.3602 I0.0469 J0.
N640 G1 X0.6633
N645 G2 X0.7102 Y0.3133 I0. J-0.0469
N650 G1 Y-0.3133
N655 G2 X0.6633 Y-0.3602 I-0.0469 J0.
N660 G3 X0.6539 Y-0.3696 I0. J-0.0094 F72.
N665 G1 Y-0.379
N670 G19 G2 Y-0.3883 Z-0.2063 J0. K0.0094
N675 G1 Z0.2
N680 X0.6726
N685 Z0.0843
N690 Z-0.1969 F24.
N695 Z-0.2263
N700 G3 Y-0.379 Z-0.2357 J0.0094 K0. F72.
N705 G1 Y-0.3696
N710 G17 G3 X0.6633 Y-0.3602 I-0.0094 J0.
N715 G1 X0.2022 F10.
N720 G2 X0.1254 Y-0.3284 I0. J0.1086
N725 G1 X0.0152 Y-0.2182
N730 G3 X-0.0152 I-0.0152 J-0.0152
N735 G1 X-0.1254 Y-0.3284
N740 G2 X-0.2022 Y-0.3602 I-0.0768 J0.0768
N745 G1 X-0.6633
N750 G2 X-0.7102 Y-0.3133 I0. J0.0469
N755 G1 Y0.3133
N760 G2 X-0.6633 Y0.3602 I0.0469 J0.
N765 G1 X0.6633
N770 G2 X0.7102 Y0.3133 I0. J-0.0469
N775 G1 Y-0.3133
N780 G2 X0.6633 Y-0.3602 I-0.0469 J0.
N785 G3 X0.6539 Y-0.3696 I0. J-0.0094 F72.
N790 G1 Y-0.379
N795 G19 G2 Y-0.3883 Z-0.2263 J0. K0.0094
N800 G1 Z0.2
N805 X0.6726
N810 Z0.0843
N815 Z-0.2169 F24.
N820 Z-0.2463
N825 G3 Y-0.379 Z-0.2557 J0.0094 K0. F72.
N830 G1 Y-0.3696
N835 G17 G3 X0.6633 Y-0.3602 I-0.0094 J0.
N840 G1 X0.2022 F10.
N845 G2 X0.1254 Y-0.3284 I0. J0.1086
N850 G1 X0.0152 Y-0.2182
N855 G3 X-0.0152 I-0.0152 J-0.0152
N860 G1 X-0.1254 Y-0.3284
N865 G2 X-0.2022 Y-0.3602 I-0.0768 J0.0768
N870 G1 X-0.6633
N875 G2 X-0.7102 Y-0.3133 I0. J0.0469
N880 G1 Y0.3133
N885 G2 X-0.6633 Y0.3602 I0.0469 J0.
N890 G1 X0.6633
N895 G2 X0.7102 Y0.3133 I0. J-0.0469
N900 G1 Y-0.3133
N905 G2 X0.6633 Y-0.3602 I-0.0469 J0.
N910 G3 X0.6539 Y-0.3696 I0. J-0.0094 F72.
N915 G1 Y-0.379
N920 G19 G2 Y-0.3883 Z-0.2463 J0. K0.0094
N925 G1 Z0.2
N930 X0.6726
N935 Z0.0843
N940 Z-0.2369 F24.
N945 Z-0.2663
N950 G3 Y-0.379 Z-0.2757 J0.0094 K0. F72.
N955 G1 Y-0.3696
N960 G17 G3 X0.6633 Y-0.3602 I-0.0094 J0.
N965 G1 X0.2022 F10.
N970 G2 X0.1254 Y-0.3284 I0. J0.1086
N975 G1 X0.0152 Y-0.2182
N980 G3 X-0.0152 I-0.0152 J-0.0152
N985 G1 X-0.1254 Y-0.3284
N990 G2 X-0.2022 Y-0.3602 I-0.0768 J0.0768
N995 G1 X-0.6633
N1000 G2 X-0.7102 Y-0.3133 I0. J0.0469
N1005 G1 Y0.3133
N1010 G2 X-0.6633 Y0.3602 I0.0469 J0.
N1015 G1 X0.6633
N1020 G2 X0.7102 Y0.3133 I0. J-0.0469
N1025 G1 Y-0.3133
N1030 G2 X0.6633 Y-0.3602 I-0.0469 J0.
N1035 G3 X0.6539 Y-0.3696 I0. J-0.0094 F72.
N1040 G1 Y-0.379
N1045 G19 G2 Y-0.3883 Z-0.2663 J0. K0.0094
N1050 G1 Z0.2
N1055 X0.6726
N1060 Z0.0843
N1065 Z-0.2569 F24.
N1070 Z-0.2773
N1075 G3 Y-0.379 Z-0.2867 J0.0094 K0. F72.
N1080 G1 Y-0.3696
N1085 G17 G3 X0.6633 Y-0.3602 I-0.0094 J0.
N1090 G1 X0.2022 F10.
N1095 G2 X0.1254 Y-0.3284 I0. J0.1086
N1100 G1 X0.0152 Y-0.2182
N1105 G3 X-0.0152 I-0.0152 J-0.0152
N1110 G1 X-0.1254 Y-0.3284
N1115 G2 X-0.2022 Y-0.3602 I-0.0768 J0.0768
N1120 G1 X-0.6633
N1125 G2 X-0.7102 Y-0.3133 I0. J0.0469
N1130 G1 Y0.3133
N1135 G2 X-0.6633 Y0.3602 I0.0469 J0.
N1140 G1 X0.6633
N1145 G2 X0.7102 Y0.3133 I0. J-0.0469
N1150 G1 Y-0.3133
N1155 G2 X0.6633 Y-0.3602 I-0.0469 J0.
N1160 G3 X0.6539 Y-0.3696 I0. J-0.0094 F72.
N1165 G1 Y-0.379
N1170 G19 G2 Y-0.3883 Z-0.2773 J0. K0.0094
N1175 G1 Z0.2
N1180 X0.6726
N1185 Z0.0843
N1190 Z-0.2679 F24.
N1195 Z-0.2823
N1200 G3 Y-0.379 Z-0.2916 J0.0094 K0. F72.
N1205 G1 Y-0.3696
N1210 G17 G3 X0.6633 Y-0.3602 I-0.0094 J0.
N1215 G1 X0.2022 F10.
N1220 G2 X0.1254 Y-0.3284 I0. J0.1086
N1225 G1 X0.0152 Y-0.2182
N1230 G3 X-0.0152 I-0.0152 J-0.0152
N1235 G1 X-0.1254 Y-0.3284
N1240 G2 X-0.2022 Y-0.3602 I-0.0768 J0.0768
N1245 G1 X-0.6633
N1250 G2 X-0.7102 Y-0.3133 I0. J0.0469
N1255 G1 Y0.3133
N1260 G2 X-0.6633 Y0.3602 I0.0469 J0.
N1265 G1 X0.6633
N1270 G2 X0.7102 Y0.3133 I0. J-0.0469
N1275 G1 Y-0.3133
N1280 G2 X0.6633 Y-0.3602 I-0.0469 J0.
N1285 G3 X0.6539 Y-0.3696 I0. J-0.0094 F72.
N1290 G1 Y-0.379
N1295 G19 G2 Y-0.3883 Z-0.2823 J0. K0.0094
N1300 G1 Z0.6
N1305 G17

N1310 M5
N1315 M9
N1320 G53 G0 Z0.
N1325 G49
N1330 M30
