O1006
(FOR BEST MACHINING RESULTS THE FOLLOWING)
(PARAMETER SETTINGS ARE RECOMMENDED BY MAZAK)
(F85 BIT 2 IS 0 TYPE OF COORDINATE SYSTEM FOR CONTROLLING TOOL TIP POINT)
(F86 BIT 6 IS 1 TABLE ROTARY AXIS REFERENCE POSITION FOR TOOL TIP POINT CONTROL)
(F96 BIT 1 IS 1 AUTOMATIC CORRECTION)
(F114 BIT 1 IS 1 G49 ALLOWED MOVEMENT)
(F144 BIT 1 IS 1 TABLE ROTARY AXIS REFERENCE FOR INCLINED PLANE MACHINING)
(F162 BIT 0 IS 1 TOOL TIP POINT CONTROL MOVEMENT)

(T3 D=0.0938 CR=0. - ZMIN=-0.375 - FLAT END MILL)

N10 G90 G94 G17 G49
N15 G20
(WHEN USING FUSION FOR PERSONAL USE, THE FEEDRATE OF RAPID)
(MOVES IS REDUCED TO MATCH THE FEEDRATE OF CUTTING MOVES,)
(WHICH CAN INCREASE MACHINING TIME. UNRESTRICTED RAPID MOVES)
(ARE AVAILABLE WITH A FUSION SUBSCRIPTION.)
N20 G53 G0 Z0.

(2D CONTOUR11)
N25 T3 M6
N30 S18000 M3
N35 G90 G94 G17
N40 G54
N45 M8
N50 G0 X-0.7416 Y-0.0094
N55 G43 Z0.6 H3
N60 G1 Z-0.0642 F72.
N65 Z-0.2454 F18.
N70 Z-0.2748
N75 G18 G2 X-0.7323 Z-0.2842 I0.0094 K0. F72.
N80 G1 X-0.7229
N85 G17 G3 X-0.7135 Y0. I0. J0.0094
N90 G1 Y0.3133
N95 G2 X-0.6998 Y0.3465 I0.0469 J0.
N100 G1 X-0.6964 Y0.3498
N105 G2 X-0.6633 Y0.3635 I0.0332 J-0.0332
N110 G1 X0.6633
N115 G2 X0.6964 Y0.3498 I0. J-0.0469
N120 G1 X0.6998 Y0.3465
N125 G2 X0.7135 Y0.3133 I-0.0332 J-0.0332
N130 G1 Y-0.3133
N135 G2 X0.6998 Y-0.3465 I-0.0469 J0.
N140 G1 X0.6964 Y-0.3498
N145 G2 X0.6633 Y-0.3635 I-0.0332 J0.0332
N150 G1 X-0.6633
N155 G2 X-0.6964 Y-0.3498 I0. J0.0469
N160 G1 X-0.6998 Y-0.3465
N165 G2 X-0.7135 Y-0.3133 I0.0332 J0.0332
N170 G1 Y0.
N175 G3 X-0.7229 Y0.0094 I-0.0094 J0.
N180 G1 X-0.7323
N185 G18 G3 X-0.7416 Z-0.2748 I0. K0.0094
N190 G1 Z0.2
N195 Y-0.0094
N200 Z-0.0642
N205 Z-0.2654 F18.
N210 Z-0.2948
N215 G2 X-0.7323 Z-0.3042 I0.0094 K0. F72.
N220 G1 X-0.7229
N225 G17 G3 X-0.7135 Y0. I0. J0.0094
N230 G1 Y0.3133
N235 G2 X-0.6998 Y0.3465 I0.0469 J0.
N240 G1 X-0.6964 Y0.3498
N245 G2 X-0.6633 Y0.3635 I0.0332 J-0.0332
N250 G1 X0.6633
N255 G2 X0.6964 Y0.3498 I0. J-0.0469
N260 G1 X0.6998 Y0.3465
N265 G2 X0.7135 Y0.3133 I-0.0332 J-0.0332
N270 G1 Y-0.3133
N275 G2 X0.6998 Y-0.3465 I-0.0469 J0.
N280 G1 X0.6964 Y-0.3498
N285 G2 X0.6633 Y-0.3635 I-0.0332 J0.0332
N290 G1 X-0.6633
N295 G2 X-0.6964 Y-0.3498 I0. J0.0469
N300 G1 X-0.6998 Y-0.3465
N305 G2 X-0.7135 Y-0.3133 I0.0332 J0.0332
N310 G1 Y0.
N315 G3 X-0.7229 Y0.0094 I-0.0094 J0.
N320 G1 X-0.7323
N325 G18 G3 X-0.7416 Z-0.2948 I0. K0.0094
N330 G1 Z0.2
N335 Y-0.0094
N340 Z-0.0642
N345 Z-0.2854 F18.
N350 Z-0.3148
N355 G2 X-0.7323 Z-0.3242 I0.0094 K0. F72.
N360 G1 X-0.7229
N365 G17 G3 X-0.7135 Y0. I0. J0.0094
N370 G1 Y0.3133
N375 G2 X-0.6998 Y0.3465 I0.0469 J0.
N380 G1 X-0.6964 Y0.3498
N385 G2 X-0.6633 Y0.3635 I0.0332 J-0.0332
N390 G1 X0.6633
N395 G2 X0.6964 Y0.3498 I0. J-0.0469
N400 G1 X0.6998 Y0.3465
N405 G2 X0.7135 Y0.3133 I-0.0332 J-0.0332
N410 G1 Y-0.3133
N415 G2 X0.6998 Y-0.3465 I-0.0469 J0.
N420 G1 X0.6964 Y-0.3498
N425 G2 X0.6633 Y-0.3635 I-0.0332 J0.0332
N430 G1 X-0.6633
N435 G2 X-0.6964 Y-0.3498 I0. J0.0469
N440 G1 X-0.6998 Y-0.3465
N445 G2 X-0.7135 Y-0.3133 I0.0332 J0.0332
N450 G1 Y0.
N455 G3 X-0.7229 Y0.0094 I-0.0094 J0.
N460 G1 X-0.7323
N465 G18 G3 X-0.7416 Z-0.3148 I0. K0.0094
N470 G1 Z0.2
N475 Y-0.0094
N480 Z-0.0642
N485 Z-0.3054 F18.
N490 Z-0.3348
N495 G2 X-0.7323 Z-0.3442 I0.0094 K0. F72.
N500 G1 X-0.7229
N505 G17 G3 X-0.7135 Y0. I0. J0.0094
N510 G1 Y0.3133
N515 G2 X-0.6998 Y0.3465 I0.0469 J0.
N520 G1 X-0.6964 Y0.3498
N525 G2 X-0.6633 Y0.3635 I0.0332 J-0.0332
N530 G1 X0.6633
N535 G2 X0.6964 Y0.3498 I0. J-0.0469
N540 G1 X0.6998 Y0.3465
N545 G2 X0.7135 Y0.3133 I-0.0332 J-0.0332
N550 G1 Y-0.3133
N555 G2 X0.6998 Y-0.3465 I-0.0469 J0.
N560 G1 X0.6964 Y-0.3498
N565 G2 X0.6633 Y-0.3635 I-0.0332 J0.0332
N570 G1 X-0.6633
N575 G2 X-0.6964 Y-0.3498 I0. J0.0469
N580 G1 X-0.6998 Y-0.3465
N585 G2 X-0.7135 Y-0.3133 I0.0332 J0.0332
N590 G1 Y0.
N595 G3 X-0.7229 Y0.0094 I-0.0094 J0.
N600 G1 X-0.7323
N605 G18 G3 X-0.7416 Z-0.3348 I0. K0.0094
N610 G1 Z0.2
N615 Y-0.0094
N620 Z-0.0642
N625 Z-0.3254 F18.
N630 Z-0.35
N635 X-0.7323 F72.
N640 X-0.7229
N645 G17 G3 X-0.7135 Y0. I0. J0.0094
N650 G1 Y0.0349
N655 Z-0.3642 F18.
N660 Y0.3133 F72.
N665 G2 X-0.6998 Y0.3465 I0.0469 J0.
N670 G1 X-0.6964 Y0.3498
N675 G2 X-0.6633 Y0.3635 I0.0332 J-0.0332
N680 G1 X-0.3802
N685 Z-0.35
N690 X-0.1614
N695 Z-0.3642 F18.
N700 X0.4049 F72.
N705 Z-0.35
N710 X0.6237
N715 Z-0.3642 F18.
N720 X0.6633 F72.
N725 G2 X0.6964 Y0.3498 I0. J-0.0469
N730 G1 X0.6998 Y0.3465
N735 G2 X0.7135 Y0.3133 I-0.0332 J-0.0332
N740 G1 Y-0.2122
N745 Z-0.35
N750 Y-0.3133
N755 G2 X0.6998 Y-0.3465 I-0.0469 J0.
N760 G1 X0.6964 Y-0.3498
N765 G2 X0.6633 Y-0.3635 I-0.0332 J0.0332
N770 G1 X0.5555
N775 Z-0.3642 F18.
N780 X-0.0124 F72.
N785 Z-0.35
N790 X-0.2312
N795 Z-0.3642 F18.
N800 X-0.6633 F72.
N805 G2 X-0.6964 Y-0.3498 I0. J0.0469
N810 G1 X-0.6998 Y-0.3465
N815 G2 X-0.7135 Y-0.3133 I0.0332 J0.0332
N820 G1 Y-0.1839
N825 Z-0.35
N830 Y0.
N835 G3 X-0.7229 Y0.0094 I-0.0094 J0.
N840 G1 X-0.7416
N845 Z0.2
N850 Y-0.0094
N855 Z-0.0642
N860 Z-0.3454 F18.
N865 Z-0.35
N870 X-0.7323 F72.
N875 X-0.7229
N880 G3 X-0.7135 Y0. I0. J0.0094
N885 G1 Y0.0349
N890 Z-0.375 F18.
N895 Y0.3133 F72.
N900 G2 X-0.6998 Y0.3465 I0.0469 J0.
N905 G1 X-0.6964 Y0.3498
N910 G2 X-0.6633 Y0.3635 I0.0332 J-0.0332
N915 G1 X-0.3802
N920 Z-0.35
N925 X-0.1614
N930 Z-0.375 F18.
N935 X0.4049 F72.
N940 Z-0.35
N945 X0.6237
N950 Z-0.375 F18.
N955 X0.6633 F72.
N960 G2 X0.6964 Y0.3498 I0. J-0.0469
N965 G1 X0.6998 Y0.3465
N970 G2 X0.7135 Y0.3133 I-0.0332 J-0.0332
N975 G1 Y-0.2122
N980 Z-0.35
N985 Y-0.3133
N990 G2 X0.6998 Y-0.3465 I-0.0469 J0.
N995 G1 X0.6964 Y-0.3498
N1000 G2 X0.6633 Y-0.3635 I-0.0332 J0.0332
N1005 G1 X0.5555
N1010 Z-0.375 F18.
N1015 X-0.0124 F72.
N1020 Z-0.35
N1025 X-0.2312
N1030 Z-0.375 F18.
N1035 X-0.6633 F72.
N1040 G2 X-0.6964 Y-0.3498 I0. J0.0469
N1045 G1 X-0.6998 Y-0.3465
N1050 G2 X-0.7135 Y-0.3133 I0.0332 J0.0332
N1055 G1 Y-0.1839
N1060 Z-0.35
N1065 Y0.
N1070 G3 X-0.7229 Y0.0094 I-0.0094 J0.
N1075 G1 X-0.7416
N1080 Z0.6

N1085 M5
N1090 M9
N1095 G53 G0 Z0.
N1100 G49
N1105 M30
