%
(******************************************************************************)
(TITAN 1-M WIDGET - 1/3 SCALE)

(T2 D=0.2362 CR=0. - ZMIN=-0.125 - FLAT END MILL)
(T3 D=0.0938 CR=0. - ZMIN=-0.2716 - FLAT END MILL)
(T4 D=0.0469 CR=0. TAPER=118DEG - ZMIN=-0.2517 - DRILL)

(******************************************************************************)
(FACING OPERATION)
G90 G94 G17 G49
G20
(WHEN USING FUSION FOR PERSONAL USE, THE FEEDRATE OF RAPID)
(MOVES IS REDUCED TO MATCH THE FEEDRATE OF CUTTING MOVES,)
(WHICH CAN INCREASE MACHINING TIME. UNRESTRICTED RAPID MOVES)
(ARE AVAILABLE WITH A FUSION SUBSCRIPTION.)
G53 G0 Z0.

(FACE2)
T2 M6
S18000 M3
G90 G94 G17
G54
M8
G0 X0.9451 Y-0.4104
G43 Z0.6 H2
G1 Z0.2 F54.
Z0.0186 F18.
G18 G3 X0.9215 Z-0.005 I-0.0236 K0. F54.
G1 X0.9101
X-0.9101
G17 G2 Y-0.2628 I0. J0.0738
G1 X0.9101
G3 Y-0.1152 I0. J0.0738
G1 X-0.9101
G2 Y0.0325 I0. J0.0738
G1 X0.9101
G3 Y0.1801 I0. J0.0738
G1 X-0.9101
G2 Y0.3278 I0. J0.0738
G1 X0.9101
G18 G2 X0.9337 Z0.0186 I0. K0.0236
G1 Z0.2
X0.9451 Y-0.4104
Z-0.0014 F18.
G3 X0.9215 Z-0.025 I-0.0236 K0. F54.
G1 X0.9101
X-0.9101
G17 G2 Y-0.2628 I0. J0.0738
G1 X0.9101
G3 Y-0.1152 I0. J0.0738
G1 X-0.9101
G2 Y0.0325 I0. J0.0738
G1 X0.9101
G3 Y0.1801 I0. J0.0738
G1 X-0.9101
G2 Y0.3278 I0. J0.0738
G1 X0.9101
G18 G2 X0.9337 Z-0.0014 I0. K0.0236
G1 Z0.2
X0.9451 Y-0.4104
Z-0.0214 F18.
G3 X0.9215 Z-0.045 I-0.0236 K0. F54.
G1 X0.9101
X-0.9101
G17 G2 Y-0.2628 I0. J0.0738
G1 X0.9101
G3 Y-0.1152 I0. J0.0738
G1 X-0.9101
G2 Y0.0325 I0. J0.0738
G1 X0.9101
G3 Y0.1801 I0. J0.0738
G1 X-0.9101
G2 Y0.3278 I0. J0.0738
G1 X0.9101
G18 G2 X0.9337 Z-0.0214 I0. K0.0236
G1 Z0.2
X0.9451 Y-0.4104
Z-0.0414 F18.
G3 X0.9215 Z-0.065 I-0.0236 K0. F54.
G1 X0.9101
X-0.9101
G17 G2 Y-0.2628 I0. J0.0738
G1 X0.9101
G3 Y-0.1152 I0. J0.0738
G1 X-0.9101
G2 Y0.0325 I0. J0.0738
G1 X0.9101
G3 Y0.1801 I0. J0.0738
G1 X-0.9101
G2 Y0.3278 I0. J0.0738
G1 X0.9101
G18 G2 X0.9337 Z-0.0414 I0. K0.0236
G1 Z0.2
X0.9451 Y-0.4104
Z-0.0614 F18.
G3 X0.9215 Z-0.085 I-0.0236 K0. F54.
G1 X0.9101
X-0.9101
G17 G2 Y-0.2628 I0. J0.0738
G1 X0.9101
G3 Y-0.1152 I0. J0.0738
G1 X-0.9101
G2 Y0.0325 I0. J0.0738
G1 X0.9101
G3 Y0.1801 I0. J0.0738
G1 X-0.9101
G2 Y0.3278 I0. J0.0738
G1 X0.9101
G18 G2 X0.9337 Z-0.0614 I0. K0.0236
G1 Z0.2
X0.9451 Y-0.4104
Z-0.0814 F18.
G3 X0.9215 Z-0.105 I-0.0236 K0. F54.
G1 X0.9101
X-0.9101
G17 G2 Y-0.2628 I0. J0.0738
G1 X0.9101
G3 Y-0.1152 I0. J0.0738
G1 X-0.9101
G2 Y0.0325 I0. J0.0738
G1 X0.9101
G3 Y0.1801 I0. J0.0738
G1 X-0.9101
G2 Y0.3278 I0. J0.0738
G1 X0.9101
G18 G2 X0.9337 Z-0.0814 I0. K0.0236
G1 Z0.2
X0.9451 Y-0.4104
Z-0.1014 F18.
G3 X0.9215 Z-0.125 I-0.0236 K0. F54.
G1 X0.9101
X-0.9101
G17 G2 Y-0.2628 I0. J0.0738
G1 X0.9101
G3 Y-0.1152 I0. J0.0738
G1 X-0.9101
G2 Y0.0325 I0. J0.0738
G1 X0.9101
G3 Y0.1801 I0. J0.0738
G1 X-0.9101
G2 Y0.3278 I0. J0.0738
G1 X0.9101
G18 G2 X0.9337 Z-0.1014 I0. K0.0236
G1 Z0.6
G17
M5
M9
G53 G0 Z0.
G49

(******************************************************************************)
(DRILLING OPERATION)
G90 G94 G17 G49
G20
G53 G0 Z0.

(DRILL1)
T4 M6
S5000 M3
G90 G94 G17
G54
M8
G0 X-0.6166 Y-0.2666
G43 Z0.6 H4
G0 Z0.2
G98 G82 X-0.6166 Y-0.2666 Z-0.2517 R0.0663 F40. D0
Y0.2666
X-0.2833 Y0.2166
X0. Y-0.0887
X0.2833 Y0.2166
X0.6166 Y0.2666
Y-0.2666
G80
G0 Z0.6
M5
M9
G53 G0 Z0.
G49

(******************************************************************************)
(EXTERIOR POCKET OPERATION)
G90 G94 G17 G49
G20
G53 G0 Z0.

T3 M6
S18000 M3
G90 G94 G17
G54
M8
G0 X0.0566 Y-0.3734
G43 Z0.6 H3
G1 Z0.0885 F72.
Z-0.1215 F24.
X0.0564 Y-0.3732 Z-0.1236 F72.
X0.056 Y-0.3727 Z-0.1256
X0.0552 Y-0.3719 Z-0.1274
X0.0542 Y-0.3709 Z-0.1289
X0.0529 Y-0.3696 Z-0.13
X0.0516 Y-0.3681 Z-0.1307
X0.0502 Y-0.3666 Z-0.1309
X0.0401 Y-0.3559
G3 X0.009 Y-0.324 I-1.1231 J-1.0601
X-0.009 I-0.009 J-0.009
X-0.0403 Y-0.3561 I1.0921 J-1.0921
X-0.0345 Y-0.3696 I0.0058 J-0.0055
G1 X0.1109 Y-0.37
G3 X0.116 Y-0.3559 I0. J0.008
G2 X0.1065 Y-0.3473 I0.0861 J0.1042
G1 X0. Y-0.2407
X-0.1065 Y-0.3473
G2 X-0.1162 Y-0.356 I-0.0956 J0.0956
G3 X-0.1118 Y-0.3702 I0.0051 J-0.0062
G1 X0.0469 Y-0.3835
G3 X0.0534 Y-0.3701 I0.0007 J0.008
G1 X0.052 Y-0.3686 Z-0.1311
X0.0506 Y-0.3671 Z-0.1318
X0.0494 Y-0.3658 Z-0.1329
X0.0484 Y-0.3647 Z-0.1344
X0.0476 Y-0.3639 Z-0.1362
X0.0472 Y-0.3634 Z-0.1382
X0.047 Y-0.3633 Z-0.1403
Z-0.1409
X0.0468 Y-0.3631 Z-0.143
X0.0464 Y-0.3626 Z-0.145
X0.0456 Y-0.3618 Z-0.1468
X0.0446 Y-0.3607 Z-0.1482
X0.0433 Y-0.3594 Z-0.1494
X0.042 Y-0.3579 Z-0.1501
X0.0406 Y-0.3564 Z-0.1503
X0.0401 Y-0.3559
G3 X0.009 Y-0.324 I-1.1231 J-1.0601
X-0.009 I-0.009 J-0.009
X-0.0403 Y-0.3561 I1.0921 J-1.0921
X-0.0345 Y-0.3696 I0.0058 J-0.0055
G1 X0.1109 Y-0.37
G3 X0.116 Y-0.3559 I0. J0.008
G2 X0.1065 Y-0.3473 I0.0861 J0.1042
G1 X0. Y-0.2407
X-0.1065 Y-0.3473
G2 X-0.1162 Y-0.356 I-0.0956 J0.0956
G3 X-0.1118 Y-0.3702 I0.0051 J-0.0062
G1 X0.0469 Y-0.3835
G3 X0.0534 Y-0.3701 I0.0007 J0.008
G1 X0.052 Y-0.3686 Z-0.1505
X0.0506 Y-0.3671 Z-0.1512
X0.0494 Y-0.3658 Z-0.1523
X0.0484 Y-0.3647 Z-0.1538
X0.0476 Y-0.3639 Z-0.1556
X0.0472 Y-0.3634 Z-0.1576
X0.047 Y-0.3633 Z-0.1597
Z-0.1603
X0.0468 Y-0.3631 Z-0.1624
X0.0464 Y-0.3626 Z-0.1644
X0.0456 Y-0.3618 Z-0.1662
X0.0446 Y-0.3607 Z-0.1676
X0.0433 Y-0.3594 Z-0.1688
X0.042 Y-0.3579 Z-0.1694
X0.0406 Y-0.3564 Z-0.1697
X0.0401 Y-0.3559
G3 X0.009 Y-0.324 I-1.1231 J-1.0601
X-0.009 I-0.009 J-0.009
X-0.0403 Y-0.3561 I1.0921 J-1.0921
X-0.0345 Y-0.3696 I0.0058 J-0.0055
G1 X0.1109 Y-0.37
G3 X0.116 Y-0.3559 I0. J0.008
G2 X0.1065 Y-0.3473 I0.0861 J0.1042
G1 X0. Y-0.2407
X-0.1065 Y-0.3473
G2 X-0.1162 Y-0.356 I-0.0956 J0.0956
G3 X-0.1118 Y-0.3702 I0.0051 J-0.0062
G1 X0.0469 Y-0.3835
G3 X0.0534 Y-0.3701 I0.0007 J0.008
G1 X0.052 Y-0.3686 Z-0.1699
X0.0506 Y-0.3671 Z-0.1706
X0.0494 Y-0.3658 Z-0.1717
X0.0484 Y-0.3647 Z-0.1732
X0.0476 Y-0.3639 Z-0.175
X0.0472 Y-0.3634 Z-0.177
X0.047 Y-0.3633 Z-0.1791
Z-0.1797
X0.0468 Y-0.3631 Z-0.1818
X0.0464 Y-0.3626 Z-0.1838
X0.0456 Y-0.3618 Z-0.1855
X0.0446 Y-0.3607 Z-0.187
X0.0433 Y-0.3594 Z-0.1881
X0.042 Y-0.3579 Z-0.1888
X0.0406 Y-0.3564 Z-0.1891
X0.0401 Y-0.3559
G3 X0.009 Y-0.324 I-1.1231 J-1.0601
X-0.009 I-0.009 J-0.009
X-0.0403 Y-0.3561 I1.0921 J-1.0921
X-0.0345 Y-0.3696 I0.0058 J-0.0055
G1 X0.1109 Y-0.37
G3 X0.116 Y-0.3559 I0. J0.008
G2 X0.1065 Y-0.3473 I0.0861 J0.1042
G1 X0. Y-0.2407
X-0.1065 Y-0.3473
G2 X-0.1162 Y-0.356 I-0.0956 J0.0956
G3 X-0.1118 Y-0.3702 I0.0051 J-0.0062
G1 X0.0469 Y-0.3835
G3 X0.0534 Y-0.3701 I0.0007 J0.008
G1 X0.052 Y-0.3686 Z-0.1893
X0.0506 Y-0.3671 Z-0.19
X0.0494 Y-0.3658 Z-0.1911
X0.0484 Y-0.3647 Z-0.1926
X0.0476 Y-0.3639 Z-0.1944
X0.0472 Y-0.3634 Z-0.1964
X0.047 Y-0.3633 Z-0.1985
Z-0.1991
X0.0468 Y-0.3631 Z-0.2012
X0.0464 Y-0.3626 Z-0.2032
X0.0456 Y-0.3618 Z-0.2049
X0.0446 Y-0.3607 Z-0.2064
X0.0433 Y-0.3594 Z-0.2075
X0.042 Y-0.3579 Z-0.2082
X0.0406 Y-0.3564 Z-0.2085
X0.0401 Y-0.3559
G3 X0.009 Y-0.324 I-1.1231 J-1.0601
X-0.009 I-0.009 J-0.009
X-0.0403 Y-0.3561 I1.0921 J-1.0921
X-0.0345 Y-0.3696 I0.0058 J-0.0055
G1 X0.1109 Y-0.37
G3 X0.116 Y-0.3559 I0. J0.008
G2 X0.1065 Y-0.3473 I0.0861 J0.1042
G1 X0. Y-0.2407
X-0.1065 Y-0.3473
G2 X-0.1162 Y-0.356 I-0.0956 J0.0956
G3 X-0.1118 Y-0.3702 I0.0051 J-0.0062
G1 X0.0469 Y-0.3835
G3 X0.0534 Y-0.3701 I0.0007 J0.008
G1 X0.052 Y-0.3686 Z-0.2087
X0.0506 Y-0.3671 Z-0.2094
X0.0494 Y-0.3658 Z-0.2105
X0.0484 Y-0.3647 Z-0.212
X0.0476 Y-0.3639 Z-0.2138
X0.0472 Y-0.3634 Z-0.2158
X0.047 Y-0.3633 Z-0.2178
Z-0.2185
X0.0468 Y-0.3631 Z-0.2206
X0.0464 Y-0.3626 Z-0.2226
X0.0456 Y-0.3618 Z-0.2243
X0.0446 Y-0.3607 Z-0.2258
X0.0433 Y-0.3594 Z-0.2269
X0.042 Y-0.3579 Z-0.2276
X0.0406 Y-0.3564 Z-0.2279
X0.0401 Y-0.3559
G3 X0.009 Y-0.324 I-1.1231 J-1.0601
X-0.009 I-0.009 J-0.009
X-0.0403 Y-0.3561 I1.0921 J-1.0921
X-0.0345 Y-0.3696 I0.0058 J-0.0055
G1 X0.1109 Y-0.37
G3 X0.116 Y-0.3559 I0. J0.008
G2 X0.1065 Y-0.3473 I0.0861 J0.1042
G1 X0. Y-0.2407
X-0.1065 Y-0.3473
G2 X-0.1162 Y-0.356 I-0.0956 J0.0956
G3 X-0.1118 Y-0.3702 I0.0051 J-0.0062
G1 X0.0469 Y-0.3835
G3 X0.0534 Y-0.3701 I0.0007 J0.008
G1 X0.052 Y-0.3686 Z-0.2281
X0.0506 Y-0.3671 Z-0.2288
X0.0494 Y-0.3658 Z-0.2299
X0.0484 Y-0.3647 Z-0.2314
X0.0476 Y-0.3639 Z-0.2332
X0.0472 Y-0.3634 Z-0.2352
X0.047 Y-0.3633 Z-0.2372
Z-0.2379
X0.0468 Y-0.3631 Z-0.24
X0.0464 Y-0.3626 Z-0.2419
X0.0456 Y-0.3618 Z-0.2437
X0.0446 Y-0.3607 Z-0.2452
X0.0433 Y-0.3594 Z-0.2463
X0.042 Y-0.3579 Z-0.247
X0.0406 Y-0.3564 Z-0.2473
X0.0401 Y-0.3559
G3 X0.009 Y-0.324 I-1.1231 J-1.0601
X-0.009 I-0.009 J-0.009
X-0.0403 Y-0.3561 I1.0921 J-1.0921
X-0.0345 Y-0.3696 I0.0058 J-0.0055
G1 X0.1109 Y-0.37
G3 X0.116 Y-0.3559 I0. J0.008
G2 X0.1065 Y-0.3473 I0.0861 J0.1042
G1 X0. Y-0.2407
X-0.1065 Y-0.3473
G2 X-0.1162 Y-0.356 I-0.0956 J0.0956
G3 X-0.1118 Y-0.3702 I0.0051 J-0.0062
G1 X0.0469 Y-0.3835
G3 X0.0534 Y-0.3701 I0.0007 J0.008
G1 X0.052 Y-0.3686 Z-0.2475
X0.0506 Y-0.3671 Z-0.2482
X0.0494 Y-0.3658 Z-0.2493
X0.0484 Y-0.3647 Z-0.2508
X0.0476 Y-0.3639 Z-0.2526
X0.0472 Y-0.3634 Z-0.2545
X0.047 Y-0.3633 Z-0.2566
Z-0.2573
X0.0468 Y-0.3631 Z-0.2594
X0.0464 Y-0.3626 Z-0.2613
X0.0456 Y-0.3618 Z-0.2631
X0.0446 Y-0.3607 Z-0.2646
X0.0433 Y-0.3594 Z-0.2657
X0.042 Y-0.3579 Z-0.2664
X0.0406 Y-0.3564 Z-0.2667
X0.0401 Y-0.3559
G3 X0.009 Y-0.324 I-1.1231 J-1.0601
X-0.009 I-0.009 J-0.009
X-0.0403 Y-0.3561 I1.0921 J-1.0921
X-0.0345 Y-0.3696 I0.0058 J-0.0055
G1 X0.1109 Y-0.37
G3 X0.116 Y-0.3559 I0. J0.008
G2 X0.1065 Y-0.3473 I0.0861 J0.1042
G1 X0. Y-0.2407
X-0.1065 Y-0.3473
G2 X-0.1162 Y-0.356 I-0.0956 J0.0956
G3 X-0.086 Y-0.4349 Z-0.2685 I0.0283 J-0.0344 F24.
G1 X0.0095 Y-0.431 Z-0.27
G3 X0.0401 Y-0.3559 Z-0.2716 I-0.0018 J0.0445
X0.009 Y-0.324 I-1.1231 J-1.0601 F72.
X-0.009 I-0.009 J-0.009
X-0.0403 Y-0.3561 I1.0921 J-1.0921
X-0.0345 Y-0.3696 I0.0058 J-0.0055
G1 X0.1109 Y-0.37
G3 X0.116 Y-0.3559 I0. J0.008
G2 X0.1065 Y-0.3473 I0.0861 J0.1042
G1 X0. Y-0.2407
X-0.1065 Y-0.3473
G2 X-0.1162 Y-0.356 I-0.0956 J0.0956
G1 X-0.1235 Y-0.3621
X-0.1251 Y-0.3634 Z-0.2714
X-0.1267 Y-0.3647 Z-0.2707
X-0.1281 Y-0.3658 Z-0.2696
X-0.1292 Y-0.3667 Z-0.2681
X-0.1301 Y-0.3674 Z-0.2663
X-0.1306 Y-0.3679 Z-0.2644
X-0.1308 Y-0.368 Z-0.2623
Z0.6
M5
M9
G53 G0 Z0.
G49

(******************************************************************************)
(INSIDE POCKET OPERATION)
G90 G94 G17 G49
G20
G53 G0 Z0.

(2D POCKET5)
S18000 M3
G90 G94 G17
G54
M8
G0 X0.3757 Y-0.0848
G43 Z0.3703 H3
G1 Z0.0866 F72.
Z-0.004 F24.
X0.3769 Y-0.0847 Z-0.0086
X0.3801 Y-0.0841 Z-0.012
X0.3845 Y-0.0828 Z-0.0134
G3 X0.3562 Y0.0017 Z-0.0183 I-0.0141 J0.0423
X0.3845 Y-0.0828 Z-0.0231 I0.0141 J-0.0423
X0.3562 Y0.0017 Z-0.028 I-0.0141 J0.0423
X0.3845 Y-0.0828 Z-0.0329 I0.0141 J-0.0423
X0.3562 Y0.0017 Z-0.0378 I-0.0141 J0.0423
X0.3845 Y-0.0828 Z-0.0427 I0.0141 J-0.0423
X0.3562 Y0.0017 Z-0.0476 I-0.0141 J0.0423
X0.3845 Y-0.0828 Z-0.0525 I0.0141 J-0.0423
X0.3562 Y0.0017 Z-0.0574 I-0.0141 J0.0423
X0.3845 Y-0.0828 Z-0.0623 I0.0141 J-0.0423
X0.3562 Y0.0017 Z-0.0671 I-0.0141 J0.0423
X0.3845 Y-0.0828 Z-0.072 I0.0141 J-0.0423
X0.3562 Y0.0017 Z-0.0769 I-0.0141 J0.0423
X0.3845 Y-0.0828 Z-0.0818 I0.0141 J-0.0423
X0.3562 Y0.0017 Z-0.0867 I-0.0141 J0.0423
X0.3845 Y-0.0828 Z-0.0916 I0.0141 J-0.0423
X0.3562 Y0.0017 Z-0.0965 I-0.0141 J0.0423
X0.3845 Y-0.0828 Z-0.1014 I0.0141 J-0.0423
X0.3562 Y0.0017 Z-0.1062 I-0.0141 J0.0423
X0.3845 Y-0.0828 Z-0.1111 I0.0141 J-0.0423
X0.3562 Y0.0017 Z-0.116 I-0.0141 J0.0423
X0.3845 Y-0.0828 Z-0.1209 I0.0141 J-0.0423
X0.3562 Y0.0017 Z-0.1258 I-0.0141 J0.0423
X0.3845 Y-0.0828 Z-0.1307 I0.0141 J-0.0423
X0.4149 Y-0.0406 Z-0.1326 I-0.0141 J0.0423
G1 Y-0.0129 F72.
G3 X0.4048 Y-0.0068 I-0.0069 J0.
G2 X0.2676 Y-0.0372 I-0.1215 J0.2235
G1 X0.2659 Y-0.0374
X0.2643 Y-0.0382
X0.2631 Y-0.0395
X0.2624 Y-0.0411
X0.2622 Y-0.0428
X0.2627 Y-0.0445
X0.2637 Y-0.0459
X0.2791 Y-0.0613
X0.281 Y-0.0629
X0.2831 Y-0.064
X0.2854 Y-0.0647
X0.2879 Y-0.0649
X0.4024
G3 X0.4149 Y-0.0524 I0. J0.0125
G1 Y-0.0406
X0.4146 Y-0.0383 Z-0.132
X0.4138 Y-0.0361 Z-0.1314
X0.4128 Y-0.0347 Z-0.1297
X0.4116 Y-0.0335 Z-0.1279
X0.4106 Y-0.0327 Z-0.1232
Z-0.0946
X0.3575 Y-0.0462
Z-0.1326
X0.3565 Y-0.0454
X0.3553 Y-0.0449
X0.2014 Y-0.0067
G2 X0.0612 Y0.0564 I0.1035 J0.4168
G3 X-0.0898 Y0.0856 I-0.1088 J-0.1579
X-0.1795 Y0.0272 I0.0339 J-0.1502
G2 X-0.2627 Y-0.0402 I-0.1734 J0.1289
G1 X-0.2644 Y-0.0407
X-0.2652 Y-0.0411
X-0.2656 Y-0.042
X-0.2655 Y-0.0429
X-0.2649 Y-0.0437
X-0.2641 Y-0.044
X-0.2632 Y-0.0438
X-0.2625 Y-0.0432
X-0.2622 Y-0.0423
X-0.2625 Y-0.0407
X-0.2633 Y-0.0392
X-0.2645 Y-0.0381
X-0.266 Y-0.0374
X-0.2676 Y-0.0372
G2 X-0.4048 Y-0.0068 I-0.0157 J0.2539
G3 X-0.4149 Y-0.0129 I-0.0033 J-0.006
G1 Y-0.0524
G3 X-0.4024 Y-0.0649 I0.0125 J0.
G1 X-0.2879
X-0.2854 Y-0.0647
X-0.2831 Y-0.064
X-0.281 Y-0.0629
X-0.2791 Y-0.0613
X-0.2637 Y-0.0459
X-0.2629 Y-0.0449
X-0.2624 Y-0.0436
X-0.2622 Y-0.0423
G2 X-0.1937 Y0.015 I0.0581 J0.0002
G3 X-0.1075 Y0.038 I0.0187 J0.1026
G2 X0.1175 Y0.0288 I0.1075 J-0.1267
X0.182 Y-0.0369 I-3.3338 J-3.3338
G3 X0.2465 Y-0.1027 I3.3983 J3.268
X0.2817 Y-0.1173 I0.0352 J0.0352
G1 X0.4545
G3 X0.4672 Y-0.1045 I0. J0.0128
G1 Y0.1117
G3 X0.4575 Y0.1144 I-0.0052 J0.
G2 X0.1156 Y0.1039 I-0.1742 J0.1023
G3 X0.0906 Y0.1173 I-0.025 J-0.0168
G1 X-0.0906
G3 X-0.1156 Y0.1039 I0. J-0.0302
G2 X-0.4575 Y0.1144 I-0.1677 J0.1127
G3 X-0.4672 Y0.1117 I-0.0045 J-0.0026
G1 Y-0.1045
G3 X-0.4545 Y-0.1173 I0.0128 J0.
G1 X-0.2817
G3 X-0.2465 Y-0.1027 I0. J0.0497
G1 X-0.113 Y0.0332
X-0.1075 Y0.038
G2 X-0.0511 Y0.0408 I0.03 J-0.0353
G3 X0.0027 Y0.0232 I0.0561 J0.0807
G2 X0.0791 Y-0.0095 I-0.0027 J-0.1119
G1 X0.234 Y-0.1644
G3 X0.2468 Y-0.1697 I0.0128 J0.0128
G1 X0.5016
G3 X0.5197 Y-0.1517 I0. J0.0181
G1 Y0.1517
G3 X0.5016 Y0.1697 I-0.0181 J0.
G1 X0.4378
G3 X0.4212 Y0.1587 I0. J-0.0181
G2 X0.1454 I-0.1379 J0.058
G3 X0.1288 Y0.1697 I-0.0167 J-0.007
G1 X-0.1288
G3 X-0.1454 Y0.1587 I0. J-0.0181
G2 X-0.4212 I-0.1379 J0.058
G3 X-0.4378 Y0.1697 I-0.0167 J-0.007
G1 X-0.5016
G3 X-0.5197 Y0.1517 I0. J-0.0181
G1 Y-0.1517
G3 X-0.5016 Y-0.1697 I0.0181 J0.
G1 X-0.2468
G3 X-0.234 Y-0.1644 I0. J0.0181
G1 X-0.0791 Y-0.0095
G2 X0.0027 Y0.0232 I0.0791 J-0.0791
G1 X0.0039 Y0.0233
X0.005 Y0.0238
X0.006 Y0.0245
X0.0294 Y0.0464
X0.0307 Y0.0472
X0.0321 Y0.0476
X0.0336 Y0.0475
X0.3968 Y-0.0319
X0.4105 Y-0.0355
X0.4116 Y-0.0356
X0.4127 Y-0.0352
X0.4136 Y-0.0344
X0.4141 Y-0.0333
Y-0.0321
G3 X0.3266 Y-0.0491 Z-0.1375 I-0.0437 J-0.0085 F24.
X0.4141 Y-0.0321 Z-0.1424 I0.0437 J0.0085
X0.3266 Y-0.0491 Z-0.1473 I-0.0437 J-0.0085
X0.4149 Y-0.0406 Z-0.1519 I0.0437 J0.0085
G1 Y-0.0129 F72.
G3 X0.4048 Y-0.0068 I-0.0069 J0.
G2 X0.2676 Y-0.0372 I-0.1215 J0.2235
G1 X0.2659 Y-0.0374
X0.2643 Y-0.0382
X0.2631 Y-0.0395
X0.2624 Y-0.0411
X0.2622 Y-0.0428
X0.2627 Y-0.0445
X0.2637 Y-0.0459
X0.2791 Y-0.0613
X0.281 Y-0.0629
X0.2831 Y-0.064
X0.2854 Y-0.0647
X0.2879 Y-0.0649
X0.4024
G3 X0.4149 Y-0.0524 I0. J0.0125
G1 Y-0.0406
X0.4146 Y-0.0383 Z-0.1512
X0.4138 Y-0.0361 Z-0.1506
X0.4128 Y-0.0347 Z-0.1489
X0.4116 Y-0.0335 Z-0.1472
X0.4106 Y-0.0327 Z-0.1425
Z-0.1139
X0.3575 Y-0.0462
Z-0.1519
X0.3565 Y-0.0454
X0.3553 Y-0.0449
X0.2014 Y-0.0067
G2 X0.0612 Y0.0564 I0.1035 J0.4168
G3 X-0.0898 Y0.0856 I-0.1088 J-0.1579
X-0.1795 Y0.0272 I0.0339 J-0.1502
G2 X-0.2627 Y-0.0402 I-0.1734 J0.1289
G1 X-0.2644 Y-0.0407
X-0.2652 Y-0.0411
X-0.2656 Y-0.042
X-0.2655 Y-0.0429
X-0.2649 Y-0.0437
X-0.2641 Y-0.044
X-0.2632 Y-0.0438
X-0.2625 Y-0.0432
X-0.2622 Y-0.0423
X-0.2625 Y-0.0407
X-0.2633 Y-0.0392
X-0.2645 Y-0.0381
X-0.266 Y-0.0374
X-0.2676 Y-0.0372
G2 X-0.4048 Y-0.0068 I-0.0157 J0.2539
G3 X-0.4149 Y-0.0129 I-0.0033 J-0.006
G1 Y-0.0524
G3 X-0.4024 Y-0.0649 I0.0125 J0.
G1 X-0.2879
X-0.2854 Y-0.0647
X-0.2831 Y-0.064
X-0.281 Y-0.0629
X-0.2791 Y-0.0613
X-0.2637 Y-0.0459
X-0.2629 Y-0.0449
X-0.2624 Y-0.0436
X-0.2622 Y-0.0423
G2 X-0.1937 Y0.015 I0.0581 J0.0002
G3 X-0.1075 Y0.038 I0.0187 J0.1026
G2 X0.1175 Y0.0288 I0.1075 J-0.1267
X0.182 Y-0.0369 I-3.3338 J-3.3338
G3 X0.2465 Y-0.1027 I3.3983 J3.268
X0.2817 Y-0.1173 I0.0352 J0.0352
G1 X0.4545
G3 X0.4672 Y-0.1045 I0. J0.0128
G1 Y0.1117
G3 X0.4575 Y0.1144 I-0.0052 J0.
G2 X0.1156 Y0.1039 I-0.1742 J0.1023
G3 X0.0906 Y0.1173 I-0.025 J-0.0168
G1 X-0.0906
G3 X-0.1156 Y0.1039 I0. J-0.0302
G2 X-0.4575 Y0.1144 I-0.1677 J0.1127
G3 X-0.4672 Y0.1117 I-0.0045 J-0.0026
G1 Y-0.1045
G3 X-0.4545 Y-0.1173 I0.0128 J0.
G1 X-0.2817
G3 X-0.2465 Y-0.1027 I0. J0.0497
G1 X-0.113 Y0.0332
X-0.1075 Y0.038
G2 X-0.0511 Y0.0408 I0.03 J-0.0353
G3 X0.0027 Y0.0232 I0.0561 J0.0807
G2 X0.0791 Y-0.0095 I-0.0027 J-0.1119
G1 X0.234 Y-0.1644
G3 X0.2468 Y-0.1697 I0.0128 J0.0128
G1 X0.5016
G3 X0.5197 Y-0.1517 I0. J0.0181
G1 Y0.1517
G3 X0.5016 Y0.1697 I-0.0181 J0.
G1 X0.4378
G3 X0.4212 Y0.1587 I0. J-0.0181
G2 X0.1454 I-0.1379 J0.058
G3 X0.1288 Y0.1697 I-0.0167 J-0.007
G1 X-0.1288
G3 X-0.1454 Y0.1587 I0. J-0.0181
G2 X-0.4212 I-0.1379 J0.058
G3 X-0.4378 Y0.1697 I-0.0167 J-0.007
G1 X-0.5016
G3 X-0.5197 Y0.1517 I0. J-0.0181
G1 Y-0.1517
G3 X-0.5016 Y-0.1697 I0.0181 J0.
G1 X-0.2468
G3 X-0.234 Y-0.1644 I0. J0.0181
G1 X-0.0791 Y-0.0095
G2 X0.0027 Y0.0232 I0.0791 J-0.0791
G1 X0.0039 Y0.0233
X0.005 Y0.0238
X0.006 Y0.0245
X0.0294 Y0.0464
X0.0307 Y0.0472
X0.0321 Y0.0476
X0.0336 Y0.0475
X0.3968 Y-0.0319
X0.4105 Y-0.0355
X0.4116 Y-0.0356
X0.4127 Y-0.0352
X0.4136 Y-0.0344
X0.4141 Y-0.0333
Y-0.0321
G3 X0.3266 Y-0.0491 Z-0.1568 I-0.0437 J-0.0085 F24.
X0.4141 Y-0.0321 Z-0.1617 I0.0437 J0.0085
X0.3266 Y-0.0491 Z-0.1665 I-0.0437 J-0.0085
X0.4149 Y-0.0406 Z-0.1711 I0.0437 J0.0085
G1 Y-0.0129 F72.
G3 X0.4048 Y-0.0068 I-0.0069 J0.
G2 X0.2676 Y-0.0372 I-0.1215 J0.2235
G1 X0.2659 Y-0.0374
X0.2643 Y-0.0382
X0.2631 Y-0.0395
X0.2624 Y-0.0411
X0.2622 Y-0.0428
X0.2627 Y-0.0445
X0.2637 Y-0.0459
X0.2791 Y-0.0613
X0.281 Y-0.0629
X0.2831 Y-0.064
X0.2854 Y-0.0647
X0.2879 Y-0.0649
X0.4024
G3 X0.4149 Y-0.0524 I0. J0.0125
G1 Y-0.0406
X0.4146 Y-0.0383 Z-0.1705
X0.4138 Y-0.0361 Z-0.1699
X0.4128 Y-0.0347 Z-0.1682
X0.4116 Y-0.0335 Z-0.1664
X0.4106 Y-0.0327 Z-0.1618
Z-0.1331
X0.3575 Y-0.0462
Z-0.1711
X0.3565 Y-0.0454
X0.3553 Y-0.0449
X0.2014 Y-0.0067
G2 X0.0612 Y0.0564 I0.1035 J0.4168
G3 X-0.0898 Y0.0856 I-0.1088 J-0.1579
X-0.1795 Y0.0272 I0.0339 J-0.1502
G2 X-0.2627 Y-0.0402 I-0.1734 J0.1289
G1 X-0.2644 Y-0.0407
X-0.2652 Y-0.0411
X-0.2656 Y-0.042
X-0.2655 Y-0.0429
X-0.2649 Y-0.0437
X-0.2641 Y-0.044
X-0.2632 Y-0.0438
X-0.2625 Y-0.0432
X-0.2622 Y-0.0423
X-0.2625 Y-0.0407
X-0.2633 Y-0.0392
X-0.2645 Y-0.0381
X-0.266 Y-0.0374
X-0.2676 Y-0.0372
G2 X-0.4048 Y-0.0068 I-0.0157 J0.2539
G3 X-0.4149 Y-0.0129 I-0.0033 J-0.006
G1 Y-0.0524
G3 X-0.4024 Y-0.0649 I0.0125 J0.
G1 X-0.2879
X-0.2854 Y-0.0647
X-0.2831 Y-0.064
X-0.281 Y-0.0629
X-0.2791 Y-0.0613
X-0.2637 Y-0.0459
X-0.2629 Y-0.0449
X-0.2624 Y-0.0436
X-0.2622 Y-0.0423
G2 X-0.1937 Y0.015 I0.0581 J0.0002
G3 X-0.1075 Y0.038 I0.0187 J0.1026
G2 X0.1175 Y0.0288 I0.1075 J-0.1267
X0.182 Y-0.0369 I-3.3338 J-3.3338
G3 X0.2465 Y-0.1027 I3.3983 J3.268
X0.2817 Y-0.1173 I0.0352 J0.0352
G1 X0.4545
G3 X0.4672 Y-0.1045 I0. J0.0128
G1 Y0.1117
G3 X0.4575 Y0.1144 I-0.0052 J0.
G2 X0.1156 Y0.1039 I-0.1742 J0.1023
G3 X0.0906 Y0.1173 I-0.025 J-0.0168
G1 X-0.0906
G3 X-0.1156 Y0.1039 I0. J-0.0302
G2 X-0.4575 Y0.1144 I-0.1677 J0.1127
G3 X-0.4672 Y0.1117 I-0.0045 J-0.0026
G1 Y-0.1045
G3 X-0.4545 Y-0.1173 I0.0128 J0.
G1 X-0.2817
G3 X-0.2465 Y-0.1027 I0. J0.0497
G1 X-0.113 Y0.0332
X-0.1075 Y0.038
G2 X-0.0511 Y0.0408 I0.03 J-0.0353
G3 X0.0027 Y0.0232 I0.0561 J0.0807
G2 X0.0791 Y-0.0095 I-0.0027 J-0.1119
G1 X0.234 Y-0.1644
G3 X0.2468 Y-0.1697 I0.0128 J0.0128
G1 X0.5016
G3 X0.5197 Y-0.1517 I0. J0.0181
G1 Y0.1517
G3 X0.5016 Y0.1697 I-0.0181 J0.
G1 X0.4378
G3 X0.4212 Y0.1587 I0. J-0.0181
G2 X0.1454 I-0.1379 J0.058
G3 X0.1288 Y0.1697 I-0.0167 J-0.007
G1 X-0.1288
G3 X-0.1454 Y0.1587 I0. J-0.0181
G2 X-0.4212 I-0.1379 J0.058
G3 X-0.4378 Y0.1697 I-0.0167 J-0.007
G1 X-0.5016
G3 X-0.5197 Y0.1517 I0. J-0.0181
G1 Y-0.1517
G3 X-0.5016 Y-0.1697 I0.0181 J0.
G1 X-0.2468
G3 X-0.234 Y-0.1644 I0. J0.0181
G1 X-0.0791 Y-0.0095
G2 X0.0027 Y0.0232 I0.0791 J-0.0791
G1 X0.0039 Y0.0233
X0.005 Y0.0238
X0.006 Y0.0245
X0.0294 Y0.0464
X0.0307 Y0.0472
X0.0321 Y0.0476
X0.0336 Y0.0475
X0.3968 Y-0.0319
X0.4105 Y-0.0355
X0.4116 Y-0.0356
X0.4127 Y-0.0352
X0.4136 Y-0.0344
X0.4141 Y-0.0333
Y-0.0321
G3 X0.3266 Y-0.0491 Z-0.176 I-0.0437 J-0.0085 F24.
X0.4141 Y-0.0321 Z-0.1809 I0.0437 J0.0085
X0.3266 Y-0.0491 Z-0.1858 I-0.0437 J-0.0085
X0.4149 Y-0.0406 Z-0.1904 I0.0437 J0.0085
G1 Y-0.0129 F72.
G3 X0.4048 Y-0.0068 I-0.0069 J0.
G2 X0.2676 Y-0.0372 I-0.1215 J0.2235
G1 X0.2659 Y-0.0374
X0.2643 Y-0.0382
X0.2631 Y-0.0395
X0.2624 Y-0.0411
X0.2622 Y-0.0428
X0.2627 Y-0.0445
X0.2637 Y-0.0459
X0.2791 Y-0.0613
X0.281 Y-0.0629
X0.2831 Y-0.064
X0.2854 Y-0.0647
X0.2879 Y-0.0649
X0.4024
G3 X0.4149 Y-0.0524 I0. J0.0125
G1 Y-0.0406
X0.4146 Y-0.0383 Z-0.1898
X0.4138 Y-0.0361 Z-0.1891
X0.4128 Y-0.0347 Z-0.1874
X0.4116 Y-0.0335 Z-0.1857
X0.4106 Y-0.0327 Z-0.181
Z-0.1524
X0.3575 Y-0.0462
Z-0.1904
X0.3565 Y-0.0454
X0.3553 Y-0.0449
X0.2014 Y-0.0067
G2 X0.0612 Y0.0564 I0.1035 J0.4168
G3 X-0.0898 Y0.0856 I-0.1088 J-0.1579
X-0.1795 Y0.0272 I0.0339 J-0.1502
G2 X-0.2627 Y-0.0402 I-0.1734 J0.1289
G1 X-0.2644 Y-0.0407
X-0.2652 Y-0.0411
X-0.2656 Y-0.042
X-0.2655 Y-0.0429
X-0.2649 Y-0.0437
X-0.2641 Y-0.044
X-0.2632 Y-0.0438
X-0.2625 Y-0.0432
X-0.2622 Y-0.0423
X-0.2625 Y-0.0407
X-0.2633 Y-0.0392
X-0.2645 Y-0.0381
X-0.266 Y-0.0374
X-0.2676 Y-0.0372
G2 X-0.4048 Y-0.0068 I-0.0157 J0.2539
G3 X-0.4149 Y-0.0129 I-0.0033 J-0.006
G1 Y-0.0524
G3 X-0.4024 Y-0.0649 I0.0125 J0.
G1 X-0.2879
X-0.2854 Y-0.0647
X-0.2831 Y-0.064
X-0.281 Y-0.0629
X-0.2791 Y-0.0613
X-0.2637 Y-0.0459
X-0.2629 Y-0.0449
X-0.2624 Y-0.0436
X-0.2622 Y-0.0423
G2 X-0.1937 Y0.015 I0.0581 J0.0002
G3 X-0.1075 Y0.038 I0.0187 J0.1026
G2 X0.1175 Y0.0288 I0.1075 J-0.1267
X0.182 Y-0.0369 I-3.3338 J-3.3338
G3 X0.2465 Y-0.1027 I3.3983 J3.268
X0.2817 Y-0.1173 I0.0352 J0.0352
G1 X0.4545
G3 X0.4672 Y-0.1045 I0. J0.0128
G1 Y0.1117
G3 X0.4575 Y0.1144 I-0.0052 J0.
G2 X0.1156 Y0.1039 I-0.1742 J0.1023
G3 X0.0906 Y0.1173 I-0.025 J-0.0168
G1 X-0.0906
G3 X-0.1156 Y0.1039 I0. J-0.0302
G2 X-0.4575 Y0.1144 I-0.1677 J0.1127
G3 X-0.4672 Y0.1117 I-0.0045 J-0.0026
G1 Y-0.1045
G3 X-0.4545 Y-0.1173 I0.0128 J0.
G1 X-0.2817
G3 X-0.2465 Y-0.1027 I0. J0.0497
G1 X-0.113 Y0.0332
X-0.1075 Y0.038
G2 X-0.0511 Y0.0408 I0.03 J-0.0353
G3 X0.0027 Y0.0232 I0.0561 J0.0807
G2 X0.0791 Y-0.0095 I-0.0027 J-0.1119
G1 X0.234 Y-0.1644
G3 X0.2468 Y-0.1697 I0.0128 J0.0128
G1 X0.5016
G3 X0.5197 Y-0.1517 I0. J0.0181
G1 Y0.1517
G3 X0.5016 Y0.1697 I-0.0181 J0.
G1 X0.4378
G3 X0.4212 Y0.1587 I0. J-0.0181
G2 X0.1454 I-0.1379 J0.058
G3 X0.1288 Y0.1697 I-0.0167 J-0.007
G1 X-0.1288
G3 X-0.1454 Y0.1587 I0. J-0.0181
G2 X-0.4212 I-0.1379 J0.058
G3 X-0.4378 Y0.1697 I-0.0167 J-0.007
G1 X-0.5016
G3 X-0.5197 Y0.1517 I0. J-0.0181
G1 Y-0.1517
G3 X-0.5016 Y-0.1697 I0.0181 J0.
G1 X-0.2468
G3 X-0.234 Y-0.1644 I0. J0.0181
G1 X-0.0791 Y-0.0095
G2 X0.0027 Y0.0232 I0.0791 J-0.0791
G1 X0.0039 Y0.0233
X0.005 Y0.0238
X0.006 Y0.0245
X0.0294 Y0.0464
X0.0307 Y0.0472
X0.0321 Y0.0476
X0.0336 Y0.0475
X0.3968 Y-0.0319
X0.4105 Y-0.0355
X0.4116 Y-0.0356
X0.4127 Y-0.0352
X0.4136 Y-0.0344
X0.4141 Y-0.0333
Y-0.0321
G3 X0.3266 Y-0.0491 Z-0.1953 I-0.0437 J-0.0085 F24.
X0.4141 Y-0.0321 Z-0.2002 I0.0437 J0.0085
X0.3266 Y-0.0491 Z-0.205 I-0.0437 J-0.0085
X0.4149 Y-0.0406 Z-0.2096 I0.0437 J0.0085
G1 Y-0.0129 F72.
G3 X0.4048 Y-0.0068 I-0.0069 J0.
G2 X0.2676 Y-0.0372 I-0.1215 J0.2235
G1 X0.2659 Y-0.0374
X0.2643 Y-0.0382
X0.2631 Y-0.0395
X0.2624 Y-0.0411
X0.2622 Y-0.0428
X0.2627 Y-0.0445
X0.2637 Y-0.0459
X0.2791 Y-0.0613
X0.281 Y-0.0629
X0.2831 Y-0.064
X0.2854 Y-0.0647
X0.2879 Y-0.0649
X0.4024
G3 X0.4149 Y-0.0524 I0. J0.0125
G1 Y-0.0406
X0.4146 Y-0.0383 Z-0.209
X0.4138 Y-0.0361 Z-0.2084
X0.4128 Y-0.0347 Z-0.2067
X0.4116 Y-0.0335 Z-0.2049
X0.4106 Y-0.0327 Z-0.2003
Z-0.1716
X0.3575 Y-0.0462
Z-0.2096
X0.3565 Y-0.0454
X0.3553 Y-0.0449
X0.2014 Y-0.0067
G2 X0.0612 Y0.0564 I0.1035 J0.4168
G3 X-0.0898 Y0.0856 I-0.1088 J-0.1579
X-0.1795 Y0.0272 I0.0339 J-0.1502
G2 X-0.2627 Y-0.0402 I-0.1734 J0.1289
G1 X-0.2644 Y-0.0407
X-0.2652 Y-0.0411
X-0.2656 Y-0.042
X-0.2655 Y-0.0429
X-0.2649 Y-0.0437
X-0.2641 Y-0.044
X-0.2632 Y-0.0438
X-0.2625 Y-0.0432
X-0.2622 Y-0.0423
X-0.2625 Y-0.0407
X-0.2633 Y-0.0392
X-0.2645 Y-0.0381
X-0.266 Y-0.0374
X-0.2676 Y-0.0372
G2 X-0.4048 Y-0.0068 I-0.0157 J0.2539
G3 X-0.4149 Y-0.0129 I-0.0033 J-0.006
G1 Y-0.0524
G3 X-0.4024 Y-0.0649 I0.0125 J0.
G1 X-0.2879
X-0.2854 Y-0.0647
X-0.2831 Y-0.064
X-0.281 Y-0.0629
X-0.2791 Y-0.0613
X-0.2637 Y-0.0459
X-0.2629 Y-0.0449
X-0.2624 Y-0.0436
X-0.2622 Y-0.0423
G2 X-0.1937 Y0.015 I0.0581 J0.0002
G3 X-0.1075 Y0.038 I0.0187 J0.1026
G2 X0.1175 Y0.0288 I0.1075 J-0.1267
X0.182 Y-0.0369 I-3.3338 J-3.3338
G3 X0.2465 Y-0.1027 I3.3983 J3.268
X0.2817 Y-0.1173 I0.0352 J0.0352
G1 X0.4545
G3 X0.4672 Y-0.1045 I0. J0.0128
G1 Y0.1117
G3 X0.4575 Y0.1144 I-0.0052 J0.
G2 X0.1156 Y0.1039 I-0.1742 J0.1023
G3 X0.0906 Y0.1173 I-0.025 J-0.0168
G1 X-0.0906
G3 X-0.1156 Y0.1039 I0. J-0.0302
G2 X-0.4575 Y0.1144 I-0.1677 J0.1127
G3 X-0.4672 Y0.1117 I-0.0045 J-0.0026
G1 Y-0.1045
G3 X-0.4545 Y-0.1173 I0.0128 J0.
G1 X-0.2817
G3 X-0.2465 Y-0.1027 I0. J0.0497
G1 X-0.113 Y0.0332
X-0.1075 Y0.038
G2 X-0.0511 Y0.0408 I0.03 J-0.0353
G3 X0.0027 Y0.0232 I0.0561 J0.0807
G2 X0.0791 Y-0.0095 I-0.0027 J-0.1119
G1 X0.234 Y-0.1644
G3 X0.2468 Y-0.1697 I0.0128 J0.0128
G1 X0.5016
G3 X0.5197 Y-0.1517 I0. J0.0181
G1 Y0.1517
G3 X0.5016 Y0.1697 I-0.0181 J0.
G1 X0.4378
G3 X0.4212 Y0.1587 I0. J-0.0181
G2 X0.1454 I-0.1379 J0.058
G3 X0.1288 Y0.1697 I-0.0167 J-0.007
G1 X-0.1288
G3 X-0.1454 Y0.1587 I0. J-0.0181
G2 X-0.4212 I-0.1379 J0.058
G3 X-0.4378 Y0.1697 I-0.0167 J-0.007
G1 X-0.5016
G3 X-0.5197 Y0.1517 I0. J-0.0181
G1 Y-0.1517
G3 X-0.5016 Y-0.1697 I0.0181 J0.
G1 X-0.2468
G3 X-0.234 Y-0.1644 I0. J0.0181
G1 X-0.0791 Y-0.0095
G2 X0.0027 Y0.0232 I0.0791 J-0.0791
G1 X0.0039 Y0.0233
X0.005 Y0.0238
X0.006 Y0.0245
X0.0294 Y0.0464
X0.0307 Y0.0472
X0.0321 Y0.0476
X0.0336 Y0.0475
X0.3968 Y-0.0319
X0.4105 Y-0.0355
X0.4116 Y-0.0356
X0.4127 Y-0.0352
X0.4136 Y-0.0344
X0.4141 Y-0.0333
Y-0.0321
G3 X0.3266 Y-0.0491 Z-0.2145 I-0.0437 J-0.0085 F24.
X0.4141 Y-0.0321 Z-0.2194 I0.0437 J0.0085
X0.3266 Y-0.0491 Z-0.2243 I-0.0437 J-0.0085
X0.4149 Y-0.0406 Z-0.2289 I0.0437 J0.0085
G1 Y-0.0129 F72.
G3 X0.4048 Y-0.0068 I-0.0069 J0.
G2 X0.2676 Y-0.0372 I-0.1215 J0.2235
G1 X0.2659 Y-0.0374
X0.2643 Y-0.0382
X0.2631 Y-0.0395
X0.2624 Y-0.0411
X0.2622 Y-0.0428
X0.2627 Y-0.0445
X0.2637 Y-0.0459
X0.2791 Y-0.0613
X0.281 Y-0.0629
X0.2831 Y-0.064
X0.2854 Y-0.0647
X0.2879 Y-0.0649
X0.4024
G3 X0.4149 Y-0.0524 I0. J0.0125
G1 Y-0.0406
X0.4146 Y-0.0383 Z-0.2283
X0.4138 Y-0.0361 Z-0.2276
X0.4128 Y-0.0347 Z-0.2259
X0.4116 Y-0.0335 Z-0.2242
X0.4106 Y-0.0327 Z-0.2195
Z-0.1909
X0.3575 Y-0.0462
Z-0.2289
X0.3565 Y-0.0454
X0.3553 Y-0.0449
X0.2014 Y-0.0067
G2 X0.0612 Y0.0564 I0.1035 J0.4168
G3 X-0.0898 Y0.0856 I-0.1088 J-0.1579
X-0.1795 Y0.0272 I0.0339 J-0.1502
G2 X-0.2627 Y-0.0402 I-0.1734 J0.1289
G1 X-0.2644 Y-0.0407
X-0.2652 Y-0.0411
X-0.2656 Y-0.042
X-0.2655 Y-0.0429
X-0.2649 Y-0.0437
X-0.2641 Y-0.044
X-0.2632 Y-0.0438
X-0.2625 Y-0.0432
X-0.2622 Y-0.0423
X-0.2625 Y-0.0407
X-0.2633 Y-0.0392
X-0.2645 Y-0.0381
X-0.266 Y-0.0374
X-0.2676 Y-0.0372
G2 X-0.4048 Y-0.0068 I-0.0157 J0.2539
G3 X-0.4149 Y-0.0129 I-0.0033 J-0.006
G1 Y-0.0524
G3 X-0.4024 Y-0.0649 I0.0125 J0.
G1 X-0.2879
X-0.2854 Y-0.0647
X-0.2831 Y-0.064
X-0.281 Y-0.0629
X-0.2791 Y-0.0613
X-0.2637 Y-0.0459
X-0.2629 Y-0.0449
X-0.2624 Y-0.0436
X-0.2622 Y-0.0423
G2 X-0.1937 Y0.015 I0.0581 J0.0002
G3 X-0.1075 Y0.038 I0.0187 J0.1026
G2 X0.1175 Y0.0288 I0.1075 J-0.1267
X0.182 Y-0.0369 I-3.3338 J-3.3338
G3 X0.2465 Y-0.1027 I3.3983 J3.268
X0.2817 Y-0.1173 I0.0352 J0.0352
G1 X0.4545
G3 X0.4672 Y-0.1045 I0. J0.0128
G1 Y0.1117
G3 X0.4575 Y0.1144 I-0.0052 J0.
G2 X0.1156 Y0.1039 I-0.1742 J0.1023
G3 X0.0906 Y0.1173 I-0.025 J-0.0168
G1 X-0.0906
G3 X-0.1156 Y0.1039 I0. J-0.0302
G2 X-0.4575 Y0.1144 I-0.1677 J0.1127
G3 X-0.4672 Y0.1117 I-0.0045 J-0.0026
G1 Y-0.1045
G3 X-0.4545 Y-0.1173 I0.0128 J0.
G1 X-0.2817
G3 X-0.2465 Y-0.1027 I0. J0.0497
G1 X-0.113 Y0.0332
X-0.1075 Y0.038
G2 X-0.0511 Y0.0408 I0.03 J-0.0353
G3 X0.0027 Y0.0232 I0.0561 J0.0807
G2 X0.0791 Y-0.0095 I-0.0027 J-0.1119
G1 X0.234 Y-0.1644
G3 X0.2468 Y-0.1697 I0.0128 J0.0128
G1 X0.5016
G3 X0.5197 Y-0.1517 I0. J0.0181
G1 Y0.1517
G3 X0.5016 Y0.1697 I-0.0181 J0.
G1 X0.4378
G3 X0.4212 Y0.1587 I0. J-0.0181
G2 X0.1454 I-0.1379 J0.058
G3 X0.1288 Y0.1697 I-0.0167 J-0.007
G1 X-0.1288
G3 X-0.1454 Y0.1587 I0. J-0.0181
G2 X-0.4212 I-0.1379 J0.058
G3 X-0.4378 Y0.1697 I-0.0167 J-0.007
G1 X-0.5016
G3 X-0.5197 Y0.1517 I0. J-0.0181
G1 Y-0.1517
G3 X-0.5016 Y-0.1697 I0.0181 J0.
G1 X-0.2468
G3 X-0.234 Y-0.1644 I0. J0.0181
G1 X-0.0791 Y-0.0095
G2 X0.0027 Y0.0232 I0.0791 J-0.0791
G1 X0.0039 Y0.0233
X0.005 Y0.0238
X0.006 Y0.0245
X0.0294 Y0.0464
X0.0307 Y0.0472
X0.0321 Y0.0476
X0.0336 Y0.0475
X0.3968 Y-0.0319
X0.4105 Y-0.0355
X0.4116 Y-0.0356
X0.4127 Y-0.0352
X0.4136 Y-0.0344
X0.4141 Y-0.0333
Y-0.0321
G3 X0.3266 Y-0.0491 Z-0.2338 I-0.0437 J-0.0085 F24.
X0.4141 Y-0.0321 Z-0.2387 I0.0437 J0.0085
X0.3266 Y-0.0491 Z-0.2436 I-0.0437 J-0.0085
X0.4149 Y-0.0406 Z-0.2481 I0.0437 J0.0085
G1 Y-0.0129 F72.
G3 X0.4048 Y-0.0068 I-0.0069 J0.
G2 X0.2676 Y-0.0372 I-0.1215 J0.2235
G1 X0.2659 Y-0.0374
X0.2643 Y-0.0382
X0.2631 Y-0.0395
X0.2624 Y-0.0411
X0.2622 Y-0.0428
X0.2627 Y-0.0445
X0.2637 Y-0.0459
X0.2791 Y-0.0613
X0.281 Y-0.0629
X0.2831 Y-0.064
X0.2854 Y-0.0647
X0.2879 Y-0.0649
X0.4024
G3 X0.4149 Y-0.0524 I0. J0.0125
G1 Y-0.0406
X0.4146 Y-0.0383 Z-0.2475
X0.4138 Y-0.0361 Z-0.2469
X0.4128 Y-0.0347 Z-0.2452
X0.4116 Y-0.0335 Z-0.2435
X0.4106 Y-0.0327 Z-0.2388
Z-0.2101
X0.3575 Y-0.0462
Z-0.2481
X0.3565 Y-0.0454
X0.3553 Y-0.0449
X0.2014 Y-0.0067
G2 X0.0612 Y0.0564 I0.1035 J0.4168
G3 X-0.0898 Y0.0856 I-0.1088 J-0.1579
X-0.1795 Y0.0272 I0.0339 J-0.1502
G2 X-0.2627 Y-0.0402 I-0.1734 J0.1289
G1 X-0.2644 Y-0.0407
X-0.2652 Y-0.0411
X-0.2656 Y-0.042
X-0.2655 Y-0.0429
X-0.2649 Y-0.0437
X-0.2641 Y-0.044
X-0.2632 Y-0.0438
X-0.2625 Y-0.0432
X-0.2622 Y-0.0423
X-0.2625 Y-0.0407
X-0.2633 Y-0.0392
X-0.2645 Y-0.0381
X-0.266 Y-0.0374
X-0.2676 Y-0.0372
G2 X-0.4048 Y-0.0068 I-0.0157 J0.2539
G3 X-0.4149 Y-0.0129 I-0.0033 J-0.006
G1 Y-0.0524
G3 X-0.4024 Y-0.0649 I0.0125 J0.
G1 X-0.2879
X-0.2854 Y-0.0647
X-0.2831 Y-0.064
X-0.281 Y-0.0629
X-0.2791 Y-0.0613
X-0.2637 Y-0.0459
X-0.2629 Y-0.0449
X-0.2624 Y-0.0436
X-0.2622 Y-0.0423
G2 X-0.1937 Y0.015 I0.0581 J0.0002
G3 X-0.1075 Y0.038 I0.0187 J0.1026
G2 X0.1175 Y0.0288 I0.1075 J-0.1267
X0.182 Y-0.0369 I-3.3338 J-3.3338
G3 X0.2465 Y-0.1027 I3.3983 J3.268
X0.2817 Y-0.1173 I0.0352 J0.0352
G1 X0.4545
G3 X0.4672 Y-0.1045 I0. J0.0128
G1 Y0.1117
G3 X0.4575 Y0.1144 I-0.0052 J0.
G2 X0.1156 Y0.1039 I-0.1742 J0.1023
G3 X0.0906 Y0.1173 I-0.025 J-0.0168
G1 X-0.0906
G3 X-0.1156 Y0.1039 I0. J-0.0302
G2 X-0.4575 Y0.1144 I-0.1677 J0.1127
G3 X-0.4672 Y0.1117 I-0.0045 J-0.0026
G1 Y-0.1045
G3 X-0.4545 Y-0.1173 I0.0128 J0.
G1 X-0.2817
G3 X-0.2465 Y-0.1027 I0. J0.0497
G1 X-0.113 Y0.0332
X-0.1075 Y0.038
G2 X-0.0511 Y0.0408 I0.03 J-0.0353
G3 X0.0027 Y0.0232 I0.0561 J0.0807
G2 X0.0791 Y-0.0095 I-0.0027 J-0.1119
G1 X0.234 Y-0.1644
G3 X0.2468 Y-0.1697 I0.0128 J0.0128
G1 X0.5016
G3 X0.5197 Y-0.1517 I0. J0.0181
G1 Y0.1517
G3 X0.5016 Y0.1697 I-0.0181 J0.
G1 X0.4378
G3 X0.4212 Y0.1587 I0. J-0.0181
G2 X0.1454 I-0.1379 J0.058
G3 X0.1288 Y0.1697 I-0.0167 J-0.007
G1 X-0.1288
G3 X-0.1454 Y0.1587 I0. J-0.0181
G2 X-0.4212 I-0.1379 J0.058
G3 X-0.4378 Y0.1697 I-0.0167 J-0.007
G1 X-0.5016
G3 X-0.5197 Y0.1517 I0. J-0.0181
G1 Y-0.1517
G3 X-0.5016 Y-0.1697 I0.0181 J0.
G1 X-0.2468
G3 X-0.234 Y-0.1644 I0. J0.0181
G1 X-0.0791 Y-0.0095
G2 X0.0027 Y0.0232 I0.0791 J-0.0791
G1 X0.0039 Y0.0233
X0.005 Y0.0238
X0.006 Y0.0245
X0.0294 Y0.0464
X0.0307 Y0.0472
X0.0321 Y0.0476
X0.0336 Y0.0475
X0.3968 Y-0.0319
X0.4105 Y-0.0355
X0.4116 Y-0.0356
X0.4127 Y-0.0352
X0.4136 Y-0.0344
X0.4141 Y-0.0333
Y-0.0321
G3 X0.3266 Y-0.0491 Z-0.253 I-0.0437 J-0.0085 F24.
X0.4141 Y-0.0321 Z-0.2579 I0.0437 J0.0085
X0.3266 Y-0.0491 Z-0.2628 I-0.0437 J-0.0085
X0.4149 Y-0.0406 Z-0.2674 I0.0437 J0.0085
G1 Y-0.0129 F72.
G3 X0.4048 Y-0.0068 I-0.0069 J0.
G2 X0.2676 Y-0.0372 I-0.1215 J0.2235
G1 X0.2659 Y-0.0374
X0.2643 Y-0.0382
X0.2631 Y-0.0395
X0.2624 Y-0.0411
X0.2622 Y-0.0428
X0.2627 Y-0.0445
X0.2637 Y-0.0459
X0.2791 Y-0.0613
X0.281 Y-0.0629
X0.2831 Y-0.064
X0.2854 Y-0.0647
X0.2879 Y-0.0649
X0.4024
G3 X0.4149 Y-0.0524 I0. J0.0125
G1 Y-0.0406
X0.4146 Y-0.0383 Z-0.2668
X0.4138 Y-0.0361 Z-0.2661
X0.4128 Y-0.0347 Z-0.2644
X0.4116 Y-0.0335 Z-0.2627
X0.4106 Y-0.0327 Z-0.258
Z-0.2294
X0.3575 Y-0.0462
Z-0.2674
X0.3565 Y-0.0454
X0.3553 Y-0.0449
X0.2014 Y-0.0067
G2 X0.0612 Y0.0564 I0.1035 J0.4168
G3 X-0.0898 Y0.0856 I-0.1088 J-0.1579
X-0.1795 Y0.0272 I0.0339 J-0.1502
G2 X-0.2627 Y-0.0402 I-0.1734 J0.1289
G1 X-0.2644 Y-0.0407
X-0.2652 Y-0.0411
X-0.2656 Y-0.042
X-0.2655 Y-0.0429
X-0.2649 Y-0.0437
X-0.2641 Y-0.044
X-0.2632 Y-0.0438
X-0.2625 Y-0.0432
X-0.2622 Y-0.0423
X-0.2625 Y-0.0407
X-0.2633 Y-0.0392
X-0.2645 Y-0.0381
X-0.266 Y-0.0374
X-0.2676 Y-0.0372
G2 X-0.4048 Y-0.0068 I-0.0157 J0.2539
G3 X-0.4149 Y-0.0129 I-0.0033 J-0.006
G1 Y-0.0524
G3 X-0.4024 Y-0.0649 I0.0125 J0.
G1 X-0.2879
X-0.2854 Y-0.0647
X-0.2831 Y-0.064
X-0.281 Y-0.0629
X-0.2791 Y-0.0613
X-0.2637 Y-0.0459
X-0.2629 Y-0.0449
X-0.2624 Y-0.0436
X-0.2622 Y-0.0423
G2 X-0.1937 Y0.015 I0.0581 J0.0002
G3 X-0.1075 Y0.038 I0.0187 J0.1026
G2 X0.1175 Y0.0288 I0.1075 J-0.1267
X0.182 Y-0.0369 I-3.3338 J-3.3338
G3 X0.2465 Y-0.1027 I3.3983 J3.268
X0.2817 Y-0.1173 I0.0352 J0.0352
G1 X0.4545
G3 X0.4672 Y-0.1045 I0. J0.0128
G1 Y0.1117
G3 X0.4575 Y0.1144 I-0.0052 J0.
G2 X0.1156 Y0.1039 I-0.1742 J0.1023
G3 X0.0906 Y0.1173 I-0.025 J-0.0168
G1 X-0.0906
G3 X-0.1156 Y0.1039 I0. J-0.0302
G2 X-0.4575 Y0.1144 I-0.1677 J0.1127
G3 X-0.4672 Y0.1117 I-0.0045 J-0.0026
G1 Y-0.1045
G3 X-0.4545 Y-0.1173 I0.0128 J0.
G1 X-0.2817
G3 X-0.2465 Y-0.1027 I0. J0.0497
G1 X-0.113 Y0.0332
X-0.1075 Y0.038
G2 X-0.0511 Y0.0408 I0.03 J-0.0353
G3 X0.0027 Y0.0232 I0.0561 J0.0807
G2 X0.0791 Y-0.0095 I-0.0027 J-0.1119
G1 X0.234 Y-0.1644
G3 X0.2468 Y-0.1697 I0.0128 J0.0128
G1 X0.5016
G3 X0.5197 Y-0.1517 I0. J0.0181
G1 Y0.1517
G3 X0.5016 Y0.1697 I-0.0181 J0.
G1 X0.4378
G3 X0.4212 Y0.1587 I0. J-0.0181
G2 X0.1454 I-0.1379 J0.058
G3 X0.1288 Y0.1697 I-0.0167 J-0.007
G1 X-0.1288
G3 X-0.1454 Y0.1587 I0. J-0.0181
G2 X-0.4212 I-0.1379 J0.058
G3 X-0.4378 Y0.1697 I-0.0167 J-0.007
G1 X-0.5016
G3 X-0.5197 Y0.1517 I0. J-0.0181
G1 Y-0.1517
G3 X-0.5016 Y-0.1697 I0.0181 J0.
G1 X-0.2468
G3 X-0.234 Y-0.1644 I0. J0.0181
G1 X-0.0791 Y-0.0095
G2 X0.0027 Y0.0232 I0.0791 J-0.0791
G1 X0.0039 Y0.0233
X0.005 Y0.0238
X0.006 Y0.0245
X0.0294 Y0.0464
X0.0307 Y0.0472
X0.0321 Y0.0476
X0.0336 Y0.0475
X0.3968 Y-0.0319
X0.4105 Y-0.0355
X0.4116 Y-0.0356
X0.4127 Y-0.0352
X0.4136 Y-0.0344
X0.4141 Y-0.0333
Y-0.0321
G3 X0.3266 Y-0.0491 Z-0.2723 I-0.0437 J-0.0085 F24.
X0.4141 Y-0.0321 Z-0.2772 I0.0437 J0.0085
X0.3266 Y-0.0491 Z-0.2821 I-0.0437 J-0.0085
X0.4149 Y-0.0406 Z-0.2867 I0.0437 J0.0085
G1 Y-0.0129 F72.
G3 X0.4048 Y-0.0068 I-0.0069 J0.
G2 X0.2676 Y-0.0372 I-0.1215 J0.2235
G1 X0.2659 Y-0.0374
X0.2643 Y-0.0382
X0.2631 Y-0.0395
X0.2624 Y-0.0411
X0.2622 Y-0.0428
X0.2627 Y-0.0445
X0.2637 Y-0.0459
X0.2791 Y-0.0613
X0.281 Y-0.0629
X0.2831 Y-0.064
X0.2854 Y-0.0647
X0.2879 Y-0.0649
X0.4024
G3 X0.4149 Y-0.0524 I0. J0.0125
G1 Y-0.0406
X0.4146 Y-0.0383 Z-0.286
X0.4138 Y-0.0361 Z-0.2854
X0.4128 Y-0.0347 Z-0.2837
X0.4116 Y-0.0335 Z-0.282
X0.4106 Y-0.0327 Z-0.2773
Z-0.2486
X0.3575 Y-0.0462
Z-0.2867
X0.3565 Y-0.0454
X0.3553 Y-0.0449
X0.2014 Y-0.0067
G2 X0.0612 Y0.0564 I0.1035 J0.4168
G3 X-0.0898 Y0.0856 I-0.1088 J-0.1579
X-0.1795 Y0.0272 I0.0339 J-0.1502
G2 X-0.2627 Y-0.0402 I-0.1734 J0.1289
G1 X-0.2644 Y-0.0407
X-0.2652 Y-0.0411
X-0.2656 Y-0.042
X-0.2655 Y-0.0429
X-0.2649 Y-0.0437
X-0.2641 Y-0.044
X-0.2632 Y-0.0438
X-0.2625 Y-0.0432
X-0.2622 Y-0.0423
X-0.2625 Y-0.0407
X-0.2633 Y-0.0392
X-0.2645 Y-0.0381
X-0.266 Y-0.0374
X-0.2676 Y-0.0372
G2 X-0.4048 Y-0.0068 I-0.0157 J0.2539
G3 X-0.4149 Y-0.0129 I-0.0033 J-0.006
G1 Y-0.0524
G3 X-0.4024 Y-0.0649 I0.0125 J0.
G1 X-0.2879
X-0.2854 Y-0.0647
X-0.2831 Y-0.064
X-0.281 Y-0.0629
X-0.2791 Y-0.0613
X-0.2637 Y-0.0459
X-0.2629 Y-0.0449
X-0.2624 Y-0.0436
X-0.2622 Y-0.0423
G2 X-0.1937 Y0.015 I0.0581 J0.0002
G3 X-0.1075 Y0.038 I0.0187 J0.1026
G2 X0.1175 Y0.0288 I0.1075 J-0.1267
X0.182 Y-0.0369 I-3.3338 J-3.3338
G3 X0.2465 Y-0.1027 I3.3983 J3.268
X0.2817 Y-0.1173 I0.0352 J0.0352
G1 X0.4545
G3 X0.4672 Y-0.1045 I0. J0.0128
G1 Y0.1117
G3 X0.4575 Y0.1144 I-0.0052 J0.
G2 X0.1156 Y0.1039 I-0.1742 J0.1023
G3 X0.0906 Y0.1173 I-0.025 J-0.0168
G1 X-0.0906
G3 X-0.1156 Y0.1039 I0. J-0.0302
G2 X-0.4575 Y0.1144 I-0.1677 J0.1127
G3 X-0.4672 Y0.1117 I-0.0045 J-0.0026
G1 Y-0.1045
G3 X-0.4545 Y-0.1173 I0.0128 J0.
G1 X-0.2817
G3 X-0.2465 Y-0.1027 I0. J0.0497
G1 X-0.113 Y0.0332
X-0.1075 Y0.038
G2 X-0.0511 Y0.0408 I0.03 J-0.0353
G3 X0.0027 Y0.0232 I0.0561 J0.0807
G2 X0.0791 Y-0.0095 I-0.0027 J-0.1119
G1 X0.234 Y-0.1644
G3 X0.2468 Y-0.1697 I0.0128 J0.0128
G1 X0.5016
G3 X0.5197 Y-0.1517 I0. J0.0181
G1 Y0.1517
G3 X0.5016 Y0.1697 I-0.0181 J0.
G1 X0.4378
G3 X0.4212 Y0.1587 I0. J-0.0181
G2 X0.1454 I-0.1379 J0.058
G3 X0.1288 Y0.1697 I-0.0167 J-0.007
G1 X-0.1288
G3 X-0.1454 Y0.1587 I0. J-0.0181
G2 X-0.4212 I-0.1379 J0.058
G3 X-0.4378 Y0.1697 I-0.0167 J-0.007
G1 X-0.5016
G3 X-0.5197 Y0.1517 I0. J-0.0181
G1 Y-0.1517
G3 X-0.5016 Y-0.1697 I0.0181 J0.
G1 X-0.2468
G3 X-0.234 Y-0.1644 I0. J0.0181
G1 X-0.0791 Y-0.0095
G2 X0.0027 Y0.0232 I0.0791 J-0.0791
G1 X0.0041 Y0.0234
X0.0053 Y0.024
X0.0063 Y0.025
X0.0113 Y0.0317
X0.0122 Y0.0326
X0.0133 Y0.0332
X0.0145 Y0.0335
X0.0157 Y0.0334
X0.3261 Y-0.0359
X0.3259 Y-0.0374
G3 X0.3688 Y-0.0851 Z-0.2891 I0.0444 J-0.0032 F24.
X0.4149 Y-0.0406 Z-0.2916 I0.0016 J0.0445
G1 Y-0.0129 F72.
G3 X0.4048 Y-0.0068 I-0.0069 J0.
G2 X0.2676 Y-0.0372 I-0.1215 J0.2235
G1 X0.2659 Y-0.0374
X0.2643 Y-0.0382
X0.2631 Y-0.0395
X0.2624 Y-0.0411
X0.2622 Y-0.0428
X0.2627 Y-0.0445
X0.2637 Y-0.0459
X0.2791 Y-0.0613
X0.281 Y-0.0629
X0.2831 Y-0.064
X0.2854 Y-0.0647
X0.2879 Y-0.0649
X0.4024
G3 X0.4149 Y-0.0524 I0. J0.0125
G1 Y-0.0406
X0.4146 Y-0.0383 Z-0.291
X0.4138 Y-0.0361 Z-0.2904
X0.4128 Y-0.0347 Z-0.2887
X0.4116 Y-0.0335 Z-0.287
X0.4106 Y-0.0327 Z-0.2823
Z-0.2679
X0.3575 Y-0.0462
Z-0.2916
X0.3565 Y-0.0454
X0.3553 Y-0.0449
X0.2014 Y-0.0067
G2 X0.0612 Y0.0564 I0.1035 J0.4168
G3 X-0.0898 Y0.0856 I-0.1088 J-0.1579
X-0.1795 Y0.0272 I0.0339 J-0.1502
G2 X-0.2627 Y-0.0402 I-0.1734 J0.1289
G1 X-0.2644 Y-0.0407
X-0.2652 Y-0.0411
X-0.2656 Y-0.042
X-0.2655 Y-0.0429
X-0.2649 Y-0.0437
X-0.2641 Y-0.044
X-0.2632 Y-0.0438
X-0.2625 Y-0.0432
X-0.2622 Y-0.0423
X-0.2625 Y-0.0407
X-0.2633 Y-0.0392
X-0.2645 Y-0.0381
X-0.266 Y-0.0374
X-0.2676 Y-0.0372
G2 X-0.4048 Y-0.0068 I-0.0157 J0.2539
G3 X-0.4149 Y-0.0129 I-0.0033 J-0.006
G1 Y-0.0524
G3 X-0.4024 Y-0.0649 I0.0125 J0.
G1 X-0.2879
X-0.2854 Y-0.0647
X-0.2831 Y-0.064
X-0.281 Y-0.0629
X-0.2791 Y-0.0613
X-0.2637 Y-0.0459
X-0.2629 Y-0.0449
X-0.2624 Y-0.0436
X-0.2622 Y-0.0423
G2 X-0.1937 Y0.015 I0.0581 J0.0002
G3 X-0.1075 Y0.038 I0.0187 J0.1026
G2 X0.1175 Y0.0288 I0.1075 J-0.1267
X0.182 Y-0.0369 I-3.3338 J-3.3338
G3 X0.2465 Y-0.1027 I3.3983 J3.268
X0.2817 Y-0.1173 I0.0352 J0.0352
G1 X0.4545
G3 X0.4672 Y-0.1045 I0. J0.0128
G1 Y0.1117
G3 X0.4575 Y0.1144 I-0.0052 J0.
G2 X0.1156 Y0.1039 I-0.1742 J0.1023
G3 X0.0906 Y0.1173 I-0.025 J-0.0168
G1 X-0.0906
G3 X-0.1156 Y0.1039 I0. J-0.0302
G2 X-0.4575 Y0.1144 I-0.1677 J0.1127
G3 X-0.4672 Y0.1117 I-0.0045 J-0.0026
G1 Y-0.1045
G3 X-0.4545 Y-0.1173 I0.0128 J0.
G1 X-0.2817
G3 X-0.2465 Y-0.1027 I0. J0.0497
G1 X-0.113 Y0.0332
X-0.1075 Y0.038
G2 X-0.0511 Y0.0408 I0.03 J-0.0353
G3 X0.0027 Y0.0232 I0.0561 J0.0807
G2 X0.0791 Y-0.0095 I-0.0027 J-0.1119
G1 X0.234 Y-0.1644
G3 X0.2468 Y-0.1697 I0.0128 J0.0128
G1 X0.5016
G3 X0.5197 Y-0.1517 I0. J0.0181
G1 Y0.1517
G3 X0.5016 Y0.1697 I-0.0181 J0.
G1 X0.4378
G3 X0.4212 Y0.1587 I0. J-0.0181
G2 X0.1454 I-0.1379 J0.058
G3 X0.1288 Y0.1697 I-0.0167 J-0.007
G1 X-0.1288
G3 X-0.1454 Y0.1587 I0. J-0.0181
G2 X-0.4212 I-0.1379 J0.058
G3 X-0.4378 Y0.1697 I-0.0167 J-0.007
G1 X-0.5016
G3 X-0.5197 Y0.1517 I0. J-0.0181
G1 Y-0.1517
G3 X-0.5016 Y-0.1697 I0.0181 J0.
G1 X-0.2468
G3 X-0.234 Y-0.1644 I0. J0.0181
G1 X-0.0791 Y-0.0095
G2 X0.0027 Y0.0232 I0.0791 J-0.0791
G1 X0.005 Y0.0234 Z-0.291
X0.0072 Y0.0242 Z-0.2904
X0.0086 Y0.0252 Z-0.2887
X0.0099 Y0.0263 Z-0.287
X0.0107 Y0.0273 Z-0.2823
Z0.3703
M5
M9
G53 G0 Z0.
G49

(******************************************************************************)
(EXTERIOR 2D CONTOUR DOWN TO EXTERIOR POCKET LEVEL)
G90 G94 G17 G49
G20
G53 G0 Z0.

(2D CONTOUR10)
S18000 M3
G90 G94 G17
G54
M8
G0 X0.6726 Y-0.3883
G43 Z0.6 H3
G1 Z0.0843 F72.
Z-0.0969 F24.
Z-0.1263
G19 G3 Y-0.379 Z-0.1357 J0.0094 K0. F72.
G1 Y-0.3696
G17 G3 X0.6633 Y-0.3602 I-0.0094 J0.
G1 X0.2022 F10.
G2 X0.1254 Y-0.3284 I0. J0.1086
G1 X0.0152 Y-0.2182
G3 X-0.0152 I-0.0152 J-0.0152
G1 X-0.1254 Y-0.3284
G2 X-0.2022 Y-0.3602 I-0.0768 J0.0768
G1 X-0.6633
G2 X-0.7102 Y-0.3133 I0. J0.0469
G1 Y0.3133
G2 X-0.6633 Y0.3602 I0.0469 J0.
G1 X0.6633
G2 X0.7102 Y0.3133 I0. J-0.0469
G1 Y-0.3133
G2 X0.6633 Y-0.3602 I-0.0469 J0.
G3 X0.6539 Y-0.3696 I0. J-0.0094 F72.
G1 Y-0.379
G19 G2 Y-0.3883 Z-0.1263 J0. K0.0094
G1 Z0.2
X0.6726
Z0.0843
Z-0.1169 F24.
Z-0.1463
G3 Y-0.379 Z-0.1557 J0.0094 K0. F72.
G1 Y-0.3696
G17 G3 X0.6633 Y-0.3602 I-0.0094 J0.
G1 X0.2022 F10.
G2 X0.1254 Y-0.3284 I0. J0.1086
G1 X0.0152 Y-0.2182
G3 X-0.0152 I-0.0152 J-0.0152
G1 X-0.1254 Y-0.3284
G2 X-0.2022 Y-0.3602 I-0.0768 J0.0768
G1 X-0.6633
G2 X-0.7102 Y-0.3133 I0. J0.0469
G1 Y0.3133
G2 X-0.6633 Y0.3602 I0.0469 J0.
G1 X0.6633
G2 X0.7102 Y0.3133 I0. J-0.0469
G1 Y-0.3133
G2 X0.6633 Y-0.3602 I-0.0469 J0.
G3 X0.6539 Y-0.3696 I0. J-0.0094 F72.
G1 Y-0.379
G19 G2 Y-0.3883 Z-0.1463 J0. K0.0094
G1 Z0.2
X0.6726
Z0.0843
Z-0.1369 F24.
Z-0.1663
G3 Y-0.379 Z-0.1757 J0.0094 K0. F72.
G1 Y-0.3696
G17 G3 X0.6633 Y-0.3602 I-0.0094 J0.
G1 X0.2022 F10.
G2 X0.1254 Y-0.3284 I0. J0.1086
G1 X0.0152 Y-0.2182
G3 X-0.0152 I-0.0152 J-0.0152
G1 X-0.1254 Y-0.3284
G2 X-0.2022 Y-0.3602 I-0.0768 J0.0768
G1 X-0.6633
G2 X-0.7102 Y-0.3133 I0. J0.0469
G1 Y0.3133
G2 X-0.6633 Y0.3602 I0.0469 J0.
G1 X0.6633
G2 X0.7102 Y0.3133 I0. J-0.0469
G1 Y-0.3133
G2 X0.6633 Y-0.3602 I-0.0469 J0.
G3 X0.6539 Y-0.3696 I0. J-0.0094 F72.
G1 Y-0.379
G19 G2 Y-0.3883 Z-0.1663 J0. K0.0094
G1 Z0.2
X0.6726
Z0.0843
Z-0.1569 F24.
Z-0.1863
G3 Y-0.379 Z-0.1957 J0.0094 K0. F72.
G1 Y-0.3696
G17 G3 X0.6633 Y-0.3602 I-0.0094 J0.
G1 X0.2022 F10.
G2 X0.1254 Y-0.3284 I0. J0.1086
G1 X0.0152 Y-0.2182
G3 X-0.0152 I-0.0152 J-0.0152
G1 X-0.1254 Y-0.3284
G2 X-0.2022 Y-0.3602 I-0.0768 J0.0768
G1 X-0.6633
G2 X-0.7102 Y-0.3133 I0. J0.0469
G1 Y0.3133
G2 X-0.6633 Y0.3602 I0.0469 J0.
G1 X0.6633
G2 X0.7102 Y0.3133 I0. J-0.0469
G1 Y-0.3133
G2 X0.6633 Y-0.3602 I-0.0469 J0.
G3 X0.6539 Y-0.3696 I0. J-0.0094 F72.
G1 Y-0.379
G19 G2 Y-0.3883 Z-0.1863 J0. K0.0094
G1 Z0.2
X0.6726
Z0.0843
Z-0.1769 F24.
Z-0.2063
G3 Y-0.379 Z-0.2157 J0.0094 K0. F72.
G1 Y-0.3696
G17 G3 X0.6633 Y-0.3602 I-0.0094 J0.
G1 X0.2022 F10.
G2 X0.1254 Y-0.3284 I0. J0.1086
G1 X0.0152 Y-0.2182
G3 X-0.0152 I-0.0152 J-0.0152
G1 X-0.1254 Y-0.3284
G2 X-0.2022 Y-0.3602 I-0.0768 J0.0768
G1 X-0.6633
G2 X-0.7102 Y-0.3133 I0. J0.0469
G1 Y0.3133
G2 X-0.6633 Y0.3602 I0.0469 J0.
G1 X0.6633
G2 X0.7102 Y0.3133 I0. J-0.0469
G1 Y-0.3133
G2 X0.6633 Y-0.3602 I-0.0469 J0.
G3 X0.6539 Y-0.3696 I0. J-0.0094 F72.
G1 Y-0.379
G19 G2 Y-0.3883 Z-0.2063 J0. K0.0094
G1 Z0.2
X0.6726
Z0.0843
Z-0.1969 F24.
Z-0.2263
G3 Y-0.379 Z-0.2357 J0.0094 K0. F72.
G1 Y-0.3696
G17 G3 X0.6633 Y-0.3602 I-0.0094 J0.
G1 X0.2022 F10.
G2 X0.1254 Y-0.3284 I0. J0.1086
G1 X0.0152 Y-0.2182
G3 X-0.0152 I-0.0152 J-0.0152
G1 X-0.1254 Y-0.3284
G2 X-0.2022 Y-0.3602 I-0.0768 J0.0768
G1 X-0.6633
G2 X-0.7102 Y-0.3133 I0. J0.0469
G1 Y0.3133
G2 X-0.6633 Y0.3602 I0.0469 J0.
G1 X0.6633
G2 X0.7102 Y0.3133 I0. J-0.0469
G1 Y-0.3133
G2 X0.6633 Y-0.3602 I-0.0469 J0.
G3 X0.6539 Y-0.3696 I0. J-0.0094 F72.
G1 Y-0.379
G19 G2 Y-0.3883 Z-0.2263 J0. K0.0094
G1 Z0.2
X0.6726
Z0.0843
Z-0.2169 F24.
Z-0.2463
G3 Y-0.379 Z-0.2557 J0.0094 K0. F72.
G1 Y-0.3696
G17 G3 X0.6633 Y-0.3602 I-0.0094 J0.
G1 X0.2022 F10.
G2 X0.1254 Y-0.3284 I0. J0.1086
G1 X0.0152 Y-0.2182
G3 X-0.0152 I-0.0152 J-0.0152
G1 X-0.1254 Y-0.3284
G2 X-0.2022 Y-0.3602 I-0.0768 J0.0768
G1 X-0.6633
G2 X-0.7102 Y-0.3133 I0. J0.0469
G1 Y0.3133
G2 X-0.6633 Y0.3602 I0.0469 J0.
G1 X0.6633
G2 X0.7102 Y0.3133 I0. J-0.0469
G1 Y-0.3133
G2 X0.6633 Y-0.3602 I-0.0469 J0.
G3 X0.6539 Y-0.3696 I0. J-0.0094 F72.
G1 Y-0.379
G19 G2 Y-0.3883 Z-0.2463 J0. K0.0094
G1 Z0.2
X0.6726
Z0.0843
Z-0.2369 F24.
Z-0.2663
G3 Y-0.379 Z-0.2757 J0.0094 K0. F72.
G1 Y-0.3696
G17 G3 X0.6633 Y-0.3602 I-0.0094 J0.
G1 X0.2022 F10.
G2 X0.1254 Y-0.3284 I0. J0.1086
G1 X0.0152 Y-0.2182
G3 X-0.0152 I-0.0152 J-0.0152
G1 X-0.1254 Y-0.3284
G2 X-0.2022 Y-0.3602 I-0.0768 J0.0768
G1 X-0.6633
G2 X-0.7102 Y-0.3133 I0. J0.0469
G1 Y0.3133
G2 X-0.6633 Y0.3602 I0.0469 J0.
G1 X0.6633
G2 X0.7102 Y0.3133 I0. J-0.0469
G1 Y-0.3133
G2 X0.6633 Y-0.3602 I-0.0469 J0.
G3 X0.6539 Y-0.3696 I0. J-0.0094 F72.
G1 Y-0.379
G19 G2 Y-0.3883 Z-0.2663 J0. K0.0094
G1 Z0.2
X0.6726
Z0.0843
Z-0.2569 F24.
Z-0.2773
G3 Y-0.379 Z-0.2867 J0.0094 K0. F72.
G1 Y-0.3696
G17 G3 X0.6633 Y-0.3602 I-0.0094 J0.
G1 X0.2022 F10.
G2 X0.1254 Y-0.3284 I0. J0.1086
G1 X0.0152 Y-0.2182
G3 X-0.0152 I-0.0152 J-0.0152
G1 X-0.1254 Y-0.3284
G2 X-0.2022 Y-0.3602 I-0.0768 J0.0768
G1 X-0.6633
G2 X-0.7102 Y-0.3133 I0. J0.0469
G1 Y0.3133
G2 X-0.6633 Y0.3602 I0.0469 J0.
G1 X0.6633
G2 X0.7102 Y0.3133 I0. J-0.0469
G1 Y-0.3133
G2 X0.6633 Y-0.3602 I-0.0469 J0.
G3 X0.6539 Y-0.3696 I0. J-0.0094 F72.
G1 Y-0.379
G19 G2 Y-0.3883 Z-0.2773 J0. K0.0094
G1 Z0.2
X0.6726
Z0.0843
Z-0.2679 F24.
Z-0.2823
G3 Y-0.379 Z-0.2916 J0.0094 K0. F72.
G1 Y-0.3696
G17 G3 X0.6633 Y-0.3602 I-0.0094 J0.
G1 X0.2022 F10.
G2 X0.1254 Y-0.3284 I0. J0.1086
G1 X0.0152 Y-0.2182
G3 X-0.0152 I-0.0152 J-0.0152
G1 X-0.1254 Y-0.3284
G2 X-0.2022 Y-0.3602 I-0.0768 J0.0768
G1 X-0.6633
G2 X-0.7102 Y-0.3133 I0. J0.0469
G1 Y0.3133
G2 X-0.6633 Y0.3602 I0.0469 J0.
G1 X0.6633
G2 X0.7102 Y0.3133 I0. J-0.0469
G1 Y-0.3133
G2 X0.6633 Y-0.3602 I-0.0469 J0.
G3 X0.6539 Y-0.3696 I0. J-0.0094 F72.
G1 Y-0.379
G19 G2 Y-0.3883 Z-0.2823 J0. K0.0094
G1 Z0.6
G17
M5
M9
G53 G0 Z0.
G49

(******************************************************************************)
(EXTERIOR 2D CONTOUR THROUGH STOCK WITH TABS)
G90 G94 G17 G49
G20
G53 G0 Z0.

(2D CONTOUR11)
S18000 M3
G90 G94 G17
G54
M8
G0 X-0.7416 Y-0.0094
G43 Z0.6 H3
G1 Z-0.0642 F72.
Z-0.2454 F18.
Z-0.2748
G18 G2 X-0.7323 Z-0.2842 I0.0094 K0. F72.
G1 X-0.7229
G17 G3 X-0.7135 Y0. I0. J0.0094
G1 Y0.3133
G2 X-0.6998 Y0.3465 I0.0469 J0.
G1 X-0.6964 Y0.3498
G2 X-0.6633 Y0.3635 I0.0332 J-0.0332
G1 X0.6633
G2 X0.6964 Y0.3498 I0. J-0.0469
G1 X0.6998 Y0.3465
G2 X0.7135 Y0.3133 I-0.0332 J-0.0332
G1 Y-0.3133
G2 X0.6998 Y-0.3465 I-0.0469 J0.
G1 X0.6964 Y-0.3498
G2 X0.6633 Y-0.3635 I-0.0332 J0.0332
G1 X-0.6633
G2 X-0.6964 Y-0.3498 I0. J0.0469
G1 X-0.6998 Y-0.3465
G2 X-0.7135 Y-0.3133 I0.0332 J0.0332
G1 Y0.
G3 X-0.7229 Y0.0094 I-0.0094 J0.
G1 X-0.7323
G18 G3 X-0.7416 Z-0.2748 I0. K0.0094
G1 Z0.2
Y-0.0094
Z-0.0642
Z-0.2654 F18.
Z-0.2948
G2 X-0.7323 Z-0.3042 I0.0094 K0. F72.
G1 X-0.7229
G17 G3 X-0.7135 Y0. I0. J0.0094
G1 Y0.3133
G2 X-0.6998 Y0.3465 I0.0469 J0.
G1 X-0.6964 Y0.3498
G2 X-0.6633 Y0.3635 I0.0332 J-0.0332
G1 X0.6633
G2 X0.6964 Y0.3498 I0. J-0.0469
G1 X0.6998 Y0.3465
G2 X0.7135 Y0.3133 I-0.0332 J-0.0332
G1 Y-0.3133
G2 X0.6998 Y-0.3465 I-0.0469 J0.
G1 X0.6964 Y-0.3498
G2 X0.6633 Y-0.3635 I-0.0332 J0.0332
G1 X-0.6633
G2 X-0.6964 Y-0.3498 I0. J0.0469
G1 X-0.6998 Y-0.3465
G2 X-0.7135 Y-0.3133 I0.0332 J0.0332
G1 Y0.
G3 X-0.7229 Y0.0094 I-0.0094 J0.
G1 X-0.7323
G18 G3 X-0.7416 Z-0.2948 I0. K0.0094
G1 Z0.2
Y-0.0094
Z-0.0642
Z-0.2854 F18.
Z-0.3148
G2 X-0.7323 Z-0.3242 I0.0094 K0. F72.
G1 X-0.7229
G17 G3 X-0.7135 Y0. I0. J0.0094
G1 Y0.3133
G2 X-0.6998 Y0.3465 I0.0469 J0.
G1 X-0.6964 Y0.3498
G2 X-0.6633 Y0.3635 I0.0332 J-0.0332
G1 X0.6633
G2 X0.6964 Y0.3498 I0. J-0.0469
G1 X0.6998 Y0.3465
G2 X0.7135 Y0.3133 I-0.0332 J-0.0332
G1 Y-0.3133
G2 X0.6998 Y-0.3465 I-0.0469 J0.
G1 X0.6964 Y-0.3498
G2 X0.6633 Y-0.3635 I-0.0332 J0.0332
G1 X-0.6633
G2 X-0.6964 Y-0.3498 I0. J0.0469
G1 X-0.6998 Y-0.3465
G2 X-0.7135 Y-0.3133 I0.0332 J0.0332
G1 Y0.
G3 X-0.7229 Y0.0094 I-0.0094 J0.
G1 X-0.7323
G18 G3 X-0.7416 Z-0.3148 I0. K0.0094
G1 Z0.2
Y-0.0094
Z-0.0642
Z-0.3054 F18.
Z-0.3348
G2 X-0.7323 Z-0.3442 I0.0094 K0. F72.
G1 X-0.7229
G17 G3 X-0.7135 Y0. I0. J0.0094
G1 Y0.3133
G2 X-0.6998 Y0.3465 I0.0469 J0.
G1 X-0.6964 Y0.3498
G2 X-0.6633 Y0.3635 I0.0332 J-0.0332
G1 X0.6633
G2 X0.6964 Y0.3498 I0. J-0.0469
G1 X0.6998 Y0.3465
G2 X0.7135 Y0.3133 I-0.0332 J-0.0332
G1 Y-0.3133
G2 X0.6998 Y-0.3465 I-0.0469 J0.
G1 X0.6964 Y-0.3498
G2 X0.6633 Y-0.3635 I-0.0332 J0.0332
G1 X-0.6633
G2 X-0.6964 Y-0.3498 I0. J0.0469
G1 X-0.6998 Y-0.3465
G2 X-0.7135 Y-0.3133 I0.0332 J0.0332
G1 Y0.
G3 X-0.7229 Y0.0094 I-0.0094 J0.
G1 X-0.7323
G18 G3 X-0.7416 Z-0.3348 I0. K0.0094
G1 Z0.2
Y-0.0094
Z-0.0642
Z-0.3254 F18.
Z-0.35
X-0.7323 F72.
X-0.7229
G17 G3 X-0.7135 Y0. I0. J0.0094
G1 Y0.0349
Z-0.3642 F18.
Y0.3133 F72.
G2 X-0.6998 Y0.3465 I0.0469 J0.
G1 X-0.6964 Y0.3498
G2 X-0.6633 Y0.3635 I0.0332 J-0.0332
G1 X-0.3802
Z-0.35
X-0.1614
Z-0.3642 F18.
X0.4049 F72.
Z-0.35
X0.6237
Z-0.3642 F18.
X0.6633 F72.
G2 X0.6964 Y0.3498 I0. J-0.0469
G1 X0.6998 Y0.3465
G2 X0.7135 Y0.3133 I-0.0332 J-0.0332
G1 Y-0.2122
Z-0.35
Y-0.3133
G2 X0.6998 Y-0.3465 I-0.0469 J0.
G1 X0.6964 Y-0.3498
G2 X0.6633 Y-0.3635 I-0.0332 J0.0332
G1 X0.5555
Z-0.3642 F18.
X-0.0124 F72.
Z-0.35
X-0.2312
Z-0.3642 F18.
X-0.6633 F72.
G2 X-0.6964 Y-0.3498 I0. J0.0469
G1 X-0.6998 Y-0.3465
G2 X-0.7135 Y-0.3133 I0.0332 J0.0332
G1 Y-0.1839
Z-0.35
Y0.
G3 X-0.7229 Y0.0094 I-0.0094 J0.
G1 X-0.7416
Z0.2
Y-0.0094
Z-0.0642
Z-0.3454 F18.
Z-0.35
X-0.7323 F72.
X-0.7229
G3 X-0.7135 Y0. I0. J0.0094
G1 Y0.0349
Z-0.375 F18.
Y0.3133 F72.
G2 X-0.6998 Y0.3465 I0.0469 J0.
G1 X-0.6964 Y0.3498
G2 X-0.6633 Y0.3635 I0.0332 J-0.0332
G1 X-0.3802
Z-0.35
X-0.1614
Z-0.375 F18.
X0.4049 F72.
Z-0.35
X0.6237
Z-0.375 F18.
X0.6633 F72.
G2 X0.6964 Y0.3498 I0. J-0.0469
G1 X0.6998 Y0.3465
G2 X0.7135 Y0.3133 I-0.0332 J-0.0332
G1 Y-0.2122
Z-0.35
Y-0.3133
G2 X0.6998 Y-0.3465 I-0.0469 J0.
G1 X0.6964 Y-0.3498
G2 X0.6633 Y-0.3635 I-0.0332 J0.0332
G1 X0.5555
Z-0.375 F18.
X-0.0124 F72.
Z-0.35
X-0.2312
Z-0.375 F18.
X-0.6633 F72.
G2 X-0.6964 Y-0.3498 I0. J0.0469
G1 X-0.6998 Y-0.3465
G2 X-0.7135 Y-0.3133 I0.0332 J0.0332
G1 Y-0.1839
Z-0.35
Y0.
G3 X-0.7229 Y0.0094 I-0.0094 J0.
G1 X-0.7416
Z0.6
M5
M9
G53 G0 Z0.
G49

(END OF PROGRAM)
M30
%