;Titan-3-32-Blank-Facing
;Machine
;vendor: Snapmaker
;model: Desktop CNC
;description: Generic Snapmaker Marlin v20180725
M3 S18000
G4 S2 P2
G21
G90
;When using Fusion for Personal Use, the feedrate of rapid
;moves is reduced to match the feedrate of cutting moves,
;which can increase machining time. Unrestricted rapid moves
;are available with a Fusion Subscription.

;Blank Face Move
G0 X0.292 Y-2.549 Z6.000
G1 X0.292 Y-2.549 Z6.000 F500
G1 X0.292 Y-2.549 Z0.138 F500
G1 X0.292 Y-2.543 Z0.085 F500
G1 X0.292 Y-2.525 Z0.035 F500
G1 X0.292 Y-2.497 Z-0.010 F500
G1 X0.292 Y-2.459 Z-0.048 F500
G1 X0.292 Y-2.414 Z-0.076 F500
G1 X0.292 Y-2.363 Z-0.094 F500
G1 X0.292 Y-2.310 Z-0.100 F500
G1 X0.292 Y-2.000 Z-0.100 F500
G1 X0.292 Y41.000 Z-0.100 F500
G1 X0.300 Y41.105 Z-0.100 F500
G1 X0.322 Y41.207 Z-0.100 F500
G1 X0.359 Y41.305 Z-0.100 F500
G1 X0.409 Y41.397 Z-0.100 F500
G1 X0.472 Y41.481 Z-0.100 F500
G1 X0.546 Y41.555 Z-0.100 F500
G1 X0.630 Y41.618 Z-0.100 F500
G1 X0.722 Y41.668 Z-0.100 F500
G1 X0.820 Y41.705 Z-0.100 F500
G1 X0.922 Y41.727 Z-0.100 F500
G1 X1.027 Y41.734 Z-0.100 F500
G1 X1.131 Y41.727 Z-0.100 F500
G1 X1.234 Y41.705 Z-0.100 F500
G1 X1.332 Y41.668 Z-0.100 F500
G1 X1.424 Y41.618 Z-0.100 F500
G1 X1.508 Y41.555 Z-0.100 F500
G1 X1.582 Y41.481 Z-0.100 F500
G1 X1.644 Y41.397 Z-0.100 F500
G1 X1.695 Y41.305 Z-0.100 F500
G1 X1.731 Y41.207 Z-0.100 F500
G1 X1.754 Y41.105 Z-0.100 F500
G1 X1.761 Y41.000 Z-0.100 F500
G1 X1.761 Y-2.000 Z-0.100 F500
G1 X1.768 Y-2.105 Z-0.100 F500
G1 X1.791 Y-2.207 Z-0.100 F500
G1 X1.827 Y-2.305 Z-0.100 F500
G1 X1.878 Y-2.397 Z-0.100 F500
G1 X1.940 Y-2.481 Z-0.100 F500
G1 X2.014 Y-2.555 Z-0.100 F500
G1 X2.098 Y-2.618 Z-0.100 F500
G1 X2.190 Y-2.668 Z-0.100 F500
G1 X2.288 Y-2.705 Z-0.100 F500
G1 X2.391 Y-2.727 Z-0.100 F500
G1 X2.495 Y-2.734 Z-0.100 F500
G1 X2.600 Y-2.727 Z-0.100 F500
G1 X2.702 Y-2.705 Z-0.100 F500
G1 X2.800 Y-2.668 Z-0.100 F500
G1 X2.892 Y-2.618 Z-0.100 F500
G1 X2.976 Y-2.555 Z-0.100 F500
G1 X3.050 Y-2.481 Z-0.100 F500
G1 X3.113 Y-2.397 Z-0.100 F500
G1 X3.163 Y-2.305 Z-0.100 F500
G1 X3.200 Y-2.207 Z-0.100 F500
G1 X3.222 Y-2.105 Z-0.100 F500
G1 X3.230 Y-2.000 Z-0.100 F500
G1 X3.230 Y41.000 Z-0.100 F500
G1 X3.237 Y41.105 Z-0.100 F500
G1 X3.259 Y41.207 Z-0.100 F500
G1 X3.296 Y41.305 Z-0.100 F500
G1 X3.346 Y41.397 Z-0.100 F500
G1 X3.409 Y41.481 Z-0.100 F500
G1 X3.483 Y41.555 Z-0.100 F500
G1 X3.567 Y41.618 Z-0.100 F500
G1 X3.659 Y41.668 Z-0.100 F500
G1 X3.757 Y41.705 Z-0.100 F500
G1 X3.859 Y41.727 Z-0.100 F500
G1 X3.964 Y41.734 Z-0.100 F500
G1 X4.068 Y41.727 Z-0.100 F500
G1 X4.171 Y41.705 Z-0.100 F500
G1 X4.269 Y41.668 Z-0.100 F500
G1 X4.361 Y41.618 Z-0.100 F500
G1 X4.445 Y41.555 Z-0.100 F500
G1 X4.519 Y41.481 Z-0.100 F500
G1 X4.582 Y41.397 Z-0.100 F500
G1 X4.632 Y41.305 Z-0.100 F500
G1 X4.669 Y41.207 Z-0.100 F500
G1 X4.691 Y41.105 Z-0.100 F500
G1 X4.698 Y41.000 Z-0.100 F500
G1 X4.698 Y-2.000 Z-0.100 F500
G1 X4.706 Y-2.105 Z-0.100 F500
G1 X4.728 Y-2.207 Z-0.100 F500
G1 X4.765 Y-2.305 Z-0.100 F500
G1 X4.815 Y-2.397 Z-0.100 F500
G1 X4.878 Y-2.481 Z-0.100 F500
G1 X4.952 Y-2.555 Z-0.100 F500
G1 X5.036 Y-2.618 Z-0.100 F500
G1 X5.128 Y-2.668 Z-0.100 F500
G1 X5.226 Y-2.705 Z-0.100 F500
G1 X5.328 Y-2.727 Z-0.100 F500
G1 X5.433 Y-2.734 Z-0.100 F500
G1 X5.537 Y-2.727 Z-0.100 F500
G1 X5.639 Y-2.705 Z-0.100 F500
G1 X5.738 Y-2.668 Z-0.100 F500
G1 X5.830 Y-2.618 Z-0.100 F500
G1 X5.913 Y-2.555 Z-0.100 F500
G1 X5.988 Y-2.481 Z-0.100 F500
G1 X6.050 Y-2.397 Z-0.100 F500
G1 X6.101 Y-2.305 Z-0.100 F500
G1 X6.137 Y-2.207 Z-0.100 F500
G1 X6.159 Y-2.105 Z-0.100 F500
G1 X6.167 Y-2.000 Z-0.100 F500
G1 X6.167 Y41.000 Z-0.100 F500
G1 X6.174 Y41.105 Z-0.100 F500
G1 X6.197 Y41.207 Z-0.100 F500
G1 X6.233 Y41.305 Z-0.100 F500
G1 X6.283 Y41.397 Z-0.100 F500
G1 X6.346 Y41.481 Z-0.100 F500
G1 X6.420 Y41.555 Z-0.100 F500
G1 X6.504 Y41.618 Z-0.100 F500
G1 X6.596 Y41.668 Z-0.100 F500
G1 X6.694 Y41.705 Z-0.100 F500
G1 X6.797 Y41.727 Z-0.100 F500
G1 X6.901 Y41.734 Z-0.100 F500
G1 X7.006 Y41.727 Z-0.100 F500
G1 X7.108 Y41.705 Z-0.100 F500
G1 X7.206 Y41.668 Z-0.100 F500
G1 X7.298 Y41.618 Z-0.100 F500
G1 X7.382 Y41.555 Z-0.100 F500
G1 X7.456 Y41.481 Z-0.100 F500
G1 X7.519 Y41.397 Z-0.100 F500
G1 X7.569 Y41.305 Z-0.100 F500
G1 X7.606 Y41.207 Z-0.100 F500
G1 X7.628 Y41.105 Z-0.100 F500
G1 X7.636 Y41.000 Z-0.100 F500
G1 X7.636 Y-2.000 Z-0.100 F500
G1 X7.643 Y-2.105 Z-0.100 F500
G1 X7.665 Y-2.207 Z-0.100 F500
G1 X7.702 Y-2.305 Z-0.100 F500
G1 X7.752 Y-2.397 Z-0.100 F500
G1 X7.815 Y-2.481 Z-0.100 F500
G1 X7.889 Y-2.555 Z-0.100 F500
G1 X7.973 Y-2.618 Z-0.100 F500
G1 X8.065 Y-2.668 Z-0.100 F500
G1 X8.163 Y-2.705 Z-0.100 F500
G1 X8.265 Y-2.727 Z-0.100 F500
G1 X8.370 Y-2.734 Z-0.100 F500
G1 X8.474 Y-2.727 Z-0.100 F500
G1 X8.577 Y-2.705 Z-0.100 F500
G1 X8.675 Y-2.668 Z-0.100 F500
G1 X8.767 Y-2.618 Z-0.100 F500
G1 X8.851 Y-2.555 Z-0.100 F500
G1 X8.925 Y-2.481 Z-0.100 F500
G1 X8.988 Y-2.397 Z-0.100 F500
G1 X9.038 Y-2.305 Z-0.100 F500
G1 X9.074 Y-2.207 Z-0.100 F500
G1 X9.097 Y-2.105 Z-0.100 F500
G1 X9.104 Y-2.000 Z-0.100 F500
G1 X9.104 Y41.000 Z-0.100 F500
G1 X9.112 Y41.105 Z-0.100 F500
G1 X9.134 Y41.207 Z-0.100 F500
G1 X9.171 Y41.305 Z-0.100 F500
G1 X9.221 Y41.397 Z-0.100 F500
G1 X9.284 Y41.481 Z-0.100 F500
G1 X9.358 Y41.555 Z-0.100 F500
G1 X9.442 Y41.618 Z-0.100 F500
G1 X9.533 Y41.668 Z-0.100 F500
G1 X9.632 Y41.705 Z-0.100 F500
G1 X9.734 Y41.727 Z-0.100 F500
G1 X9.839 Y41.734 Z-0.100 F500
G1 X9.943 Y41.727 Z-0.100 F500
G1 X10.045 Y41.705 Z-0.100 F500
G1 X10.144 Y41.668 Z-0.100 F500
G1 X10.236 Y41.618 Z-0.100 F500
G1 X10.319 Y41.555 Z-0.100 F500
G1 X10.393 Y41.481 Z-0.100 F500
G1 X10.456 Y41.397 Z-0.100 F500
G1 X10.506 Y41.305 Z-0.100 F500
G1 X10.543 Y41.207 Z-0.100 F500
G1 X10.565 Y41.105 Z-0.100 F500
G1 X10.573 Y41.000 Z-0.100 F500
G1 X10.573 Y-2.000 Z-0.100 F500
G1 X10.580 Y-2.105 Z-0.100 F500
G1 X10.603 Y-2.207 Z-0.100 F500
G1 X10.639 Y-2.305 Z-0.100 F500
G1 X10.689 Y-2.397 Z-0.100 F500
G1 X10.752 Y-2.481 Z-0.100 F500
G1 X10.826 Y-2.555 Z-0.100 F500
G1 X10.910 Y-2.618 Z-0.100 F500
G1 X11.002 Y-2.668 Z-0.100 F500
G1 X11.100 Y-2.705 Z-0.100 F500
G1 X11.203 Y-2.727 Z-0.100 F500
G1 X11.307 Y-2.734 Z-0.100 F500
G1 X11.412 Y-2.727 Z-0.100 F500
G1 X11.514 Y-2.705 Z-0.100 F500
G1 X11.612 Y-2.668 Z-0.100 F500
G1 X11.704 Y-2.618 Z-0.100 F500
G1 X11.788 Y-2.555 Z-0.100 F500
G1 X11.862 Y-2.481 Z-0.100 F500
G1 X11.925 Y-2.397 Z-0.100 F500
G1 X11.975 Y-2.305 Z-0.100 F500
G1 X12.012 Y-2.207 Z-0.100 F500
G1 X12.034 Y-2.105 Z-0.100 F500
G1 X12.041 Y-2.000 Z-0.100 F500
G1 X12.041 Y41.000 Z-0.100 F500
G1 X12.049 Y41.105 Z-0.100 F500
G1 X12.071 Y41.207 Z-0.100 F500
G1 X12.108 Y41.305 Z-0.100 F500
G1 X12.158 Y41.397 Z-0.100 F500
G1 X12.221 Y41.481 Z-0.100 F500
G1 X12.295 Y41.555 Z-0.100 F500
G1 X12.379 Y41.618 Z-0.100 F500
G1 X12.471 Y41.668 Z-0.100 F500
G1 X12.569 Y41.705 Z-0.100 F500
G1 X12.671 Y41.727 Z-0.100 F500
G1 X12.776 Y41.734 Z-0.100 F500
G1 X12.880 Y41.727 Z-0.100 F500
G1 X12.983 Y41.705 Z-0.100 F500
G1 X13.081 Y41.668 Z-0.100 F500
G1 X13.173 Y41.618 Z-0.100 F500
G1 X13.257 Y41.555 Z-0.100 F500
G1 X13.331 Y41.481 Z-0.100 F500
G1 X13.394 Y41.397 Z-0.100 F500
G1 X13.444 Y41.305 Z-0.100 F500
G1 X13.480 Y41.207 Z-0.100 F500
G1 X13.503 Y41.105 Z-0.100 F500
G1 X13.510 Y41.000 Z-0.100 F500
G1 X13.510 Y-2.000 Z-0.100 F500
G1 X13.518 Y-2.105 Z-0.100 F500
G1 X13.540 Y-2.207 Z-0.100 F500
G1 X13.576 Y-2.305 Z-0.100 F500
G1 X13.627 Y-2.397 Z-0.100 F500
G1 X13.689 Y-2.481 Z-0.100 F500
G1 X13.764 Y-2.555 Z-0.100 F500
G1 X13.847 Y-2.618 Z-0.100 F500
G1 X13.939 Y-2.668 Z-0.100 F500
G1 X14.038 Y-2.705 Z-0.100 F500
G1 X14.140 Y-2.727 Z-0.100 F500
G1 X14.244 Y-2.734 Z-0.100 F500
G1 X14.349 Y-2.727 Z-0.100 F500
G1 X14.451 Y-2.705 Z-0.100 F500
G1 X14.549 Y-2.668 Z-0.100 F500
G1 X14.641 Y-2.618 Z-0.100 F500
G1 X14.725 Y-2.555 Z-0.100 F500
G1 X14.799 Y-2.481 Z-0.100 F500
G1 X14.862 Y-2.397 Z-0.100 F500
G1 X14.912 Y-2.305 Z-0.100 F500
G1 X14.949 Y-2.207 Z-0.100 F500
G1 X14.971 Y-2.105 Z-0.100 F500
G1 X14.979 Y-2.000 Z-0.100 F500
G1 X14.979 Y41.000 Z-0.100 F500
G1 X14.986 Y41.105 Z-0.100 F500
G1 X15.008 Y41.207 Z-0.100 F500
G1 X15.045 Y41.305 Z-0.100 F500
G1 X15.095 Y41.397 Z-0.100 F500
G1 X15.158 Y41.481 Z-0.100 F500
G1 X15.232 Y41.555 Z-0.100 F500
G1 X15.316 Y41.618 Z-0.100 F500
G1 X15.408 Y41.668 Z-0.100 F500
G1 X15.506 Y41.705 Z-0.100 F500
G1 X15.609 Y41.727 Z-0.100 F500
G1 X15.713 Y41.734 Z-0.100 F500
G1 X15.818 Y41.727 Z-0.100 F500
G1 X15.920 Y41.705 Z-0.100 F500
G1 X16.018 Y41.668 Z-0.100 F500
G1 X16.110 Y41.618 Z-0.100 F500
G1 X16.194 Y41.555 Z-0.100 F500
G1 X16.268 Y41.481 Z-0.100 F500
G1 X16.331 Y41.397 Z-0.100 F500
G1 X16.381 Y41.305 Z-0.100 F500
G1 X16.418 Y41.207 Z-0.100 F500
G1 X16.440 Y41.105 Z-0.100 F500
G1 X16.447 Y41.000 Z-0.100 F500
G1 X16.447 Y-2.000 Z-0.100 F500
G1 X16.455 Y-2.105 Z-0.100 F500
G1 X16.477 Y-2.207 Z-0.100 F500
G1 X16.514 Y-2.305 Z-0.100 F500
G1 X16.564 Y-2.397 Z-0.100 F500
G1 X16.627 Y-2.481 Z-0.100 F500
G1 X16.701 Y-2.555 Z-0.100 F500
G1 X16.785 Y-2.618 Z-0.100 F500
G1 X16.877 Y-2.668 Z-0.100 F500
G1 X16.975 Y-2.705 Z-0.100 F500
G1 X17.077 Y-2.727 Z-0.100 F500
G1 X17.182 Y-2.734 Z-0.100 F500
G1 X17.286 Y-2.727 Z-0.100 F500
G1 X17.389 Y-2.705 Z-0.100 F500
G1 X17.487 Y-2.668 Z-0.100 F500
G1 X17.579 Y-2.618 Z-0.100 F500
G1 X17.663 Y-2.555 Z-0.100 F500
G1 X17.737 Y-2.481 Z-0.100 F500
G1 X17.799 Y-2.397 Z-0.100 F500
G1 X17.850 Y-2.305 Z-0.100 F500
G1 X17.886 Y-2.207 Z-0.100 F500
G1 X17.909 Y-2.105 Z-0.100 F500
G1 X17.916 Y-2.000 Z-0.100 F500
G1 X17.916 Y41.000 Z-0.100 F500
G1 X17.924 Y41.105 Z-0.100 F500
G1 X17.946 Y41.207 Z-0.100 F500
G1 X17.982 Y41.305 Z-0.100 F500
G1 X18.033 Y41.397 Z-0.100 F500
G1 X18.095 Y41.481 Z-0.100 F500
G1 X18.169 Y41.555 Z-0.100 F500
G1 X18.253 Y41.618 Z-0.100 F500
G1 X18.345 Y41.668 Z-0.100 F500
G1 X18.443 Y41.705 Z-0.100 F500
G1 X18.546 Y41.727 Z-0.100 F500
G1 X18.650 Y41.734 Z-0.100 F500
G1 X18.755 Y41.727 Z-0.100 F500
G1 X18.857 Y41.705 Z-0.100 F500
G1 X18.955 Y41.668 Z-0.100 F500
G1 X19.047 Y41.618 Z-0.100 F500
G1 X19.131 Y41.555 Z-0.100 F500
G1 X19.205 Y41.481 Z-0.100 F500
G1 X19.268 Y41.397 Z-0.100 F500
G1 X19.318 Y41.305 Z-0.100 F500
G1 X19.355 Y41.207 Z-0.100 F500
G1 X19.377 Y41.105 Z-0.100 F500
G1 X19.385 Y41.000 Z-0.100 F500
G1 X19.385 Y-2.000 Z-0.100 F500
G1 X19.392 Y-2.105 Z-0.100 F500
G1 X19.414 Y-2.207 Z-0.100 F500
G1 X19.451 Y-2.305 Z-0.100 F500
G1 X19.501 Y-2.397 Z-0.100 F500
G1 X19.564 Y-2.481 Z-0.100 F500
G1 X19.638 Y-2.555 Z-0.100 F500
G1 X19.722 Y-2.618 Z-0.100 F500
G1 X19.814 Y-2.668 Z-0.100 F500
G1 X19.912 Y-2.705 Z-0.100 F500
G1 X20.014 Y-2.727 Z-0.100 F500
G1 X20.119 Y-2.734 Z-0.100 F500
G1 X20.223 Y-2.727 Z-0.100 F500
G1 X20.326 Y-2.705 Z-0.100 F500
G1 X20.424 Y-2.668 Z-0.100 F500
G1 X20.516 Y-2.618 Z-0.100 F500
G1 X20.600 Y-2.555 Z-0.100 F500
G1 X20.674 Y-2.481 Z-0.100 F500
G1 X20.737 Y-2.397 Z-0.100 F500
G1 X20.787 Y-2.305 Z-0.100 F500
G1 X20.824 Y-2.207 Z-0.100 F500
G1 X20.846 Y-2.105 Z-0.100 F500
G1 X20.853 Y-2.000 Z-0.100 F500
G1 X20.853 Y41.000 Z-0.100 F500
G1 X20.853 Y41.053 Z-0.094 F500
G1 X20.853 Y41.103 Z-0.076 F500
G1 X20.853 Y41.149 Z-0.048 F500
G1 X20.853 Y41.186 Z-0.010 F500
G1 X20.853 Y41.215 Z0.035 F500
G1 X20.853 Y41.232 Z0.085 F500
G1 X20.853 Y41.238 Z0.138 F500
G1 X20.853 Y41.238 Z1.000 F500
G1 X0.292 Y41.549 Z1.000 F500
G1 X0.292 Y41.549 Z0.038 F500
G1 X0.292 Y41.543 Z-0.015 F500
G1 X0.292 Y41.525 Z-0.065 F500
G1 X0.292 Y41.497 Z-0.110 F500
G1 X0.292 Y41.459 Z-0.148 F500
G1 X0.292 Y41.414 Z-0.176 F500
G1 X0.292 Y41.363 Z-0.194 F500
G1 X0.292 Y41.310 Z-0.200 F500
G1 X0.292 Y41.000 Z-0.200 F500
G1 X0.292 Y-2.000 Z-0.200 F500
G1 X0.300 Y-2.105 Z-0.200 F500
G1 X0.322 Y-2.207 Z-0.200 F500
G1 X0.359 Y-2.305 Z-0.200 F500
G1 X0.409 Y-2.397 Z-0.200 F500
G1 X0.472 Y-2.481 Z-0.200 F500
G1 X0.546 Y-2.555 Z-0.200 F500
G1 X0.630 Y-2.618 Z-0.200 F500
G1 X0.722 Y-2.668 Z-0.200 F500
G1 X0.820 Y-2.705 Z-0.200 F500
G1 X0.922 Y-2.727 Z-0.200 F500
G1 X1.027 Y-2.734 Z-0.200 F500
G1 X1.131 Y-2.727 Z-0.200 F500
G1 X1.234 Y-2.705 Z-0.200 F500
G1 X1.332 Y-2.668 Z-0.200 F500
G1 X1.424 Y-2.618 Z-0.200 F500
G1 X1.508 Y-2.555 Z-0.200 F500
G1 X1.582 Y-2.481 Z-0.200 F500
G1 X1.644 Y-2.397 Z-0.200 F500
G1 X1.695 Y-2.305 Z-0.200 F500
G1 X1.731 Y-2.207 Z-0.200 F500
G1 X1.754 Y-2.105 Z-0.200 F500
G1 X1.761 Y-2.000 Z-0.200 F500
G1 X1.761 Y41.000 Z-0.200 F500
G1 X1.768 Y41.105 Z-0.200 F500
G1 X1.791 Y41.207 Z-0.200 F500
G1 X1.827 Y41.305 Z-0.200 F500
G1 X1.878 Y41.397 Z-0.200 F500
G1 X1.940 Y41.481 Z-0.200 F500
G1 X2.014 Y41.555 Z-0.200 F500
G1 X2.098 Y41.618 Z-0.200 F500
G1 X2.190 Y41.668 Z-0.200 F500
G1 X2.288 Y41.705 Z-0.200 F500
G1 X2.391 Y41.727 Z-0.200 F500
G1 X2.495 Y41.734 Z-0.200 F500
G1 X2.600 Y41.727 Z-0.200 F500
G1 X2.702 Y41.705 Z-0.200 F500
G1 X2.800 Y41.668 Z-0.200 F500
G1 X2.892 Y41.618 Z-0.200 F500
G1 X2.976 Y41.555 Z-0.200 F500
G1 X3.050 Y41.481 Z-0.200 F500
G1 X3.113 Y41.397 Z-0.200 F500
G1 X3.163 Y41.305 Z-0.200 F500
G1 X3.200 Y41.207 Z-0.200 F500
G1 X3.222 Y41.105 Z-0.200 F500
G1 X3.230 Y41.000 Z-0.200 F500
G1 X3.230 Y-2.000 Z-0.200 F500
G1 X3.237 Y-2.105 Z-0.200 F500
G1 X3.259 Y-2.207 Z-0.200 F500
G1 X3.296 Y-2.305 Z-0.200 F500
G1 X3.346 Y-2.397 Z-0.200 F500
G1 X3.409 Y-2.481 Z-0.200 F500
G1 X3.483 Y-2.555 Z-0.200 F500
G1 X3.567 Y-2.618 Z-0.200 F500
G1 X3.659 Y-2.668 Z-0.200 F500
G1 X3.757 Y-2.705 Z-0.200 F500
G1 X3.859 Y-2.727 Z-0.200 F500
G1 X3.964 Y-2.734 Z-0.200 F500
G1 X4.068 Y-2.727 Z-0.200 F500
G1 X4.171 Y-2.705 Z-0.200 F500
G1 X4.269 Y-2.668 Z-0.200 F500
G1 X4.361 Y-2.618 Z-0.200 F500
G1 X4.445 Y-2.555 Z-0.200 F500
G1 X4.519 Y-2.481 Z-0.200 F500
G1 X4.582 Y-2.397 Z-0.200 F500
G1 X4.632 Y-2.305 Z-0.200 F500
G1 X4.669 Y-2.207 Z-0.200 F500
G1 X4.691 Y-2.105 Z-0.200 F500
G1 X4.698 Y-2.000 Z-0.200 F500
G1 X4.698 Y41.000 Z-0.200 F500
G1 X4.706 Y41.105 Z-0.200 F500
G1 X4.728 Y41.207 Z-0.200 F500
G1 X4.765 Y41.305 Z-0.200 F500
G1 X4.815 Y41.397 Z-0.200 F500
G1 X4.878 Y41.481 Z-0.200 F500
G1 X4.952 Y41.555 Z-0.200 F500
G1 X5.036 Y41.618 Z-0.200 F500
G1 X5.128 Y41.668 Z-0.200 F500
G1 X5.226 Y41.705 Z-0.200 F500
G1 X5.328 Y41.727 Z-0.200 F500
G1 X5.433 Y41.734 Z-0.200 F500
G1 X5.537 Y41.727 Z-0.200 F500
G1 X5.639 Y41.705 Z-0.200 F500
G1 X5.738 Y41.668 Z-0.200 F500
G1 X5.830 Y41.618 Z-0.200 F500
G1 X5.913 Y41.555 Z-0.200 F500
G1 X5.988 Y41.481 Z-0.200 F500
G1 X6.050 Y41.397 Z-0.200 F500
G1 X6.101 Y41.305 Z-0.200 F500
G1 X6.137 Y41.207 Z-0.200 F500
G1 X6.159 Y41.105 Z-0.200 F500
G1 X6.167 Y41.000 Z-0.200 F500
G1 X6.167 Y-2.000 Z-0.200 F500
G1 X6.174 Y-2.105 Z-0.200 F500
G1 X6.197 Y-2.207 Z-0.200 F500
G1 X6.233 Y-2.305 Z-0.200 F500
G1 X6.283 Y-2.397 Z-0.200 F500
G1 X6.346 Y-2.481 Z-0.200 F500
G1 X6.420 Y-2.555 Z-0.200 F500
G1 X6.504 Y-2.618 Z-0.200 F500
G1 X6.596 Y-2.668 Z-0.200 F500
G1 X6.694 Y-2.705 Z-0.200 F500
G1 X6.797 Y-2.727 Z-0.200 F500
G1 X6.901 Y-2.734 Z-0.200 F500
G1 X7.006 Y-2.727 Z-0.200 F500
G1 X7.108 Y-2.705 Z-0.200 F500
G1 X7.206 Y-2.668 Z-0.200 F500
G1 X7.298 Y-2.618 Z-0.200 F500
G1 X7.382 Y-2.555 Z-0.200 F500
G1 X7.456 Y-2.481 Z-0.200 F500
G1 X7.519 Y-2.397 Z-0.200 F500
G1 X7.569 Y-2.305 Z-0.200 F500
G1 X7.606 Y-2.207 Z-0.200 F500
G1 X7.628 Y-2.105 Z-0.200 F500
G1 X7.636 Y-2.000 Z-0.200 F500
G1 X7.636 Y41.000 Z-0.200 F500
G1 X7.643 Y41.105 Z-0.200 F500
G1 X7.665 Y41.207 Z-0.200 F500
G1 X7.702 Y41.305 Z-0.200 F500
G1 X7.752 Y41.397 Z-0.200 F500
G1 X7.815 Y41.481 Z-0.200 F500
G1 X7.889 Y41.555 Z-0.200 F500
G1 X7.973 Y41.618 Z-0.200 F500
G1 X8.065 Y41.668 Z-0.200 F500
G1 X8.163 Y41.705 Z-0.200 F500
G1 X8.265 Y41.727 Z-0.200 F500
G1 X8.370 Y41.734 Z-0.200 F500
G1 X8.474 Y41.727 Z-0.200 F500
G1 X8.577 Y41.705 Z-0.200 F500
G1 X8.675 Y41.668 Z-0.200 F500
G1 X8.767 Y41.618 Z-0.200 F500
G1 X8.851 Y41.555 Z-0.200 F500
G1 X8.925 Y41.481 Z-0.200 F500
G1 X8.988 Y41.397 Z-0.200 F500
G1 X9.038 Y41.305 Z-0.200 F500
G1 X9.074 Y41.207 Z-0.200 F500
G1 X9.097 Y41.105 Z-0.200 F500
G1 X9.104 Y41.000 Z-0.200 F500
G1 X9.104 Y-2.000 Z-0.200 F500
G1 X9.112 Y-2.105 Z-0.200 F500
G1 X9.134 Y-2.207 Z-0.200 F500
G1 X9.171 Y-2.305 Z-0.200 F500
G1 X9.221 Y-2.397 Z-0.200 F500
G1 X9.284 Y-2.481 Z-0.200 F500
G1 X9.358 Y-2.555 Z-0.200 F500
G1 X9.442 Y-2.618 Z-0.200 F500
G1 X9.533 Y-2.668 Z-0.200 F500
G1 X9.632 Y-2.705 Z-0.200 F500
G1 X9.734 Y-2.727 Z-0.200 F500
G1 X9.839 Y-2.734 Z-0.200 F500
G1 X9.943 Y-2.727 Z-0.200 F500
G1 X10.045 Y-2.705 Z-0.200 F500
G1 X10.144 Y-2.668 Z-0.200 F500
G1 X10.236 Y-2.618 Z-0.200 F500
G1 X10.319 Y-2.555 Z-0.200 F500
G1 X10.393 Y-2.481 Z-0.200 F500
G1 X10.456 Y-2.397 Z-0.200 F500
G1 X10.506 Y-2.305 Z-0.200 F500
G1 X10.543 Y-2.207 Z-0.200 F500
G1 X10.565 Y-2.105 Z-0.200 F500
G1 X10.573 Y-2.000 Z-0.200 F500
G1 X10.573 Y41.000 Z-0.200 F500
G1 X10.580 Y41.105 Z-0.200 F500
G1 X10.603 Y41.207 Z-0.200 F500
G1 X10.639 Y41.305 Z-0.200 F500
G1 X10.689 Y41.397 Z-0.200 F500
G1 X10.752 Y41.481 Z-0.200 F500
G1 X10.826 Y41.555 Z-0.200 F500
G1 X10.910 Y41.618 Z-0.200 F500
G1 X11.002 Y41.668 Z-0.200 F500
G1 X11.100 Y41.705 Z-0.200 F500
G1 X11.203 Y41.727 Z-0.200 F500
G1 X11.307 Y41.734 Z-0.200 F500
G1 X11.412 Y41.727 Z-0.200 F500
G1 X11.514 Y41.705 Z-0.200 F500
G1 X11.612 Y41.668 Z-0.200 F500
G1 X11.704 Y41.618 Z-0.200 F500
G1 X11.788 Y41.555 Z-0.200 F500
G1 X11.862 Y41.481 Z-0.200 F500
G1 X11.925 Y41.397 Z-0.200 F500
G1 X11.975 Y41.305 Z-0.200 F500
G1 X12.012 Y41.207 Z-0.200 F500
G1 X12.034 Y41.105 Z-0.200 F500
G1 X12.041 Y41.000 Z-0.200 F500
G1 X12.041 Y-2.000 Z-0.200 F500
G1 X12.049 Y-2.105 Z-0.200 F500
G1 X12.071 Y-2.207 Z-0.200 F500
G1 X12.108 Y-2.305 Z-0.200 F500
G1 X12.158 Y-2.397 Z-0.200 F500
G1 X12.221 Y-2.481 Z-0.200 F500
G1 X12.295 Y-2.555 Z-0.200 F500
G1 X12.379 Y-2.618 Z-0.200 F500
G1 X12.471 Y-2.668 Z-0.200 F500
G1 X12.569 Y-2.705 Z-0.200 F500
G1 X12.671 Y-2.727 Z-0.200 F500
G1 X12.776 Y-2.734 Z-0.200 F500
G1 X12.880 Y-2.727 Z-0.200 F500
G1 X12.983 Y-2.705 Z-0.200 F500
G1 X13.081 Y-2.668 Z-0.200 F500
G1 X13.173 Y-2.618 Z-0.200 F500
G1 X13.257 Y-2.555 Z-0.200 F500
G1 X13.331 Y-2.481 Z-0.200 F500
G1 X13.394 Y-2.397 Z-0.200 F500
G1 X13.444 Y-2.305 Z-0.200 F500
G1 X13.480 Y-2.207 Z-0.200 F500
G1 X13.503 Y-2.105 Z-0.200 F500
G1 X13.510 Y-2.000 Z-0.200 F500
G1 X13.510 Y41.000 Z-0.200 F500
G1 X13.518 Y41.105 Z-0.200 F500
G1 X13.540 Y41.207 Z-0.200 F500
G1 X13.576 Y41.305 Z-0.200 F500
G1 X13.627 Y41.397 Z-0.200 F500
G1 X13.689 Y41.481 Z-0.200 F500
G1 X13.764 Y41.555 Z-0.200 F500
G1 X13.847 Y41.618 Z-0.200 F500
G1 X13.939 Y41.668 Z-0.200 F500
G1 X14.038 Y41.705 Z-0.200 F500
G1 X14.140 Y41.727 Z-0.200 F500
G1 X14.244 Y41.734 Z-0.200 F500
G1 X14.349 Y41.727 Z-0.200 F500
G1 X14.451 Y41.705 Z-0.200 F500
G1 X14.549 Y41.668 Z-0.200 F500
G1 X14.641 Y41.618 Z-0.200 F500
G1 X14.725 Y41.555 Z-0.200 F500
G1 X14.799 Y41.481 Z-0.200 F500
G1 X14.862 Y41.397 Z-0.200 F500
G1 X14.912 Y41.305 Z-0.200 F500
G1 X14.949 Y41.207 Z-0.200 F500
G1 X14.971 Y41.105 Z-0.200 F500
G1 X14.979 Y41.000 Z-0.200 F500
G1 X14.979 Y-2.000 Z-0.200 F500
G1 X14.986 Y-2.105 Z-0.200 F500
G1 X15.008 Y-2.207 Z-0.200 F500
G1 X15.045 Y-2.305 Z-0.200 F500
G1 X15.095 Y-2.397 Z-0.200 F500
G1 X15.158 Y-2.481 Z-0.200 F500
G1 X15.232 Y-2.555 Z-0.200 F500
G1 X15.316 Y-2.618 Z-0.200 F500
G1 X15.408 Y-2.668 Z-0.200 F500
G1 X15.506 Y-2.705 Z-0.200 F500
G1 X15.609 Y-2.727 Z-0.200 F500
G1 X15.713 Y-2.734 Z-0.200 F500
G1 X15.818 Y-2.727 Z-0.200 F500
G1 X15.920 Y-2.705 Z-0.200 F500
G1 X16.018 Y-2.668 Z-0.200 F500
G1 X16.110 Y-2.618 Z-0.200 F500
G1 X16.194 Y-2.555 Z-0.200 F500
G1 X16.268 Y-2.481 Z-0.200 F500
G1 X16.331 Y-2.397 Z-0.200 F500
G1 X16.381 Y-2.305 Z-0.200 F500
G1 X16.418 Y-2.207 Z-0.200 F500
G1 X16.440 Y-2.105 Z-0.200 F500
G1 X16.447 Y-2.000 Z-0.200 F500
G1 X16.447 Y41.000 Z-0.200 F500
G1 X16.455 Y41.105 Z-0.200 F500
G1 X16.477 Y41.207 Z-0.200 F500
G1 X16.514 Y41.305 Z-0.200 F500
G1 X16.564 Y41.397 Z-0.200 F500
G1 X16.627 Y41.481 Z-0.200 F500
G1 X16.701 Y41.555 Z-0.200 F500
G1 X16.785 Y41.618 Z-0.200 F500
G1 X16.877 Y41.668 Z-0.200 F500
G1 X16.975 Y41.705 Z-0.200 F500
G1 X17.077 Y41.727 Z-0.200 F500
G1 X17.182 Y41.734 Z-0.200 F500
G1 X17.286 Y41.727 Z-0.200 F500
G1 X17.389 Y41.705 Z-0.200 F500
G1 X17.487 Y41.668 Z-0.200 F500
G1 X17.579 Y41.618 Z-0.200 F500
G1 X17.663 Y41.555 Z-0.200 F500
G1 X17.737 Y41.481 Z-0.200 F500
G1 X17.799 Y41.397 Z-0.200 F500
G1 X17.850 Y41.305 Z-0.200 F500
G1 X17.886 Y41.207 Z-0.200 F500
G1 X17.909 Y41.105 Z-0.200 F500
G1 X17.916 Y41.000 Z-0.200 F500
G1 X17.916 Y-2.000 Z-0.200 F500
G1 X17.924 Y-2.105 Z-0.200 F500
G1 X17.946 Y-2.207 Z-0.200 F500
G1 X17.982 Y-2.305 Z-0.200 F500
G1 X18.033 Y-2.397 Z-0.200 F500
G1 X18.095 Y-2.481 Z-0.200 F500
G1 X18.169 Y-2.555 Z-0.200 F500
G1 X18.253 Y-2.618 Z-0.200 F500
G1 X18.345 Y-2.668 Z-0.200 F500
G1 X18.443 Y-2.705 Z-0.200 F500
G1 X18.546 Y-2.727 Z-0.200 F500
G1 X18.650 Y-2.734 Z-0.200 F500
G1 X18.755 Y-2.727 Z-0.200 F500
G1 X18.857 Y-2.705 Z-0.200 F500
G1 X18.955 Y-2.668 Z-0.200 F500
G1 X19.047 Y-2.618 Z-0.200 F500
G1 X19.131 Y-2.555 Z-0.200 F500
G1 X19.205 Y-2.481 Z-0.200 F500
G1 X19.268 Y-2.397 Z-0.200 F500
G1 X19.318 Y-2.305 Z-0.200 F500
G1 X19.355 Y-2.207 Z-0.200 F500
G1 X19.377 Y-2.105 Z-0.200 F500
G1 X19.385 Y-2.000 Z-0.200 F500
G1 X19.385 Y41.000 Z-0.200 F500
G1 X19.392 Y41.105 Z-0.200 F500
G1 X19.414 Y41.207 Z-0.200 F500
G1 X19.451 Y41.305 Z-0.200 F500
G1 X19.501 Y41.397 Z-0.200 F500
G1 X19.564 Y41.481 Z-0.200 F500
G1 X19.638 Y41.555 Z-0.200 F500
G1 X19.722 Y41.618 Z-0.200 F500
G1 X19.814 Y41.668 Z-0.200 F500
G1 X19.912 Y41.705 Z-0.200 F500
G1 X20.014 Y41.727 Z-0.200 F500
G1 X20.119 Y41.734 Z-0.200 F500
G1 X20.223 Y41.727 Z-0.200 F500
G1 X20.326 Y41.705 Z-0.200 F500
G1 X20.424 Y41.668 Z-0.200 F500
G1 X20.516 Y41.618 Z-0.200 F500
G1 X20.600 Y41.555 Z-0.200 F500
G1 X20.674 Y41.481 Z-0.200 F500
G1 X20.737 Y41.397 Z-0.200 F500
G1 X20.787 Y41.305 Z-0.200 F500
G1 X20.824 Y41.207 Z-0.200 F500
G1 X20.846 Y41.105 Z-0.200 F500
G1 X20.853 Y41.000 Z-0.200 F500
G1 X20.853 Y-2.000 Z-0.200 F500
G1 X20.853 Y-2.053 Z-0.194 F500
G1 X20.853 Y-2.103 Z-0.176 F500
G1 X20.853 Y-2.149 Z-0.148 F500
G1 X20.853 Y-2.186 Z-0.110 F500
G1 X20.853 Y-2.215 Z-0.065 F500
G1 X20.853 Y-2.232 Z-0.015 F500
G1 X20.853 Y-2.238 Z0.038 F500
G1 X20.853 Y-2.238 Z1.000 F500
G1 X0.292 Y-2.549 Z1.000 F500
G1 X0.292 Y-2.549 Z0.000 F500
G1 X0.292 Y-2.549 Z-0.062 F100
G1 X0.292 Y-2.543 Z-0.115 F500
G1 X0.292 Y-2.525 Z-0.165 F500
G1 X0.292 Y-2.497 Z-0.210 F500
G1 X0.292 Y-2.459 Z-0.248 F500
G1 X0.292 Y-2.414 Z-0.276 F500
G1 X0.292 Y-2.363 Z-0.294 F500
G1 X0.292 Y-2.310 Z-0.300 F500
G1 X0.292 Y-2.000 Z-0.300 F500
G1 X0.292 Y41.000 Z-0.300 F500
G1 X0.300 Y41.105 Z-0.300 F500
G1 X0.322 Y41.207 Z-0.300 F500
G1 X0.359 Y41.305 Z-0.300 F500
G1 X0.409 Y41.397 Z-0.300 F500
G1 X0.472 Y41.481 Z-0.300 F500
G1 X0.546 Y41.555 Z-0.300 F500
G1 X0.630 Y41.618 Z-0.300 F500
G1 X0.722 Y41.668 Z-0.300 F500
G1 X0.820 Y41.705 Z-0.300 F500
G1 X0.922 Y41.727 Z-0.300 F500
G1 X1.027 Y41.734 Z-0.300 F500
G1 X1.131 Y41.727 Z-0.300 F500
G1 X1.234 Y41.705 Z-0.300 F500
G1 X1.332 Y41.668 Z-0.300 F500
G1 X1.424 Y41.618 Z-0.300 F500
G1 X1.508 Y41.555 Z-0.300 F500
G1 X1.582 Y41.481 Z-0.300 F500
G1 X1.644 Y41.397 Z-0.300 F500
G1 X1.695 Y41.305 Z-0.300 F500
G1 X1.731 Y41.207 Z-0.300 F500
G1 X1.754 Y41.105 Z-0.300 F500
G1 X1.761 Y41.000 Z-0.300 F500
G1 X1.761 Y-2.000 Z-0.300 F500
G1 X1.768 Y-2.105 Z-0.300 F500
G1 X1.791 Y-2.207 Z-0.300 F500
G1 X1.827 Y-2.305 Z-0.300 F500
G1 X1.878 Y-2.397 Z-0.300 F500
G1 X1.940 Y-2.481 Z-0.300 F500
G1 X2.014 Y-2.555 Z-0.300 F500
G1 X2.098 Y-2.618 Z-0.300 F500
G1 X2.190 Y-2.668 Z-0.300 F500
G1 X2.288 Y-2.705 Z-0.300 F500
G1 X2.391 Y-2.727 Z-0.300 F500
G1 X2.495 Y-2.734 Z-0.300 F500
G1 X2.600 Y-2.727 Z-0.300 F500
G1 X2.702 Y-2.705 Z-0.300 F500
G1 X2.800 Y-2.668 Z-0.300 F500
G1 X2.892 Y-2.618 Z-0.300 F500
G1 X2.976 Y-2.555 Z-0.300 F500
G1 X3.050 Y-2.481 Z-0.300 F500
G1 X3.113 Y-2.397 Z-0.300 F500
G1 X3.163 Y-2.305 Z-0.300 F500
G1 X3.200 Y-2.207 Z-0.300 F500
G1 X3.222 Y-2.105 Z-0.300 F500
G1 X3.230 Y-2.000 Z-0.300 F500
G1 X3.230 Y41.000 Z-0.300 F500
G1 X3.237 Y41.105 Z-0.300 F500
G1 X3.259 Y41.207 Z-0.300 F500
G1 X3.296 Y41.305 Z-0.300 F500
G1 X3.346 Y41.397 Z-0.300 F500
G1 X3.409 Y41.481 Z-0.300 F500
G1 X3.483 Y41.555 Z-0.300 F500
G1 X3.567 Y41.618 Z-0.300 F500
G1 X3.659 Y41.668 Z-0.300 F500
G1 X3.757 Y41.705 Z-0.300 F500
G1 X3.859 Y41.727 Z-0.300 F500
G1 X3.964 Y41.734 Z-0.300 F500
G1 X4.068 Y41.727 Z-0.300 F500
G1 X4.171 Y41.705 Z-0.300 F500
G1 X4.269 Y41.668 Z-0.300 F500
G1 X4.361 Y41.618 Z-0.300 F500
G1 X4.445 Y41.555 Z-0.300 F500
G1 X4.519 Y41.481 Z-0.300 F500
G1 X4.582 Y41.397 Z-0.300 F500
G1 X4.632 Y41.305 Z-0.300 F500
G1 X4.669 Y41.207 Z-0.300 F500
G1 X4.691 Y41.105 Z-0.300 F500
G1 X4.698 Y41.000 Z-0.300 F500
G1 X4.698 Y-2.000 Z-0.300 F500
G1 X4.706 Y-2.105 Z-0.300 F500
G1 X4.728 Y-2.207 Z-0.300 F500
G1 X4.765 Y-2.305 Z-0.300 F500
G1 X4.815 Y-2.397 Z-0.300 F500
G1 X4.878 Y-2.481 Z-0.300 F500
G1 X4.952 Y-2.555 Z-0.300 F500
G1 X5.036 Y-2.618 Z-0.300 F500
G1 X5.128 Y-2.668 Z-0.300 F500
G1 X5.226 Y-2.705 Z-0.300 F500
G1 X5.328 Y-2.727 Z-0.300 F500
G1 X5.433 Y-2.734 Z-0.300 F500
G1 X5.537 Y-2.727 Z-0.300 F500
G1 X5.639 Y-2.705 Z-0.300 F500
G1 X5.738 Y-2.668 Z-0.300 F500
G1 X5.830 Y-2.618 Z-0.300 F500
G1 X5.913 Y-2.555 Z-0.300 F500
G1 X5.988 Y-2.481 Z-0.300 F500
G1 X6.050 Y-2.397 Z-0.300 F500
G1 X6.101 Y-2.305 Z-0.300 F500
G1 X6.137 Y-2.207 Z-0.300 F500
G1 X6.159 Y-2.105 Z-0.300 F500
G1 X6.167 Y-2.000 Z-0.300 F500
G1 X6.167 Y41.000 Z-0.300 F500
G1 X6.174 Y41.105 Z-0.300 F500
G1 X6.197 Y41.207 Z-0.300 F500
G1 X6.233 Y41.305 Z-0.300 F500
G1 X6.283 Y41.397 Z-0.300 F500
G1 X6.346 Y41.481 Z-0.300 F500
G1 X6.420 Y41.555 Z-0.300 F500
G1 X6.504 Y41.618 Z-0.300 F500
G1 X6.596 Y41.668 Z-0.300 F500
G1 X6.694 Y41.705 Z-0.300 F500
G1 X6.797 Y41.727 Z-0.300 F500
G1 X6.901 Y41.734 Z-0.300 F500
G1 X7.006 Y41.727 Z-0.300 F500
G1 X7.108 Y41.705 Z-0.300 F500
G1 X7.206 Y41.668 Z-0.300 F500
G1 X7.298 Y41.618 Z-0.300 F500
G1 X7.382 Y41.555 Z-0.300 F500
G1 X7.456 Y41.481 Z-0.300 F500
G1 X7.519 Y41.397 Z-0.300 F500
G1 X7.569 Y41.305 Z-0.300 F500
G1 X7.606 Y41.207 Z-0.300 F500
G1 X7.628 Y41.105 Z-0.300 F500
G1 X7.636 Y41.000 Z-0.300 F500
G1 X7.636 Y-2.000 Z-0.300 F500
G1 X7.643 Y-2.105 Z-0.300 F500
G1 X7.665 Y-2.207 Z-0.300 F500
G1 X7.702 Y-2.305 Z-0.300 F500
G1 X7.752 Y-2.397 Z-0.300 F500
G1 X7.815 Y-2.481 Z-0.300 F500
G1 X7.889 Y-2.555 Z-0.300 F500
G1 X7.973 Y-2.618 Z-0.300 F500
G1 X8.065 Y-2.668 Z-0.300 F500
G1 X8.163 Y-2.705 Z-0.300 F500
G1 X8.265 Y-2.727 Z-0.300 F500
G1 X8.370 Y-2.734 Z-0.300 F500
G1 X8.474 Y-2.727 Z-0.300 F500
G1 X8.577 Y-2.705 Z-0.300 F500
G1 X8.675 Y-2.668 Z-0.300 F500
G1 X8.767 Y-2.618 Z-0.300 F500
G1 X8.851 Y-2.555 Z-0.300 F500
G1 X8.925 Y-2.481 Z-0.300 F500
G1 X8.988 Y-2.397 Z-0.300 F500
G1 X9.038 Y-2.305 Z-0.300 F500
G1 X9.074 Y-2.207 Z-0.300 F500
G1 X9.097 Y-2.105 Z-0.300 F500
G1 X9.104 Y-2.000 Z-0.300 F500
G1 X9.104 Y41.000 Z-0.300 F500
G1 X9.112 Y41.105 Z-0.300 F500
G1 X9.134 Y41.207 Z-0.300 F500
G1 X9.171 Y41.305 Z-0.300 F500
G1 X9.221 Y41.397 Z-0.300 F500
G1 X9.284 Y41.481 Z-0.300 F500
G1 X9.358 Y41.555 Z-0.300 F500
G1 X9.442 Y41.618 Z-0.300 F500
G1 X9.533 Y41.668 Z-0.300 F500
G1 X9.632 Y41.705 Z-0.300 F500
G1 X9.734 Y41.727 Z-0.300 F500
G1 X9.839 Y41.734 Z-0.300 F500
G1 X9.943 Y41.727 Z-0.300 F500
G1 X10.045 Y41.705 Z-0.300 F500
G1 X10.144 Y41.668 Z-0.300 F500
G1 X10.236 Y41.618 Z-0.300 F500
G1 X10.319 Y41.555 Z-0.300 F500
G1 X10.393 Y41.481 Z-0.300 F500
G1 X10.456 Y41.397 Z-0.300 F500
G1 X10.506 Y41.305 Z-0.300 F500
G1 X10.543 Y41.207 Z-0.300 F500
G1 X10.565 Y41.105 Z-0.300 F500
G1 X10.573 Y41.000 Z-0.300 F500
G1 X10.573 Y-2.000 Z-0.300 F500
G1 X10.580 Y-2.105 Z-0.300 F500
G1 X10.603 Y-2.207 Z-0.300 F500
G1 X10.639 Y-2.305 Z-0.300 F500
G1 X10.689 Y-2.397 Z-0.300 F500
G1 X10.752 Y-2.481 Z-0.300 F500
G1 X10.826 Y-2.555 Z-0.300 F500
G1 X10.910 Y-2.618 Z-0.300 F500
G1 X11.002 Y-2.668 Z-0.300 F500
G1 X11.100 Y-2.705 Z-0.300 F500
G1 X11.203 Y-2.727 Z-0.300 F500
G1 X11.307 Y-2.734 Z-0.300 F500
G1 X11.412 Y-2.727 Z-0.300 F500
G1 X11.514 Y-2.705 Z-0.300 F500
G1 X11.612 Y-2.668 Z-0.300 F500
G1 X11.704 Y-2.618 Z-0.300 F500
G1 X11.788 Y-2.555 Z-0.300 F500
G1 X11.862 Y-2.481 Z-0.300 F500
G1 X11.925 Y-2.397 Z-0.300 F500
G1 X11.975 Y-2.305 Z-0.300 F500
G1 X12.012 Y-2.207 Z-0.300 F500
G1 X12.034 Y-2.105 Z-0.300 F500
G1 X12.041 Y-2.000 Z-0.300 F500
G1 X12.041 Y41.000 Z-0.300 F500
G1 X12.049 Y41.105 Z-0.300 F500
G1 X12.071 Y41.207 Z-0.300 F500
G1 X12.108 Y41.305 Z-0.300 F500
G1 X12.158 Y41.397 Z-0.300 F500
G1 X12.221 Y41.481 Z-0.300 F500
G1 X12.295 Y41.555 Z-0.300 F500
G1 X12.379 Y41.618 Z-0.300 F500
G1 X12.471 Y41.668 Z-0.300 F500
G1 X12.569 Y41.705 Z-0.300 F500
G1 X12.671 Y41.727 Z-0.300 F500
G1 X12.776 Y41.734 Z-0.300 F500
G1 X12.880 Y41.727 Z-0.300 F500
G1 X12.983 Y41.705 Z-0.300 F500
G1 X13.081 Y41.668 Z-0.300 F500
G1 X13.173 Y41.618 Z-0.300 F500
G1 X13.257 Y41.555 Z-0.300 F500
G1 X13.331 Y41.481 Z-0.300 F500
G1 X13.394 Y41.397 Z-0.300 F500
G1 X13.444 Y41.305 Z-0.300 F500
G1 X13.480 Y41.207 Z-0.300 F500
G1 X13.503 Y41.105 Z-0.300 F500
G1 X13.510 Y41.000 Z-0.300 F500
G1 X13.510 Y-2.000 Z-0.300 F500
G1 X13.518 Y-2.105 Z-0.300 F500
G1 X13.540 Y-2.207 Z-0.300 F500
G1 X13.576 Y-2.305 Z-0.300 F500
G1 X13.627 Y-2.397 Z-0.300 F500
G1 X13.689 Y-2.481 Z-0.300 F500
G1 X13.764 Y-2.555 Z-0.300 F500
G1 X13.847 Y-2.618 Z-0.300 F500
G1 X13.939 Y-2.668 Z-0.300 F500
G1 X14.038 Y-2.705 Z-0.300 F500
G1 X14.140 Y-2.727 Z-0.300 F500
G1 X14.244 Y-2.734 Z-0.300 F500
G1 X14.349 Y-2.727 Z-0.300 F500
G1 X14.451 Y-2.705 Z-0.300 F500
G1 X14.549 Y-2.668 Z-0.300 F500
G1 X14.641 Y-2.618 Z-0.300 F500
G1 X14.725 Y-2.555 Z-0.300 F500
G1 X14.799 Y-2.481 Z-0.300 F500
G1 X14.862 Y-2.397 Z-0.300 F500
G1 X14.912 Y-2.305 Z-0.300 F500
G1 X14.949 Y-2.207 Z-0.300 F500
G1 X14.971 Y-2.105 Z-0.300 F500
G1 X14.979 Y-2.000 Z-0.300 F500
G1 X14.979 Y41.000 Z-0.300 F500
G1 X14.986 Y41.105 Z-0.300 F500
G1 X15.008 Y41.207 Z-0.300 F500
G1 X15.045 Y41.305 Z-0.300 F500
G1 X15.095 Y41.397 Z-0.300 F500
G1 X15.158 Y41.481 Z-0.300 F500
G1 X15.232 Y41.555 Z-0.300 F500
G1 X15.316 Y41.618 Z-0.300 F500
G1 X15.408 Y41.668 Z-0.300 F500
G1 X15.506 Y41.705 Z-0.300 F500
G1 X15.609 Y41.727 Z-0.300 F500
G1 X15.713 Y41.734 Z-0.300 F500
G1 X15.818 Y41.727 Z-0.300 F500
G1 X15.920 Y41.705 Z-0.300 F500
G1 X16.018 Y41.668 Z-0.300 F500
G1 X16.110 Y41.618 Z-0.300 F500
G1 X16.194 Y41.555 Z-0.300 F500
G1 X16.268 Y41.481 Z-0.300 F500
G1 X16.331 Y41.397 Z-0.300 F500
G1 X16.381 Y41.305 Z-0.300 F500
G1 X16.418 Y41.207 Z-0.300 F500
G1 X16.440 Y41.105 Z-0.300 F500
G1 X16.447 Y41.000 Z-0.300 F500
G1 X16.447 Y-2.000 Z-0.300 F500
G1 X16.455 Y-2.105 Z-0.300 F500
G1 X16.477 Y-2.207 Z-0.300 F500
G1 X16.514 Y-2.305 Z-0.300 F500
G1 X16.564 Y-2.397 Z-0.300 F500
G1 X16.627 Y-2.481 Z-0.300 F500
G1 X16.701 Y-2.555 Z-0.300 F500
G1 X16.785 Y-2.618 Z-0.300 F500
G1 X16.877 Y-2.668 Z-0.300 F500
G1 X16.975 Y-2.705 Z-0.300 F500
G1 X17.077 Y-2.727 Z-0.300 F500
G1 X17.182 Y-2.734 Z-0.300 F500
G1 X17.286 Y-2.727 Z-0.300 F500
G1 X17.389 Y-2.705 Z-0.300 F500
G1 X17.487 Y-2.668 Z-0.300 F500
G1 X17.579 Y-2.618 Z-0.300 F500
G1 X17.663 Y-2.555 Z-0.300 F500
G1 X17.737 Y-2.481 Z-0.300 F500
G1 X17.799 Y-2.397 Z-0.300 F500
G1 X17.850 Y-2.305 Z-0.300 F500
G1 X17.886 Y-2.207 Z-0.300 F500
G1 X17.909 Y-2.105 Z-0.300 F500
G1 X17.916 Y-2.000 Z-0.300 F500
G1 X17.916 Y41.000 Z-0.300 F500
G1 X17.924 Y41.105 Z-0.300 F500
G1 X17.946 Y41.207 Z-0.300 F500
G1 X17.982 Y41.305 Z-0.300 F500
G1 X18.033 Y41.397 Z-0.300 F500
G1 X18.095 Y41.481 Z-0.300 F500
G1 X18.169 Y41.555 Z-0.300 F500
G1 X18.253 Y41.618 Z-0.300 F500
G1 X18.345 Y41.668 Z-0.300 F500
G1 X18.443 Y41.705 Z-0.300 F500
G1 X18.546 Y41.727 Z-0.300 F500
G1 X18.650 Y41.734 Z-0.300 F500
G1 X18.755 Y41.727 Z-0.300 F500
G1 X18.857 Y41.705 Z-0.300 F500
G1 X18.955 Y41.668 Z-0.300 F500
G1 X19.047 Y41.618 Z-0.300 F500
G1 X19.131 Y41.555 Z-0.300 F500
G1 X19.205 Y41.481 Z-0.300 F500
G1 X19.268 Y41.397 Z-0.300 F500
G1 X19.318 Y41.305 Z-0.300 F500
G1 X19.355 Y41.207 Z-0.300 F500
G1 X19.377 Y41.105 Z-0.300 F500
G1 X19.385 Y41.000 Z-0.300 F500
G1 X19.385 Y-2.000 Z-0.300 F500
G1 X19.392 Y-2.105 Z-0.300 F500
G1 X19.414 Y-2.207 Z-0.300 F500
G1 X19.451 Y-2.305 Z-0.300 F500
G1 X19.501 Y-2.397 Z-0.300 F500
G1 X19.564 Y-2.481 Z-0.300 F500
G1 X19.638 Y-2.555 Z-0.300 F500
G1 X19.722 Y-2.618 Z-0.300 F500
G1 X19.814 Y-2.668 Z-0.300 F500
G1 X19.912 Y-2.705 Z-0.300 F500
G1 X20.014 Y-2.727 Z-0.300 F500
G1 X20.119 Y-2.734 Z-0.300 F500
G1 X20.223 Y-2.727 Z-0.300 F500
G1 X20.326 Y-2.705 Z-0.300 F500
G1 X20.424 Y-2.668 Z-0.300 F500
G1 X20.516 Y-2.618 Z-0.300 F500
G1 X20.600 Y-2.555 Z-0.300 F500
G1 X20.674 Y-2.481 Z-0.300 F500
G1 X20.737 Y-2.397 Z-0.300 F500
G1 X20.787 Y-2.305 Z-0.300 F500
G1 X20.824 Y-2.207 Z-0.300 F500
G1 X20.846 Y-2.105 Z-0.300 F500
G1 X20.853 Y-2.000 Z-0.300 F500
G1 X20.853 Y41.000 Z-0.300 F500
G1 X20.853 Y41.053 Z-0.294 F500
G1 X20.853 Y41.103 Z-0.276 F500
G1 X20.853 Y41.149 Z-0.248 F500
G1 X20.853 Y41.186 Z-0.210 F500
G1 X20.853 Y41.215 Z-0.165 F500
G1 X20.853 Y41.232 Z-0.115 F500
G1 X20.853 Y41.238 Z-0.062 F500
G1 X20.853 Y41.238 Z1.000 F500
G1 X0.292 Y41.549 Z1.000 F500
G1 X0.292 Y41.549 Z0.000 F500
G1 X0.292 Y41.549 Z-0.162 F100
G1 X0.292 Y41.543 Z-0.215 F500
G1 X0.292 Y41.525 Z-0.265 F500
G1 X0.292 Y41.497 Z-0.310 F500
G1 X0.292 Y41.459 Z-0.348 F500
G1 X0.292 Y41.414 Z-0.376 F500
G1 X0.292 Y41.363 Z-0.394 F500
G1 X0.292 Y41.310 Z-0.400 F500
G1 X0.292 Y41.000 Z-0.400 F500
G1 X0.292 Y-2.000 Z-0.400 F500
G1 X0.300 Y-2.105 Z-0.400 F500
G1 X0.322 Y-2.207 Z-0.400 F500
G1 X0.359 Y-2.305 Z-0.400 F500
G1 X0.409 Y-2.397 Z-0.400 F500
G1 X0.472 Y-2.481 Z-0.400 F500
G1 X0.546 Y-2.555 Z-0.400 F500
G1 X0.630 Y-2.618 Z-0.400 F500
G1 X0.722 Y-2.668 Z-0.400 F500
G1 X0.820 Y-2.705 Z-0.400 F500
G1 X0.922 Y-2.727 Z-0.400 F500
G1 X1.027 Y-2.734 Z-0.400 F500
G1 X1.131 Y-2.727 Z-0.400 F500
G1 X1.234 Y-2.705 Z-0.400 F500
G1 X1.332 Y-2.668 Z-0.400 F500
G1 X1.424 Y-2.618 Z-0.400 F500
G1 X1.508 Y-2.555 Z-0.400 F500
G1 X1.582 Y-2.481 Z-0.400 F500
G1 X1.644 Y-2.397 Z-0.400 F500
G1 X1.695 Y-2.305 Z-0.400 F500
G1 X1.731 Y-2.207 Z-0.400 F500
G1 X1.754 Y-2.105 Z-0.400 F500
G1 X1.761 Y-2.000 Z-0.400 F500
G1 X1.761 Y41.000 Z-0.400 F500
G1 X1.768 Y41.105 Z-0.400 F500
G1 X1.791 Y41.207 Z-0.400 F500
G1 X1.827 Y41.305 Z-0.400 F500
G1 X1.878 Y41.397 Z-0.400 F500
G1 X1.940 Y41.481 Z-0.400 F500
G1 X2.014 Y41.555 Z-0.400 F500
G1 X2.098 Y41.618 Z-0.400 F500
G1 X2.190 Y41.668 Z-0.400 F500
G1 X2.288 Y41.705 Z-0.400 F500
G1 X2.391 Y41.727 Z-0.400 F500
G1 X2.495 Y41.734 Z-0.400 F500
G1 X2.600 Y41.727 Z-0.400 F500
G1 X2.702 Y41.705 Z-0.400 F500
G1 X2.800 Y41.668 Z-0.400 F500
G1 X2.892 Y41.618 Z-0.400 F500
G1 X2.976 Y41.555 Z-0.400 F500
G1 X3.050 Y41.481 Z-0.400 F500
G1 X3.113 Y41.397 Z-0.400 F500
G1 X3.163 Y41.305 Z-0.400 F500
G1 X3.200 Y41.207 Z-0.400 F500
G1 X3.222 Y41.105 Z-0.400 F500
G1 X3.230 Y41.000 Z-0.400 F500
G1 X3.230 Y-2.000 Z-0.400 F500
G1 X3.237 Y-2.105 Z-0.400 F500
G1 X3.259 Y-2.207 Z-0.400 F500
G1 X3.296 Y-2.305 Z-0.400 F500
G1 X3.346 Y-2.397 Z-0.400 F500
G1 X3.409 Y-2.481 Z-0.400 F500
G1 X3.483 Y-2.555 Z-0.400 F500
G1 X3.567 Y-2.618 Z-0.400 F500
G1 X3.659 Y-2.668 Z-0.400 F500
G1 X3.757 Y-2.705 Z-0.400 F500
G1 X3.859 Y-2.727 Z-0.400 F500
G1 X3.964 Y-2.734 Z-0.400 F500
G1 X4.068 Y-2.727 Z-0.400 F500
G1 X4.171 Y-2.705 Z-0.400 F500
G1 X4.269 Y-2.668 Z-0.400 F500
G1 X4.361 Y-2.618 Z-0.400 F500
G1 X4.445 Y-2.555 Z-0.400 F500
G1 X4.519 Y-2.481 Z-0.400 F500
G1 X4.582 Y-2.397 Z-0.400 F500
G1 X4.632 Y-2.305 Z-0.400 F500
G1 X4.669 Y-2.207 Z-0.400 F500
G1 X4.691 Y-2.105 Z-0.400 F500
G1 X4.698 Y-2.000 Z-0.400 F500
G1 X4.698 Y41.000 Z-0.400 F500
G1 X4.706 Y41.105 Z-0.400 F500
G1 X4.728 Y41.207 Z-0.400 F500
G1 X4.765 Y41.305 Z-0.400 F500
G1 X4.815 Y41.397 Z-0.400 F500
G1 X4.878 Y41.481 Z-0.400 F500
G1 X4.952 Y41.555 Z-0.400 F500
G1 X5.036 Y41.618 Z-0.400 F500
G1 X5.128 Y41.668 Z-0.400 F500
G1 X5.226 Y41.705 Z-0.400 F500
G1 X5.328 Y41.727 Z-0.400 F500
G1 X5.433 Y41.734 Z-0.400 F500
G1 X5.537 Y41.727 Z-0.400 F500
G1 X5.639 Y41.705 Z-0.400 F500
G1 X5.738 Y41.668 Z-0.400 F500
G1 X5.830 Y41.618 Z-0.400 F500
G1 X5.913 Y41.555 Z-0.400 F500
G1 X5.988 Y41.481 Z-0.400 F500
G1 X6.050 Y41.397 Z-0.400 F500
G1 X6.101 Y41.305 Z-0.400 F500
G1 X6.137 Y41.207 Z-0.400 F500
G1 X6.159 Y41.105 Z-0.400 F500
G1 X6.167 Y41.000 Z-0.400 F500
G1 X6.167 Y-2.000 Z-0.400 F500
G1 X6.174 Y-2.105 Z-0.400 F500
G1 X6.197 Y-2.207 Z-0.400 F500
G1 X6.233 Y-2.305 Z-0.400 F500
G1 X6.283 Y-2.397 Z-0.400 F500
G1 X6.346 Y-2.481 Z-0.400 F500
G1 X6.420 Y-2.555 Z-0.400 F500
G1 X6.504 Y-2.618 Z-0.400 F500
G1 X6.596 Y-2.668 Z-0.400 F500
G1 X6.694 Y-2.705 Z-0.400 F500
G1 X6.797 Y-2.727 Z-0.400 F500
G1 X6.901 Y-2.734 Z-0.400 F500
G1 X7.006 Y-2.727 Z-0.400 F500
G1 X7.108 Y-2.705 Z-0.400 F500
G1 X7.206 Y-2.668 Z-0.400 F500
G1 X7.298 Y-2.618 Z-0.400 F500
G1 X7.382 Y-2.555 Z-0.400 F500
G1 X7.456 Y-2.481 Z-0.400 F500
G1 X7.519 Y-2.397 Z-0.400 F500
G1 X7.569 Y-2.305 Z-0.400 F500
G1 X7.606 Y-2.207 Z-0.400 F500
G1 X7.628 Y-2.105 Z-0.400 F500
G1 X7.636 Y-2.000 Z-0.400 F500
G1 X7.636 Y41.000 Z-0.400 F500
G1 X7.643 Y41.105 Z-0.400 F500
G1 X7.665 Y41.207 Z-0.400 F500
G1 X7.702 Y41.305 Z-0.400 F500
G1 X7.752 Y41.397 Z-0.400 F500
G1 X7.815 Y41.481 Z-0.400 F500
G1 X7.889 Y41.555 Z-0.400 F500
G1 X7.973 Y41.618 Z-0.400 F500
G1 X8.065 Y41.668 Z-0.400 F500
G1 X8.163 Y41.705 Z-0.400 F500
G1 X8.265 Y41.727 Z-0.400 F500
G1 X8.370 Y41.734 Z-0.400 F500
G1 X8.474 Y41.727 Z-0.400 F500
G1 X8.577 Y41.705 Z-0.400 F500
G1 X8.675 Y41.668 Z-0.400 F500
G1 X8.767 Y41.618 Z-0.400 F500
G1 X8.851 Y41.555 Z-0.400 F500
G1 X8.925 Y41.481 Z-0.400 F500
G1 X8.988 Y41.397 Z-0.400 F500
G1 X9.038 Y41.305 Z-0.400 F500
G1 X9.074 Y41.207 Z-0.400 F500
G1 X9.097 Y41.105 Z-0.400 F500
G1 X9.104 Y41.000 Z-0.400 F500
G1 X9.104 Y-2.000 Z-0.400 F500
G1 X9.112 Y-2.105 Z-0.400 F500
G1 X9.134 Y-2.207 Z-0.400 F500
G1 X9.171 Y-2.305 Z-0.400 F500
G1 X9.221 Y-2.397 Z-0.400 F500
G1 X9.284 Y-2.481 Z-0.400 F500
G1 X9.358 Y-2.555 Z-0.400 F500
G1 X9.442 Y-2.618 Z-0.400 F500
G1 X9.533 Y-2.668 Z-0.400 F500
G1 X9.632 Y-2.705 Z-0.400 F500
G1 X9.734 Y-2.727 Z-0.400 F500
G1 X9.839 Y-2.734 Z-0.400 F500
G1 X9.943 Y-2.727 Z-0.400 F500
G1 X10.045 Y-2.705 Z-0.400 F500
G1 X10.144 Y-2.668 Z-0.400 F500
G1 X10.236 Y-2.618 Z-0.400 F500
G1 X10.319 Y-2.555 Z-0.400 F500
G1 X10.393 Y-2.481 Z-0.400 F500
G1 X10.456 Y-2.397 Z-0.400 F500
G1 X10.506 Y-2.305 Z-0.400 F500
G1 X10.543 Y-2.207 Z-0.400 F500
G1 X10.565 Y-2.105 Z-0.400 F500
G1 X10.573 Y-2.000 Z-0.400 F500
G1 X10.573 Y41.000 Z-0.400 F500
G1 X10.580 Y41.105 Z-0.400 F500
G1 X10.603 Y41.207 Z-0.400 F500
G1 X10.639 Y41.305 Z-0.400 F500
G1 X10.689 Y41.397 Z-0.400 F500
G1 X10.752 Y41.481 Z-0.400 F500
G1 X10.826 Y41.555 Z-0.400 F500
G1 X10.910 Y41.618 Z-0.400 F500
G1 X11.002 Y41.668 Z-0.400 F500
G1 X11.100 Y41.705 Z-0.400 F500
G1 X11.203 Y41.727 Z-0.400 F500
G1 X11.307 Y41.734 Z-0.400 F500
G1 X11.412 Y41.727 Z-0.400 F500
G1 X11.514 Y41.705 Z-0.400 F500
G1 X11.612 Y41.668 Z-0.400 F500
G1 X11.704 Y41.618 Z-0.400 F500
G1 X11.788 Y41.555 Z-0.400 F500
G1 X11.862 Y41.481 Z-0.400 F500
G1 X11.925 Y41.397 Z-0.400 F500
G1 X11.975 Y41.305 Z-0.400 F500
G1 X12.012 Y41.207 Z-0.400 F500
G1 X12.034 Y41.105 Z-0.400 F500
G1 X12.041 Y41.000 Z-0.400 F500
G1 X12.041 Y-2.000 Z-0.400 F500
G1 X12.049 Y-2.105 Z-0.400 F500
G1 X12.071 Y-2.207 Z-0.400 F500
G1 X12.108 Y-2.305 Z-0.400 F500
G1 X12.158 Y-2.397 Z-0.400 F500
G1 X12.221 Y-2.481 Z-0.400 F500
G1 X12.295 Y-2.555 Z-0.400 F500
G1 X12.379 Y-2.618 Z-0.400 F500
G1 X12.471 Y-2.668 Z-0.400 F500
G1 X12.569 Y-2.705 Z-0.400 F500
G1 X12.671 Y-2.727 Z-0.400 F500
G1 X12.776 Y-2.734 Z-0.400 F500
G1 X12.880 Y-2.727 Z-0.400 F500
G1 X12.983 Y-2.705 Z-0.400 F500
G1 X13.081 Y-2.668 Z-0.400 F500
G1 X13.173 Y-2.618 Z-0.400 F500
G1 X13.257 Y-2.555 Z-0.400 F500
G1 X13.331 Y-2.481 Z-0.400 F500
G1 X13.394 Y-2.397 Z-0.400 F500
G1 X13.444 Y-2.305 Z-0.400 F500
G1 X13.480 Y-2.207 Z-0.400 F500
G1 X13.503 Y-2.105 Z-0.400 F500
G1 X13.510 Y-2.000 Z-0.400 F500
G1 X13.510 Y41.000 Z-0.400 F500
G1 X13.518 Y41.105 Z-0.400 F500
G1 X13.540 Y41.207 Z-0.400 F500
G1 X13.576 Y41.305 Z-0.400 F500
G1 X13.627 Y41.397 Z-0.400 F500
G1 X13.689 Y41.481 Z-0.400 F500
G1 X13.764 Y41.555 Z-0.400 F500
G1 X13.847 Y41.618 Z-0.400 F500
G1 X13.939 Y41.668 Z-0.400 F500
G1 X14.038 Y41.705 Z-0.400 F500
G1 X14.140 Y41.727 Z-0.400 F500
G1 X14.244 Y41.734 Z-0.400 F500
G1 X14.349 Y41.727 Z-0.400 F500
G1 X14.451 Y41.705 Z-0.400 F500
G1 X14.549 Y41.668 Z-0.400 F500
G1 X14.641 Y41.618 Z-0.400 F500
G1 X14.725 Y41.555 Z-0.400 F500
G1 X14.799 Y41.481 Z-0.400 F500
G1 X14.862 Y41.397 Z-0.400 F500
G1 X14.912 Y41.305 Z-0.400 F500
G1 X14.949 Y41.207 Z-0.400 F500
G1 X14.971 Y41.105 Z-0.400 F500
G1 X14.979 Y41.000 Z-0.400 F500
G1 X14.979 Y-2.000 Z-0.400 F500
G1 X14.986 Y-2.105 Z-0.400 F500
G1 X15.008 Y-2.207 Z-0.400 F500
G1 X15.045 Y-2.305 Z-0.400 F500
G1 X15.095 Y-2.397 Z-0.400 F500
G1 X15.158 Y-2.481 Z-0.400 F500
G1 X15.232 Y-2.555 Z-0.400 F500
G1 X15.316 Y-2.618 Z-0.400 F500
G1 X15.408 Y-2.668 Z-0.400 F500
G1 X15.506 Y-2.705 Z-0.400 F500
G1 X15.609 Y-2.727 Z-0.400 F500
G1 X15.713 Y-2.734 Z-0.400 F500
G1 X15.818 Y-2.727 Z-0.400 F500
G1 X15.920 Y-2.705 Z-0.400 F500
G1 X16.018 Y-2.668 Z-0.400 F500
G1 X16.110 Y-2.618 Z-0.400 F500
G1 X16.194 Y-2.555 Z-0.400 F500
G1 X16.268 Y-2.481 Z-0.400 F500
G1 X16.331 Y-2.397 Z-0.400 F500
G1 X16.381 Y-2.305 Z-0.400 F500
G1 X16.418 Y-2.207 Z-0.400 F500
G1 X16.440 Y-2.105 Z-0.400 F500
G1 X16.447 Y-2.000 Z-0.400 F500
G1 X16.447 Y41.000 Z-0.400 F500
G1 X16.455 Y41.105 Z-0.400 F500
G1 X16.477 Y41.207 Z-0.400 F500
G1 X16.514 Y41.305 Z-0.400 F500
G1 X16.564 Y41.397 Z-0.400 F500
G1 X16.627 Y41.481 Z-0.400 F500
G1 X16.701 Y41.555 Z-0.400 F500
G1 X16.785 Y41.618 Z-0.400 F500
G1 X16.877 Y41.668 Z-0.400 F500
G1 X16.975 Y41.705 Z-0.400 F500
G1 X17.077 Y41.727 Z-0.400 F500
G1 X17.182 Y41.734 Z-0.400 F500
G1 X17.286 Y41.727 Z-0.400 F500
G1 X17.389 Y41.705 Z-0.400 F500
G1 X17.487 Y41.668 Z-0.400 F500
G1 X17.579 Y41.618 Z-0.400 F500
G1 X17.663 Y41.555 Z-0.400 F500
G1 X17.737 Y41.481 Z-0.400 F500
G1 X17.799 Y41.397 Z-0.400 F500
G1 X17.850 Y41.305 Z-0.400 F500
G1 X17.886 Y41.207 Z-0.400 F500
G1 X17.909 Y41.105 Z-0.400 F500
G1 X17.916 Y41.000 Z-0.400 F500
G1 X17.916 Y-2.000 Z-0.400 F500
G1 X17.924 Y-2.105 Z-0.400 F500
G1 X17.946 Y-2.207 Z-0.400 F500
G1 X17.982 Y-2.305 Z-0.400 F500
G1 X18.033 Y-2.397 Z-0.400 F500
G1 X18.095 Y-2.481 Z-0.400 F500
G1 X18.169 Y-2.555 Z-0.400 F500
G1 X18.253 Y-2.618 Z-0.400 F500
G1 X18.345 Y-2.668 Z-0.400 F500
G1 X18.443 Y-2.705 Z-0.400 F500
G1 X18.546 Y-2.727 Z-0.400 F500
G1 X18.650 Y-2.734 Z-0.400 F500
G1 X18.755 Y-2.727 Z-0.400 F500
G1 X18.857 Y-2.705 Z-0.400 F500
G1 X18.955 Y-2.668 Z-0.400 F500
G1 X19.047 Y-2.618 Z-0.400 F500
G1 X19.131 Y-2.555 Z-0.400 F500
G1 X19.205 Y-2.481 Z-0.400 F500
G1 X19.268 Y-2.397 Z-0.400 F500
G1 X19.318 Y-2.305 Z-0.400 F500
G1 X19.355 Y-2.207 Z-0.400 F500
G1 X19.377 Y-2.105 Z-0.400 F500
G1 X19.385 Y-2.000 Z-0.400 F500
G1 X19.385 Y41.000 Z-0.400 F500
G1 X19.392 Y41.105 Z-0.400 F500
G1 X19.414 Y41.207 Z-0.400 F500
G1 X19.451 Y41.305 Z-0.400 F500
G1 X19.501 Y41.397 Z-0.400 F500
G1 X19.564 Y41.481 Z-0.400 F500
G1 X19.638 Y41.555 Z-0.400 F500
G1 X19.722 Y41.618 Z-0.400 F500
G1 X19.814 Y41.668 Z-0.400 F500
G1 X19.912 Y41.705 Z-0.400 F500
G1 X20.014 Y41.727 Z-0.400 F500
G1 X20.119 Y41.734 Z-0.400 F500
G1 X20.223 Y41.727 Z-0.400 F500
G1 X20.326 Y41.705 Z-0.400 F500
G1 X20.424 Y41.668 Z-0.400 F500
G1 X20.516 Y41.618 Z-0.400 F500
G1 X20.600 Y41.555 Z-0.400 F500
G1 X20.674 Y41.481 Z-0.400 F500
G1 X20.737 Y41.397 Z-0.400 F500
G1 X20.787 Y41.305 Z-0.400 F500
G1 X20.824 Y41.207 Z-0.400 F500
G1 X20.846 Y41.105 Z-0.400 F500
G1 X20.853 Y41.000 Z-0.400 F500
G1 X20.853 Y-2.000 Z-0.400 F500
G1 X20.853 Y-2.053 Z-0.394 F500
G1 X20.853 Y-2.103 Z-0.376 F500
G1 X20.853 Y-2.149 Z-0.348 F500
G1 X20.853 Y-2.186 Z-0.310 F500
G1 X20.853 Y-2.215 Z-0.265 F500
G1 X20.853 Y-2.232 Z-0.215 F500
G1 X20.853 Y-2.238 Z-0.162 F500
G1 X20.853 Y-2.238 Z1.000 F500
G1 X0.292 Y-2.549 Z1.000 F500
G1 X0.292 Y-2.549 Z0.000 F500
G1 X0.292 Y-2.549 Z-0.262 F100
G1 X0.292 Y-2.543 Z-0.315 F500
G1 X0.292 Y-2.525 Z-0.365 F500
G1 X0.292 Y-2.497 Z-0.410 F500
G1 X0.292 Y-2.459 Z-0.448 F500
G1 X0.292 Y-2.414 Z-0.476 F500
G1 X0.292 Y-2.363 Z-0.494 F500
G1 X0.292 Y-2.310 Z-0.500 F500
G1 X0.292 Y-2.000 Z-0.500 F500
G1 X0.292 Y41.000 Z-0.500 F500
G1 X0.300 Y41.105 Z-0.500 F500
G1 X0.322 Y41.207 Z-0.500 F500
G1 X0.359 Y41.305 Z-0.500 F500
G1 X0.409 Y41.397 Z-0.500 F500
G1 X0.472 Y41.481 Z-0.500 F500
G1 X0.546 Y41.555 Z-0.500 F500
G1 X0.630 Y41.618 Z-0.500 F500
G1 X0.722 Y41.668 Z-0.500 F500
G1 X0.820 Y41.705 Z-0.500 F500
G1 X0.922 Y41.727 Z-0.500 F500
G1 X1.027 Y41.734 Z-0.500 F500
G1 X1.131 Y41.727 Z-0.500 F500
G1 X1.234 Y41.705 Z-0.500 F500
G1 X1.332 Y41.668 Z-0.500 F500
G1 X1.424 Y41.618 Z-0.500 F500
G1 X1.508 Y41.555 Z-0.500 F500
G1 X1.582 Y41.481 Z-0.500 F500
G1 X1.644 Y41.397 Z-0.500 F500
G1 X1.695 Y41.305 Z-0.500 F500
G1 X1.731 Y41.207 Z-0.500 F500
G1 X1.754 Y41.105 Z-0.500 F500
G1 X1.761 Y41.000 Z-0.500 F500
G1 X1.761 Y-2.000 Z-0.500 F500
G1 X1.768 Y-2.105 Z-0.500 F500
G1 X1.791 Y-2.207 Z-0.500 F500
G1 X1.827 Y-2.305 Z-0.500 F500
G1 X1.878 Y-2.397 Z-0.500 F500
G1 X1.940 Y-2.481 Z-0.500 F500
G1 X2.014 Y-2.555 Z-0.500 F500
G1 X2.098 Y-2.618 Z-0.500 F500
G1 X2.190 Y-2.668 Z-0.500 F500
G1 X2.288 Y-2.705 Z-0.500 F500
G1 X2.391 Y-2.727 Z-0.500 F500
G1 X2.495 Y-2.734 Z-0.500 F500
G1 X2.600 Y-2.727 Z-0.500 F500
G1 X2.702 Y-2.705 Z-0.500 F500
G1 X2.800 Y-2.668 Z-0.500 F500
G1 X2.892 Y-2.618 Z-0.500 F500
G1 X2.976 Y-2.555 Z-0.500 F500
G1 X3.050 Y-2.481 Z-0.500 F500
G1 X3.113 Y-2.397 Z-0.500 F500
G1 X3.163 Y-2.305 Z-0.500 F500
G1 X3.200 Y-2.207 Z-0.500 F500
G1 X3.222 Y-2.105 Z-0.500 F500
G1 X3.230 Y-2.000 Z-0.500 F500
G1 X3.230 Y41.000 Z-0.500 F500
G1 X3.237 Y41.105 Z-0.500 F500
G1 X3.259 Y41.207 Z-0.500 F500
G1 X3.296 Y41.305 Z-0.500 F500
G1 X3.346 Y41.397 Z-0.500 F500
G1 X3.409 Y41.481 Z-0.500 F500
G1 X3.483 Y41.555 Z-0.500 F500
G1 X3.567 Y41.618 Z-0.500 F500
G1 X3.659 Y41.668 Z-0.500 F500
G1 X3.757 Y41.705 Z-0.500 F500
G1 X3.859 Y41.727 Z-0.500 F500
G1 X3.964 Y41.734 Z-0.500 F500
G1 X4.068 Y41.727 Z-0.500 F500
G1 X4.171 Y41.705 Z-0.500 F500
G1 X4.269 Y41.668 Z-0.500 F500
G1 X4.361 Y41.618 Z-0.500 F500
G1 X4.445 Y41.555 Z-0.500 F500
G1 X4.519 Y41.481 Z-0.500 F500
G1 X4.582 Y41.397 Z-0.500 F500
G1 X4.632 Y41.305 Z-0.500 F500
G1 X4.669 Y41.207 Z-0.500 F500
G1 X4.691 Y41.105 Z-0.500 F500
G1 X4.698 Y41.000 Z-0.500 F500
G1 X4.698 Y-2.000 Z-0.500 F500
G1 X4.706 Y-2.105 Z-0.500 F500
G1 X4.728 Y-2.207 Z-0.500 F500
G1 X4.765 Y-2.305 Z-0.500 F500
G1 X4.815 Y-2.397 Z-0.500 F500
G1 X4.878 Y-2.481 Z-0.500 F500
G1 X4.952 Y-2.555 Z-0.500 F500
G1 X5.036 Y-2.618 Z-0.500 F500
G1 X5.128 Y-2.668 Z-0.500 F500
G1 X5.226 Y-2.705 Z-0.500 F500
G1 X5.328 Y-2.727 Z-0.500 F500
G1 X5.433 Y-2.734 Z-0.500 F500
G1 X5.537 Y-2.727 Z-0.500 F500
G1 X5.639 Y-2.705 Z-0.500 F500
G1 X5.738 Y-2.668 Z-0.500 F500
G1 X5.830 Y-2.618 Z-0.500 F500
G1 X5.913 Y-2.555 Z-0.500 F500
G1 X5.988 Y-2.481 Z-0.500 F500
G1 X6.050 Y-2.397 Z-0.500 F500
G1 X6.101 Y-2.305 Z-0.500 F500
G1 X6.137 Y-2.207 Z-0.500 F500
G1 X6.159 Y-2.105 Z-0.500 F500
G1 X6.167 Y-2.000 Z-0.500 F500
G1 X6.167 Y41.000 Z-0.500 F500
G1 X6.174 Y41.105 Z-0.500 F500
G1 X6.197 Y41.207 Z-0.500 F500
G1 X6.233 Y41.305 Z-0.500 F500
G1 X6.283 Y41.397 Z-0.500 F500
G1 X6.346 Y41.481 Z-0.500 F500
G1 X6.420 Y41.555 Z-0.500 F500
G1 X6.504 Y41.618 Z-0.500 F500
G1 X6.596 Y41.668 Z-0.500 F500
G1 X6.694 Y41.705 Z-0.500 F500
G1 X6.797 Y41.727 Z-0.500 F500
G1 X6.901 Y41.734 Z-0.500 F500
G1 X7.006 Y41.727 Z-0.500 F500
G1 X7.108 Y41.705 Z-0.500 F500
G1 X7.206 Y41.668 Z-0.500 F500
G1 X7.298 Y41.618 Z-0.500 F500
G1 X7.382 Y41.555 Z-0.500 F500
G1 X7.456 Y41.481 Z-0.500 F500
G1 X7.519 Y41.397 Z-0.500 F500
G1 X7.569 Y41.305 Z-0.500 F500
G1 X7.606 Y41.207 Z-0.500 F500
G1 X7.628 Y41.105 Z-0.500 F500
G1 X7.636 Y41.000 Z-0.500 F500
G1 X7.636 Y-2.000 Z-0.500 F500
G1 X7.643 Y-2.105 Z-0.500 F500
G1 X7.665 Y-2.207 Z-0.500 F500
G1 X7.702 Y-2.305 Z-0.500 F500
G1 X7.752 Y-2.397 Z-0.500 F500
G1 X7.815 Y-2.481 Z-0.500 F500
G1 X7.889 Y-2.555 Z-0.500 F500
G1 X7.973 Y-2.618 Z-0.500 F500
G1 X8.065 Y-2.668 Z-0.500 F500
G1 X8.163 Y-2.705 Z-0.500 F500
G1 X8.265 Y-2.727 Z-0.500 F500
G1 X8.370 Y-2.734 Z-0.500 F500
G1 X8.474 Y-2.727 Z-0.500 F500
G1 X8.577 Y-2.705 Z-0.500 F500
G1 X8.675 Y-2.668 Z-0.500 F500
G1 X8.767 Y-2.618 Z-0.500 F500
G1 X8.851 Y-2.555 Z-0.500 F500
G1 X8.925 Y-2.481 Z-0.500 F500
G1 X8.988 Y-2.397 Z-0.500 F500
G1 X9.038 Y-2.305 Z-0.500 F500
G1 X9.074 Y-2.207 Z-0.500 F500
G1 X9.097 Y-2.105 Z-0.500 F500
G1 X9.104 Y-2.000 Z-0.500 F500
G1 X9.104 Y41.000 Z-0.500 F500
G1 X9.112 Y41.105 Z-0.500 F500
G1 X9.134 Y41.207 Z-0.500 F500
G1 X9.171 Y41.305 Z-0.500 F500
G1 X9.221 Y41.397 Z-0.500 F500
G1 X9.284 Y41.481 Z-0.500 F500
G1 X9.358 Y41.555 Z-0.500 F500
G1 X9.442 Y41.618 Z-0.500 F500
G1 X9.533 Y41.668 Z-0.500 F500
G1 X9.632 Y41.705 Z-0.500 F500
G1 X9.734 Y41.727 Z-0.500 F500
G1 X9.839 Y41.734 Z-0.500 F500
G1 X9.943 Y41.727 Z-0.500 F500
G1 X10.045 Y41.705 Z-0.500 F500
G1 X10.144 Y41.668 Z-0.500 F500
G1 X10.236 Y41.618 Z-0.500 F500
G1 X10.319 Y41.555 Z-0.500 F500
G1 X10.393 Y41.481 Z-0.500 F500
G1 X10.456 Y41.397 Z-0.500 F500
G1 X10.506 Y41.305 Z-0.500 F500
G1 X10.543 Y41.207 Z-0.500 F500
G1 X10.565 Y41.105 Z-0.500 F500
G1 X10.573 Y41.000 Z-0.500 F500
G1 X10.573 Y-2.000 Z-0.500 F500
G1 X10.580 Y-2.105 Z-0.500 F500
G1 X10.603 Y-2.207 Z-0.500 F500
G1 X10.639 Y-2.305 Z-0.500 F500
G1 X10.689 Y-2.397 Z-0.500 F500
G1 X10.752 Y-2.481 Z-0.500 F500
G1 X10.826 Y-2.555 Z-0.500 F500
G1 X10.910 Y-2.618 Z-0.500 F500
G1 X11.002 Y-2.668 Z-0.500 F500
G1 X11.100 Y-2.705 Z-0.500 F500
G1 X11.203 Y-2.727 Z-0.500 F500
G1 X11.307 Y-2.734 Z-0.500 F500
G1 X11.412 Y-2.727 Z-0.500 F500
G1 X11.514 Y-2.705 Z-0.500 F500
G1 X11.612 Y-2.668 Z-0.500 F500
G1 X11.704 Y-2.618 Z-0.500 F500
G1 X11.788 Y-2.555 Z-0.500 F500
G1 X11.862 Y-2.481 Z-0.500 F500
G1 X11.925 Y-2.397 Z-0.500 F500
G1 X11.975 Y-2.305 Z-0.500 F500
G1 X12.012 Y-2.207 Z-0.500 F500
G1 X12.034 Y-2.105 Z-0.500 F500
G1 X12.041 Y-2.000 Z-0.500 F500
G1 X12.041 Y41.000 Z-0.500 F500
G1 X12.049 Y41.105 Z-0.500 F500
G1 X12.071 Y41.207 Z-0.500 F500
G1 X12.108 Y41.305 Z-0.500 F500
G1 X12.158 Y41.397 Z-0.500 F500
G1 X12.221 Y41.481 Z-0.500 F500
G1 X12.295 Y41.555 Z-0.500 F500
G1 X12.379 Y41.618 Z-0.500 F500
G1 X12.471 Y41.668 Z-0.500 F500
G1 X12.569 Y41.705 Z-0.500 F500
G1 X12.671 Y41.727 Z-0.500 F500
G1 X12.776 Y41.734 Z-0.500 F500
G1 X12.880 Y41.727 Z-0.500 F500
G1 X12.983 Y41.705 Z-0.500 F500
G1 X13.081 Y41.668 Z-0.500 F500
G1 X13.173 Y41.618 Z-0.500 F500
G1 X13.257 Y41.555 Z-0.500 F500
G1 X13.331 Y41.481 Z-0.500 F500
G1 X13.394 Y41.397 Z-0.500 F500
G1 X13.444 Y41.305 Z-0.500 F500
G1 X13.480 Y41.207 Z-0.500 F500
G1 X13.503 Y41.105 Z-0.500 F500
G1 X13.510 Y41.000 Z-0.500 F500
G1 X13.510 Y-2.000 Z-0.500 F500
G1 X13.518 Y-2.105 Z-0.500 F500
G1 X13.540 Y-2.207 Z-0.500 F500
G1 X13.576 Y-2.305 Z-0.500 F500
G1 X13.627 Y-2.397 Z-0.500 F500
G1 X13.689 Y-2.481 Z-0.500 F500
G1 X13.764 Y-2.555 Z-0.500 F500
G1 X13.847 Y-2.618 Z-0.500 F500
G1 X13.939 Y-2.668 Z-0.500 F500
G1 X14.038 Y-2.705 Z-0.500 F500
G1 X14.140 Y-2.727 Z-0.500 F500
G1 X14.244 Y-2.734 Z-0.500 F500
G1 X14.349 Y-2.727 Z-0.500 F500
G1 X14.451 Y-2.705 Z-0.500 F500
G1 X14.549 Y-2.668 Z-0.500 F500
G1 X14.641 Y-2.618 Z-0.500 F500
G1 X14.725 Y-2.555 Z-0.500 F500
G1 X14.799 Y-2.481 Z-0.500 F500
G1 X14.862 Y-2.397 Z-0.500 F500
G1 X14.912 Y-2.305 Z-0.500 F500
G1 X14.949 Y-2.207 Z-0.500 F500
G1 X14.971 Y-2.105 Z-0.500 F500
G1 X14.979 Y-2.000 Z-0.500 F500
G1 X14.979 Y41.000 Z-0.500 F500
G1 X14.986 Y41.105 Z-0.500 F500
G1 X15.008 Y41.207 Z-0.500 F500
G1 X15.045 Y41.305 Z-0.500 F500
G1 X15.095 Y41.397 Z-0.500 F500
G1 X15.158 Y41.481 Z-0.500 F500
G1 X15.232 Y41.555 Z-0.500 F500
G1 X15.316 Y41.618 Z-0.500 F500
G1 X15.408 Y41.668 Z-0.500 F500
G1 X15.506 Y41.705 Z-0.500 F500
G1 X15.609 Y41.727 Z-0.500 F500
G1 X15.713 Y41.734 Z-0.500 F500
G1 X15.818 Y41.727 Z-0.500 F500
G1 X15.920 Y41.705 Z-0.500 F500
G1 X16.018 Y41.668 Z-0.500 F500
G1 X16.110 Y41.618 Z-0.500 F500
G1 X16.194 Y41.555 Z-0.500 F500
G1 X16.268 Y41.481 Z-0.500 F500
G1 X16.331 Y41.397 Z-0.500 F500
G1 X16.381 Y41.305 Z-0.500 F500
G1 X16.418 Y41.207 Z-0.500 F500
G1 X16.440 Y41.105 Z-0.500 F500
G1 X16.447 Y41.000 Z-0.500 F500
G1 X16.447 Y-2.000 Z-0.500 F500
G1 X16.455 Y-2.105 Z-0.500 F500
G1 X16.477 Y-2.207 Z-0.500 F500
G1 X16.514 Y-2.305 Z-0.500 F500
G1 X16.564 Y-2.397 Z-0.500 F500
G1 X16.627 Y-2.481 Z-0.500 F500
G1 X16.701 Y-2.555 Z-0.500 F500
G1 X16.785 Y-2.618 Z-0.500 F500
G1 X16.877 Y-2.668 Z-0.500 F500
G1 X16.975 Y-2.705 Z-0.500 F500
G1 X17.077 Y-2.727 Z-0.500 F500
G1 X17.182 Y-2.734 Z-0.500 F500
G1 X17.286 Y-2.727 Z-0.500 F500
G1 X17.389 Y-2.705 Z-0.500 F500
G1 X17.487 Y-2.668 Z-0.500 F500
G1 X17.579 Y-2.618 Z-0.500 F500
G1 X17.663 Y-2.555 Z-0.500 F500
G1 X17.737 Y-2.481 Z-0.500 F500
G1 X17.799 Y-2.397 Z-0.500 F500
G1 X17.850 Y-2.305 Z-0.500 F500
G1 X17.886 Y-2.207 Z-0.500 F500
G1 X17.909 Y-2.105 Z-0.500 F500
G1 X17.916 Y-2.000 Z-0.500 F500
G1 X17.916 Y41.000 Z-0.500 F500
G1 X17.924 Y41.105 Z-0.500 F500
G1 X17.946 Y41.207 Z-0.500 F500
G1 X17.982 Y41.305 Z-0.500 F500
G1 X18.033 Y41.397 Z-0.500 F500
G1 X18.095 Y41.481 Z-0.500 F500
G1 X18.169 Y41.555 Z-0.500 F500
G1 X18.253 Y41.618 Z-0.500 F500
G1 X18.345 Y41.668 Z-0.500 F500
G1 X18.443 Y41.705 Z-0.500 F500
G1 X18.546 Y41.727 Z-0.500 F500
G1 X18.650 Y41.734 Z-0.500 F500
G1 X18.755 Y41.727 Z-0.500 F500
G1 X18.857 Y41.705 Z-0.500 F500
G1 X18.955 Y41.668 Z-0.500 F500
G1 X19.047 Y41.618 Z-0.500 F500
G1 X19.131 Y41.555 Z-0.500 F500
G1 X19.205 Y41.481 Z-0.500 F500
G1 X19.268 Y41.397 Z-0.500 F500
G1 X19.318 Y41.305 Z-0.500 F500
G1 X19.355 Y41.207 Z-0.500 F500
G1 X19.377 Y41.105 Z-0.500 F500
G1 X19.385 Y41.000 Z-0.500 F500
G1 X19.385 Y-2.000 Z-0.500 F500
G1 X19.392 Y-2.105 Z-0.500 F500
G1 X19.414 Y-2.207 Z-0.500 F500
G1 X19.451 Y-2.305 Z-0.500 F500
G1 X19.501 Y-2.397 Z-0.500 F500
G1 X19.564 Y-2.481 Z-0.500 F500
G1 X19.638 Y-2.555 Z-0.500 F500
G1 X19.722 Y-2.618 Z-0.500 F500
G1 X19.814 Y-2.668 Z-0.500 F500
G1 X19.912 Y-2.705 Z-0.500 F500
G1 X20.014 Y-2.727 Z-0.500 F500
G1 X20.119 Y-2.734 Z-0.500 F500
G1 X20.223 Y-2.727 Z-0.500 F500
G1 X20.326 Y-2.705 Z-0.500 F500
G1 X20.424 Y-2.668 Z-0.500 F500
G1 X20.516 Y-2.618 Z-0.500 F500
G1 X20.600 Y-2.555 Z-0.500 F500
G1 X20.674 Y-2.481 Z-0.500 F500
G1 X20.737 Y-2.397 Z-0.500 F500
G1 X20.787 Y-2.305 Z-0.500 F500
G1 X20.824 Y-2.207 Z-0.500 F500
G1 X20.846 Y-2.105 Z-0.500 F500
G1 X20.853 Y-2.000 Z-0.500 F500
G1 X20.853 Y41.000 Z-0.500 F500
G1 X20.853 Y41.053 Z-0.494 F500
G1 X20.853 Y41.103 Z-0.476 F500
G1 X20.853 Y41.149 Z-0.448 F500
G1 X20.853 Y41.186 Z-0.410 F500
G1 X20.853 Y41.215 Z-0.365 F500
G1 X20.853 Y41.232 Z-0.315 F500
G1 X20.853 Y41.238 Z-0.262 F500
G1 X20.853 Y41.238 Z1.000 F500
G1 X0.292 Y41.549 Z1.000 F500
G1 X0.292 Y41.549 Z0.000 F500
G1 X0.292 Y41.549 Z-0.362 F100
G1 X0.292 Y41.543 Z-0.415 F500
G1 X0.292 Y41.525 Z-0.465 F500
G1 X0.292 Y41.497 Z-0.510 F500
G1 X0.292 Y41.459 Z-0.548 F500
G1 X0.292 Y41.414 Z-0.576 F500
G1 X0.292 Y41.363 Z-0.594 F500
G1 X0.292 Y41.310 Z-0.600 F500
G1 X0.292 Y41.000 Z-0.600 F500
G1 X0.292 Y-2.000 Z-0.600 F500
G1 X0.300 Y-2.105 Z-0.600 F500
G1 X0.322 Y-2.207 Z-0.600 F500
G1 X0.359 Y-2.305 Z-0.600 F500
G1 X0.409 Y-2.397 Z-0.600 F500
G1 X0.472 Y-2.481 Z-0.600 F500
G1 X0.546 Y-2.555 Z-0.600 F500
G1 X0.630 Y-2.618 Z-0.600 F500
G1 X0.722 Y-2.668 Z-0.600 F500
G1 X0.820 Y-2.705 Z-0.600 F500
G1 X0.922 Y-2.727 Z-0.600 F500
G1 X1.027 Y-2.734 Z-0.600 F500
G1 X1.131 Y-2.727 Z-0.600 F500
G1 X1.234 Y-2.705 Z-0.600 F500
G1 X1.332 Y-2.668 Z-0.600 F500
G1 X1.424 Y-2.618 Z-0.600 F500
G1 X1.508 Y-2.555 Z-0.600 F500
G1 X1.582 Y-2.481 Z-0.600 F500
G1 X1.644 Y-2.397 Z-0.600 F500
G1 X1.695 Y-2.305 Z-0.600 F500
G1 X1.731 Y-2.207 Z-0.600 F500
G1 X1.754 Y-2.105 Z-0.600 F500
G1 X1.761 Y-2.000 Z-0.600 F500
G1 X1.761 Y41.000 Z-0.600 F500
G1 X1.768 Y41.105 Z-0.600 F500
G1 X1.791 Y41.207 Z-0.600 F500
G1 X1.827 Y41.305 Z-0.600 F500
G1 X1.878 Y41.397 Z-0.600 F500
G1 X1.940 Y41.481 Z-0.600 F500
G1 X2.014 Y41.555 Z-0.600 F500
G1 X2.098 Y41.618 Z-0.600 F500
G1 X2.190 Y41.668 Z-0.600 F500
G1 X2.288 Y41.705 Z-0.600 F500
G1 X2.391 Y41.727 Z-0.600 F500
G1 X2.495 Y41.734 Z-0.600 F500
G1 X2.600 Y41.727 Z-0.600 F500
G1 X2.702 Y41.705 Z-0.600 F500
G1 X2.800 Y41.668 Z-0.600 F500
G1 X2.892 Y41.618 Z-0.600 F500
G1 X2.976 Y41.555 Z-0.600 F500
G1 X3.050 Y41.481 Z-0.600 F500
G1 X3.113 Y41.397 Z-0.600 F500
G1 X3.163 Y41.305 Z-0.600 F500
G1 X3.200 Y41.207 Z-0.600 F500
G1 X3.222 Y41.105 Z-0.600 F500
G1 X3.230 Y41.000 Z-0.600 F500
G1 X3.230 Y-2.000 Z-0.600 F500
G1 X3.237 Y-2.105 Z-0.600 F500
G1 X3.259 Y-2.207 Z-0.600 F500
G1 X3.296 Y-2.305 Z-0.600 F500
G1 X3.346 Y-2.397 Z-0.600 F500
G1 X3.409 Y-2.481 Z-0.600 F500
G1 X3.483 Y-2.555 Z-0.600 F500
G1 X3.567 Y-2.618 Z-0.600 F500
G1 X3.659 Y-2.668 Z-0.600 F500
G1 X3.757 Y-2.705 Z-0.600 F500
G1 X3.859 Y-2.727 Z-0.600 F500
G1 X3.964 Y-2.734 Z-0.600 F500
G1 X4.068 Y-2.727 Z-0.600 F500
G1 X4.171 Y-2.705 Z-0.600 F500
G1 X4.269 Y-2.668 Z-0.600 F500
G1 X4.361 Y-2.618 Z-0.600 F500
G1 X4.445 Y-2.555 Z-0.600 F500
G1 X4.519 Y-2.481 Z-0.600 F500
G1 X4.582 Y-2.397 Z-0.600 F500
G1 X4.632 Y-2.305 Z-0.600 F500
G1 X4.669 Y-2.207 Z-0.600 F500
G1 X4.691 Y-2.105 Z-0.600 F500
G1 X4.698 Y-2.000 Z-0.600 F500
G1 X4.698 Y41.000 Z-0.600 F500
G1 X4.706 Y41.105 Z-0.600 F500
G1 X4.728 Y41.207 Z-0.600 F500
G1 X4.765 Y41.305 Z-0.600 F500
G1 X4.815 Y41.397 Z-0.600 F500
G1 X4.878 Y41.481 Z-0.600 F500
G1 X4.952 Y41.555 Z-0.600 F500
G1 X5.036 Y41.618 Z-0.600 F500
G1 X5.128 Y41.668 Z-0.600 F500
G1 X5.226 Y41.705 Z-0.600 F500
G1 X5.328 Y41.727 Z-0.600 F500
G1 X5.433 Y41.734 Z-0.600 F500
G1 X5.537 Y41.727 Z-0.600 F500
G1 X5.639 Y41.705 Z-0.600 F500
G1 X5.738 Y41.668 Z-0.600 F500
G1 X5.830 Y41.618 Z-0.600 F500
G1 X5.913 Y41.555 Z-0.600 F500
G1 X5.988 Y41.481 Z-0.600 F500
G1 X6.050 Y41.397 Z-0.600 F500
G1 X6.101 Y41.305 Z-0.600 F500
G1 X6.137 Y41.207 Z-0.600 F500
G1 X6.159 Y41.105 Z-0.600 F500
G1 X6.167 Y41.000 Z-0.600 F500
G1 X6.167 Y-2.000 Z-0.600 F500
G1 X6.174 Y-2.105 Z-0.600 F500
G1 X6.197 Y-2.207 Z-0.600 F500
G1 X6.233 Y-2.305 Z-0.600 F500
G1 X6.283 Y-2.397 Z-0.600 F500
G1 X6.346 Y-2.481 Z-0.600 F500
G1 X6.420 Y-2.555 Z-0.600 F500
G1 X6.504 Y-2.618 Z-0.600 F500
G1 X6.596 Y-2.668 Z-0.600 F500
G1 X6.694 Y-2.705 Z-0.600 F500
G1 X6.797 Y-2.727 Z-0.600 F500
G1 X6.901 Y-2.734 Z-0.600 F500
G1 X7.006 Y-2.727 Z-0.600 F500
G1 X7.108 Y-2.705 Z-0.600 F500
G1 X7.206 Y-2.668 Z-0.600 F500
G1 X7.298 Y-2.618 Z-0.600 F500
G1 X7.382 Y-2.555 Z-0.600 F500
G1 X7.456 Y-2.481 Z-0.600 F500
G1 X7.519 Y-2.397 Z-0.600 F500
G1 X7.569 Y-2.305 Z-0.600 F500
G1 X7.606 Y-2.207 Z-0.600 F500
G1 X7.628 Y-2.105 Z-0.600 F500
G1 X7.636 Y-2.000 Z-0.600 F500
G1 X7.636 Y41.000 Z-0.600 F500
G1 X7.643 Y41.105 Z-0.600 F500
G1 X7.665 Y41.207 Z-0.600 F500
G1 X7.702 Y41.305 Z-0.600 F500
G1 X7.752 Y41.397 Z-0.600 F500
G1 X7.815 Y41.481 Z-0.600 F500
G1 X7.889 Y41.555 Z-0.600 F500
G1 X7.973 Y41.618 Z-0.600 F500
G1 X8.065 Y41.668 Z-0.600 F500
G1 X8.163 Y41.705 Z-0.600 F500
G1 X8.265 Y41.727 Z-0.600 F500
G1 X8.370 Y41.734 Z-0.600 F500
G1 X8.474 Y41.727 Z-0.600 F500
G1 X8.577 Y41.705 Z-0.600 F500
G1 X8.675 Y41.668 Z-0.600 F500
G1 X8.767 Y41.618 Z-0.600 F500
G1 X8.851 Y41.555 Z-0.600 F500
G1 X8.925 Y41.481 Z-0.600 F500
G1 X8.988 Y41.397 Z-0.600 F500
G1 X9.038 Y41.305 Z-0.600 F500
G1 X9.074 Y41.207 Z-0.600 F500
G1 X9.097 Y41.105 Z-0.600 F500
G1 X9.104 Y41.000 Z-0.600 F500
G1 X9.104 Y-2.000 Z-0.600 F500
G1 X9.112 Y-2.105 Z-0.600 F500
G1 X9.134 Y-2.207 Z-0.600 F500
G1 X9.171 Y-2.305 Z-0.600 F500
G1 X9.221 Y-2.397 Z-0.600 F500
G1 X9.284 Y-2.481 Z-0.600 F500
G1 X9.358 Y-2.555 Z-0.600 F500
G1 X9.442 Y-2.618 Z-0.600 F500
G1 X9.533 Y-2.668 Z-0.600 F500
G1 X9.632 Y-2.705 Z-0.600 F500
G1 X9.734 Y-2.727 Z-0.600 F500
G1 X9.839 Y-2.734 Z-0.600 F500
G1 X9.943 Y-2.727 Z-0.600 F500
G1 X10.045 Y-2.705 Z-0.600 F500
G1 X10.144 Y-2.668 Z-0.600 F500
G1 X10.236 Y-2.618 Z-0.600 F500
G1 X10.319 Y-2.555 Z-0.600 F500
G1 X10.393 Y-2.481 Z-0.600 F500
G1 X10.456 Y-2.397 Z-0.600 F500
G1 X10.506 Y-2.305 Z-0.600 F500
G1 X10.543 Y-2.207 Z-0.600 F500
G1 X10.565 Y-2.105 Z-0.600 F500
G1 X10.573 Y-2.000 Z-0.600 F500
G1 X10.573 Y41.000 Z-0.600 F500
G1 X10.580 Y41.105 Z-0.600 F500
G1 X10.603 Y41.207 Z-0.600 F500
G1 X10.639 Y41.305 Z-0.600 F500
G1 X10.689 Y41.397 Z-0.600 F500
G1 X10.752 Y41.481 Z-0.600 F500
G1 X10.826 Y41.555 Z-0.600 F500
G1 X10.910 Y41.618 Z-0.600 F500
G1 X11.002 Y41.668 Z-0.600 F500
G1 X11.100 Y41.705 Z-0.600 F500
G1 X11.203 Y41.727 Z-0.600 F500
G1 X11.307 Y41.734 Z-0.600 F500
G1 X11.412 Y41.727 Z-0.600 F500
G1 X11.514 Y41.705 Z-0.600 F500
G1 X11.612 Y41.668 Z-0.600 F500
G1 X11.704 Y41.618 Z-0.600 F500
G1 X11.788 Y41.555 Z-0.600 F500
G1 X11.862 Y41.481 Z-0.600 F500
G1 X11.925 Y41.397 Z-0.600 F500
G1 X11.975 Y41.305 Z-0.600 F500
G1 X12.012 Y41.207 Z-0.600 F500
G1 X12.034 Y41.105 Z-0.600 F500
G1 X12.041 Y41.000 Z-0.600 F500
G1 X12.041 Y-2.000 Z-0.600 F500
G1 X12.049 Y-2.105 Z-0.600 F500
G1 X12.071 Y-2.207 Z-0.600 F500
G1 X12.108 Y-2.305 Z-0.600 F500
G1 X12.158 Y-2.397 Z-0.600 F500
G1 X12.221 Y-2.481 Z-0.600 F500
G1 X12.295 Y-2.555 Z-0.600 F500
G1 X12.379 Y-2.618 Z-0.600 F500
G1 X12.471 Y-2.668 Z-0.600 F500
G1 X12.569 Y-2.705 Z-0.600 F500
G1 X12.671 Y-2.727 Z-0.600 F500
G1 X12.776 Y-2.734 Z-0.600 F500
G1 X12.880 Y-2.727 Z-0.600 F500
G1 X12.983 Y-2.705 Z-0.600 F500
G1 X13.081 Y-2.668 Z-0.600 F500
G1 X13.173 Y-2.618 Z-0.600 F500
G1 X13.257 Y-2.555 Z-0.600 F500
G1 X13.331 Y-2.481 Z-0.600 F500
G1 X13.394 Y-2.397 Z-0.600 F500
G1 X13.444 Y-2.305 Z-0.600 F500
G1 X13.480 Y-2.207 Z-0.600 F500
G1 X13.503 Y-2.105 Z-0.600 F500
G1 X13.510 Y-2.000 Z-0.600 F500
G1 X13.510 Y41.000 Z-0.600 F500
G1 X13.518 Y41.105 Z-0.600 F500
G1 X13.540 Y41.207 Z-0.600 F500
G1 X13.576 Y41.305 Z-0.600 F500
G1 X13.627 Y41.397 Z-0.600 F500
G1 X13.689 Y41.481 Z-0.600 F500
G1 X13.764 Y41.555 Z-0.600 F500
G1 X13.847 Y41.618 Z-0.600 F500
G1 X13.939 Y41.668 Z-0.600 F500
G1 X14.038 Y41.705 Z-0.600 F500
G1 X14.140 Y41.727 Z-0.600 F500
G1 X14.244 Y41.734 Z-0.600 F500
G1 X14.349 Y41.727 Z-0.600 F500
G1 X14.451 Y41.705 Z-0.600 F500
G1 X14.549 Y41.668 Z-0.600 F500
G1 X14.641 Y41.618 Z-0.600 F500
G1 X14.725 Y41.555 Z-0.600 F500
G1 X14.799 Y41.481 Z-0.600 F500
G1 X14.862 Y41.397 Z-0.600 F500
G1 X14.912 Y41.305 Z-0.600 F500
G1 X14.949 Y41.207 Z-0.600 F500
G1 X14.971 Y41.105 Z-0.600 F500
G1 X14.979 Y41.000 Z-0.600 F500
G1 X14.979 Y-2.000 Z-0.600 F500
G1 X14.986 Y-2.105 Z-0.600 F500
G1 X15.008 Y-2.207 Z-0.600 F500
G1 X15.045 Y-2.305 Z-0.600 F500
G1 X15.095 Y-2.397 Z-0.600 F500
G1 X15.158 Y-2.481 Z-0.600 F500
G1 X15.232 Y-2.555 Z-0.600 F500
G1 X15.316 Y-2.618 Z-0.600 F500
G1 X15.408 Y-2.668 Z-0.600 F500
G1 X15.506 Y-2.705 Z-0.600 F500
G1 X15.609 Y-2.727 Z-0.600 F500
G1 X15.713 Y-2.734 Z-0.600 F500
G1 X15.818 Y-2.727 Z-0.600 F500
G1 X15.920 Y-2.705 Z-0.600 F500
G1 X16.018 Y-2.668 Z-0.600 F500
G1 X16.110 Y-2.618 Z-0.600 F500
G1 X16.194 Y-2.555 Z-0.600 F500
G1 X16.268 Y-2.481 Z-0.600 F500
G1 X16.331 Y-2.397 Z-0.600 F500
G1 X16.381 Y-2.305 Z-0.600 F500
G1 X16.418 Y-2.207 Z-0.600 F500
G1 X16.440 Y-2.105 Z-0.600 F500
G1 X16.447 Y-2.000 Z-0.600 F500
G1 X16.447 Y41.000 Z-0.600 F500
G1 X16.455 Y41.105 Z-0.600 F500
G1 X16.477 Y41.207 Z-0.600 F500
G1 X16.514 Y41.305 Z-0.600 F500
G1 X16.564 Y41.397 Z-0.600 F500
G1 X16.627 Y41.481 Z-0.600 F500
G1 X16.701 Y41.555 Z-0.600 F500
G1 X16.785 Y41.618 Z-0.600 F500
G1 X16.877 Y41.668 Z-0.600 F500
G1 X16.975 Y41.705 Z-0.600 F500
G1 X17.077 Y41.727 Z-0.600 F500
G1 X17.182 Y41.734 Z-0.600 F500
G1 X17.286 Y41.727 Z-0.600 F500
G1 X17.389 Y41.705 Z-0.600 F500
G1 X17.487 Y41.668 Z-0.600 F500
G1 X17.579 Y41.618 Z-0.600 F500
G1 X17.663 Y41.555 Z-0.600 F500
G1 X17.737 Y41.481 Z-0.600 F500
G1 X17.799 Y41.397 Z-0.600 F500
G1 X17.850 Y41.305 Z-0.600 F500
G1 X17.886 Y41.207 Z-0.600 F500
G1 X17.909 Y41.105 Z-0.600 F500
G1 X17.916 Y41.000 Z-0.600 F500
G1 X17.916 Y-2.000 Z-0.600 F500
G1 X17.924 Y-2.105 Z-0.600 F500
G1 X17.946 Y-2.207 Z-0.600 F500
G1 X17.982 Y-2.305 Z-0.600 F500
G1 X18.033 Y-2.397 Z-0.600 F500
G1 X18.095 Y-2.481 Z-0.600 F500
G1 X18.169 Y-2.555 Z-0.600 F500
G1 X18.253 Y-2.618 Z-0.600 F500
G1 X18.345 Y-2.668 Z-0.600 F500
G1 X18.443 Y-2.705 Z-0.600 F500
G1 X18.546 Y-2.727 Z-0.600 F500
G1 X18.650 Y-2.734 Z-0.600 F500
G1 X18.755 Y-2.727 Z-0.600 F500
G1 X18.857 Y-2.705 Z-0.600 F500
G1 X18.955 Y-2.668 Z-0.600 F500
G1 X19.047 Y-2.618 Z-0.600 F500
G1 X19.131 Y-2.555 Z-0.600 F500
G1 X19.205 Y-2.481 Z-0.600 F500
G1 X19.268 Y-2.397 Z-0.600 F500
G1 X19.318 Y-2.305 Z-0.600 F500
G1 X19.355 Y-2.207 Z-0.600 F500
G1 X19.377 Y-2.105 Z-0.600 F500
G1 X19.385 Y-2.000 Z-0.600 F500
G1 X19.385 Y41.000 Z-0.600 F500
G1 X19.392 Y41.105 Z-0.600 F500
G1 X19.414 Y41.207 Z-0.600 F500
G1 X19.451 Y41.305 Z-0.600 F500
G1 X19.501 Y41.397 Z-0.600 F500
G1 X19.564 Y41.481 Z-0.600 F500
G1 X19.638 Y41.555 Z-0.600 F500
G1 X19.722 Y41.618 Z-0.600 F500
G1 X19.814 Y41.668 Z-0.600 F500
G1 X19.912 Y41.705 Z-0.600 F500
G1 X20.014 Y41.727 Z-0.600 F500
G1 X20.119 Y41.734 Z-0.600 F500
G1 X20.223 Y41.727 Z-0.600 F500
G1 X20.326 Y41.705 Z-0.600 F500
G1 X20.424 Y41.668 Z-0.600 F500
G1 X20.516 Y41.618 Z-0.600 F500
G1 X20.600 Y41.555 Z-0.600 F500
G1 X20.674 Y41.481 Z-0.600 F500
G1 X20.737 Y41.397 Z-0.600 F500
G1 X20.787 Y41.305 Z-0.600 F500
G1 X20.824 Y41.207 Z-0.600 F500
G1 X20.846 Y41.105 Z-0.600 F500
G1 X20.853 Y41.000 Z-0.600 F500
G1 X20.853 Y-2.000 Z-0.600 F500
G1 X20.853 Y-2.053 Z-0.594 F500
G1 X20.853 Y-2.103 Z-0.576 F500
G1 X20.853 Y-2.149 Z-0.548 F500
G1 X20.853 Y-2.186 Z-0.510 F500
G1 X20.853 Y-2.215 Z-0.465 F500
G1 X20.853 Y-2.232 Z-0.415 F500
G1 X20.853 Y-2.238 Z-0.362 F500
G1 X20.853 Y-2.238 Z1.000 F500
G1 X0.292 Y-2.549 Z1.000 F500
G1 X0.292 Y-2.549 Z0.000 F500
G1 X0.292 Y-2.549 Z-0.462 F100
G1 X0.292 Y-2.543 Z-0.515 F500
G1 X0.292 Y-2.525 Z-0.565 F500
G1 X0.292 Y-2.497 Z-0.610 F500
G1 X0.292 Y-2.459 Z-0.648 F500
G1 X0.292 Y-2.414 Z-0.676 F500
G1 X0.292 Y-2.363 Z-0.694 F500
G1 X0.292 Y-2.310 Z-0.700 F500
G1 X0.292 Y-2.000 Z-0.700 F500
G1 X0.292 Y41.000 Z-0.700 F500
G1 X0.300 Y41.105 Z-0.700 F500
G1 X0.322 Y41.207 Z-0.700 F500
G1 X0.359 Y41.305 Z-0.700 F500
G1 X0.409 Y41.397 Z-0.700 F500
G1 X0.472 Y41.481 Z-0.700 F500
G1 X0.546 Y41.555 Z-0.700 F500
G1 X0.630 Y41.618 Z-0.700 F500
G1 X0.722 Y41.668 Z-0.700 F500
G1 X0.820 Y41.705 Z-0.700 F500
G1 X0.922 Y41.727 Z-0.700 F500
G1 X1.027 Y41.734 Z-0.700 F500
G1 X1.131 Y41.727 Z-0.700 F500
G1 X1.234 Y41.705 Z-0.700 F500
G1 X1.332 Y41.668 Z-0.700 F500
G1 X1.424 Y41.618 Z-0.700 F500
G1 X1.508 Y41.555 Z-0.700 F500
G1 X1.582 Y41.481 Z-0.700 F500
G1 X1.644 Y41.397 Z-0.700 F500
G1 X1.695 Y41.305 Z-0.700 F500
G1 X1.731 Y41.207 Z-0.700 F500
G1 X1.754 Y41.105 Z-0.700 F500
G1 X1.761 Y41.000 Z-0.700 F500
G1 X1.761 Y-2.000 Z-0.700 F500
G1 X1.768 Y-2.105 Z-0.700 F500
G1 X1.791 Y-2.207 Z-0.700 F500
G1 X1.827 Y-2.305 Z-0.700 F500
G1 X1.878 Y-2.397 Z-0.700 F500
G1 X1.940 Y-2.481 Z-0.700 F500
G1 X2.014 Y-2.555 Z-0.700 F500
G1 X2.098 Y-2.618 Z-0.700 F500
G1 X2.190 Y-2.668 Z-0.700 F500
G1 X2.288 Y-2.705 Z-0.700 F500
G1 X2.391 Y-2.727 Z-0.700 F500
G1 X2.495 Y-2.734 Z-0.700 F500
G1 X2.600 Y-2.727 Z-0.700 F500
G1 X2.702 Y-2.705 Z-0.700 F500
G1 X2.800 Y-2.668 Z-0.700 F500
G1 X2.892 Y-2.618 Z-0.700 F500
G1 X2.976 Y-2.555 Z-0.700 F500
G1 X3.050 Y-2.481 Z-0.700 F500
G1 X3.113 Y-2.397 Z-0.700 F500
G1 X3.163 Y-2.305 Z-0.700 F500
G1 X3.200 Y-2.207 Z-0.700 F500
G1 X3.222 Y-2.105 Z-0.700 F500
G1 X3.230 Y-2.000 Z-0.700 F500
G1 X3.230 Y41.000 Z-0.700 F500
G1 X3.237 Y41.105 Z-0.700 F500
G1 X3.259 Y41.207 Z-0.700 F500
G1 X3.296 Y41.305 Z-0.700 F500
G1 X3.346 Y41.397 Z-0.700 F500
G1 X3.409 Y41.481 Z-0.700 F500
G1 X3.483 Y41.555 Z-0.700 F500
G1 X3.567 Y41.618 Z-0.700 F500
G1 X3.659 Y41.668 Z-0.700 F500
G1 X3.757 Y41.705 Z-0.700 F500
G1 X3.859 Y41.727 Z-0.700 F500
G1 X3.964 Y41.734 Z-0.700 F500
G1 X4.068 Y41.727 Z-0.700 F500
G1 X4.171 Y41.705 Z-0.700 F500
G1 X4.269 Y41.668 Z-0.700 F500
G1 X4.361 Y41.618 Z-0.700 F500
G1 X4.445 Y41.555 Z-0.700 F500
G1 X4.519 Y41.481 Z-0.700 F500
G1 X4.582 Y41.397 Z-0.700 F500
G1 X4.632 Y41.305 Z-0.700 F500
G1 X4.669 Y41.207 Z-0.700 F500
G1 X4.691 Y41.105 Z-0.700 F500
G1 X4.698 Y41.000 Z-0.700 F500
G1 X4.698 Y-2.000 Z-0.700 F500
G1 X4.706 Y-2.105 Z-0.700 F500
G1 X4.728 Y-2.207 Z-0.700 F500
G1 X4.765 Y-2.305 Z-0.700 F500
G1 X4.815 Y-2.397 Z-0.700 F500
G1 X4.878 Y-2.481 Z-0.700 F500
G1 X4.952 Y-2.555 Z-0.700 F500
G1 X5.036 Y-2.618 Z-0.700 F500
G1 X5.128 Y-2.668 Z-0.700 F500
G1 X5.226 Y-2.705 Z-0.700 F500
G1 X5.328 Y-2.727 Z-0.700 F500
G1 X5.433 Y-2.734 Z-0.700 F500
G1 X5.537 Y-2.727 Z-0.700 F500
G1 X5.639 Y-2.705 Z-0.700 F500
G1 X5.738 Y-2.668 Z-0.700 F500
G1 X5.830 Y-2.618 Z-0.700 F500
G1 X5.913 Y-2.555 Z-0.700 F500
G1 X5.988 Y-2.481 Z-0.700 F500
G1 X6.050 Y-2.397 Z-0.700 F500
G1 X6.101 Y-2.305 Z-0.700 F500
G1 X6.137 Y-2.207 Z-0.700 F500
G1 X6.159 Y-2.105 Z-0.700 F500
G1 X6.167 Y-2.000 Z-0.700 F500
G1 X6.167 Y41.000 Z-0.700 F500
G1 X6.174 Y41.105 Z-0.700 F500
G1 X6.197 Y41.207 Z-0.700 F500
G1 X6.233 Y41.305 Z-0.700 F500
G1 X6.283 Y41.397 Z-0.700 F500
G1 X6.346 Y41.481 Z-0.700 F500
G1 X6.420 Y41.555 Z-0.700 F500
G1 X6.504 Y41.618 Z-0.700 F500
G1 X6.596 Y41.668 Z-0.700 F500
G1 X6.694 Y41.705 Z-0.700 F500
G1 X6.797 Y41.727 Z-0.700 F500
G1 X6.901 Y41.734 Z-0.700 F500
G1 X7.006 Y41.727 Z-0.700 F500
G1 X7.108 Y41.705 Z-0.700 F500
G1 X7.206 Y41.668 Z-0.700 F500
G1 X7.298 Y41.618 Z-0.700 F500
G1 X7.382 Y41.555 Z-0.700 F500
G1 X7.456 Y41.481 Z-0.700 F500
G1 X7.519 Y41.397 Z-0.700 F500
G1 X7.569 Y41.305 Z-0.700 F500
G1 X7.606 Y41.207 Z-0.700 F500
G1 X7.628 Y41.105 Z-0.700 F500
G1 X7.636 Y41.000 Z-0.700 F500
G1 X7.636 Y-2.000 Z-0.700 F500
G1 X7.643 Y-2.105 Z-0.700 F500
G1 X7.665 Y-2.207 Z-0.700 F500
G1 X7.702 Y-2.305 Z-0.700 F500
G1 X7.752 Y-2.397 Z-0.700 F500
G1 X7.815 Y-2.481 Z-0.700 F500
G1 X7.889 Y-2.555 Z-0.700 F500
G1 X7.973 Y-2.618 Z-0.700 F500
G1 X8.065 Y-2.668 Z-0.700 F500
G1 X8.163 Y-2.705 Z-0.700 F500
G1 X8.265 Y-2.727 Z-0.700 F500
G1 X8.370 Y-2.734 Z-0.700 F500
G1 X8.474 Y-2.727 Z-0.700 F500
G1 X8.577 Y-2.705 Z-0.700 F500
G1 X8.675 Y-2.668 Z-0.700 F500
G1 X8.767 Y-2.618 Z-0.700 F500
G1 X8.851 Y-2.555 Z-0.700 F500
G1 X8.925 Y-2.481 Z-0.700 F500
G1 X8.988 Y-2.397 Z-0.700 F500
G1 X9.038 Y-2.305 Z-0.700 F500
G1 X9.074 Y-2.207 Z-0.700 F500
G1 X9.097 Y-2.105 Z-0.700 F500
G1 X9.104 Y-2.000 Z-0.700 F500
G1 X9.104 Y41.000 Z-0.700 F500
G1 X9.112 Y41.105 Z-0.700 F500
G1 X9.134 Y41.207 Z-0.700 F500
G1 X9.171 Y41.305 Z-0.700 F500
G1 X9.221 Y41.397 Z-0.700 F500
G1 X9.284 Y41.481 Z-0.700 F500
G1 X9.358 Y41.555 Z-0.700 F500
G1 X9.442 Y41.618 Z-0.700 F500
G1 X9.533 Y41.668 Z-0.700 F500
G1 X9.632 Y41.705 Z-0.700 F500
G1 X9.734 Y41.727 Z-0.700 F500
G1 X9.839 Y41.734 Z-0.700 F500
G1 X9.943 Y41.727 Z-0.700 F500
G1 X10.045 Y41.705 Z-0.700 F500
G1 X10.144 Y41.668 Z-0.700 F500
G1 X10.236 Y41.618 Z-0.700 F500
G1 X10.319 Y41.555 Z-0.700 F500
G1 X10.393 Y41.481 Z-0.700 F500
G1 X10.456 Y41.397 Z-0.700 F500
G1 X10.506 Y41.305 Z-0.700 F500
G1 X10.543 Y41.207 Z-0.700 F500
G1 X10.565 Y41.105 Z-0.700 F500
G1 X10.573 Y41.000 Z-0.700 F500
G1 X10.573 Y-2.000 Z-0.700 F500
G1 X10.580 Y-2.105 Z-0.700 F500
G1 X10.603 Y-2.207 Z-0.700 F500
G1 X10.639 Y-2.305 Z-0.700 F500
G1 X10.689 Y-2.397 Z-0.700 F500
G1 X10.752 Y-2.481 Z-0.700 F500
G1 X10.826 Y-2.555 Z-0.700 F500
G1 X10.910 Y-2.618 Z-0.700 F500
G1 X11.002 Y-2.668 Z-0.700 F500
G1 X11.100 Y-2.705 Z-0.700 F500
G1 X11.203 Y-2.727 Z-0.700 F500
G1 X11.307 Y-2.734 Z-0.700 F500
G1 X11.412 Y-2.727 Z-0.700 F500
G1 X11.514 Y-2.705 Z-0.700 F500
G1 X11.612 Y-2.668 Z-0.700 F500
G1 X11.704 Y-2.618 Z-0.700 F500
G1 X11.788 Y-2.555 Z-0.700 F500
G1 X11.862 Y-2.481 Z-0.700 F500
G1 X11.925 Y-2.397 Z-0.700 F500
G1 X11.975 Y-2.305 Z-0.700 F500
G1 X12.012 Y-2.207 Z-0.700 F500
G1 X12.034 Y-2.105 Z-0.700 F500
G1 X12.041 Y-2.000 Z-0.700 F500
G1 X12.041 Y41.000 Z-0.700 F500
G1 X12.049 Y41.105 Z-0.700 F500
G1 X12.071 Y41.207 Z-0.700 F500
G1 X12.108 Y41.305 Z-0.700 F500
G1 X12.158 Y41.397 Z-0.700 F500
G1 X12.221 Y41.481 Z-0.700 F500
G1 X12.295 Y41.555 Z-0.700 F500
G1 X12.379 Y41.618 Z-0.700 F500
G1 X12.471 Y41.668 Z-0.700 F500
G1 X12.569 Y41.705 Z-0.700 F500
G1 X12.671 Y41.727 Z-0.700 F500
G1 X12.776 Y41.734 Z-0.700 F500
G1 X12.880 Y41.727 Z-0.700 F500
G1 X12.983 Y41.705 Z-0.700 F500
G1 X13.081 Y41.668 Z-0.700 F500
G1 X13.173 Y41.618 Z-0.700 F500
G1 X13.257 Y41.555 Z-0.700 F500
G1 X13.331 Y41.481 Z-0.700 F500
G1 X13.394 Y41.397 Z-0.700 F500
G1 X13.444 Y41.305 Z-0.700 F500
G1 X13.480 Y41.207 Z-0.700 F500
G1 X13.503 Y41.105 Z-0.700 F500
G1 X13.510 Y41.000 Z-0.700 F500
G1 X13.510 Y-2.000 Z-0.700 F500
G1 X13.518 Y-2.105 Z-0.700 F500
G1 X13.540 Y-2.207 Z-0.700 F500
G1 X13.576 Y-2.305 Z-0.700 F500
G1 X13.627 Y-2.397 Z-0.700 F500
G1 X13.689 Y-2.481 Z-0.700 F500
G1 X13.764 Y-2.555 Z-0.700 F500
G1 X13.847 Y-2.618 Z-0.700 F500
G1 X13.939 Y-2.668 Z-0.700 F500
G1 X14.038 Y-2.705 Z-0.700 F500
G1 X14.140 Y-2.727 Z-0.700 F500
G1 X14.244 Y-2.734 Z-0.700 F500
G1 X14.349 Y-2.727 Z-0.700 F500
G1 X14.451 Y-2.705 Z-0.700 F500
G1 X14.549 Y-2.668 Z-0.700 F500
G1 X14.641 Y-2.618 Z-0.700 F500
G1 X14.725 Y-2.555 Z-0.700 F500
G1 X14.799 Y-2.481 Z-0.700 F500
G1 X14.862 Y-2.397 Z-0.700 F500
G1 X14.912 Y-2.305 Z-0.700 F500
G1 X14.949 Y-2.207 Z-0.700 F500
G1 X14.971 Y-2.105 Z-0.700 F500
G1 X14.979 Y-2.000 Z-0.700 F500
G1 X14.979 Y41.000 Z-0.700 F500
G1 X14.986 Y41.105 Z-0.700 F500
G1 X15.008 Y41.207 Z-0.700 F500
G1 X15.045 Y41.305 Z-0.700 F500
G1 X15.095 Y41.397 Z-0.700 F500
G1 X15.158 Y41.481 Z-0.700 F500
G1 X15.232 Y41.555 Z-0.700 F500
G1 X15.316 Y41.618 Z-0.700 F500
G1 X15.408 Y41.668 Z-0.700 F500
G1 X15.506 Y41.705 Z-0.700 F500
G1 X15.609 Y41.727 Z-0.700 F500
G1 X15.713 Y41.734 Z-0.700 F500
G1 X15.818 Y41.727 Z-0.700 F500
G1 X15.920 Y41.705 Z-0.700 F500
G1 X16.018 Y41.668 Z-0.700 F500
G1 X16.110 Y41.618 Z-0.700 F500
G1 X16.194 Y41.555 Z-0.700 F500
G1 X16.268 Y41.481 Z-0.700 F500
G1 X16.331 Y41.397 Z-0.700 F500
G1 X16.381 Y41.305 Z-0.700 F500
G1 X16.418 Y41.207 Z-0.700 F500
G1 X16.440 Y41.105 Z-0.700 F500
G1 X16.447 Y41.000 Z-0.700 F500
G1 X16.447 Y-2.000 Z-0.700 F500
G1 X16.455 Y-2.105 Z-0.700 F500
G1 X16.477 Y-2.207 Z-0.700 F500
G1 X16.514 Y-2.305 Z-0.700 F500
G1 X16.564 Y-2.397 Z-0.700 F500
G1 X16.627 Y-2.481 Z-0.700 F500
G1 X16.701 Y-2.555 Z-0.700 F500
G1 X16.785 Y-2.618 Z-0.700 F500
G1 X16.877 Y-2.668 Z-0.700 F500
G1 X16.975 Y-2.705 Z-0.700 F500
G1 X17.077 Y-2.727 Z-0.700 F500
G1 X17.182 Y-2.734 Z-0.700 F500
G1 X17.286 Y-2.727 Z-0.700 F500
G1 X17.389 Y-2.705 Z-0.700 F500
G1 X17.487 Y-2.668 Z-0.700 F500
G1 X17.579 Y-2.618 Z-0.700 F500
G1 X17.663 Y-2.555 Z-0.700 F500
G1 X17.737 Y-2.481 Z-0.700 F500
G1 X17.799 Y-2.397 Z-0.700 F500
G1 X17.850 Y-2.305 Z-0.700 F500
G1 X17.886 Y-2.207 Z-0.700 F500
G1 X17.909 Y-2.105 Z-0.700 F500
G1 X17.916 Y-2.000 Z-0.700 F500
G1 X17.916 Y41.000 Z-0.700 F500
G1 X17.924 Y41.105 Z-0.700 F500
G1 X17.946 Y41.207 Z-0.700 F500
G1 X17.982 Y41.305 Z-0.700 F500
G1 X18.033 Y41.397 Z-0.700 F500
G1 X18.095 Y41.481 Z-0.700 F500
G1 X18.169 Y41.555 Z-0.700 F500
G1 X18.253 Y41.618 Z-0.700 F500
G1 X18.345 Y41.668 Z-0.700 F500
G1 X18.443 Y41.705 Z-0.700 F500
G1 X18.546 Y41.727 Z-0.700 F500
G1 X18.650 Y41.734 Z-0.700 F500
G1 X18.755 Y41.727 Z-0.700 F500
G1 X18.857 Y41.705 Z-0.700 F500
G1 X18.955 Y41.668 Z-0.700 F500
G1 X19.047 Y41.618 Z-0.700 F500
G1 X19.131 Y41.555 Z-0.700 F500
G1 X19.205 Y41.481 Z-0.700 F500
G1 X19.268 Y41.397 Z-0.700 F500
G1 X19.318 Y41.305 Z-0.700 F500
G1 X19.355 Y41.207 Z-0.700 F500
G1 X19.377 Y41.105 Z-0.700 F500
G1 X19.385 Y41.000 Z-0.700 F500
G1 X19.385 Y-2.000 Z-0.700 F500
G1 X19.392 Y-2.105 Z-0.700 F500
G1 X19.414 Y-2.207 Z-0.700 F500
G1 X19.451 Y-2.305 Z-0.700 F500
G1 X19.501 Y-2.397 Z-0.700 F500
G1 X19.564 Y-2.481 Z-0.700 F500
G1 X19.638 Y-2.555 Z-0.700 F500
G1 X19.722 Y-2.618 Z-0.700 F500
G1 X19.814 Y-2.668 Z-0.700 F500
G1 X19.912 Y-2.705 Z-0.700 F500
G1 X20.014 Y-2.727 Z-0.700 F500
G1 X20.119 Y-2.734 Z-0.700 F500
G1 X20.223 Y-2.727 Z-0.700 F500
G1 X20.326 Y-2.705 Z-0.700 F500
G1 X20.424 Y-2.668 Z-0.700 F500
G1 X20.516 Y-2.618 Z-0.700 F500
G1 X20.600 Y-2.555 Z-0.700 F500
G1 X20.674 Y-2.481 Z-0.700 F500
G1 X20.737 Y-2.397 Z-0.700 F500
G1 X20.787 Y-2.305 Z-0.700 F500
G1 X20.824 Y-2.207 Z-0.700 F500
G1 X20.846 Y-2.105 Z-0.700 F500
G1 X20.853 Y-2.000 Z-0.700 F500
G1 X20.853 Y41.000 Z-0.700 F500
G1 X20.853 Y41.053 Z-0.694 F500
G1 X20.853 Y41.103 Z-0.676 F500
G1 X20.853 Y41.149 Z-0.648 F500
G1 X20.853 Y41.186 Z-0.610 F500
G1 X20.853 Y41.215 Z-0.565 F500
G1 X20.853 Y41.232 Z-0.515 F500
G1 X20.853 Y41.238 Z-0.462 F500
G1 X20.853 Y41.238 Z1.000 F500
G1 X0.292 Y41.549 Z1.000 F500
G1 X0.292 Y41.549 Z0.000 F500
G1 X0.292 Y41.549 Z-0.562 F100
G1 X0.292 Y41.543 Z-0.615 F500
G1 X0.292 Y41.525 Z-0.665 F500
G1 X0.292 Y41.497 Z-0.710 F500
G1 X0.292 Y41.459 Z-0.748 F500
G1 X0.292 Y41.414 Z-0.776 F500
G1 X0.292 Y41.363 Z-0.794 F500
G1 X0.292 Y41.310 Z-0.800 F500
G1 X0.292 Y41.000 Z-0.800 F500
G1 X0.292 Y-2.000 Z-0.800 F500
G1 X0.300 Y-2.105 Z-0.800 F500
G1 X0.322 Y-2.207 Z-0.800 F500
G1 X0.359 Y-2.305 Z-0.800 F500
G1 X0.409 Y-2.397 Z-0.800 F500
G1 X0.472 Y-2.481 Z-0.800 F500
G1 X0.546 Y-2.555 Z-0.800 F500
G1 X0.630 Y-2.618 Z-0.800 F500
G1 X0.722 Y-2.668 Z-0.800 F500
G1 X0.820 Y-2.705 Z-0.800 F500
G1 X0.922 Y-2.727 Z-0.800 F500
G1 X1.027 Y-2.734 Z-0.800 F500
G1 X1.131 Y-2.727 Z-0.800 F500
G1 X1.234 Y-2.705 Z-0.800 F500
G1 X1.332 Y-2.668 Z-0.800 F500
G1 X1.424 Y-2.618 Z-0.800 F500
G1 X1.508 Y-2.555 Z-0.800 F500
G1 X1.582 Y-2.481 Z-0.800 F500
G1 X1.644 Y-2.397 Z-0.800 F500
G1 X1.695 Y-2.305 Z-0.800 F500
G1 X1.731 Y-2.207 Z-0.800 F500
G1 X1.754 Y-2.105 Z-0.800 F500
G1 X1.761 Y-2.000 Z-0.800 F500
G1 X1.761 Y41.000 Z-0.800 F500
G1 X1.768 Y41.105 Z-0.800 F500
G1 X1.791 Y41.207 Z-0.800 F500
G1 X1.827 Y41.305 Z-0.800 F500
G1 X1.878 Y41.397 Z-0.800 F500
G1 X1.940 Y41.481 Z-0.800 F500
G1 X2.014 Y41.555 Z-0.800 F500
G1 X2.098 Y41.618 Z-0.800 F500
G1 X2.190 Y41.668 Z-0.800 F500
G1 X2.288 Y41.705 Z-0.800 F500
G1 X2.391 Y41.727 Z-0.800 F500
G1 X2.495 Y41.734 Z-0.800 F500
G1 X2.600 Y41.727 Z-0.800 F500
G1 X2.702 Y41.705 Z-0.800 F500
G1 X2.800 Y41.668 Z-0.800 F500
G1 X2.892 Y41.618 Z-0.800 F500
G1 X2.976 Y41.555 Z-0.800 F500
G1 X3.050 Y41.481 Z-0.800 F500
G1 X3.113 Y41.397 Z-0.800 F500
G1 X3.163 Y41.305 Z-0.800 F500
G1 X3.200 Y41.207 Z-0.800 F500
G1 X3.222 Y41.105 Z-0.800 F500
G1 X3.230 Y41.000 Z-0.800 F500
G1 X3.230 Y-2.000 Z-0.800 F500
G1 X3.237 Y-2.105 Z-0.800 F500
G1 X3.259 Y-2.207 Z-0.800 F500
G1 X3.296 Y-2.305 Z-0.800 F500
G1 X3.346 Y-2.397 Z-0.800 F500
G1 X3.409 Y-2.481 Z-0.800 F500
G1 X3.483 Y-2.555 Z-0.800 F500
G1 X3.567 Y-2.618 Z-0.800 F500
G1 X3.659 Y-2.668 Z-0.800 F500
G1 X3.757 Y-2.705 Z-0.800 F500
G1 X3.859 Y-2.727 Z-0.800 F500
G1 X3.964 Y-2.734 Z-0.800 F500
G1 X4.068 Y-2.727 Z-0.800 F500
G1 X4.171 Y-2.705 Z-0.800 F500
G1 X4.269 Y-2.668 Z-0.800 F500
G1 X4.361 Y-2.618 Z-0.800 F500
G1 X4.445 Y-2.555 Z-0.800 F500
G1 X4.519 Y-2.481 Z-0.800 F500
G1 X4.582 Y-2.397 Z-0.800 F500
G1 X4.632 Y-2.305 Z-0.800 F500
G1 X4.669 Y-2.207 Z-0.800 F500
G1 X4.691 Y-2.105 Z-0.800 F500
G1 X4.698 Y-2.000 Z-0.800 F500
G1 X4.698 Y41.000 Z-0.800 F500
G1 X4.706 Y41.105 Z-0.800 F500
G1 X4.728 Y41.207 Z-0.800 F500
G1 X4.765 Y41.305 Z-0.800 F500
G1 X4.815 Y41.397 Z-0.800 F500
G1 X4.878 Y41.481 Z-0.800 F500
G1 X4.952 Y41.555 Z-0.800 F500
G1 X5.036 Y41.618 Z-0.800 F500
G1 X5.128 Y41.668 Z-0.800 F500
G1 X5.226 Y41.705 Z-0.800 F500
G1 X5.328 Y41.727 Z-0.800 F500
G1 X5.433 Y41.734 Z-0.800 F500
G1 X5.537 Y41.727 Z-0.800 F500
G1 X5.639 Y41.705 Z-0.800 F500
G1 X5.738 Y41.668 Z-0.800 F500
G1 X5.830 Y41.618 Z-0.800 F500
G1 X5.913 Y41.555 Z-0.800 F500
G1 X5.988 Y41.481 Z-0.800 F500
G1 X6.050 Y41.397 Z-0.800 F500
G1 X6.101 Y41.305 Z-0.800 F500
G1 X6.137 Y41.207 Z-0.800 F500
G1 X6.159 Y41.105 Z-0.800 F500
G1 X6.167 Y41.000 Z-0.800 F500
G1 X6.167 Y-2.000 Z-0.800 F500
G1 X6.174 Y-2.105 Z-0.800 F500
G1 X6.197 Y-2.207 Z-0.800 F500
G1 X6.233 Y-2.305 Z-0.800 F500
G1 X6.283 Y-2.397 Z-0.800 F500
G1 X6.346 Y-2.481 Z-0.800 F500
G1 X6.420 Y-2.555 Z-0.800 F500
G1 X6.504 Y-2.618 Z-0.800 F500
G1 X6.596 Y-2.668 Z-0.800 F500
G1 X6.694 Y-2.705 Z-0.800 F500
G1 X6.797 Y-2.727 Z-0.800 F500
G1 X6.901 Y-2.734 Z-0.800 F500
G1 X7.006 Y-2.727 Z-0.800 F500
G1 X7.108 Y-2.705 Z-0.800 F500
G1 X7.206 Y-2.668 Z-0.800 F500
G1 X7.298 Y-2.618 Z-0.800 F500
G1 X7.382 Y-2.555 Z-0.800 F500
G1 X7.456 Y-2.481 Z-0.800 F500
G1 X7.519 Y-2.397 Z-0.800 F500
G1 X7.569 Y-2.305 Z-0.800 F500
G1 X7.606 Y-2.207 Z-0.800 F500
G1 X7.628 Y-2.105 Z-0.800 F500
G1 X7.636 Y-2.000 Z-0.800 F500
G1 X7.636 Y41.000 Z-0.800 F500
G1 X7.643 Y41.105 Z-0.800 F500
G1 X7.665 Y41.207 Z-0.800 F500
G1 X7.702 Y41.305 Z-0.800 F500
G1 X7.752 Y41.397 Z-0.800 F500
G1 X7.815 Y41.481 Z-0.800 F500
G1 X7.889 Y41.555 Z-0.800 F500
G1 X7.973 Y41.618 Z-0.800 F500
G1 X8.065 Y41.668 Z-0.800 F500
G1 X8.163 Y41.705 Z-0.800 F500
G1 X8.265 Y41.727 Z-0.800 F500
G1 X8.370 Y41.734 Z-0.800 F500
G1 X8.474 Y41.727 Z-0.800 F500
G1 X8.577 Y41.705 Z-0.800 F500
G1 X8.675 Y41.668 Z-0.800 F500
G1 X8.767 Y41.618 Z-0.800 F500
G1 X8.851 Y41.555 Z-0.800 F500
G1 X8.925 Y41.481 Z-0.800 F500
G1 X8.988 Y41.397 Z-0.800 F500
G1 X9.038 Y41.305 Z-0.800 F500
G1 X9.074 Y41.207 Z-0.800 F500
G1 X9.097 Y41.105 Z-0.800 F500
G1 X9.104 Y41.000 Z-0.800 F500
G1 X9.104 Y-2.000 Z-0.800 F500
G1 X9.112 Y-2.105 Z-0.800 F500
G1 X9.134 Y-2.207 Z-0.800 F500
G1 X9.171 Y-2.305 Z-0.800 F500
G1 X9.221 Y-2.397 Z-0.800 F500
G1 X9.284 Y-2.481 Z-0.800 F500
G1 X9.358 Y-2.555 Z-0.800 F500
G1 X9.442 Y-2.618 Z-0.800 F500
G1 X9.533 Y-2.668 Z-0.800 F500
G1 X9.632 Y-2.705 Z-0.800 F500
G1 X9.734 Y-2.727 Z-0.800 F500
G1 X9.839 Y-2.734 Z-0.800 F500
G1 X9.943 Y-2.727 Z-0.800 F500
G1 X10.045 Y-2.705 Z-0.800 F500
G1 X10.144 Y-2.668 Z-0.800 F500
G1 X10.236 Y-2.618 Z-0.800 F500
G1 X10.319 Y-2.555 Z-0.800 F500
G1 X10.393 Y-2.481 Z-0.800 F500
G1 X10.456 Y-2.397 Z-0.800 F500
G1 X10.506 Y-2.305 Z-0.800 F500
G1 X10.543 Y-2.207 Z-0.800 F500
G1 X10.565 Y-2.105 Z-0.800 F500
G1 X10.573 Y-2.000 Z-0.800 F500
G1 X10.573 Y41.000 Z-0.800 F500
G1 X10.580 Y41.105 Z-0.800 F500
G1 X10.603 Y41.207 Z-0.800 F500
G1 X10.639 Y41.305 Z-0.800 F500
G1 X10.689 Y41.397 Z-0.800 F500
G1 X10.752 Y41.481 Z-0.800 F500
G1 X10.826 Y41.555 Z-0.800 F500
G1 X10.910 Y41.618 Z-0.800 F500
G1 X11.002 Y41.668 Z-0.800 F500
G1 X11.100 Y41.705 Z-0.800 F500
G1 X11.203 Y41.727 Z-0.800 F500
G1 X11.307 Y41.734 Z-0.800 F500
G1 X11.412 Y41.727 Z-0.800 F500
G1 X11.514 Y41.705 Z-0.800 F500
G1 X11.612 Y41.668 Z-0.800 F500
G1 X11.704 Y41.618 Z-0.800 F500
G1 X11.788 Y41.555 Z-0.800 F500
G1 X11.862 Y41.481 Z-0.800 F500
G1 X11.925 Y41.397 Z-0.800 F500
G1 X11.975 Y41.305 Z-0.800 F500
G1 X12.012 Y41.207 Z-0.800 F500
G1 X12.034 Y41.105 Z-0.800 F500
G1 X12.041 Y41.000 Z-0.800 F500
G1 X12.041 Y-2.000 Z-0.800 F500
G1 X12.049 Y-2.105 Z-0.800 F500
G1 X12.071 Y-2.207 Z-0.800 F500
G1 X12.108 Y-2.305 Z-0.800 F500
G1 X12.158 Y-2.397 Z-0.800 F500
G1 X12.221 Y-2.481 Z-0.800 F500
G1 X12.295 Y-2.555 Z-0.800 F500
G1 X12.379 Y-2.618 Z-0.800 F500
G1 X12.471 Y-2.668 Z-0.800 F500
G1 X12.569 Y-2.705 Z-0.800 F500
G1 X12.671 Y-2.727 Z-0.800 F500
G1 X12.776 Y-2.734 Z-0.800 F500
G1 X12.880 Y-2.727 Z-0.800 F500
G1 X12.983 Y-2.705 Z-0.800 F500
G1 X13.081 Y-2.668 Z-0.800 F500
G1 X13.173 Y-2.618 Z-0.800 F500
G1 X13.257 Y-2.555 Z-0.800 F500
G1 X13.331 Y-2.481 Z-0.800 F500
G1 X13.394 Y-2.397 Z-0.800 F500
G1 X13.444 Y-2.305 Z-0.800 F500
G1 X13.480 Y-2.207 Z-0.800 F500
G1 X13.503 Y-2.105 Z-0.800 F500
G1 X13.510 Y-2.000 Z-0.800 F500
G1 X13.510 Y41.000 Z-0.800 F500
G1 X13.518 Y41.105 Z-0.800 F500
G1 X13.540 Y41.207 Z-0.800 F500
G1 X13.576 Y41.305 Z-0.800 F500
G1 X13.627 Y41.397 Z-0.800 F500
G1 X13.689 Y41.481 Z-0.800 F500
G1 X13.764 Y41.555 Z-0.800 F500
G1 X13.847 Y41.618 Z-0.800 F500
G1 X13.939 Y41.668 Z-0.800 F500
G1 X14.038 Y41.705 Z-0.800 F500
G1 X14.140 Y41.727 Z-0.800 F500
G1 X14.244 Y41.734 Z-0.800 F500
G1 X14.349 Y41.727 Z-0.800 F500
G1 X14.451 Y41.705 Z-0.800 F500
G1 X14.549 Y41.668 Z-0.800 F500
G1 X14.641 Y41.618 Z-0.800 F500
G1 X14.725 Y41.555 Z-0.800 F500
G1 X14.799 Y41.481 Z-0.800 F500
G1 X14.862 Y41.397 Z-0.800 F500
G1 X14.912 Y41.305 Z-0.800 F500
G1 X14.949 Y41.207 Z-0.800 F500
G1 X14.971 Y41.105 Z-0.800 F500
G1 X14.979 Y41.000 Z-0.800 F500
G1 X14.979 Y-2.000 Z-0.800 F500
G1 X14.986 Y-2.105 Z-0.800 F500
G1 X15.008 Y-2.207 Z-0.800 F500
G1 X15.045 Y-2.305 Z-0.800 F500
G1 X15.095 Y-2.397 Z-0.800 F500
G1 X15.158 Y-2.481 Z-0.800 F500
G1 X15.232 Y-2.555 Z-0.800 F500
G1 X15.316 Y-2.618 Z-0.800 F500
G1 X15.408 Y-2.668 Z-0.800 F500
G1 X15.506 Y-2.705 Z-0.800 F500
G1 X15.609 Y-2.727 Z-0.800 F500
G1 X15.713 Y-2.734 Z-0.800 F500
G1 X15.818 Y-2.727 Z-0.800 F500
G1 X15.920 Y-2.705 Z-0.800 F500
G1 X16.018 Y-2.668 Z-0.800 F500
G1 X16.110 Y-2.618 Z-0.800 F500
G1 X16.194 Y-2.555 Z-0.800 F500
G1 X16.268 Y-2.481 Z-0.800 F500
G1 X16.331 Y-2.397 Z-0.800 F500
G1 X16.381 Y-2.305 Z-0.800 F500
G1 X16.418 Y-2.207 Z-0.800 F500
G1 X16.440 Y-2.105 Z-0.800 F500
G1 X16.447 Y-2.000 Z-0.800 F500
G1 X16.447 Y41.000 Z-0.800 F500
G1 X16.455 Y41.105 Z-0.800 F500
G1 X16.477 Y41.207 Z-0.800 F500
G1 X16.514 Y41.305 Z-0.800 F500
G1 X16.564 Y41.397 Z-0.800 F500
G1 X16.627 Y41.481 Z-0.800 F500
G1 X16.701 Y41.555 Z-0.800 F500
G1 X16.785 Y41.618 Z-0.800 F500
G1 X16.877 Y41.668 Z-0.800 F500
G1 X16.975 Y41.705 Z-0.800 F500
G1 X17.077 Y41.727 Z-0.800 F500
G1 X17.182 Y41.734 Z-0.800 F500
G1 X17.286 Y41.727 Z-0.800 F500
G1 X17.389 Y41.705 Z-0.800 F500
G1 X17.487 Y41.668 Z-0.800 F500
G1 X17.579 Y41.618 Z-0.800 F500
G1 X17.663 Y41.555 Z-0.800 F500
G1 X17.737 Y41.481 Z-0.800 F500
G1 X17.799 Y41.397 Z-0.800 F500
G1 X17.850 Y41.305 Z-0.800 F500
G1 X17.886 Y41.207 Z-0.800 F500
G1 X17.909 Y41.105 Z-0.800 F500
G1 X17.916 Y41.000 Z-0.800 F500
G1 X17.916 Y-2.000 Z-0.800 F500
G1 X17.924 Y-2.105 Z-0.800 F500
G1 X17.946 Y-2.207 Z-0.800 F500
G1 X17.982 Y-2.305 Z-0.800 F500
G1 X18.033 Y-2.397 Z-0.800 F500
G1 X18.095 Y-2.481 Z-0.800 F500
G1 X18.169 Y-2.555 Z-0.800 F500
G1 X18.253 Y-2.618 Z-0.800 F500
G1 X18.345 Y-2.668 Z-0.800 F500
G1 X18.443 Y-2.705 Z-0.800 F500
G1 X18.546 Y-2.727 Z-0.800 F500
G1 X18.650 Y-2.734 Z-0.800 F500
G1 X18.755 Y-2.727 Z-0.800 F500
G1 X18.857 Y-2.705 Z-0.800 F500
G1 X18.955 Y-2.668 Z-0.800 F500
G1 X19.047 Y-2.618 Z-0.800 F500
G1 X19.131 Y-2.555 Z-0.800 F500
G1 X19.205 Y-2.481 Z-0.800 F500
G1 X19.268 Y-2.397 Z-0.800 F500
G1 X19.318 Y-2.305 Z-0.800 F500
G1 X19.355 Y-2.207 Z-0.800 F500
G1 X19.377 Y-2.105 Z-0.800 F500
G1 X19.385 Y-2.000 Z-0.800 F500
G1 X19.385 Y41.000 Z-0.800 F500
G1 X19.392 Y41.105 Z-0.800 F500
G1 X19.414 Y41.207 Z-0.800 F500
G1 X19.451 Y41.305 Z-0.800 F500
G1 X19.501 Y41.397 Z-0.800 F500
G1 X19.564 Y41.481 Z-0.800 F500
G1 X19.638 Y41.555 Z-0.800 F500
G1 X19.722 Y41.618 Z-0.800 F500
G1 X19.814 Y41.668 Z-0.800 F500
G1 X19.912 Y41.705 Z-0.800 F500
G1 X20.014 Y41.727 Z-0.800 F500
G1 X20.119 Y41.734 Z-0.800 F500
G1 X20.223 Y41.727 Z-0.800 F500
G1 X20.326 Y41.705 Z-0.800 F500
G1 X20.424 Y41.668 Z-0.800 F500
G1 X20.516 Y41.618 Z-0.800 F500
G1 X20.600 Y41.555 Z-0.800 F500
G1 X20.674 Y41.481 Z-0.800 F500
G1 X20.737 Y41.397 Z-0.800 F500
G1 X20.787 Y41.305 Z-0.800 F500
G1 X20.824 Y41.207 Z-0.800 F500
G1 X20.846 Y41.105 Z-0.800 F500
G1 X20.853 Y41.000 Z-0.800 F500
G1 X20.853 Y-2.000 Z-0.800 F500
G1 X20.853 Y-2.053 Z-0.794 F500
G1 X20.853 Y-2.103 Z-0.776 F500
G1 X20.853 Y-2.149 Z-0.748 F500
G1 X20.853 Y-2.186 Z-0.710 F500
G1 X20.853 Y-2.215 Z-0.665 F500
G1 X20.853 Y-2.232 Z-0.615 F500
G1 X20.853 Y-2.238 Z-0.562 F500
G1 X20.853 Y-2.238 Z1.000 F500
G1 X0.292 Y-2.549 Z1.000 F500
G1 X0.292 Y-2.549 Z0.000 F500
G1 X0.292 Y-2.549 Z-0.662 F100
G1 X0.292 Y-2.543 Z-0.715 F500
G1 X0.292 Y-2.525 Z-0.765 F500
G1 X0.292 Y-2.497 Z-0.810 F500
G1 X0.292 Y-2.459 Z-0.848 F500
G1 X0.292 Y-2.414 Z-0.876 F500
G1 X0.292 Y-2.363 Z-0.894 F500
G1 X0.292 Y-2.310 Z-0.900 F500
G1 X0.292 Y-2.000 Z-0.900 F500
G1 X0.292 Y41.000 Z-0.900 F500
G1 X0.300 Y41.105 Z-0.900 F500
G1 X0.322 Y41.207 Z-0.900 F500
G1 X0.359 Y41.305 Z-0.900 F500
G1 X0.409 Y41.397 Z-0.900 F500
G1 X0.472 Y41.481 Z-0.900 F500
G1 X0.546 Y41.555 Z-0.900 F500
G1 X0.630 Y41.618 Z-0.900 F500
G1 X0.722 Y41.668 Z-0.900 F500
G1 X0.820 Y41.705 Z-0.900 F500
G1 X0.922 Y41.727 Z-0.900 F500
G1 X1.027 Y41.734 Z-0.900 F500
G1 X1.131 Y41.727 Z-0.900 F500
G1 X1.234 Y41.705 Z-0.900 F500
G1 X1.332 Y41.668 Z-0.900 F500
G1 X1.424 Y41.618 Z-0.900 F500
G1 X1.508 Y41.555 Z-0.900 F500
G1 X1.582 Y41.481 Z-0.900 F500
G1 X1.644 Y41.397 Z-0.900 F500
G1 X1.695 Y41.305 Z-0.900 F500
G1 X1.731 Y41.207 Z-0.900 F500
G1 X1.754 Y41.105 Z-0.900 F500
G1 X1.761 Y41.000 Z-0.900 F500
G1 X1.761 Y-2.000 Z-0.900 F500
G1 X1.768 Y-2.105 Z-0.900 F500
G1 X1.791 Y-2.207 Z-0.900 F500
G1 X1.827 Y-2.305 Z-0.900 F500
G1 X1.878 Y-2.397 Z-0.900 F500
G1 X1.940 Y-2.481 Z-0.900 F500
G1 X2.014 Y-2.555 Z-0.900 F500
G1 X2.098 Y-2.618 Z-0.900 F500
G1 X2.190 Y-2.668 Z-0.900 F500
G1 X2.288 Y-2.705 Z-0.900 F500
G1 X2.391 Y-2.727 Z-0.900 F500
G1 X2.495 Y-2.734 Z-0.900 F500
G1 X2.600 Y-2.727 Z-0.900 F500
G1 X2.702 Y-2.705 Z-0.900 F500
G1 X2.800 Y-2.668 Z-0.900 F500
G1 X2.892 Y-2.618 Z-0.900 F500
G1 X2.976 Y-2.555 Z-0.900 F500
G1 X3.050 Y-2.481 Z-0.900 F500
G1 X3.113 Y-2.397 Z-0.900 F500
G1 X3.163 Y-2.305 Z-0.900 F500
G1 X3.200 Y-2.207 Z-0.900 F500
G1 X3.222 Y-2.105 Z-0.900 F500
G1 X3.230 Y-2.000 Z-0.900 F500
G1 X3.230 Y41.000 Z-0.900 F500
G1 X3.237 Y41.105 Z-0.900 F500
G1 X3.259 Y41.207 Z-0.900 F500
G1 X3.296 Y41.305 Z-0.900 F500
G1 X3.346 Y41.397 Z-0.900 F500
G1 X3.409 Y41.481 Z-0.900 F500
G1 X3.483 Y41.555 Z-0.900 F500
G1 X3.567 Y41.618 Z-0.900 F500
G1 X3.659 Y41.668 Z-0.900 F500
G1 X3.757 Y41.705 Z-0.900 F500
G1 X3.859 Y41.727 Z-0.900 F500
G1 X3.964 Y41.734 Z-0.900 F500
G1 X4.068 Y41.727 Z-0.900 F500
G1 X4.171 Y41.705 Z-0.900 F500
G1 X4.269 Y41.668 Z-0.900 F500
G1 X4.361 Y41.618 Z-0.900 F500
G1 X4.445 Y41.555 Z-0.900 F500
G1 X4.519 Y41.481 Z-0.900 F500
G1 X4.582 Y41.397 Z-0.900 F500
G1 X4.632 Y41.305 Z-0.900 F500
G1 X4.669 Y41.207 Z-0.900 F500
G1 X4.691 Y41.105 Z-0.900 F500
G1 X4.698 Y41.000 Z-0.900 F500
G1 X4.698 Y-2.000 Z-0.900 F500
G1 X4.706 Y-2.105 Z-0.900 F500
G1 X4.728 Y-2.207 Z-0.900 F500
G1 X4.765 Y-2.305 Z-0.900 F500
G1 X4.815 Y-2.397 Z-0.900 F500
G1 X4.878 Y-2.481 Z-0.900 F500
G1 X4.952 Y-2.555 Z-0.900 F500
G1 X5.036 Y-2.618 Z-0.900 F500
G1 X5.128 Y-2.668 Z-0.900 F500
G1 X5.226 Y-2.705 Z-0.900 F500
G1 X5.328 Y-2.727 Z-0.900 F500
G1 X5.433 Y-2.734 Z-0.900 F500
G1 X5.537 Y-2.727 Z-0.900 F500
G1 X5.639 Y-2.705 Z-0.900 F500
G1 X5.738 Y-2.668 Z-0.900 F500
G1 X5.830 Y-2.618 Z-0.900 F500
G1 X5.913 Y-2.555 Z-0.900 F500
G1 X5.988 Y-2.481 Z-0.900 F500
G1 X6.050 Y-2.397 Z-0.900 F500
G1 X6.101 Y-2.305 Z-0.900 F500
G1 X6.137 Y-2.207 Z-0.900 F500
G1 X6.159 Y-2.105 Z-0.900 F500
G1 X6.167 Y-2.000 Z-0.900 F500
G1 X6.167 Y41.000 Z-0.900 F500
G1 X6.174 Y41.105 Z-0.900 F500
G1 X6.197 Y41.207 Z-0.900 F500
G1 X6.233 Y41.305 Z-0.900 F500
G1 X6.283 Y41.397 Z-0.900 F500
G1 X6.346 Y41.481 Z-0.900 F500
G1 X6.420 Y41.555 Z-0.900 F500
G1 X6.504 Y41.618 Z-0.900 F500
G1 X6.596 Y41.668 Z-0.900 F500
G1 X6.694 Y41.705 Z-0.900 F500
G1 X6.797 Y41.727 Z-0.900 F500
G1 X6.901 Y41.734 Z-0.900 F500
G1 X7.006 Y41.727 Z-0.900 F500
G1 X7.108 Y41.705 Z-0.900 F500
G1 X7.206 Y41.668 Z-0.900 F500
G1 X7.298 Y41.618 Z-0.900 F500
G1 X7.382 Y41.555 Z-0.900 F500
G1 X7.456 Y41.481 Z-0.900 F500
G1 X7.519 Y41.397 Z-0.900 F500
G1 X7.569 Y41.305 Z-0.900 F500
G1 X7.606 Y41.207 Z-0.900 F500
G1 X7.628 Y41.105 Z-0.900 F500
G1 X7.636 Y41.000 Z-0.900 F500
G1 X7.636 Y-2.000 Z-0.900 F500
G1 X7.643 Y-2.105 Z-0.900 F500
G1 X7.665 Y-2.207 Z-0.900 F500
G1 X7.702 Y-2.305 Z-0.900 F500
G1 X7.752 Y-2.397 Z-0.900 F500
G1 X7.815 Y-2.481 Z-0.900 F500
G1 X7.889 Y-2.555 Z-0.900 F500
G1 X7.973 Y-2.618 Z-0.900 F500
G1 X8.065 Y-2.668 Z-0.900 F500
G1 X8.163 Y-2.705 Z-0.900 F500
G1 X8.265 Y-2.727 Z-0.900 F500
G1 X8.370 Y-2.734 Z-0.900 F500
G1 X8.474 Y-2.727 Z-0.900 F500
G1 X8.577 Y-2.705 Z-0.900 F500
G1 X8.675 Y-2.668 Z-0.900 F500
G1 X8.767 Y-2.618 Z-0.900 F500
G1 X8.851 Y-2.555 Z-0.900 F500
G1 X8.925 Y-2.481 Z-0.900 F500
G1 X8.988 Y-2.397 Z-0.900 F500
G1 X9.038 Y-2.305 Z-0.900 F500
G1 X9.074 Y-2.207 Z-0.900 F500
G1 X9.097 Y-2.105 Z-0.900 F500
G1 X9.104 Y-2.000 Z-0.900 F500
G1 X9.104 Y41.000 Z-0.900 F500
G1 X9.112 Y41.105 Z-0.900 F500
G1 X9.134 Y41.207 Z-0.900 F500
G1 X9.171 Y41.305 Z-0.900 F500
G1 X9.221 Y41.397 Z-0.900 F500
G1 X9.284 Y41.481 Z-0.900 F500
G1 X9.358 Y41.555 Z-0.900 F500
G1 X9.442 Y41.618 Z-0.900 F500
G1 X9.533 Y41.668 Z-0.900 F500
G1 X9.632 Y41.705 Z-0.900 F500
G1 X9.734 Y41.727 Z-0.900 F500
G1 X9.839 Y41.734 Z-0.900 F500
G1 X9.943 Y41.727 Z-0.900 F500
G1 X10.045 Y41.705 Z-0.900 F500
G1 X10.144 Y41.668 Z-0.900 F500
G1 X10.236 Y41.618 Z-0.900 F500
G1 X10.319 Y41.555 Z-0.900 F500
G1 X10.393 Y41.481 Z-0.900 F500
G1 X10.456 Y41.397 Z-0.900 F500
G1 X10.506 Y41.305 Z-0.900 F500
G1 X10.543 Y41.207 Z-0.900 F500
G1 X10.565 Y41.105 Z-0.900 F500
G1 X10.573 Y41.000 Z-0.900 F500
G1 X10.573 Y-2.000 Z-0.900 F500
G1 X10.580 Y-2.105 Z-0.900 F500
G1 X10.603 Y-2.207 Z-0.900 F500
G1 X10.639 Y-2.305 Z-0.900 F500
G1 X10.689 Y-2.397 Z-0.900 F500
G1 X10.752 Y-2.481 Z-0.900 F500
G1 X10.826 Y-2.555 Z-0.900 F500
G1 X10.910 Y-2.618 Z-0.900 F500
G1 X11.002 Y-2.668 Z-0.900 F500
G1 X11.100 Y-2.705 Z-0.900 F500
G1 X11.203 Y-2.727 Z-0.900 F500
G1 X11.307 Y-2.734 Z-0.900 F500
G1 X11.412 Y-2.727 Z-0.900 F500
G1 X11.514 Y-2.705 Z-0.900 F500
G1 X11.612 Y-2.668 Z-0.900 F500
G1 X11.704 Y-2.618 Z-0.900 F500
G1 X11.788 Y-2.555 Z-0.900 F500
G1 X11.862 Y-2.481 Z-0.900 F500
G1 X11.925 Y-2.397 Z-0.900 F500
G1 X11.975 Y-2.305 Z-0.900 F500
G1 X12.012 Y-2.207 Z-0.900 F500
G1 X12.034 Y-2.105 Z-0.900 F500
G1 X12.041 Y-2.000 Z-0.900 F500
G1 X12.041 Y41.000 Z-0.900 F500
G1 X12.049 Y41.105 Z-0.900 F500
G1 X12.071 Y41.207 Z-0.900 F500
G1 X12.108 Y41.305 Z-0.900 F500
G1 X12.158 Y41.397 Z-0.900 F500
G1 X12.221 Y41.481 Z-0.900 F500
G1 X12.295 Y41.555 Z-0.900 F500
G1 X12.379 Y41.618 Z-0.900 F500
G1 X12.471 Y41.668 Z-0.900 F500
G1 X12.569 Y41.705 Z-0.900 F500
G1 X12.671 Y41.727 Z-0.900 F500
G1 X12.776 Y41.734 Z-0.900 F500
G1 X12.880 Y41.727 Z-0.900 F500
G1 X12.983 Y41.705 Z-0.900 F500
G1 X13.081 Y41.668 Z-0.900 F500
G1 X13.173 Y41.618 Z-0.900 F500
G1 X13.257 Y41.555 Z-0.900 F500
G1 X13.331 Y41.481 Z-0.900 F500
G1 X13.394 Y41.397 Z-0.900 F500
G1 X13.444 Y41.305 Z-0.900 F500
G1 X13.480 Y41.207 Z-0.900 F500
G1 X13.503 Y41.105 Z-0.900 F500
G1 X13.510 Y41.000 Z-0.900 F500
G1 X13.510 Y-2.000 Z-0.900 F500
G1 X13.518 Y-2.105 Z-0.900 F500
G1 X13.540 Y-2.207 Z-0.900 F500
G1 X13.576 Y-2.305 Z-0.900 F500
G1 X13.627 Y-2.397 Z-0.900 F500
G1 X13.689 Y-2.481 Z-0.900 F500
G1 X13.764 Y-2.555 Z-0.900 F500
G1 X13.847 Y-2.618 Z-0.900 F500
G1 X13.939 Y-2.668 Z-0.900 F500
G1 X14.038 Y-2.705 Z-0.900 F500
G1 X14.140 Y-2.727 Z-0.900 F500
G1 X14.244 Y-2.734 Z-0.900 F500
G1 X14.349 Y-2.727 Z-0.900 F500
G1 X14.451 Y-2.705 Z-0.900 F500
G1 X14.549 Y-2.668 Z-0.900 F500
G1 X14.641 Y-2.618 Z-0.900 F500
G1 X14.725 Y-2.555 Z-0.900 F500
G1 X14.799 Y-2.481 Z-0.900 F500
G1 X14.862 Y-2.397 Z-0.900 F500
G1 X14.912 Y-2.305 Z-0.900 F500
G1 X14.949 Y-2.207 Z-0.900 F500
G1 X14.971 Y-2.105 Z-0.900 F500
G1 X14.979 Y-2.000 Z-0.900 F500
G1 X14.979 Y41.000 Z-0.900 F500
G1 X14.986 Y41.105 Z-0.900 F500
G1 X15.008 Y41.207 Z-0.900 F500
G1 X15.045 Y41.305 Z-0.900 F500
G1 X15.095 Y41.397 Z-0.900 F500
G1 X15.158 Y41.481 Z-0.900 F500
G1 X15.232 Y41.555 Z-0.900 F500
G1 X15.316 Y41.618 Z-0.900 F500
G1 X15.408 Y41.668 Z-0.900 F500
G1 X15.506 Y41.705 Z-0.900 F500
G1 X15.609 Y41.727 Z-0.900 F500
G1 X15.713 Y41.734 Z-0.900 F500
G1 X15.818 Y41.727 Z-0.900 F500
G1 X15.920 Y41.705 Z-0.900 F500
G1 X16.018 Y41.668 Z-0.900 F500
G1 X16.110 Y41.618 Z-0.900 F500
G1 X16.194 Y41.555 Z-0.900 F500
G1 X16.268 Y41.481 Z-0.900 F500
G1 X16.331 Y41.397 Z-0.900 F500
G1 X16.381 Y41.305 Z-0.900 F500
G1 X16.418 Y41.207 Z-0.900 F500
G1 X16.440 Y41.105 Z-0.900 F500
G1 X16.447 Y41.000 Z-0.900 F500
G1 X16.447 Y-2.000 Z-0.900 F500
G1 X16.455 Y-2.105 Z-0.900 F500
G1 X16.477 Y-2.207 Z-0.900 F500
G1 X16.514 Y-2.305 Z-0.900 F500
G1 X16.564 Y-2.397 Z-0.900 F500
G1 X16.627 Y-2.481 Z-0.900 F500
G1 X16.701 Y-2.555 Z-0.900 F500
G1 X16.785 Y-2.618 Z-0.900 F500
G1 X16.877 Y-2.668 Z-0.900 F500
G1 X16.975 Y-2.705 Z-0.900 F500
G1 X17.077 Y-2.727 Z-0.900 F500
G1 X17.182 Y-2.734 Z-0.900 F500
G1 X17.286 Y-2.727 Z-0.900 F500
G1 X17.389 Y-2.705 Z-0.900 F500
G1 X17.487 Y-2.668 Z-0.900 F500
G1 X17.579 Y-2.618 Z-0.900 F500
G1 X17.663 Y-2.555 Z-0.900 F500
G1 X17.737 Y-2.481 Z-0.900 F500
G1 X17.799 Y-2.397 Z-0.900 F500
G1 X17.850 Y-2.305 Z-0.900 F500
G1 X17.886 Y-2.207 Z-0.900 F500
G1 X17.909 Y-2.105 Z-0.900 F500
G1 X17.916 Y-2.000 Z-0.900 F500
G1 X17.916 Y41.000 Z-0.900 F500
G1 X17.924 Y41.105 Z-0.900 F500
G1 X17.946 Y41.207 Z-0.900 F500
G1 X17.982 Y41.305 Z-0.900 F500
G1 X18.033 Y41.397 Z-0.900 F500
G1 X18.095 Y41.481 Z-0.900 F500
G1 X18.169 Y41.555 Z-0.900 F500
G1 X18.253 Y41.618 Z-0.900 F500
G1 X18.345 Y41.668 Z-0.900 F500
G1 X18.443 Y41.705 Z-0.900 F500
G1 X18.546 Y41.727 Z-0.900 F500
G1 X18.650 Y41.734 Z-0.900 F500
G1 X18.755 Y41.727 Z-0.900 F500
G1 X18.857 Y41.705 Z-0.900 F500
G1 X18.955 Y41.668 Z-0.900 F500
G1 X19.047 Y41.618 Z-0.900 F500
G1 X19.131 Y41.555 Z-0.900 F500
G1 X19.205 Y41.481 Z-0.900 F500
G1 X19.268 Y41.397 Z-0.900 F500
G1 X19.318 Y41.305 Z-0.900 F500
G1 X19.355 Y41.207 Z-0.900 F500
G1 X19.377 Y41.105 Z-0.900 F500
G1 X19.385 Y41.000 Z-0.900 F500
G1 X19.385 Y-2.000 Z-0.900 F500
G1 X19.392 Y-2.105 Z-0.900 F500
G1 X19.414 Y-2.207 Z-0.900 F500
G1 X19.451 Y-2.305 Z-0.900 F500
G1 X19.501 Y-2.397 Z-0.900 F500
G1 X19.564 Y-2.481 Z-0.900 F500
G1 X19.638 Y-2.555 Z-0.900 F500
G1 X19.722 Y-2.618 Z-0.900 F500
G1 X19.814 Y-2.668 Z-0.900 F500
G1 X19.912 Y-2.705 Z-0.900 F500
G1 X20.014 Y-2.727 Z-0.900 F500
G1 X20.119 Y-2.734 Z-0.900 F500
G1 X20.223 Y-2.727 Z-0.900 F500
G1 X20.326 Y-2.705 Z-0.900 F500
G1 X20.424 Y-2.668 Z-0.900 F500
G1 X20.516 Y-2.618 Z-0.900 F500
G1 X20.600 Y-2.555 Z-0.900 F500
G1 X20.674 Y-2.481 Z-0.900 F500
