;Titan-1-Blank-Face-One-Direction
;Machine
;vendor: Snapmaker
;model: Desktop CNC
;description: Generic Snapmaker Marlin v20180725
M3 S18000
G4 S2 P2
G21
G90
;When using Fusion for Personal Use, the feedrate of rapid
;moves is reduced to match the feedrate of cutting moves,
;which can increase machining time. Unrestricted rapid moves
;are available with a Fusion Subscription.

;Blank Face Move
G0 X0.292 Y-2.549 Z6.000
G1 X0.292 Y-2.549 Z6.000 F500
G1 X0.292 Y-2.549 Z0.138 F500
G1 X0.292 Y-2.543 Z0.085 F500
G1 X0.292 Y-2.525 Z0.035 F500
G1 X0.292 Y-2.497 Z-0.010 F500
G1 X0.292 Y-2.459 Z-0.048 F500
G1 X0.292 Y-2.414 Z-0.076 F500
G1 X0.292 Y-2.363 Z-0.094 F500
G1 X0.292 Y-2.310 Z-0.100 F500
G1 X0.292 Y-2.000 Z-0.100 F500
G1 X0.292 Y41.000 Z-0.100 F500
G1 X0.292 Y41.053 Z-0.094 F500
G1 X0.292 Y41.103 Z-0.076 F500
G1 X0.292 Y41.149 Z-0.048 F500
G1 X0.292 Y41.186 Z-0.010 F500
G1 X0.292 Y41.215 Z0.035 F500
G1 X0.292 Y41.232 Z0.085 F500
G1 X0.292 Y41.238 Z0.138 F500
G1 X0.292 Y41.238 Z1.000 F500
G1 X1.761 Y-2.549 Z1.000 F500
G1 X1.761 Y-2.549 Z0.138 F500
G1 X1.761 Y-2.543 Z0.085 F500
G1 X1.761 Y-2.525 Z0.035 F500
G1 X1.761 Y-2.497 Z-0.010 F500
G1 X1.761 Y-2.459 Z-0.048 F500
G1 X1.761 Y-2.414 Z-0.076 F500
G1 X1.761 Y-2.363 Z-0.094 F500
G1 X1.761 Y-2.310 Z-0.100 F500
G1 X1.761 Y-2.000 Z-0.100 F500
G1 X1.761 Y41.000 Z-0.100 F500
G1 X1.761 Y41.053 Z-0.094 F500
G1 X1.761 Y41.103 Z-0.076 F500
G1 X1.761 Y41.149 Z-0.048 F500
G1 X1.761 Y41.186 Z-0.010 F500
G1 X1.761 Y41.215 Z0.035 F500
G1 X1.761 Y41.232 Z0.085 F500
G1 X1.761 Y41.238 Z0.138 F500
G1 X1.761 Y41.238 Z1.000 F500
G1 X3.230 Y-2.549 Z1.000 F500
G1 X3.230 Y-2.549 Z0.138 F500
G1 X3.230 Y-2.543 Z0.085 F500
G1 X3.230 Y-2.525 Z0.035 F500
G1 X3.230 Y-2.497 Z-0.010 F500
G1 X3.230 Y-2.459 Z-0.048 F500
G1 X3.230 Y-2.414 Z-0.076 F500
G1 X3.230 Y-2.363 Z-0.094 F500
G1 X3.230 Y-2.310 Z-0.100 F500
G1 X3.230 Y-2.000 Z-0.100 F500
G1 X3.230 Y41.000 Z-0.100 F500
G1 X3.230 Y41.053 Z-0.094 F500
G1 X3.230 Y41.103 Z-0.076 F500
G1 X3.230 Y41.149 Z-0.048 F500
G1 X3.230 Y41.186 Z-0.010 F500
G1 X3.230 Y41.215 Z0.035 F500
G1 X3.230 Y41.232 Z0.085 F500
G1 X3.230 Y41.238 Z0.138 F500
G1 X3.230 Y41.238 Z1.000 F500
G1 X4.698 Y-2.549 Z1.000 F500
G1 X4.698 Y-2.549 Z0.138 F500
G1 X4.698 Y-2.543 Z0.085 F500
G1 X4.698 Y-2.525 Z0.035 F500
G1 X4.698 Y-2.497 Z-0.010 F500
G1 X4.698 Y-2.459 Z-0.048 F500
G1 X4.698 Y-2.414 Z-0.076 F500
G1 X4.698 Y-2.363 Z-0.094 F500
G1 X4.698 Y-2.310 Z-0.100 F500
G1 X4.698 Y-2.000 Z-0.100 F500
G1 X4.698 Y41.000 Z-0.100 F500
G1 X4.698 Y41.053 Z-0.094 F500
G1 X4.698 Y41.103 Z-0.076 F500
G1 X4.698 Y41.149 Z-0.048 F500
G1 X4.698 Y41.186 Z-0.010 F500
G1 X4.698 Y41.215 Z0.035 F500
G1 X4.698 Y41.232 Z0.085 F500
G1 X4.698 Y41.238 Z0.138 F500
G1 X4.698 Y41.238 Z1.000 F500
G1 X6.167 Y-2.549 Z1.000 F500
G1 X6.167 Y-2.549 Z0.138 F500
G1 X6.167 Y-2.543 Z0.085 F500
G1 X6.167 Y-2.525 Z0.035 F500
G1 X6.167 Y-2.497 Z-0.010 F500
G1 X6.167 Y-2.459 Z-0.048 F500
G1 X6.167 Y-2.414 Z-0.076 F500
G1 X6.167 Y-2.363 Z-0.094 F500
G1 X6.167 Y-2.310 Z-0.100 F500
G1 X6.167 Y-2.000 Z-0.100 F500
G1 X6.167 Y41.000 Z-0.100 F500
G1 X6.167 Y41.053 Z-0.094 F500
G1 X6.167 Y41.103 Z-0.076 F500
G1 X6.167 Y41.149 Z-0.048 F500
G1 X6.167 Y41.186 Z-0.010 F500
G1 X6.167 Y41.215 Z0.035 F500
G1 X6.167 Y41.232 Z0.085 F500
G1 X6.167 Y41.238 Z0.138 F500
G1 X6.167 Y41.238 Z1.000 F500
G1 X7.636 Y-2.549 Z1.000 F500
G1 X7.636 Y-2.549 Z0.138 F500
G1 X7.636 Y-2.543 Z0.085 F500
G1 X7.636 Y-2.525 Z0.035 F500
G1 X7.636 Y-2.497 Z-0.010 F500
G1 X7.636 Y-2.459 Z-0.048 F500
G1 X7.636 Y-2.414 Z-0.076 F500
G1 X7.636 Y-2.363 Z-0.094 F500
G1 X7.636 Y-2.310 Z-0.100 F500
G1 X7.636 Y-2.000 Z-0.100 F500
G1 X7.636 Y41.000 Z-0.100 F500
G1 X7.636 Y41.053 Z-0.094 F500
G1 X7.636 Y41.103 Z-0.076 F500
G1 X7.636 Y41.149 Z-0.048 F500
G1 X7.636 Y41.186 Z-0.010 F500
G1 X7.636 Y41.215 Z0.035 F500
G1 X7.636 Y41.232 Z0.085 F500
G1 X7.636 Y41.238 Z0.138 F500
G1 X7.636 Y41.238 Z1.000 F500
G1 X9.104 Y-2.549 Z1.000 F500
G1 X9.104 Y-2.549 Z0.138 F500
G1 X9.104 Y-2.543 Z0.085 F500
G1 X9.104 Y-2.525 Z0.035 F500
G1 X9.104 Y-2.497 Z-0.010 F500
G1 X9.104 Y-2.459 Z-0.048 F500
G1 X9.104 Y-2.414 Z-0.076 F500
G1 X9.104 Y-2.363 Z-0.094 F500
G1 X9.104 Y-2.310 Z-0.100 F500
G1 X9.104 Y-2.000 Z-0.100 F500
G1 X9.104 Y41.000 Z-0.100 F500
G1 X9.104 Y41.053 Z-0.094 F500
G1 X9.104 Y41.103 Z-0.076 F500
G1 X9.104 Y41.149 Z-0.048 F500
G1 X9.104 Y41.186 Z-0.010 F500
G1 X9.104 Y41.215 Z0.035 F500
G1 X9.104 Y41.232 Z0.085 F500
G1 X9.104 Y41.238 Z0.138 F500
G1 X9.104 Y41.238 Z1.000 F500
G1 X10.573 Y-2.549 Z1.000 F500
G1 X10.573 Y-2.549 Z0.138 F500
G1 X10.573 Y-2.543 Z0.085 F500
G1 X10.573 Y-2.525 Z0.035 F500
G1 X10.573 Y-2.497 Z-0.010 F500
G1 X10.573 Y-2.459 Z-0.048 F500
G1 X10.573 Y-2.414 Z-0.076 F500
G1 X10.573 Y-2.363 Z-0.094 F500
G1 X10.573 Y-2.310 Z-0.100 F500
G1 X10.573 Y-2.000 Z-0.100 F500
G1 X10.573 Y41.000 Z-0.100 F500
G1 X10.573 Y41.053 Z-0.094 F500
G1 X10.573 Y41.103 Z-0.076 F500
G1 X10.573 Y41.149 Z-0.048 F500
G1 X10.573 Y41.186 Z-0.010 F500
G1 X10.573 Y41.215 Z0.035 F500
G1 X10.573 Y41.232 Z0.085 F500
G1 X10.573 Y41.238 Z0.138 F500
G1 X10.573 Y41.238 Z1.000 F500
G1 X12.041 Y-2.549 Z1.000 F500
G1 X12.041 Y-2.549 Z0.138 F500
G1 X12.041 Y-2.543 Z0.085 F500
G1 X12.041 Y-2.525 Z0.035 F500
G1 X12.041 Y-2.497 Z-0.010 F500
G1 X12.041 Y-2.459 Z-0.048 F500
G1 X12.041 Y-2.414 Z-0.076 F500
G1 X12.041 Y-2.363 Z-0.094 F500
G1 X12.041 Y-2.310 Z-0.100 F500
G1 X12.041 Y-2.000 Z-0.100 F500
G1 X12.041 Y41.000 Z-0.100 F500
G1 X12.041 Y41.053 Z-0.094 F500
G1 X12.041 Y41.103 Z-0.076 F500
G1 X12.041 Y41.149 Z-0.048 F500
G1 X12.041 Y41.186 Z-0.010 F500
G1 X12.041 Y41.215 Z0.035 F500
G1 X12.041 Y41.232 Z0.085 F500
G1 X12.041 Y41.238 Z0.138 F500
G1 X12.041 Y41.238 Z1.000 F500
G1 X13.510 Y-2.549 Z1.000 F500
G1 X13.510 Y-2.549 Z0.138 F500
G1 X13.510 Y-2.543 Z0.085 F500
G1 X13.510 Y-2.525 Z0.035 F500
G1 X13.510 Y-2.497 Z-0.010 F500
G1 X13.510 Y-2.459 Z-0.048 F500
G1 X13.510 Y-2.414 Z-0.076 F500
G1 X13.510 Y-2.363 Z-0.094 F500
G1 X13.510 Y-2.310 Z-0.100 F500
G1 X13.510 Y-2.000 Z-0.100 F500
G1 X13.510 Y41.000 Z-0.100 F500
G1 X13.510 Y41.053 Z-0.094 F500
G1 X13.510 Y41.103 Z-0.076 F500
G1 X13.510 Y41.149 Z-0.048 F500
G1 X13.510 Y41.186 Z-0.010 F500
G1 X13.510 Y41.215 Z0.035 F500
G1 X13.510 Y41.232 Z0.085 F500
G1 X13.510 Y41.238 Z0.138 F500
G1 X13.510 Y41.238 Z1.000 F500
G1 X14.979 Y-2.549 Z1.000 F500
G1 X14.979 Y-2.549 Z0.138 F500
G1 X14.979 Y-2.543 Z0.085 F500
G1 X14.979 Y-2.525 Z0.035 F500
G1 X14.979 Y-2.497 Z-0.010 F500
G1 X14.979 Y-2.459 Z-0.048 F500
G1 X14.979 Y-2.414 Z-0.076 F500
G1 X14.979 Y-2.363 Z-0.094 F500
G1 X14.979 Y-2.310 Z-0.100 F500
G1 X14.979 Y-2.000 Z-0.100 F500
G1 X14.979 Y41.000 Z-0.100 F500
G1 X14.979 Y41.053 Z-0.094 F500
G1 X14.979 Y41.103 Z-0.076 F500
G1 X14.979 Y41.149 Z-0.048 F500
G1 X14.979 Y41.186 Z-0.010 F500
G1 X14.979 Y41.215 Z0.035 F500
G1 X14.979 Y41.232 Z0.085 F500
G1 X14.979 Y41.238 Z0.138 F500
G1 X14.979 Y41.238 Z1.000 F500
G1 X16.447 Y-2.549 Z1.000 F500
G1 X16.447 Y-2.549 Z0.138 F500
G1 X16.447 Y-2.543 Z0.085 F500
G1 X16.447 Y-2.525 Z0.035 F500
G1 X16.447 Y-2.497 Z-0.010 F500
G1 X16.447 Y-2.459 Z-0.048 F500
G1 X16.447 Y-2.414 Z-0.076 F500
G1 X16.447 Y-2.363 Z-0.094 F500
G1 X16.447 Y-2.310 Z-0.100 F500
G1 X16.447 Y-2.000 Z-0.100 F500
G1 X16.447 Y41.000 Z-0.100 F500
G1 X16.447 Y41.053 Z-0.094 F500
G1 X16.447 Y41.103 Z-0.076 F500
G1 X16.447 Y41.149 Z-0.048 F500
G1 X16.447 Y41.186 Z-0.010 F500
G1 X16.447 Y41.215 Z0.035 F500
G1 X16.447 Y41.232 Z0.085 F500
G1 X16.447 Y41.238 Z0.138 F500
G1 X16.447 Y41.238 Z1.000 F500
G1 X17.916 Y-2.549 Z1.000 F500
G1 X17.916 Y-2.549 Z0.138 F500
G1 X17.916 Y-2.543 Z0.085 F500
G1 X17.916 Y-2.525 Z0.035 F500
G1 X17.916 Y-2.497 Z-0.010 F500
G1 X17.916 Y-2.459 Z-0.048 F500
G1 X17.916 Y-2.414 Z-0.076 F500
G1 X17.916 Y-2.363 Z-0.094 F500
G1 X17.916 Y-2.310 Z-0.100 F500
G1 X17.916 Y-2.000 Z-0.100 F500
G1 X17.916 Y41.000 Z-0.100 F500
G1 X17.916 Y41.053 Z-0.094 F500
G1 X17.916 Y41.103 Z-0.076 F500
G1 X17.916 Y41.149 Z-0.048 F500
G1 X17.916 Y41.186 Z-0.010 F500
G1 X17.916 Y41.215 Z0.035 F500
G1 X17.916 Y41.232 Z0.085 F500
G1 X17.916 Y41.238 Z0.138 F500
G1 X17.916 Y41.238 Z1.000 F500
G1 X19.385 Y-2.549 Z1.000 F500
G1 X19.385 Y-2.549 Z0.138 F500
G1 X19.385 Y-2.543 Z0.085 F500
G1 X19.385 Y-2.525 Z0.035 F500
G1 X19.385 Y-2.497 Z-0.010 F500
G1 X19.385 Y-2.459 Z-0.048 F500
G1 X19.385 Y-2.414 Z-0.076 F500
G1 X19.385 Y-2.363 Z-0.094 F500
G1 X19.385 Y-2.310 Z-0.100 F500
G1 X19.385 Y-2.000 Z-0.100 F500
G1 X19.385 Y41.000 Z-0.100 F500
G1 X19.385 Y41.053 Z-0.094 F500
G1 X19.385 Y41.103 Z-0.076 F500
G1 X19.385 Y41.149 Z-0.048 F500
G1 X19.385 Y41.186 Z-0.010 F500
G1 X19.385 Y41.215 Z0.035 F500
G1 X19.385 Y41.232 Z0.085 F500
G1 X19.385 Y41.238 Z0.138 F500
G1 X19.385 Y41.238 Z1.000 F500
G1 X20.853 Y-2.549 Z1.000 F500
G1 X20.853 Y-2.549 Z0.138 F500
G1 X20.853 Y-2.543 Z0.085 F500
G1 X20.853 Y-2.525 Z0.035 F500
G1 X20.853 Y-2.497 Z-0.010 F500
G1 X20.853 Y-2.459 Z-0.048 F500
G1 X20.853 Y-2.414 Z-0.076 F500
G1 X20.853 Y-2.363 Z-0.094 F500
G1 X20.853 Y-2.310 Z-0.100 F500
G1 X20.853 Y-2.000 Z-0.100 F500
G1 X20.853 Y41.000 Z-0.100 F500
G1 X20.853 Y41.053 Z-0.094 F500
G1 X20.853 Y41.103 Z-0.076 F500
G1 X20.853 Y41.149 Z-0.048 F500
G1 X20.853 Y41.186 Z-0.010 F500
G1 X20.853 Y41.215 Z0.035 F500
G1 X20.853 Y41.232 Z0.085 F500
G1 X20.853 Y41.238 Z0.138 F500
G1 X20.853 Y41.238 Z1.000 F500
G1 X0.292 Y-2.549 Z1.000 F500
G1 X0.292 Y-2.549 Z0.038 F500
G1 X0.292 Y-2.543 Z-0.015 F500
G1 X0.292 Y-2.525 Z-0.065 F500
G1 X0.292 Y-2.497 Z-0.110 F500
G1 X0.292 Y-2.459 Z-0.148 F500
G1 X0.292 Y-2.414 Z-0.176 F500
G1 X0.292 Y-2.363 Z-0.194 F500
G1 X0.292 Y-2.310 Z-0.200 F500
G1 X0.292 Y-2.000 Z-0.200 F500
G1 X0.292 Y41.000 Z-0.200 F500
G1 X0.292 Y41.053 Z-0.194 F500
G1 X0.292 Y41.103 Z-0.176 F500
G1 X0.292 Y41.149 Z-0.148 F500
G1 X0.292 Y41.186 Z-0.110 F500
G1 X0.292 Y41.215 Z-0.065 F500
G1 X0.292 Y41.232 Z-0.015 F500
G1 X0.292 Y41.238 Z0.038 F500
G1 X0.292 Y41.238 Z1.000 F500
G1 X1.761 Y-2.549 Z1.000 F500
G1 X1.761 Y-2.549 Z0.038 F500
G1 X1.761 Y-2.543 Z-0.015 F500
G1 X1.761 Y-2.525 Z-0.065 F500
G1 X1.761 Y-2.497 Z-0.110 F500
G1 X1.761 Y-2.459 Z-0.148 F500
G1 X1.761 Y-2.414 Z-0.176 F500
G1 X1.761 Y-2.363 Z-0.194 F500
G1 X1.761 Y-2.310 Z-0.200 F500
G1 X1.761 Y-2.000 Z-0.200 F500
G1 X1.761 Y41.000 Z-0.200 F500
G1 X1.761 Y41.053 Z-0.194 F500
G1 X1.761 Y41.103 Z-0.176 F500
G1 X1.761 Y41.149 Z-0.148 F500
G1 X1.761 Y41.186 Z-0.110 F500
G1 X1.761 Y41.215 Z-0.065 F500
G1 X1.761 Y41.232 Z-0.015 F500
G1 X1.761 Y41.238 Z0.038 F500
G1 X1.761 Y41.238 Z1.000 F500
G1 X3.230 Y-2.549 Z1.000 F500
G1 X3.230 Y-2.549 Z0.038 F500
G1 X3.230 Y-2.543 Z-0.015 F500
G1 X3.230 Y-2.525 Z-0.065 F500
G1 X3.230 Y-2.497 Z-0.110 F500
G1 X3.230 Y-2.459 Z-0.148 F500
G1 X3.230 Y-2.414 Z-0.176 F500
G1 X3.230 Y-2.363 Z-0.194 F500
G1 X3.230 Y-2.310 Z-0.200 F500
G1 X3.230 Y-2.000 Z-0.200 F500
G1 X3.230 Y41.000 Z-0.200 F500
G1 X3.230 Y41.053 Z-0.194 F500
G1 X3.230 Y41.103 Z-0.176 F500
G1 X3.230 Y41.149 Z-0.148 F500
G1 X3.230 Y41.186 Z-0.110 F500
G1 X3.230 Y41.215 Z-0.065 F500
G1 X3.230 Y41.232 Z-0.015 F500
G1 X3.230 Y41.238 Z0.038 F500
G1 X3.230 Y41.238 Z1.000 F500
G1 X4.698 Y-2.549 Z1.000 F500
G1 X4.698 Y-2.549 Z0.038 F500
G1 X4.698 Y-2.543 Z-0.015 F500
G1 X4.698 Y-2.525 Z-0.065 F500
G1 X4.698 Y-2.497 Z-0.110 F500
G1 X4.698 Y-2.459 Z-0.148 F500
G1 X4.698 Y-2.414 Z-0.176 F500
G1 X4.698 Y-2.363 Z-0.194 F500
G1 X4.698 Y-2.310 Z-0.200 F500
G1 X4.698 Y-2.000 Z-0.200 F500
G1 X4.698 Y41.000 Z-0.200 F500
G1 X4.698 Y41.053 Z-0.194 F500
G1 X4.698 Y41.103 Z-0.176 F500
G1 X4.698 Y41.149 Z-0.148 F500
G1 X4.698 Y41.186 Z-0.110 F500
G1 X4.698 Y41.215 Z-0.065 F500
G1 X4.698 Y41.232 Z-0.015 F500
G1 X4.698 Y41.238 Z0.038 F500
G1 X4.698 Y41.238 Z1.000 F500
G1 X6.167 Y-2.549 Z1.000 F500
G1 X6.167 Y-2.549 Z0.038 F500
G1 X6.167 Y-2.543 Z-0.015 F500
G1 X6.167 Y-2.525 Z-0.065 F500
G1 X6.167 Y-2.497 Z-0.110 F500
G1 X6.167 Y-2.459 Z-0.148 F500
G1 X6.167 Y-2.414 Z-0.176 F500
G1 X6.167 Y-2.363 Z-0.194 F500
G1 X6.167 Y-2.310 Z-0.200 F500
G1 X6.167 Y-2.000 Z-0.200 F500
G1 X6.167 Y41.000 Z-0.200 F500
G1 X6.167 Y41.053 Z-0.194 F500
G1 X6.167 Y41.103 Z-0.176 F500
G1 X6.167 Y41.149 Z-0.148 F500
G1 X6.167 Y41.186 Z-0.110 F500
G1 X6.167 Y41.215 Z-0.065 F500
G1 X6.167 Y41.232 Z-0.015 F500
G1 X6.167 Y41.238 Z0.038 F500
G1 X6.167 Y41.238 Z1.000 F500
G1 X7.636 Y-2.549 Z1.000 F500
G1 X7.636 Y-2.549 Z0.038 F500
G1 X7.636 Y-2.543 Z-0.015 F500
G1 X7.636 Y-2.525 Z-0.065 F500
G1 X7.636 Y-2.497 Z-0.110 F500
G1 X7.636 Y-2.459 Z-0.148 F500
G1 X7.636 Y-2.414 Z-0.176 F500
G1 X7.636 Y-2.363 Z-0.194 F500
G1 X7.636 Y-2.310 Z-0.200 F500
G1 X7.636 Y-2.000 Z-0.200 F500
G1 X7.636 Y41.000 Z-0.200 F500
G1 X7.636 Y41.053 Z-0.194 F500
G1 X7.636 Y41.103 Z-0.176 F500
G1 X7.636 Y41.149 Z-0.148 F500
G1 X7.636 Y41.186 Z-0.110 F500
G1 X7.636 Y41.215 Z-0.065 F500
G1 X7.636 Y41.232 Z-0.015 F500
G1 X7.636 Y41.238 Z0.038 F500
G1 X7.636 Y41.238 Z1.000 F500
G1 X9.104 Y-2.549 Z1.000 F500
G1 X9.104 Y-2.549 Z0.038 F500
G1 X9.104 Y-2.543 Z-0.015 F500
G1 X9.104 Y-2.525 Z-0.065 F500
G1 X9.104 Y-2.497 Z-0.110 F500
G1 X9.104 Y-2.459 Z-0.148 F500
G1 X9.104 Y-2.414 Z-0.176 F500
G1 X9.104 Y-2.363 Z-0.194 F500
G1 X9.104 Y-2.310 Z-0.200 F500
G1 X9.104 Y-2.000 Z-0.200 F500
G1 X9.104 Y41.000 Z-0.200 F500
G1 X9.104 Y41.053 Z-0.194 F500
G1 X9.104 Y41.103 Z-0.176 F500
G1 X9.104 Y41.149 Z-0.148 F500
G1 X9.104 Y41.186 Z-0.110 F500
G1 X9.104 Y41.215 Z-0.065 F500
G1 X9.104 Y41.232 Z-0.015 F500
G1 X9.104 Y41.238 Z0.038 F500
G1 X9.104 Y41.238 Z1.000 F500
G1 X10.573 Y-2.549 Z1.000 F500
G1 X10.573 Y-2.549 Z0.038 F500
G1 X10.573 Y-2.543 Z-0.015 F500
G1 X10.573 Y-2.525 Z-0.065 F500
G1 X10.573 Y-2.497 Z-0.110 F500
G1 X10.573 Y-2.459 Z-0.148 F500
G1 X10.573 Y-2.414 Z-0.176 F500
G1 X10.573 Y-2.363 Z-0.194 F500
G1 X10.573 Y-2.310 Z-0.200 F500
G1 X10.573 Y-2.000 Z-0.200 F500
G1 X10.573 Y41.000 Z-0.200 F500
G1 X10.573 Y41.053 Z-0.194 F500
G1 X10.573 Y41.103 Z-0.176 F500
G1 X10.573 Y41.149 Z-0.148 F500
G1 X10.573 Y41.186 Z-0.110 F500
G1 X10.573 Y41.215 Z-0.065 F500
G1 X10.573 Y41.232 Z-0.015 F500
G1 X10.573 Y41.238 Z0.038 F500
G1 X10.573 Y41.238 Z1.000 F500
G1 X12.041 Y-2.549 Z1.000 F500
G1 X12.041 Y-2.549 Z0.038 F500
G1 X12.041 Y-2.543 Z-0.015 F500
G1 X12.041 Y-2.525 Z-0.065 F500
G1 X12.041 Y-2.497 Z-0.110 F500
G1 X12.041 Y-2.459 Z-0.148 F500
G1 X12.041 Y-2.414 Z-0.176 F500
G1 X12.041 Y-2.363 Z-0.194 F500
G1 X12.041 Y-2.310 Z-0.200 F500
G1 X12.041 Y-2.000 Z-0.200 F500
G1 X12.041 Y41.000 Z-0.200 F500
G1 X12.041 Y41.053 Z-0.194 F500
G1 X12.041 Y41.103 Z-0.176 F500
G1 X12.041 Y41.149 Z-0.148 F500
G1 X12.041 Y41.186 Z-0.110 F500
G1 X12.041 Y41.215 Z-0.065 F500
G1 X12.041 Y41.232 Z-0.015 F500
G1 X12.041 Y41.238 Z0.038 F500
G1 X12.041 Y41.238 Z1.000 F500
G1 X13.510 Y-2.549 Z1.000 F500
G1 X13.510 Y-2.549 Z0.038 F500
G1 X13.510 Y-2.543 Z-0.015 F500
G1 X13.510 Y-2.525 Z-0.065 F500
G1 X13.510 Y-2.497 Z-0.110 F500
G1 X13.510 Y-2.459 Z-0.148 F500
G1 X13.510 Y-2.414 Z-0.176 F500
G1 X13.510 Y-2.363 Z-0.194 F500
G1 X13.510 Y-2.310 Z-0.200 F500
G1 X13.510 Y-2.000 Z-0.200 F500
G1 X13.510 Y41.000 Z-0.200 F500
G1 X13.510 Y41.053 Z-0.194 F500
G1 X13.510 Y41.103 Z-0.176 F500
G1 X13.510 Y41.149 Z-0.148 F500
G1 X13.510 Y41.186 Z-0.110 F500
G1 X13.510 Y41.215 Z-0.065 F500
G1 X13.510 Y41.232 Z-0.015 F500
G1 X13.510 Y41.238 Z0.038 F500
G1 X13.510 Y41.238 Z1.000 F500
G1 X14.979 Y-2.549 Z1.000 F500
G1 X14.979 Y-2.549 Z0.038 F500
G1 X14.979 Y-2.543 Z-0.015 F500
G1 X14.979 Y-2.525 Z-0.065 F500
G1 X14.979 Y-2.497 Z-0.110 F500
G1 X14.979 Y-2.459 Z-0.148 F500
G1 X14.979 Y-2.414 Z-0.176 F500
G1 X14.979 Y-2.363 Z-0.194 F500
G1 X14.979 Y-2.310 Z-0.200 F500
G1 X14.979 Y-2.000 Z-0.200 F500
G1 X14.979 Y41.000 Z-0.200 F500
G1 X14.979 Y41.053 Z-0.194 F500
G1 X14.979 Y41.103 Z-0.176 F500
G1 X14.979 Y41.149 Z-0.148 F500
G1 X14.979 Y41.186 Z-0.110 F500
G1 X14.979 Y41.215 Z-0.065 F500
G1 X14.979 Y41.232 Z-0.015 F500
G1 X14.979 Y41.238 Z0.038 F500
G1 X14.979 Y41.238 Z1.000 F500
G1 X16.447 Y-2.549 Z1.000 F500
G1 X16.447 Y-2.549 Z0.038 F500
G1 X16.447 Y-2.543 Z-0.015 F500
G1 X16.447 Y-2.525 Z-0.065 F500
G1 X16.447 Y-2.497 Z-0.110 F500
G1 X16.447 Y-2.459 Z-0.148 F500
G1 X16.447 Y-2.414 Z-0.176 F500
G1 X16.447 Y-2.363 Z-0.194 F500
G1 X16.447 Y-2.310 Z-0.200 F500
G1 X16.447 Y-2.000 Z-0.200 F500
G1 X16.447 Y41.000 Z-0.200 F500
G1 X16.447 Y41.053 Z-0.194 F500
G1 X16.447 Y41.103 Z-0.176 F500
G1 X16.447 Y41.149 Z-0.148 F500
G1 X16.447 Y41.186 Z-0.110 F500
G1 X16.447 Y41.215 Z-0.065 F500
G1 X16.447 Y41.232 Z-0.015 F500
G1 X16.447 Y41.238 Z0.038 F500
G1 X16.447 Y41.238 Z1.000 F500
G1 X17.916 Y-2.549 Z1.000 F500
G1 X17.916 Y-2.549 Z0.038 F500
G1 X17.916 Y-2.543 Z-0.015 F500
G1 X17.916 Y-2.525 Z-0.065 F500
G1 X17.916 Y-2.497 Z-0.110 F500
G1 X17.916 Y-2.459 Z-0.148 F500
G1 X17.916 Y-2.414 Z-0.176 F500
G1 X17.916 Y-2.363 Z-0.194 F500
G1 X17.916 Y-2.310 Z-0.200 F500
G1 X17.916 Y-2.000 Z-0.200 F500
G1 X17.916 Y41.000 Z-0.200 F500
G1 X17.916 Y41.053 Z-0.194 F500
G1 X17.916 Y41.103 Z-0.176 F500
G1 X17.916 Y41.149 Z-0.148 F500
G1 X17.916 Y41.186 Z-0.110 F500
G1 X17.916 Y41.215 Z-0.065 F500
G1 X17.916 Y41.232 Z-0.015 F500
G1 X17.916 Y41.238 Z0.038 F500
G1 X17.916 Y41.238 Z1.000 F500
G1 X19.385 Y-2.549 Z1.000 F500
G1 X19.385 Y-2.549 Z0.038 F500
G1 X19.385 Y-2.543 Z-0.015 F500
G1 X19.385 Y-2.525 Z-0.065 F500
G1 X19.385 Y-2.497 Z-0.110 F500
G1 X19.385 Y-2.459 Z-0.148 F500
G1 X19.385 Y-2.414 Z-0.176 F500
G1 X19.385 Y-2.363 Z-0.194 F500
G1 X19.385 Y-2.310 Z-0.200 F500
G1 X19.385 Y-2.000 Z-0.200 F500
G1 X19.385 Y41.000 Z-0.200 F500
G1 X19.385 Y41.053 Z-0.194 F500
G1 X19.385 Y41.103 Z-0.176 F500
G1 X19.385 Y41.149 Z-0.148 F500
G1 X19.385 Y41.186 Z-0.110 F500
G1 X19.385 Y41.215 Z-0.065 F500
G1 X19.385 Y41.232 Z-0.015 F500
G1 X19.385 Y41.238 Z0.038 F500
G1 X19.385 Y41.238 Z1.000 F500
G1 X20.853 Y-2.549 Z1.000 F500
G1 X20.853 Y-2.549 Z0.038 F500
G1 X20.853 Y-2.543 Z-0.015 F500
G1 X20.853 Y-2.525 Z-0.065 F500
G1 X20.853 Y-2.497 Z-0.110 F500
G1 X20.853 Y-2.459 Z-0.148 F500
G1 X20.853 Y-2.414 Z-0.176 F500
G1 X20.853 Y-2.363 Z-0.194 F500
G1 X20.853 Y-2.310 Z-0.200 F500
G1 X20.853 Y-2.000 Z-0.200 F500
G1 X20.853 Y41.000 Z-0.200 F500
G1 X20.853 Y41.053 Z-0.194 F500
G1 X20.853 Y41.103 Z-0.176 F500
G1 X20.853 Y41.149 Z-0.148 F500
G1 X20.853 Y41.186 Z-0.110 F500
G1 X20.853 Y41.215 Z-0.065 F500
G1 X20.853 Y41.232 Z-0.015 F500
G1 X20.853 Y41.238 Z0.038 F500
G1 X20.853 Y41.238 Z1.000 F500
G1 X0.292 Y-2.549 Z1.000 F500
G1 X0.292 Y-2.549 Z0.000 F500
G1 X0.292 Y-2.549 Z-0.062 F100
G1 X0.292 Y-2.543 Z-0.115 F500
G1 X0.292 Y-2.525 Z-0.165 F500
G1 X0.292 Y-2.497 Z-0.210 F500
G1 X0.292 Y-2.459 Z-0.248 F500
G1 X0.292 Y-2.414 Z-0.276 F500
G1 X0.292 Y-2.363 Z-0.294 F500
G1 X0.292 Y-2.310 Z-0.300 F500
G1 X0.292 Y-2.000 Z-0.300 F500
G1 X0.292 Y41.000 Z-0.300 F500
G1 X0.292 Y41.053 Z-0.294 F500
G1 X0.292 Y41.103 Z-0.276 F500
G1 X0.292 Y41.149 Z-0.248 F500
G1 X0.292 Y41.186 Z-0.210 F500
G1 X0.292 Y41.215 Z-0.165 F500
G1 X0.292 Y41.232 Z-0.115 F500
G1 X0.292 Y41.238 Z-0.062 F500
G1 X0.292 Y41.238 Z1.000 F500
G1 X1.761 Y-2.549 Z1.000 F500
G1 X1.761 Y-2.549 Z0.000 F500
G1 X1.761 Y-2.549 Z-0.062 F100
G1 X1.761 Y-2.543 Z-0.115 F500
G1 X1.761 Y-2.525 Z-0.165 F500
G1 X1.761 Y-2.497 Z-0.210 F500
G1 X1.761 Y-2.459 Z-0.248 F500
G1 X1.761 Y-2.414 Z-0.276 F500
G1 X1.761 Y-2.363 Z-0.294 F500
G1 X1.761 Y-2.310 Z-0.300 F500
G1 X1.761 Y-2.000 Z-0.300 F500
G1 X1.761 Y41.000 Z-0.300 F500
G1 X1.761 Y41.053 Z-0.294 F500
G1 X1.761 Y41.103 Z-0.276 F500
G1 X1.761 Y41.149 Z-0.248 F500
G1 X1.761 Y41.186 Z-0.210 F500
G1 X1.761 Y41.215 Z-0.165 F500
G1 X1.761 Y41.232 Z-0.115 F500
G1 X1.761 Y41.238 Z-0.062 F500
G1 X1.761 Y41.238 Z1.000 F500
G1 X3.230 Y-2.549 Z1.000 F500
G1 X3.230 Y-2.549 Z0.000 F500
G1 X3.230 Y-2.549 Z-0.062 F100
G1 X3.230 Y-2.543 Z-0.115 F500
G1 X3.230 Y-2.525 Z-0.165 F500
G1 X3.230 Y-2.497 Z-0.210 F500
G1 X3.230 Y-2.459 Z-0.248 F500
G1 X3.230 Y-2.414 Z-0.276 F500
G1 X3.230 Y-2.363 Z-0.294 F500
G1 X3.230 Y-2.310 Z-0.300 F500
G1 X3.230 Y-2.000 Z-0.300 F500
G1 X3.230 Y41.000 Z-0.300 F500
G1 X3.230 Y41.053 Z-0.294 F500
G1 X3.230 Y41.103 Z-0.276 F500
G1 X3.230 Y41.149 Z-0.248 F500
G1 X3.230 Y41.186 Z-0.210 F500
G1 X3.230 Y41.215 Z-0.165 F500
G1 X3.230 Y41.232 Z-0.115 F500
G1 X3.230 Y41.238 Z-0.062 F500
G1 X3.230 Y41.238 Z1.000 F500
G1 X4.698 Y-2.549 Z1.000 F500
G1 X4.698 Y-2.549 Z0.000 F500
G1 X4.698 Y-2.549 Z-0.062 F100
G1 X4.698 Y-2.543 Z-0.115 F500
G1 X4.698 Y-2.525 Z-0.165 F500
G1 X4.698 Y-2.497 Z-0.210 F500
G1 X4.698 Y-2.459 Z-0.248 F500
G1 X4.698 Y-2.414 Z-0.276 F500
G1 X4.698 Y-2.363 Z-0.294 F500
G1 X4.698 Y-2.310 Z-0.300 F500
G1 X4.698 Y-2.000 Z-0.300 F500
G1 X4.698 Y41.000 Z-0.300 F500
G1 X4.698 Y41.053 Z-0.294 F500
G1 X4.698 Y41.103 Z-0.276 F500
G1 X4.698 Y41.149 Z-0.248 F500
G1 X4.698 Y41.186 Z-0.210 F500
G1 X4.698 Y41.215 Z-0.165 F500
G1 X4.698 Y41.232 Z-0.115 F500
G1 X4.698 Y41.238 Z-0.062 F500
G1 X4.698 Y41.238 Z1.000 F500
G1 X6.167 Y-2.549 Z1.000 F500
G1 X6.167 Y-2.549 Z0.000 F500
G1 X6.167 Y-2.549 Z-0.062 F100
G1 X6.167 Y-2.543 Z-0.115 F500
G1 X6.167 Y-2.525 Z-0.165 F500
G1 X6.167 Y-2.497 Z-0.210 F500
G1 X6.167 Y-2.459 Z-0.248 F500
G1 X6.167 Y-2.414 Z-0.276 F500
G1 X6.167 Y-2.363 Z-0.294 F500
G1 X6.167 Y-2.310 Z-0.300 F500
G1 X6.167 Y-2.000 Z-0.300 F500
G1 X6.167 Y41.000 Z-0.300 F500
G1 X6.167 Y41.053 Z-0.294 F500
G1 X6.167 Y41.103 Z-0.276 F500
G1 X6.167 Y41.149 Z-0.248 F500
G1 X6.167 Y41.186 Z-0.210 F500
G1 X6.167 Y41.215 Z-0.165 F500
G1 X6.167 Y41.232 Z-0.115 F500
G1 X6.167 Y41.238 Z-0.062 F500
G1 X6.167 Y41.238 Z1.000 F500
G1 X7.636 Y-2.549 Z1.000 F500
G1 X7.636 Y-2.549 Z0.000 F500
G1 X7.636 Y-2.549 Z-0.062 F100
G1 X7.636 Y-2.543 Z-0.115 F500
G1 X7.636 Y-2.525 Z-0.165 F500
G1 X7.636 Y-2.497 Z-0.210 F500
G1 X7.636 Y-2.459 Z-0.248 F500
G1 X7.636 Y-2.414 Z-0.276 F500
G1 X7.636 Y-2.363 Z-0.294 F500
G1 X7.636 Y-2.310 Z-0.300 F500
G1 X7.636 Y-2.000 Z-0.300 F500
G1 X7.636 Y41.000 Z-0.300 F500
G1 X7.636 Y41.053 Z-0.294 F500
G1 X7.636 Y41.103 Z-0.276 F500
G1 X7.636 Y41.149 Z-0.248 F500
G1 X7.636 Y41.186 Z-0.210 F500
G1 X7.636 Y41.215 Z-0.165 F500
G1 X7.636 Y41.232 Z-0.115 F500
G1 X7.636 Y41.238 Z-0.062 F500
G1 X7.636 Y41.238 Z1.000 F500
G1 X9.104 Y-2.549 Z1.000 F500
G1 X9.104 Y-2.549 Z0.000 F500
G1 X9.104 Y-2.549 Z-0.062 F100
G1 X9.104 Y-2.543 Z-0.115 F500
G1 X9.104 Y-2.525 Z-0.165 F500
G1 X9.104 Y-2.497 Z-0.210 F500
G1 X9.104 Y-2.459 Z-0.248 F500
G1 X9.104 Y-2.414 Z-0.276 F500
G1 X9.104 Y-2.363 Z-0.294 F500
G1 X9.104 Y-2.310 Z-0.300 F500
G1 X9.104 Y-2.000 Z-0.300 F500
G1 X9.104 Y41.000 Z-0.300 F500
G1 X9.104 Y41.053 Z-0.294 F500
G1 X9.104 Y41.103 Z-0.276 F500
G1 X9.104 Y41.149 Z-0.248 F500
G1 X9.104 Y41.186 Z-0.210 F500
G1 X9.104 Y41.215 Z-0.165 F500
G1 X9.104 Y41.232 Z-0.115 F500
G1 X9.104 Y41.238 Z-0.062 F500
G1 X9.104 Y41.238 Z1.000 F500
G1 X10.573 Y-2.549 Z1.000 F500
G1 X10.573 Y-2.549 Z0.000 F500
G1 X10.573 Y-2.549 Z-0.062 F100
G1 X10.573 Y-2.543 Z-0.115 F500
G1 X10.573 Y-2.525 Z-0.165 F500
G1 X10.573 Y-2.497 Z-0.210 F500
G1 X10.573 Y-2.459 Z-0.248 F500
G1 X10.573 Y-2.414 Z-0.276 F500
G1 X10.573 Y-2.363 Z-0.294 F500
G1 X10.573 Y-2.310 Z-0.300 F500
G1 X10.573 Y-2.000 Z-0.300 F500
G1 X10.573 Y41.000 Z-0.300 F500
G1 X10.573 Y41.053 Z-0.294 F500
G1 X10.573 Y41.103 Z-0.276 F500
G1 X10.573 Y41.149 Z-0.248 F500
G1 X10.573 Y41.186 Z-0.210 F500
G1 X10.573 Y41.215 Z-0.165 F500
G1 X10.573 Y41.232 Z-0.115 F500
G1 X10.573 Y41.238 Z-0.062 F500
G1 X10.573 Y41.238 Z1.000 F500
G1 X12.041 Y-2.549 Z1.000 F500
G1 X12.041 Y-2.549 Z0.000 F500
G1 X12.041 Y-2.549 Z-0.062 F100
G1 X12.041 Y-2.543 Z-0.115 F500
G1 X12.041 Y-2.525 Z-0.165 F500
G1 X12.041 Y-2.497 Z-0.210 F500
G1 X12.041 Y-2.459 Z-0.248 F500
G1 X12.041 Y-2.414 Z-0.276 F500
G1 X12.041 Y-2.363 Z-0.294 F500
G1 X12.041 Y-2.310 Z-0.300 F500
G1 X12.041 Y-2.000 Z-0.300 F500
G1 X12.041 Y41.000 Z-0.300 F500
G1 X12.041 Y41.053 Z-0.294 F500
G1 X12.041 Y41.103 Z-0.276 F500
G1 X12.041 Y41.149 Z-0.248 F500
G1 X12.041 Y41.186 Z-0.210 F500
G1 X12.041 Y41.215 Z-0.165 F500
G1 X12.041 Y41.232 Z-0.115 F500
G1 X12.041 Y41.238 Z-0.062 F500
G1 X12.041 Y41.238 Z1.000 F500
G1 X13.510 Y-2.549 Z1.000 F500
G1 X13.510 Y-2.549 Z0.000 F500
G1 X13.510 Y-2.549 Z-0.062 F100
G1 X13.510 Y-2.543 Z-0.115 F500
G1 X13.510 Y-2.525 Z-0.165 F500
G1 X13.510 Y-2.497 Z-0.210 F500
G1 X13.510 Y-2.459 Z-0.248 F500
G1 X13.510 Y-2.414 Z-0.276 F500
G1 X13.510 Y-2.363 Z-0.294 F500
G1 X13.510 Y-2.310 Z-0.300 F500
G1 X13.510 Y-2.000 Z-0.300 F500
G1 X13.510 Y41.000 Z-0.300 F500
G1 X13.510 Y41.053 Z-0.294 F500
G1 X13.510 Y41.103 Z-0.276 F500
G1 X13.510 Y41.149 Z-0.248 F500
G1 X13.510 Y41.186 Z-0.210 F500
G1 X13.510 Y41.215 Z-0.165 F500
G1 X13.510 Y41.232 Z-0.115 F500
G1 X13.510 Y41.238 Z-0.062 F500
G1 X13.510 Y41.238 Z1.000 F500
G1 X14.979 Y-2.549 Z1.000 F500
G1 X14.979 Y-2.549 Z0.000 F500
G1 X14.979 Y-2.549 Z-0.062 F100
G1 X14.979 Y-2.543 Z-0.115 F500
G1 X14.979 Y-2.525 Z-0.165 F500
G1 X14.979 Y-2.497 Z-0.210 F500
G1 X14.979 Y-2.459 Z-0.248 F500
G1 X14.979 Y-2.414 Z-0.276 F500
G1 X14.979 Y-2.363 Z-0.294 F500
G1 X14.979 Y-2.310 Z-0.300 F500
G1 X14.979 Y-2.000 Z-0.300 F500
G1 X14.979 Y41.000 Z-0.300 F500
G1 X14.979 Y41.053 Z-0.294 F500
G1 X14.979 Y41.103 Z-0.276 F500
G1 X14.979 Y41.149 Z-0.248 F500
G1 X14.979 Y41.186 Z-0.210 F500
G1 X14.979 Y41.215 Z-0.165 F500
G1 X14.979 Y41.232 Z-0.115 F500
G1 X14.979 Y41.238 Z-0.062 F500
G1 X14.979 Y41.238 Z1.000 F500
G1 X16.447 Y-2.549 Z1.000 F500
G1 X16.447 Y-2.549 Z0.000 F500
G1 X16.447 Y-2.549 Z-0.062 F100
G1 X16.447 Y-2.543 Z-0.115 F500
G1 X16.447 Y-2.525 Z-0.165 F500
G1 X16.447 Y-2.497 Z-0.210 F500
G1 X16.447 Y-2.459 Z-0.248 F500
G1 X16.447 Y-2.414 Z-0.276 F500
G1 X16.447 Y-2.363 Z-0.294 F500
G1 X16.447 Y-2.310 Z-0.300 F500
G1 X16.447 Y-2.000 Z-0.300 F500
G1 X16.447 Y41.000 Z-0.300 F500
G1 X16.447 Y41.053 Z-0.294 F500
G1 X16.447 Y41.103 Z-0.276 F500
G1 X16.447 Y41.149 Z-0.248 F500
G1 X16.447 Y41.186 Z-0.210 F500
G1 X16.447 Y41.215 Z-0.165 F500
G1 X16.447 Y41.232 Z-0.115 F500
G1 X16.447 Y41.238 Z-0.062 F500
G1 X16.447 Y41.238 Z1.000 F500
G1 X17.916 Y-2.549 Z1.000 F500
G1 X17.916 Y-2.549 Z0.000 F500
G1 X17.916 Y-2.549 Z-0.062 F100
G1 X17.916 Y-2.543 Z-0.115 F500
G1 X17.916 Y-2.525 Z-0.165 F500
G1 X17.916 Y-2.497 Z-0.210 F500
G1 X17.916 Y-2.459 Z-0.248 F500
G1 X17.916 Y-2.414 Z-0.276 F500
G1 X17.916 Y-2.363 Z-0.294 F500
G1 X17.916 Y-2.310 Z-0.300 F500
G1 X17.916 Y-2.000 Z-0.300 F500
G1 X17.916 Y41.000 Z-0.300 F500
G1 X17.916 Y41.053 Z-0.294 F500
G1 X17.916 Y41.103 Z-0.276 F500
G1 X17.916 Y41.149 Z-0.248 F500
G1 X17.916 Y41.186 Z-0.210 F500
G1 X17.916 Y41.215 Z-0.165 F500
G1 X17.916 Y41.232 Z-0.115 F500
G1 X17.916 Y41.238 Z-0.062 F500
G1 X17.916 Y41.238 Z1.000 F500
G1 X19.385 Y-2.549 Z1.000 F500
G1 X19.385 Y-2.549 Z0.000 F500
G1 X19.385 Y-2.549 Z-0.062 F100
G1 X19.385 Y-2.543 Z-0.115 F500
G1 X19.385 Y-2.525 Z-0.165 F500
G1 X19.385 Y-2.497 Z-0.210 F500
G1 X19.385 Y-2.459 Z-0.248 F500
G1 X19.385 Y-2.414 Z-0.276 F500
G1 X19.385 Y-2.363 Z-0.294 F500
G1 X19.385 Y-2.310 Z-0.300 F500
G1 X19.385 Y-2.000 Z-0.300 F500
G1 X19.385 Y41.000 Z-0.300 F500
G1 X19.385 Y41.053 Z-0.294 F500
G1 X19.385 Y41.103 Z-0.276 F500
G1 X19.385 Y41.149 Z-0.248 F500
G1 X19.385 Y41.186 Z-0.210 F500
G1 X19.385 Y41.215 Z-0.165 F500
G1 X19.385 Y41.232 Z-0.115 F500
G1 X19.385 Y41.238 Z-0.062 F500
G1 X19.385 Y41.238 Z1.000 F500
G1 X20.853 Y-2.549 Z1.000 F500
G1 X20.853 Y-2.549 Z0.000 F500
G1 X20.853 Y-2.549 Z-0.062 F100
G1 X20.853 Y-2.543 Z-0.115 F500
G1 X20.853 Y-2.525 Z-0.165 F500
G1 X20.853 Y-2.497 Z-0.210 F500
G1 X20.853 Y-2.459 Z-0.248 F500
G1 X20.853 Y-2.414 Z-0.276 F500
G1 X20.853 Y-2.363 Z-0.294 F500
G1 X20.853 Y-2.310 Z-0.300 F500
G1 X20.853 Y-2.000 Z-0.300 F500
G1 X20.853 Y41.000 Z-0.300 F500
G1 X20.853 Y41.053 Z-0.294 F500
G1 X20.853 Y41.103 Z-0.276 F500
G1 X20.853 Y41.149 Z-0.248 F500
G1 X20.853 Y41.186 Z-0.210 F500
G1 X20.853 Y41.215 Z-0.165 F500
G1 X20.853 Y41.232 Z-0.115 F500
G1 X20.853 Y41.238 Z-0.062 F500
G1 X20.853 Y41.238 Z1.000 F500
G1 X0.292 Y-2.549 Z1.000 F500
G1 X0.292 Y-2.549 Z0.000 F500
G1 X0.292 Y-2.549 Z-0.162 F100
G1 X0.292 Y-2.543 Z-0.215 F500
G1 X0.292 Y-2.525 Z-0.265 F500
G1 X0.292 Y-2.497 Z-0.310 F500
G1 X0.292 Y-2.459 Z-0.348 F500
G1 X0.292 Y-2.414 Z-0.376 F500
G1 X0.292 Y-2.363 Z-0.394 F500
G1 X0.292 Y-2.310 Z-0.400 F500
G1 X0.292 Y-2.000 Z-0.400 F500
G1 X0.292 Y41.000 Z-0.400 F500
G1 X0.292 Y41.053 Z-0.394 F500
G1 X0.292 Y41.103 Z-0.376 F500
G1 X0.292 Y41.149 Z-0.348 F500
G1 X0.292 Y41.186 Z-0.310 F500
G1 X0.292 Y41.215 Z-0.265 F500
G1 X0.292 Y41.232 Z-0.215 F500
G1 X0.292 Y41.238 Z-0.162 F500
G1 X0.292 Y41.238 Z1.000 F500
G1 X1.761 Y-2.549 Z1.000 F500
G1 X1.761 Y-2.549 Z0.000 F500
G1 X1.761 Y-2.549 Z-0.162 F100
G1 X1.761 Y-2.543 Z-0.215 F500
G1 X1.761 Y-2.525 Z-0.265 F500
G1 X1.761 Y-2.497 Z-0.310 F500
G1 X1.761 Y-2.459 Z-0.348 F500
G1 X1.761 Y-2.414 Z-0.376 F500
G1 X1.761 Y-2.363 Z-0.394 F500
G1 X1.761 Y-2.310 Z-0.400 F500
G1 X1.761 Y-2.000 Z-0.400 F500
G1 X1.761 Y41.000 Z-0.400 F500
G1 X1.761 Y41.053 Z-0.394 F500
G1 X1.761 Y41.103 Z-0.376 F500
G1 X1.761 Y41.149 Z-0.348 F500
G1 X1.761 Y41.186 Z-0.310 F500
G1 X1.761 Y41.215 Z-0.265 F500
G1 X1.761 Y41.232 Z-0.215 F500
G1 X1.761 Y41.238 Z-0.162 F500
G1 X1.761 Y41.238 Z1.000 F500
G1 X3.230 Y-2.549 Z1.000 F500
G1 X3.230 Y-2.549 Z0.000 F500
G1 X3.230 Y-2.549 Z-0.162 F100
G1 X3.230 Y-2.543 Z-0.215 F500
G1 X3.230 Y-2.525 Z-0.265 F500
G1 X3.230 Y-2.497 Z-0.310 F500
G1 X3.230 Y-2.459 Z-0.348 F500
G1 X3.230 Y-2.414 Z-0.376 F500
G1 X3.230 Y-2.363 Z-0.394 F500
G1 X3.230 Y-2.310 Z-0.400 F500
G1 X3.230 Y-2.000 Z-0.400 F500
G1 X3.230 Y41.000 Z-0.400 F500
G1 X3.230 Y41.053 Z-0.394 F500
G1 X3.230 Y41.103 Z-0.376 F500
G1 X3.230 Y41.149 Z-0.348 F500
G1 X3.230 Y41.186 Z-0.310 F500
G1 X3.230 Y41.215 Z-0.265 F500
G1 X3.230 Y41.232 Z-0.215 F500
G1 X3.230 Y41.238 Z-0.162 F500
G1 X3.230 Y41.238 Z1.000 F500
G1 X4.698 Y-2.549 Z1.000 F500
G1 X4.698 Y-2.549 Z0.000 F500
G1 X4.698 Y-2.549 Z-0.162 F100
G1 X4.698 Y-2.543 Z-0.215 F500
G1 X4.698 Y-2.525 Z-0.265 F500
G1 X4.698 Y-2.497 Z-0.310 F500
G1 X4.698 Y-2.459 Z-0.348 F500
G1 X4.698 Y-2.414 Z-0.376 F500
G1 X4.698 Y-2.363 Z-0.394 F500
G1 X4.698 Y-2.310 Z-0.400 F500
G1 X4.698 Y-2.000 Z-0.400 F500
G1 X4.698 Y41.000 Z-0.400 F500
G1 X4.698 Y41.053 Z-0.394 F500
G1 X4.698 Y41.103 Z-0.376 F500
G1 X4.698 Y41.149 Z-0.348 F500
G1 X4.698 Y41.186 Z-0.310 F500
G1 X4.698 Y41.215 Z-0.265 F500
G1 X4.698 Y41.232 Z-0.215 F500
G1 X4.698 Y41.238 Z-0.162 F500
G1 X4.698 Y41.238 Z1.000 F500
G1 X6.167 Y-2.549 Z1.000 F500
G1 X6.167 Y-2.549 Z0.000 F500
G1 X6.167 Y-2.549 Z-0.162 F100
G1 X6.167 Y-2.543 Z-0.215 F500
G1 X6.167 Y-2.525 Z-0.265 F500
G1 X6.167 Y-2.497 Z-0.310 F500
G1 X6.167 Y-2.459 Z-0.348 F500
G1 X6.167 Y-2.414 Z-0.376 F500
G1 X6.167 Y-2.363 Z-0.394 F500
G1 X6.167 Y-2.310 Z-0.400 F500
G1 X6.167 Y-2.000 Z-0.400 F500
G1 X6.167 Y41.000 Z-0.400 F500
G1 X6.167 Y41.053 Z-0.394 F500
G1 X6.167 Y41.103 Z-0.376 F500
G1 X6.167 Y41.149 Z-0.348 F500
G1 X6.167 Y41.186 Z-0.310 F500
G1 X6.167 Y41.215 Z-0.265 F500
G1 X6.167 Y41.232 Z-0.215 F500
G1 X6.167 Y41.238 Z-0.162 F500
G1 X6.167 Y41.238 Z1.000 F500
G1 X7.636 Y-2.549 Z1.000 F500
G1 X7.636 Y-2.549 Z0.000 F500
G1 X7.636 Y-2.549 Z-0.162 F100
G1 X7.636 Y-2.543 Z-0.215 F500
G1 X7.636 Y-2.525 Z-0.265 F500
G1 X7.636 Y-2.497 Z-0.310 F500
G1 X7.636 Y-2.459 Z-0.348 F500
G1 X7.636 Y-2.414 Z-0.376 F500
G1 X7.636 Y-2.363 Z-0.394 F500
G1 X7.636 Y-2.310 Z-0.400 F500
G1 X7.636 Y-2.000 Z-0.400 F500
G1 X7.636 Y41.000 Z-0.400 F500
G1 X7.636 Y41.053 Z-0.394 F500
G1 X7.636 Y41.103 Z-0.376 F500
G1 X7.636 Y41.149 Z-0.348 F500
G1 X7.636 Y41.186 Z-0.310 F500
G1 X7.636 Y41.215 Z-0.265 F500
G1 X7.636 Y41.232 Z-0.215 F500
G1 X7.636 Y41.238 Z-0.162 F500
G1 X7.636 Y41.238 Z1.000 F500
G1 X9.104 Y-2.549 Z1.000 F500
G1 X9.104 Y-2.549 Z0.000 F500
G1 X9.104 Y-2.549 Z-0.162 F100
G1 X9.104 Y-2.543 Z-0.215 F500
G1 X9.104 Y-2.525 Z-0.265 F500
G1 X9.104 Y-2.497 Z-0.310 F500
G1 X9.104 Y-2.459 Z-0.348 F500
G1 X9.104 Y-2.414 Z-0.376 F500
G1 X9.104 Y-2.363 Z-0.394 F500
G1 X9.104 Y-2.310 Z-0.400 F500
G1 X9.104 Y-2.000 Z-0.400 F500
G1 X9.104 Y41.000 Z-0.400 F500
G1 X9.104 Y41.053 Z-0.394 F500
G1 X9.104 Y41.103 Z-0.376 F500
G1 X9.104 Y41.149 Z-0.348 F500
G1 X9.104 Y41.186 Z-0.310 F500
G1 X9.104 Y41.215 Z-0.265 F500
G1 X9.104 Y41.232 Z-0.215 F500
G1 X9.104 Y41.238 Z-0.162 F500
G1 X9.104 Y41.238 Z1.000 F500
G1 X10.573 Y-2.549 Z1.000 F500
G1 X10.573 Y-2.549 Z0.000 F500
G1 X10.573 Y-2.549 Z-0.162 F100
G1 X10.573 Y-2.543 Z-0.215 F500
G1 X10.573 Y-2.525 Z-0.265 F500
G1 X10.573 Y-2.497 Z-0.310 F500
G1 X10.573 Y-2.459 Z-0.348 F500
G1 X10.573 Y-2.414 Z-0.376 F500
G1 X10.573 Y-2.363 Z-0.394 F500
G1 X10.573 Y-2.310 Z-0.400 F500
G1 X10.573 Y-2.000 Z-0.400 F500
G1 X10.573 Y41.000 Z-0.400 F500
G1 X10.573 Y41.053 Z-0.394 F500
G1 X10.573 Y41.103 Z-0.376 F500
G1 X10.573 Y41.149 Z-0.348 F500
G1 X10.573 Y41.186 Z-0.310 F500
G1 X10.573 Y41.215 Z-0.265 F500
G1 X10.573 Y41.232 Z-0.215 F500
G1 X10.573 Y41.238 Z-0.162 F500
G1 X10.573 Y41.238 Z1.000 F500
G1 X12.041 Y-2.549 Z1.000 F500
G1 X12.041 Y-2.549 Z0.000 F500
G1 X12.041 Y-2.549 Z-0.162 F100
G1 X12.041 Y-2.543 Z-0.215 F500
G1 X12.041 Y-2.525 Z-0.265 F500
G1 X12.041 Y-2.497 Z-0.310 F500
G1 X12.041 Y-2.459 Z-0.348 F500
G1 X12.041 Y-2.414 Z-0.376 F500
G1 X12.041 Y-2.363 Z-0.394 F500
G1 X12.041 Y-2.310 Z-0.400 F500
G1 X12.041 Y-2.000 Z-0.400 F500
G1 X12.041 Y41.000 Z-0.400 F500
G1 X12.041 Y41.053 Z-0.394 F500
G1 X12.041 Y41.103 Z-0.376 F500
G1 X12.041 Y41.149 Z-0.348 F500
G1 X12.041 Y41.186 Z-0.310 F500
G1 X12.041 Y41.215 Z-0.265 F500
G1 X12.041 Y41.232 Z-0.215 F500
G1 X12.041 Y41.238 Z-0.162 F500
G1 X12.041 Y41.238 Z1.000 F500
G1 X13.510 Y-2.549 Z1.000 F500
G1 X13.510 Y-2.549 Z0.000 F500
G1 X13.510 Y-2.549 Z-0.162 F100
G1 X13.510 Y-2.543 Z-0.215 F500
G1 X13.510 Y-2.525 Z-0.265 F500
G1 X13.510 Y-2.497 Z-0.310 F500
G1 X13.510 Y-2.459 Z-0.348 F500
G1 X13.510 Y-2.414 Z-0.376 F500
G1 X13.510 Y-2.363 Z-0.394 F500
G1 X13.510 Y-2.310 Z-0.400 F500
G1 X13.510 Y-2.000 Z-0.400 F500
G1 X13.510 Y41.000 Z-0.400 F500
G1 X13.510 Y41.053 Z-0.394 F500
G1 X13.510 Y41.103 Z-0.376 F500
G1 X13.510 Y41.149 Z-0.348 F500
G1 X13.510 Y41.186 Z-0.310 F500
G1 X13.510 Y41.215 Z-0.265 F500
G1 X13.510 Y41.232 Z-0.215 F500
G1 X13.510 Y41.238 Z-0.162 F500
G1 X13.510 Y41.238 Z1.000 F500
G1 X14.979 Y-2.549 Z1.000 F500
G1 X14.979 Y-2.549 Z0.000 F500
G1 X14.979 Y-2.549 Z-0.162 F100
G1 X14.979 Y-2.543 Z-0.215 F500
G1 X14.979 Y-2.525 Z-0.265 F500
G1 X14.979 Y-2.497 Z-0.310 F500
G1 X14.979 Y-2.459 Z-0.348 F500
G1 X14.979 Y-2.414 Z-0.376 F500
G1 X14.979 Y-2.363 Z-0.394 F500
G1 X14.979 Y-2.310 Z-0.400 F500
G1 X14.979 Y-2.000 Z-0.400 F500
G1 X14.979 Y41.000 Z-0.400 F500
G1 X14.979 Y41.053 Z-0.394 F500
G1 X14.979 Y41.103 Z-0.376 F500
G1 X14.979 Y41.149 Z-0.348 F500
G1 X14.979 Y41.186 Z-0.310 F500
G1 X14.979 Y41.215 Z-0.265 F500
G1 X14.979 Y41.232 Z-0.215 F500
G1 X14.979 Y41.238 Z-0.162 F500
G1 X14.979 Y41.238 Z1.000 F500
G1 X16.447 Y-2.549 Z1.000 F500
G1 X16.447 Y-2.549 Z0.000 F500
G1 X16.447 Y-2.549 Z-0.162 F100
G1 X16.447 Y-2.543 Z-0.215 F500
G1 X16.447 Y-2.525 Z-0.265 F500
G1 X16.447 Y-2.497 Z-0.310 F500
G1 X16.447 Y-2.459 Z-0.348 F500
G1 X16.447 Y-2.414 Z-0.376 F500
G1 X16.447 Y-2.363 Z-0.394 F500
G1 X16.447 Y-2.310 Z-0.400 F500
G1 X16.447 Y-2.000 Z-0.400 F500
G1 X16.447 Y41.000 Z-0.400 F500
G1 X16.447 Y41.053 Z-0.394 F500
G1 X16.447 Y41.103 Z-0.376 F500
G1 X16.447 Y41.149 Z-0.348 F500
G1 X16.447 Y41.186 Z-0.310 F500
G1 X16.447 Y41.215 Z-0.265 F500
G1 X16.447 Y41.232 Z-0.215 F500
G1 X16.447 Y41.238 Z-0.162 F500
G1 X16.447 Y41.238 Z1.000 F500
G1 X17.916 Y-2.549 Z1.000 F500
G1 X17.916 Y-2.549 Z0.000 F500
G1 X17.916 Y-2.549 Z-0.162 F100
G1 X17.916 Y-2.543 Z-0.215 F500
G1 X17.916 Y-2.525 Z-0.265 F500
G1 X17.916 Y-2.497 Z-0.310 F500
G1 X17.916 Y-2.459 Z-0.348 F500
G1 X17.916 Y-2.414 Z-0.376 F500
G1 X17.916 Y-2.363 Z-0.394 F500
G1 X17.916 Y-2.310 Z-0.400 F500
G1 X17.916 Y-2.000 Z-0.400 F500
G1 X17.916 Y41.000 Z-0.400 F500
G1 X17.916 Y41.053 Z-0.394 F500
G1 X17.916 Y41.103 Z-0.376 F500
G1 X17.916 Y41.149 Z-0.348 F500
G1 X17.916 Y41.186 Z-0.310 F500
G1 X17.916 Y41.215 Z-0.265 F500
G1 X17.916 Y41.232 Z-0.215 F500
G1 X17.916 Y41.238 Z-0.162 F500
G1 X17.916 Y41.238 Z1.000 F500
G1 X19.385 Y-2.549 Z1.000 F500
G1 X19.385 Y-2.549 Z0.000 F500
G1 X19.385 Y-2.549 Z-0.162 F100
G1 X19.385 Y-2.543 Z-0.215 F500
G1 X19.385 Y-2.525 Z-0.265 F500
G1 X19.385 Y-2.497 Z-0.310 F500
G1 X19.385 Y-2.459 Z-0.348 F500
G1 X19.385 Y-2.414 Z-0.376 F500
G1 X19.385 Y-2.363 Z-0.394 F500
G1 X19.385 Y-2.310 Z-0.400 F500
G1 X19.385 Y-2.000 Z-0.400 F500
G1 X19.385 Y41.000 Z-0.400 F500
G1 X19.385 Y41.053 Z-0.394 F500
G1 X19.385 Y41.103 Z-0.376 F500
G1 X19.385 Y41.149 Z-0.348 F500
G1 X19.385 Y41.186 Z-0.310 F500
G1 X19.385 Y41.215 Z-0.265 F500
G1 X19.385 Y41.232 Z-0.215 F500
G1 X19.385 Y41.238 Z-0.162 F500
G1 X19.385 Y41.238 Z1.000 F500
G1 X20.853 Y-2.549 Z1.000 F500
G1 X20.853 Y-2.549 Z0.000 F500
G1 X20.853 Y-2.549 Z-0.162 F100
G1 X20.853 Y-2.543 Z-0.215 F500
G1 X20.853 Y-2.525 Z-0.265 F500
G1 X20.853 Y-2.497 Z-0.310 F500
G1 X20.853 Y-2.459 Z-0.348 F500
G1 X20.853 Y-2.414 Z-0.376 F500
G1 X20.853 Y-2.363 Z-0.394 F500
G1 X20.853 Y-2.310 Z-0.400 F500
G1 X20.853 Y-2.000 Z-0.400 F500
G1 X20.853 Y41.000 Z-0.400 F500
G1 X20.853 Y41.053 Z-0.394 F500
G1 X20.853 Y41.103 Z-0.376 F500
G1 X20.853 Y41.149 Z-0.348 F500
G1 X20.853 Y41.186 Z-0.310 F500
G1 X20.853 Y41.215 Z-0.265 F500
G1 X20.853 Y41.232 Z-0.215 F500
G1 X20.853 Y41.238 Z-0.162 F500
G1 X20.853 Y41.238 Z1.000 F500
G1 X0.292 Y-2.549 Z1.000 F500
G1 X0.292 Y-2.549 Z0.000 F500
G1 X0.292 Y-2.549 Z-0.262 F100
G1 X0.292 Y-2.543 Z-0.315 F500
G1 X0.292 Y-2.525 Z-0.365 F500
G1 X0.292 Y-2.497 Z-0.410 F500
G1 X0.292 Y-2.459 Z-0.448 F500
G1 X0.292 Y-2.414 Z-0.476 F500
G1 X0.292 Y-2.363 Z-0.494 F500
G1 X0.292 Y-2.310 Z-0.500 F500
G1 X0.292 Y-2.000 Z-0.500 F500
G1 X0.292 Y41.000 Z-0.500 F500
G1 X0.292 Y41.053 Z-0.494 F500
G1 X0.292 Y41.103 Z-0.476 F500
G1 X0.292 Y41.149 Z-0.448 F500
G1 X0.292 Y41.186 Z-0.410 F500
G1 X0.292 Y41.215 Z-0.365 F500
G1 X0.292 Y41.232 Z-0.315 F500
G1 X0.292 Y41.238 Z-0.262 F500
G1 X0.292 Y41.238 Z1.000 F500
G1 X1.761 Y-2.549 Z1.000 F500
G1 X1.761 Y-2.549 Z0.000 F500
G1 X1.761 Y-2.549 Z-0.262 F100
G1 X1.761 Y-2.543 Z-0.315 F500
G1 X1.761 Y-2.525 Z-0.365 F500
G1 X1.761 Y-2.497 Z-0.410 F500
G1 X1.761 Y-2.459 Z-0.448 F500
G1 X1.761 Y-2.414 Z-0.476 F500
G1 X1.761 Y-2.363 Z-0.494 F500
G1 X1.761 Y-2.310 Z-0.500 F500
G1 X1.761 Y-2.000 Z-0.500 F500
G1 X1.761 Y41.000 Z-0.500 F500
G1 X1.761 Y41.053 Z-0.494 F500
G1 X1.761 Y41.103 Z-0.476 F500
G1 X1.761 Y41.149 Z-0.448 F500
G1 X1.761 Y41.186 Z-0.410 F500
G1 X1.761 Y41.215 Z-0.365 F500
G1 X1.761 Y41.232 Z-0.315 F500
G1 X1.761 Y41.238 Z-0.262 F500
G1 X1.761 Y41.238 Z1.000 F500
G1 X3.230 Y-2.549 Z1.000 F500
G1 X3.230 Y-2.549 Z0.000 F500
G1 X3.230 Y-2.549 Z-0.262 F100
G1 X3.230 Y-2.543 Z-0.315 F500
G1 X3.230 Y-2.525 Z-0.365 F500
G1 X3.230 Y-2.497 Z-0.410 F500
G1 X3.230 Y-2.459 Z-0.448 F500
G1 X3.230 Y-2.414 Z-0.476 F500
G1 X3.230 Y-2.363 Z-0.494 F500
G1 X3.230 Y-2.310 Z-0.500 F500
G1 X3.230 Y-2.000 Z-0.500 F500
G1 X3.230 Y41.000 Z-0.500 F500
G1 X3.230 Y41.053 Z-0.494 F500
G1 X3.230 Y41.103 Z-0.476 F500
G1 X3.230 Y41.149 Z-0.448 F500
G1 X3.230 Y41.186 Z-0.410 F500
G1 X3.230 Y41.215 Z-0.365 F500
G1 X3.230 Y41.232 Z-0.315 F500
G1 X3.230 Y41.238 Z-0.262 F500
G1 X3.230 Y41.238 Z1.000 F500
G1 X4.698 Y-2.549 Z1.000 F500
G1 X4.698 Y-2.549 Z0.000 F500
G1 X4.698 Y-2.549 Z-0.262 F100
G1 X4.698 Y-2.543 Z-0.315 F500
G1 X4.698 Y-2.525 Z-0.365 F500
G1 X4.698 Y-2.497 Z-0.410 F500
G1 X4.698 Y-2.459 Z-0.448 F500
G1 X4.698 Y-2.414 Z-0.476 F500
G1 X4.698 Y-2.363 Z-0.494 F500
G1 X4.698 Y-2.310 Z-0.500 F500
G1 X4.698 Y-2.000 Z-0.500 F500
G1 X4.698 Y41.000 Z-0.500 F500
G1 X4.698 Y41.053 Z-0.494 F500
G1 X4.698 Y41.103 Z-0.476 F500
G1 X4.698 Y41.149 Z-0.448 F500
G1 X4.698 Y41.186 Z-0.410 F500
G1 X4.698 Y41.215 Z-0.365 F500
G1 X4.698 Y41.232 Z-0.315 F500
G1 X4.698 Y41.238 Z-0.262 F500
G1 X4.698 Y41.238 Z1.000 F500
G1 X6.167 Y-2.549 Z1.000 F500
G1 X6.167 Y-2.549 Z0.000 F500
G1 X6.167 Y-2.549 Z-0.262 F100
G1 X6.167 Y-2.543 Z-0.315 F500
G1 X6.167 Y-2.525 Z-0.365 F500
G1 X6.167 Y-2.497 Z-0.410 F500
G1 X6.167 Y-2.459 Z-0.448 F500
G1 X6.167 Y-2.414 Z-0.476 F500
G1 X6.167 Y-2.363 Z-0.494 F500
G1 X6.167 Y-2.310 Z-0.500 F500
G1 X6.167 Y-2.000 Z-0.500 F500
G1 X6.167 Y41.000 Z-0.500 F500
G1 X6.167 Y41.053 Z-0.494 F500
G1 X6.167 Y41.103 Z-0.476 F500
G1 X6.167 Y41.149 Z-0.448 F500
G1 X6.167 Y41.186 Z-0.410 F500
G1 X6.167 Y41.215 Z-0.365 F500
G1 X6.167 Y41.232 Z-0.315 F500
G1 X6.167 Y41.238 Z-0.262 F500
G1 X6.167 Y41.238 Z1.000 F500
G1 X7.636 Y-2.549 Z1.000 F500
G1 X7.636 Y-2.549 Z0.000 F500
G1 X7.636 Y-2.549 Z-0.262 F100
G1 X7.636 Y-2.543 Z-0.315 F500
G1 X7.636 Y-2.525 Z-0.365 F500
G1 X7.636 Y-2.497 Z-0.410 F500
G1 X7.636 Y-2.459 Z-0.448 F500
G1 X7.636 Y-2.414 Z-0.476 F500
G1 X7.636 Y-2.363 Z-0.494 F500
G1 X7.636 Y-2.310 Z-0.500 F500
G1 X7.636 Y-2.000 Z-0.500 F500
G1 X7.636 Y41.000 Z-0.500 F500
G1 X7.636 Y41.053 Z-0.494 F500
G1 X7.636 Y41.103 Z-0.476 F500
G1 X7.636 Y41.149 Z-0.448 F500
G1 X7.636 Y41.186 Z-0.410 F500
G1 X7.636 Y41.215 Z-0.365 F500
G1 X7.636 Y41.232 Z-0.315 F500
G1 X7.636 Y41.238 Z-0.262 F500
G1 X7.636 Y41.238 Z1.000 F500
G1 X9.104 Y-2.549 Z1.000 F500
G1 X9.104 Y-2.549 Z0.000 F500
G1 X9.104 Y-2.549 Z-0.262 F100
G1 X9.104 Y-2.543 Z-0.315 F500
G1 X9.104 Y-2.525 Z-0.365 F500
G1 X9.104 Y-2.497 Z-0.410 F500
G1 X9.104 Y-2.459 Z-0.448 F500
G1 X9.104 Y-2.414 Z-0.476 F500
G1 X9.104 Y-2.363 Z-0.494 F500
G1 X9.104 Y-2.310 Z-0.500 F500
G1 X9.104 Y-2.000 Z-0.500 F500
G1 X9.104 Y41.000 Z-0.500 F500
G1 X9.104 Y41.053 Z-0.494 F500
G1 X9.104 Y41.103 Z-0.476 F500
G1 X9.104 Y41.149 Z-0.448 F500
G1 X9.104 Y41.186 Z-0.410 F500
G1 X9.104 Y41.215 Z-0.365 F500
G1 X9.104 Y41.232 Z-0.315 F500
G1 X9.104 Y41.238 Z-0.262 F500
G1 X9.104 Y41.238 Z1.000 F500
G1 X10.573 Y-2.549 Z1.000 F500
G1 X10.573 Y-2.549 Z0.000 F500
G1 X10.573 Y-2.549 Z-0.262 F100
G1 X10.573 Y-2.543 Z-0.315 F500
G1 X10.573 Y-2.525 Z-0.365 F500
G1 X10.573 Y-2.497 Z-0.410 F500
G1 X10.573 Y-2.459 Z-0.448 F500
G1 X10.573 Y-2.414 Z-0.476 F500
G1 X10.573 Y-2.363 Z-0.494 F500
G1 X10.573 Y-2.310 Z-0.500 F500
G1 X10.573 Y-2.000 Z-0.500 F500
G1 X10.573 Y41.000 Z-0.500 F500
G1 X10.573 Y41.053 Z-0.494 F500
G1 X10.573 Y41.103 Z-0.476 F500
G1 X10.573 Y41.149 Z-0.448 F500
G1 X10.573 Y41.186 Z-0.410 F500
G1 X10.573 Y41.215 Z-0.365 F500
G1 X10.573 Y41.232 Z-0.315 F500
G1 X10.573 Y41.238 Z-0.262 F500
G1 X10.573 Y41.238 Z1.000 F500
G1 X12.041 Y-2.549 Z1.000 F500
G1 X12.041 Y-2.549 Z0.000 F500
G1 X12.041 Y-2.549 Z-0.262 F100
G1 X12.041 Y-2.543 Z-0.315 F500
G1 X12.041 Y-2.525 Z-0.365 F500
G1 X12.041 Y-2.497 Z-0.410 F500
G1 X12.041 Y-2.459 Z-0.448 F500
G1 X12.041 Y-2.414 Z-0.476 F500
G1 X12.041 Y-2.363 Z-0.494 F500
G1 X12.041 Y-2.310 Z-0.500 F500
G1 X12.041 Y-2.000 Z-0.500 F500
G1 X12.041 Y41.000 Z-0.500 F500
G1 X12.041 Y41.053 Z-0.494 F500
G1 X12.041 Y41.103 Z-0.476 F500
G1 X12.041 Y41.149 Z-0.448 F500
G1 X12.041 Y41.186 Z-0.410 F500
G1 X12.041 Y41.215 Z-0.365 F500
G1 X12.041 Y41.232 Z-0.315 F500
G1 X12.041 Y41.238 Z-0.262 F500
G1 X12.041 Y41.238 Z1.000 F500
G1 X13.510 Y-2.549 Z1.000 F500
G1 X13.510 Y-2.549 Z0.000 F500
G1 X13.510 Y-2.549 Z-0.262 F100
G1 X13.510 Y-2.543 Z-0.315 F500
G1 X13.510 Y-2.525 Z-0.365 F500
G1 X13.510 Y-2.497 Z-0.410 F500
G1 X13.510 Y-2.459 Z-0.448 F500
G1 X13.510 Y-2.414 Z-0.476 F500
G1 X13.510 Y-2.363 Z-0.494 F500
G1 X13.510 Y-2.310 Z-0.500 F500
G1 X13.510 Y-2.000 Z-0.500 F500
G1 X13.510 Y41.000 Z-0.500 F500
G1 X13.510 Y41.053 Z-0.494 F500
G1 X13.510 Y41.103 Z-0.476 F500
G1 X13.510 Y41.149 Z-0.448 F500
G1 X13.510 Y41.186 Z-0.410 F500
G1 X13.510 Y41.215 Z-0.365 F500
G1 X13.510 Y41.232 Z-0.315 F500
G1 X13.510 Y41.238 Z-0.262 F500
G1 X13.510 Y41.238 Z1.000 F500
G1 X14.979 Y-2.549 Z1.000 F500
G1 X14.979 Y-2.549 Z0.000 F500
G1 X14.979 Y-2.549 Z-0.262 F100
G1 X14.979 Y-2.543 Z-0.315 F500
G1 X14.979 Y-2.525 Z-0.365 F500
G1 X14.979 Y-2.497 Z-0.410 F500
G1 X14.979 Y-2.459 Z-0.448 F500
G1 X14.979 Y-2.414 Z-0.476 F500
G1 X14.979 Y-2.363 Z-0.494 F500
G1 X14.979 Y-2.310 Z-0.500 F500
G1 X14.979 Y-2.000 Z-0.500 F500
G1 X14.979 Y41.000 Z-0.500 F500
G1 X14.979 Y41.053 Z-0.494 F500
G1 X14.979 Y41.103 Z-0.476 F500
G1 X14.979 Y41.149 Z-0.448 F500
G1 X14.979 Y41.186 Z-0.410 F500
G1 X14.979 Y41.215 Z-0.365 F500
G1 X14.979 Y41.232 Z-0.315 F500
G1 X14.979 Y41.238 Z-0.262 F500
G1 X14.979 Y41.238 Z1.000 F500
G1 X16.447 Y-2.549 Z1.000 F500
G1 X16.447 Y-2.549 Z0.000 F500
G1 X16.447 Y-2.549 Z-0.262 F100
G1 X16.447 Y-2.543 Z-0.315 F500
G1 X16.447 Y-2.525 Z-0.365 F500
G1 X16.447 Y-2.497 Z-0.410 F500
G1 X16.447 Y-2.459 Z-0.448 F500
G1 X16.447 Y-2.414 Z-0.476 F500
G1 X16.447 Y-2.363 Z-0.494 F500
G1 X16.447 Y-2.310 Z-0.500 F500
G1 X16.447 Y-2.000 Z-0.500 F500
G1 X16.447 Y41.000 Z-0.500 F500
G1 X16.447 Y41.053 Z-0.494 F500
G1 X16.447 Y41.103 Z-0.476 F500
G1 X16.447 Y41.149 Z-0.448 F500
G1 X16.447 Y41.186 Z-0.410 F500
G1 X16.447 Y41.215 Z-0.365 F500
G1 X16.447 Y41.232 Z-0.315 F500
G1 X16.447 Y41.238 Z-0.262 F500
G1 X16.447 Y41.238 Z1.000 F500
G1 X17.916 Y-2.549 Z1.000 F500
G1 X17.916 Y-2.549 Z0.000 F500
G1 X17.916 Y-2.549 Z-0.262 F100
G1 X17.916 Y-2.543 Z-0.315 F500
G1 X17.916 Y-2.525 Z-0.365 F500
G1 X17.916 Y-2.497 Z-0.410 F500
G1 X17.916 Y-2.459 Z-0.448 F500
G1 X17.916 Y-2.414 Z-0.476 F500
G1 X17.916 Y-2.363 Z-0.494 F500
G1 X17.916 Y-2.310 Z-0.500 F500
G1 X17.916 Y-2.000 Z-0.500 F500
G1 X17.916 Y41.000 Z-0.500 F500
G1 X17.916 Y41.053 Z-0.494 F500
G1 X17.916 Y41.103 Z-0.476 F500
G1 X17.916 Y41.149 Z-0.448 F500
G1 X17.916 Y41.186 Z-0.410 F500
G1 X17.916 Y41.215 Z-0.365 F500
G1 X17.916 Y41.232 Z-0.315 F500
G1 X17.916 Y41.238 Z-0.262 F500
G1 X17.916 Y41.238 Z1.000 F500
G1 X19.385 Y-2.549 Z1.000 F500
G1 X19.385 Y-2.549 Z0.000 F500
G1 X19.385 Y-2.549 Z-0.262 F100
G1 X19.385 Y-2.543 Z-0.315 F500
G1 X19.385 Y-2.525 Z-0.365 F500
G1 X19.385 Y-2.497 Z-0.410 F500
G1 X19.385 Y-2.459 Z-0.448 F500
G1 X19.385 Y-2.414 Z-0.476 F500
G1 X19.385 Y-2.363 Z-0.494 F500
G1 X19.385 Y-2.310 Z-0.500 F500
G1 X19.385 Y-2.000 Z-0.500 F500
G1 X19.385 Y41.000 Z-0.500 F500
G1 X19.385 Y41.053 Z-0.494 F500
G1 X19.385 Y41.103 Z-0.476 F500
G1 X19.385 Y41.149 Z-0.448 F500
G1 X19.385 Y41.186 Z-0.410 F500
G1 X19.385 Y41.215 Z-0.365 F500
G1 X19.385 Y41.232 Z-0.315 F500
G1 X19.385 Y41.238 Z-0.262 F500
G1 X19.385 Y41.238 Z1.000 F500
G1 X20.853 Y-2.549 Z1.000 F500
G1 X20.853 Y-2.549 Z0.000 F500
G1 X20.853 Y-2.549 Z-0.262 F100
G1 X20.853 Y-2.543 Z-0.315 F500
G1 X20.853 Y-2.525 Z-0.365 F500
G1 X20.853 Y-2.497 Z-0.410 F500
G1 X20.853 Y-2.459 Z-0.448 F500
G1 X20.853 Y-2.414 Z-0.476 F500
G1 X20.853 Y-2.363 Z-0.494 F500
G1 X20.853 Y-2.310 Z-0.500 F500
G1 X20.853 Y-2.000 Z-0.500 F500
G1 X20.853 Y41.000 Z-0.500 F500
G1 X20.853 Y41.053 Z-0.494 F500
G1 X20.853 Y41.103 Z-0.476 F500
G1 X20.853 Y41.149 Z-0.448 F500
G1 X20.853 Y41.186 Z-0.410 F500
G1 X20.853 Y41.215 Z-0.365 F500
G1 X20.853 Y41.232 Z-0.315 F500
G1 X20.853 Y41.238 Z-0.262 F500
G1 X20.853 Y41.238 Z1.000 F500
G1 X0.292 Y-2.549 Z1.000 F500
G1 X0.292 Y-2.549 Z0.000 F500
G1 X0.292 Y-2.549 Z-0.362 F100
G1 X0.292 Y-2.543 Z-0.415 F500
G1 X0.292 Y-2.525 Z-0.465 F500
G1 X0.292 Y-2.497 Z-0.510 F500
G1 X0.292 Y-2.459 Z-0.548 F500
G1 X0.292 Y-2.414 Z-0.576 F500
G1 X0.292 Y-2.363 Z-0.594 F500
G1 X0.292 Y-2.310 Z-0.600 F500
G1 X0.292 Y-2.000 Z-0.600 F500
G1 X0.292 Y41.000 Z-0.600 F500
G1 X0.292 Y41.053 Z-0.594 F500
G1 X0.292 Y41.103 Z-0.576 F500
G1 X0.292 Y41.149 Z-0.548 F500
G1 X0.292 Y41.186 Z-0.510 F500
G1 X0.292 Y41.215 Z-0.465 F500
G1 X0.292 Y41.232 Z-0.415 F500
G1 X0.292 Y41.238 Z-0.362 F500
G1 X0.292 Y41.238 Z1.000 F500
G1 X1.761 Y-2.549 Z1.000 F500
G1 X1.761 Y-2.549 Z0.000 F500
G1 X1.761 Y-2.549 Z-0.362 F100
G1 X1.761 Y-2.543 Z-0.415 F500
G1 X1.761 Y-2.525 Z-0.465 F500
G1 X1.761 Y-2.497 Z-0.510 F500
G1 X1.761 Y-2.459 Z-0.548 F500
G1 X1.761 Y-2.414 Z-0.576 F500
G1 X1.761 Y-2.363 Z-0.594 F500
G1 X1.761 Y-2.310 Z-0.600 F500
G1 X1.761 Y-2.000 Z-0.600 F500
G1 X1.761 Y41.000 Z-0.600 F500
G1 X1.761 Y41.053 Z-0.594 F500
G1 X1.761 Y41.103 Z-0.576 F500
G1 X1.761 Y41.149 Z-0.548 F500
G1 X1.761 Y41.186 Z-0.510 F500
G1 X1.761 Y41.215 Z-0.465 F500
G1 X1.761 Y41.232 Z-0.415 F500
G1 X1.761 Y41.238 Z-0.362 F500
G1 X1.761 Y41.238 Z1.000 F500
G1 X3.230 Y-2.549 Z1.000 F500
G1 X3.230 Y-2.549 Z0.000 F500
G1 X3.230 Y-2.549 Z-0.362 F100
G1 X3.230 Y-2.543 Z-0.415 F500
G1 X3.230 Y-2.525 Z-0.465 F500
G1 X3.230 Y-2.497 Z-0.510 F500
G1 X3.230 Y-2.459 Z-0.548 F500
G1 X3.230 Y-2.414 Z-0.576 F500
G1 X3.230 Y-2.363 Z-0.594 F500
G1 X3.230 Y-2.310 Z-0.600 F500
G1 X3.230 Y-2.000 Z-0.600 F500
G1 X3.230 Y41.000 Z-0.600 F500
G1 X3.230 Y41.053 Z-0.594 F500
G1 X3.230 Y41.103 Z-0.576 F500
G1 X3.230 Y41.149 Z-0.548 F500
G1 X3.230 Y41.186 Z-0.510 F500
G1 X3.230 Y41.215 Z-0.465 F500
G1 X3.230 Y41.232 Z-0.415 F500
G1 X3.230 Y41.238 Z-0.362 F500
G1 X3.230 Y41.238 Z1.000 F500
G1 X4.698 Y-2.549 Z1.000 F500
G1 X4.698 Y-2.549 Z0.000 F500
G1 X4.698 Y-2.549 Z-0.362 F100
G1 X4.698 Y-2.543 Z-0.415 F500
G1 X4.698 Y-2.525 Z-0.465 F500
G1 X4.698 Y-2.497 Z-0.510 F500
G1 X4.698 Y-2.459 Z-0.548 F500
G1 X4.698 Y-2.414 Z-0.576 F500
G1 X4.698 Y-2.363 Z-0.594 F500
G1 X4.698 Y-2.310 Z-0.600 F500
G1 X4.698 Y-2.000 Z-0.600 F500
G1 X4.698 Y41.000 Z-0.600 F500
G1 X4.698 Y41.053 Z-0.594 F500
G1 X4.698 Y41.103 Z-0.576 F500
G1 X4.698 Y41.149 Z-0.548 F500
G1 X4.698 Y41.186 Z-0.510 F500
G1 X4.698 Y41.215 Z-0.465 F500
G1 X4.698 Y41.232 Z-0.415 F500
G1 X4.698 Y41.238 Z-0.362 F500
G1 X4.698 Y41.238 Z1.000 F500
G1 X6.167 Y-2.549 Z1.000 F500
G1 X6.167 Y-2.549 Z0.000 F500
G1 X6.167 Y-2.549 Z-0.362 F100
G1 X6.167 Y-2.543 Z-0.415 F500
G1 X6.167 Y-2.525 Z-0.465 F500
G1 X6.167 Y-2.497 Z-0.510 F500
G1 X6.167 Y-2.459 Z-0.548 F500
G1 X6.167 Y-2.414 Z-0.576 F500
G1 X6.167 Y-2.363 Z-0.594 F500
G1 X6.167 Y-2.310 Z-0.600 F500
G1 X6.167 Y-2.000 Z-0.600 F500
G1 X6.167 Y41.000 Z-0.600 F500
G1 X6.167 Y41.053 Z-0.594 F500
G1 X6.167 Y41.103 Z-0.576 F500
G1 X6.167 Y41.149 Z-0.548 F500
G1 X6.167 Y41.186 Z-0.510 F500
G1 X6.167 Y41.215 Z-0.465 F500
G1 X6.167 Y41.232 Z-0.415 F500
G1 X6.167 Y41.238 Z-0.362 F500
G1 X6.167 Y41.238 Z1.000 F500
G1 X7.636 Y-2.549 Z1.000 F500
G1 X7.636 Y-2.549 Z0.000 F500
G1 X7.636 Y-2.549 Z-0.362 F100
G1 X7.636 Y-2.543 Z-0.415 F500
G1 X7.636 Y-2.525 Z-0.465 F500
G1 X7.636 Y-2.497 Z-0.510 F500
G1 X7.636 Y-2.459 Z-0.548 F500
G1 X7.636 Y-2.414 Z-0.576 F500
G1 X7.636 Y-2.363 Z-0.594 F500
G1 X7.636 Y-2.310 Z-0.600 F500
G1 X7.636 Y-2.000 Z-0.600 F500
G1 X7.636 Y41.000 Z-0.600 F500
G1 X7.636 Y41.053 Z-0.594 F500
G1 X7.636 Y41.103 Z-0.576 F500
G1 X7.636 Y41.149 Z-0.548 F500
G1 X7.636 Y41.186 Z-0.510 F500
G1 X7.636 Y41.215 Z-0.465 F500
G1 X7.636 Y41.232 Z-0.415 F500
G1 X7.636 Y41.238 Z-0.362 F500
G1 X7.636 Y41.238 Z1.000 F500
G1 X9.104 Y-2.549 Z1.000 F500
G1 X9.104 Y-2.549 Z0.000 F500
G1 X9.104 Y-2.549 Z-0.362 F100
G1 X9.104 Y-2.543 Z-0.415 F500
G1 X9.104 Y-2.525 Z-0.465 F500
G1 X9.104 Y-2.497 Z-0.510 F500
G1 X9.104 Y-2.459 Z-0.548 F500
G1 X9.104 Y-2.414 Z-0.576 F500
G1 X9.104 Y-2.363 Z-0.594 F500
G1 X9.104 Y-2.310 Z-0.600 F500
G1 X9.104 Y-2.000 Z-0.600 F500
G1 X9.104 Y41.000 Z-0.600 F500
G1 X9.104 Y41.053 Z-0.594 F500
G1 X9.104 Y41.103 Z-0.576 F500
G1 X9.104 Y41.149 Z-0.548 F500
G1 X9.104 Y41.186 Z-0.510 F500
G1 X9.104 Y41.215 Z-0.465 F500
G1 X9.104 Y41.232 Z-0.415 F500
G1 X9.104 Y41.238 Z-0.362 F500
G1 X9.104 Y41.238 Z1.000 F500
G1 X10.573 Y-2.549 Z1.000 F500
G1 X10.573 Y-2.549 Z0.000 F500
G1 X10.573 Y-2.549 Z-0.362 F100
G1 X10.573 Y-2.543 Z-0.415 F500
G1 X10.573 Y-2.525 Z-0.465 F500
G1 X10.573 Y-2.497 Z-0.510 F500
G1 X10.573 Y-2.459 Z-0.548 F500
G1 X10.573 Y-2.414 Z-0.576 F500
G1 X10.573 Y-2.363 Z-0.594 F500
G1 X10.573 Y-2.310 Z-0.600 F500
G1 X10.573 Y-2.000 Z-0.600 F500
G1 X10.573 Y41.000 Z-0.600 F500
G1 X10.573 Y41.053 Z-0.594 F500
G1 X10.573 Y41.103 Z-0.576 F500
G1 X10.573 Y41.149 Z-0.548 F500
G1 X10.573 Y41.186 Z-0.510 F500
G1 X10.573 Y41.215 Z-0.465 F500
G1 X10.573 Y41.232 Z-0.415 F500
G1 X10.573 Y41.238 Z-0.362 F500
G1 X10.573 Y41.238 Z1.000 F500
G1 X12.041 Y-2.549 Z1.000 F500
G1 X12.041 Y-2.549 Z0.000 F500
G1 X12.041 Y-2.549 Z-0.362 F100
G1 X12.041 Y-2.543 Z-0.415 F500
G1 X12.041 Y-2.525 Z-0.465 F500
G1 X12.041 Y-2.497 Z-0.510 F500
G1 X12.041 Y-2.459 Z-0.548 F500
G1 X12.041 Y-2.414 Z-0.576 F500
G1 X12.041 Y-2.363 Z-0.594 F500
G1 X12.041 Y-2.310 Z-0.600 F500
G1 X12.041 Y-2.000 Z-0.600 F500
G1 X12.041 Y41.000 Z-0.600 F500
G1 X12.041 Y41.053 Z-0.594 F500
G1 X12.041 Y41.103 Z-0.576 F500
G1 X12.041 Y41.149 Z-0.548 F500
G1 X12.041 Y41.186 Z-0.510 F500
G1 X12.041 Y41.215 Z-0.465 F500
G1 X12.041 Y41.232 Z-0.415 F500
G1 X12.041 Y41.238 Z-0.362 F500
G1 X12.041 Y41.238 Z1.000 F500
G1 X13.510 Y-2.549 Z1.000 F500
G1 X13.510 Y-2.549 Z0.000 F500
G1 X13.510 Y-2.549 Z-0.362 F100
G1 X13.510 Y-2.543 Z-0.415 F500
G1 X13.510 Y-2.525 Z-0.465 F500
G1 X13.510 Y-2.497 Z-0.510 F500
G1 X13.510 Y-2.459 Z-0.548 F500
G1 X13.510 Y-2.414 Z-0.576 F500
G1 X13.510 Y-2.363 Z-0.594 F500
G1 X13.510 Y-2.310 Z-0.600 F500
G1 X13.510 Y-2.000 Z-0.600 F500
G1 X13.510 Y41.000 Z-0.600 F500
G1 X13.510 Y41.053 Z-0.594 F500
G1 X13.510 Y41.103 Z-0.576 F500
G1 X13.510 Y41.149 Z-0.548 F500
G1 X13.510 Y41.186 Z-0.510 F500
G1 X13.510 Y41.215 Z-0.465 F500
G1 X13.510 Y41.232 Z-0.415 F500
G1 X13.510 Y41.238 Z-0.362 F500
G1 X13.510 Y41.238 Z1.000 F500
G1 X14.979 Y-2.549 Z1.000 F500
G1 X14.979 Y-2.549 Z0.000 F500
G1 X14.979 Y-2.549 Z-0.362 F100
G1 X14.979 Y-2.543 Z-0.415 F500
G1 X14.979 Y-2.525 Z-0.465 F500
G1 X14.979 Y-2.497 Z-0.510 F500
G1 X14.979 Y-2.459 Z-0.548 F500
G1 X14.979 Y-2.414 Z-0.576 F500
G1 X14.979 Y-2.363 Z-0.594 F500
G1 X14.979 Y-2.310 Z-0.600 F500
G1 X14.979 Y-2.000 Z-0.600 F500
G1 X14.979 Y41.000 Z-0.600 F500
G1 X14.979 Y41.053 Z-0.594 F500
G1 X14.979 Y41.103 Z-0.576 F500
G1 X14.979 Y41.149 Z-0.548 F500
G1 X14.979 Y41.186 Z-0.510 F500
G1 X14.979 Y41.215 Z-0.465 F500
G1 X14.979 Y41.232 Z-0.415 F500
G1 X14.979 Y41.238 Z-0.362 F500
G1 X14.979 Y41.238 Z1.000 F500
G1 X16.447 Y-2.549 Z1.000 F500
G1 X16.447 Y-2.549 Z0.000 F500
G1 X16.447 Y-2.549 Z-0.362 F100
G1 X16.447 Y-2.543 Z-0.415 F500
G1 X16.447 Y-2.525 Z-0.465 F500
G1 X16.447 Y-2.497 Z-0.510 F500
G1 X16.447 Y-2.459 Z-0.548 F500
G1 X16.447 Y-2.414 Z-0.576 F500
G1 X16.447 Y-2.363 Z-0.594 F500
G1 X16.447 Y-2.310 Z-0.600 F500
G1 X16.447 Y-2.000 Z-0.600 F500
G1 X16.447 Y41.000 Z-0.600 F500
G1 X16.447 Y41.053 Z-0.594 F500
G1 X16.447 Y41.103 Z-0.576 F500
G1 X16.447 Y41.149 Z-0.548 F500
G1 X16.447 Y41.186 Z-0.510 F500
G1 X16.447 Y41.215 Z-0.465 F500
G1 X16.447 Y41.232 Z-0.415 F500
G1 X16.447 Y41.238 Z-0.362 F500
G1 X16.447 Y41.238 Z1.000 F500
G1 X17.916 Y-2.549 Z1.000 F500
G1 X17.916 Y-2.549 Z0.000 F500
G1 X17.916 Y-2.549 Z-0.362 F100
G1 X17.916 Y-2.543 Z-0.415 F500
G1 X17.916 Y-2.525 Z-0.465 F500
G1 X17.916 Y-2.497 Z-0.510 F500
G1 X17.916 Y-2.459 Z-0.548 F500
G1 X17.916 Y-2.414 Z-0.576 F500
G1 X17.916 Y-2.363 Z-0.594 F500
G1 X17.916 Y-2.310 Z-0.600 F500
G1 X17.916 Y-2.000 Z-0.600 F500
G1 X17.916 Y41.000 Z-0.600 F500
G1 X17.916 Y41.053 Z-0.594 F500
G1 X17.916 Y41.103 Z-0.576 F500
G1 X17.916 Y41.149 Z-0.548 F500
G1 X17.916 Y41.186 Z-0.510 F500
G1 X17.916 Y41.215 Z-0.465 F500
G1 X17.916 Y41.232 Z-0.415 F500
G1 X17.916 Y41.238 Z-0.362 F500
G1 X17.916 Y41.238 Z1.000 F500
G1 X19.385 Y-2.549 Z1.000 F500
G1 X19.385 Y-2.549 Z0.000 F500
G1 X19.385 Y-2.549 Z-0.362 F100
G1 X19.385 Y-2.543 Z-0.415 F500
G1 X19.385 Y-2.525 Z-0.465 F500
G1 X19.385 Y-2.497 Z-0.510 F500
G1 X19.385 Y-2.459 Z-0.548 F500
G1 X19.385 Y-2.414 Z-0.576 F500
G1 X19.385 Y-2.363 Z-0.594 F500
G1 X19.385 Y-2.310 Z-0.600 F500
G1 X19.385 Y-2.000 Z-0.600 F500
G1 X19.385 Y41.000 Z-0.600 F500
G1 X19.385 Y41.053 Z-0.594 F500
G1 X19.385 Y41.103 Z-0.576 F500
G1 X19.385 Y41.149 Z-0.548 F500
G1 X19.385 Y41.186 Z-0.510 F500
G1 X19.385 Y41.215 Z-0.465 F500
G1 X19.385 Y41.232 Z-0.415 F500
G1 X19.385 Y41.238 Z-0.362 F500
G1 X19.385 Y41.238 Z1.000 F500
G1 X20.853 Y-2.549 Z1.000 F500
G1 X20.853 Y-2.549 Z0.000 F500
G1 X20.853 Y-2.549 Z-0.362 F100
G1 X20.853 Y-2.543 Z-0.415 F500
G1 X20.853 Y-2.525 Z-0.465 F500
G1 X20.853 Y-2.497 Z-0.510 F500
G1 X20.853 Y-2.459 Z-0.548 F500
G1 X20.853 Y-2.414 Z-0.576 F500
G1 X20.853 Y-2.363 Z-0.594 F500
G1 X20.853 Y-2.310 Z-0.600 F500
G1 X20.853 Y-2.000 Z-0.600 F500
G1 X20.853 Y41.000 Z-0.600 F500
G1 X20.853 Y41.053 Z-0.594 F500
G1 X20.853 Y41.103 Z-0.576 F500
G1 X20.853 Y41.149 Z-0.548 F500
G1 X20.853 Y41.186 Z-0.510 F500
G1 X20.853 Y41.215 Z-0.465 F500
G1 X20.853 Y41.232 Z-0.415 F500
G1 X20.853 Y41.238 Z-0.362 F500
G1 X20.853 Y41.238 Z1.000 F500
G1 X0.292 Y-2.549 Z1.000 F500
G1 X0.292 Y-2.549 Z0.000 F500
G1 X0.292 Y-2.549 Z-0.462 F100
G1 X0.292 Y-2.543 Z-0.515 F500
G1 X0.292 Y-2.525 Z-0.565 F500
G1 X0.292 Y-2.497 Z-0.610 F500
G1 X0.292 Y-2.459 Z-0.648 F500
G1 X0.292 Y-2.414 Z-0.676 F500
G1 X0.292 Y-2.363 Z-0.694 F500
G1 X0.292 Y-2.310 Z-0.700 F500
G1 X0.292 Y-2.000 Z-0.700 F500
G1 X0.292 Y41.000 Z-0.700 F500
G1 X0.292 Y41.053 Z-0.694 F500
G1 X0.292 Y41.103 Z-0.676 F500
G1 X0.292 Y41.149 Z-0.648 F500
G1 X0.292 Y41.186 Z-0.610 F500
G1 X0.292 Y41.215 Z-0.565 F500
G1 X0.292 Y41.232 Z-0.515 F500
G1 X0.292 Y41.238 Z-0.462 F500
G1 X0.292 Y41.238 Z1.000 F500
G1 X1.761 Y-2.549 Z1.000 F500
G1 X1.761 Y-2.549 Z0.000 F500
G1 X1.761 Y-2.549 Z-0.462 F100
G1 X1.761 Y-2.543 Z-0.515 F500
G1 X1.761 Y-2.525 Z-0.565 F500
G1 X1.761 Y-2.497 Z-0.610 F500
G1 X1.761 Y-2.459 Z-0.648 F500
G1 X1.761 Y-2.414 Z-0.676 F500
G1 X1.761 Y-2.363 Z-0.694 F500
G1 X1.761 Y-2.310 Z-0.700 F500
G1 X1.761 Y-2.000 Z-0.700 F500
G1 X1.761 Y41.000 Z-0.700 F500
G1 X1.761 Y41.053 Z-0.694 F500
G1 X1.761 Y41.103 Z-0.676 F500
G1 X1.761 Y41.149 Z-0.648 F500
G1 X1.761 Y41.186 Z-0.610 F500
G1 X1.761 Y41.215 Z-0.565 F500
G1 X1.761 Y41.232 Z-0.515 F500
G1 X1.761 Y41.238 Z-0.462 F500
G1 X1.761 Y41.238 Z1.000 F500
G1 X3.230 Y-2.549 Z1.000 F500
G1 X3.230 Y-2.549 Z0.000 F500
G1 X3.230 Y-2.549 Z-0.462 F100
G1 X3.230 Y-2.543 Z-0.515 F500
G1 X3.230 Y-2.525 Z-0.565 F500
G1 X3.230 Y-2.497 Z-0.610 F500
G1 X3.230 Y-2.459 Z-0.648 F500
G1 X3.230 Y-2.414 Z-0.676 F500
G1 X3.230 Y-2.363 Z-0.694 F500
G1 X3.230 Y-2.310 Z-0.700 F500
G1 X3.230 Y-2.000 Z-0.700 F500
G1 X3.230 Y41.000 Z-0.700 F500
G1 X3.230 Y41.053 Z-0.694 F500
G1 X3.230 Y41.103 Z-0.676 F500
G1 X3.230 Y41.149 Z-0.648 F500
G1 X3.230 Y41.186 Z-0.610 F500
G1 X3.230 Y41.215 Z-0.565 F500
G1 X3.230 Y41.232 Z-0.515 F500
G1 X3.230 Y41.238 Z-0.462 F500
G1 X3.230 Y41.238 Z1.000 F500
G1 X4.698 Y-2.549 Z1.000 F500
G1 X4.698 Y-2.549 Z0.000 F500
G1 X4.698 Y-2.549 Z-0.462 F100
G1 X4.698 Y-2.543 Z-0.515 F500
G1 X4.698 Y-2.525 Z-0.565 F500
G1 X4.698 Y-2.497 Z-0.610 F500
G1 X4.698 Y-2.459 Z-0.648 F500
G1 X4.698 Y-2.414 Z-0.676 F500
G1 X4.698 Y-2.363 Z-0.694 F500
G1 X4.698 Y-2.310 Z-0.700 F500
G1 X4.698 Y-2.000 Z-0.700 F500
G1 X4.698 Y41.000 Z-0.700 F500
G1 X4.698 Y41.053 Z-0.694 F500
G1 X4.698 Y41.103 Z-0.676 F500
G1 X4.698 Y41.149 Z-0.648 F500
G1 X4.698 Y41.186 Z-0.610 F500
G1 X4.698 Y41.215 Z-0.565 F500
G1 X4.698 Y41.232 Z-0.515 F500
G1 X4.698 Y41.238 Z-0.462 F500
G1 X4.698 Y41.238 Z1.000 F500
G1 X6.167 Y-2.549 Z1.000 F500
G1 X6.167 Y-2.549 Z0.000 F500
G1 X6.167 Y-2.549 Z-0.462 F100
G1 X6.167 Y-2.543 Z-0.515 F500
G1 X6.167 Y-2.525 Z-0.565 F500
G1 X6.167 Y-2.497 Z-0.610 F500
G1 X6.167 Y-2.459 Z-0.648 F500
G1 X6.167 Y-2.414 Z-0.676 F500
G1 X6.167 Y-2.363 Z-0.694 F500
G1 X6.167 Y-2.310 Z-0.700 F500
G1 X6.167 Y-2.000 Z-0.700 F500
G1 X6.167 Y41.000 Z-0.700 F500
G1 X6.167 Y41.053 Z-0.694 F500
G1 X6.167 Y41.103 Z-0.676 F500
G1 X6.167 Y41.149 Z-0.648 F500
G1 X6.167 Y41.186 Z-0.610 F500
G1 X6.167 Y41.215 Z-0.565 F500
G1 X6.167 Y41.232 Z-0.515 F500
G1 X6.167 Y41.238 Z-0.462 F500
G1 X6.167 Y41.238 Z1.000 F500
G1 X7.636 Y-2.549 Z1.000 F500
G1 X7.636 Y-2.549 Z0.000 F500
G1 X7.636 Y-2.549 Z-0.462 F100
G1 X7.636 Y-2.543 Z-0.515 F500
G1 X7.636 Y-2.525 Z-0.565 F500
G1 X7.636 Y-2.497 Z-0.610 F500
G1 X7.636 Y-2.459 Z-0.648 F500
G1 X7.636 Y-2.414 Z-0.676 F500
G1 X7.636 Y-2.363 Z-0.694 F500
G1 X7.636 Y-2.310 Z-0.700 F500
G1 X7.636 Y-2.000 Z-0.700 F500
G1 X7.636 Y41.000 Z-0.700 F500
G1 X7.636 Y41.053 Z-0.694 F500
G1 X7.636 Y41.103 Z-0.676 F500
G1 X7.636 Y41.149 Z-0.648 F500
G1 X7.636 Y41.186 Z-0.610 F500
G1 X7.636 Y41.215 Z-0.565 F500
G1 X7.636 Y41.232 Z-0.515 F500
G1 X7.636 Y41.238 Z-0.462 F500
G1 X7.636 Y41.238 Z1.000 F500
G1 X9.104 Y-2.549 Z1.000 F500
G1 X9.104 Y-2.549 Z0.000 F500
G1 X9.104 Y-2.549 Z-0.462 F100
G1 X9.104 Y-2.543 Z-0.515 F500
G1 X9.104 Y-2.525 Z-0.565 F500
G1 X9.104 Y-2.497 Z-0.610 F500
G1 X9.104 Y-2.459 Z-0.648 F500
G1 X9.104 Y-2.414 Z-0.676 F500
G1 X9.104 Y-2.363 Z-0.694 F500
G1 X9.104 Y-2.310 Z-0.700 F500
G1 X9.104 Y-2.000 Z-0.700 F500
G1 X9.104 Y41.000 Z-0.700 F500
G1 X9.104 Y41.053 Z-0.694 F500
G1 X9.104 Y41.103 Z-0.676 F500
G1 X9.104 Y41.149 Z-0.648 F500
G1 X9.104 Y41.186 Z-0.610 F500
G1 X9.104 Y41.215 Z-0.565 F500
G1 X9.104 Y41.232 Z-0.515 F500
G1 X9.104 Y41.238 Z-0.462 F500
G1 X9.104 Y41.238 Z1.000 F500
G1 X10.573 Y-2.549 Z1.000 F500
G1 X10.573 Y-2.549 Z0.000 F500
G1 X10.573 Y-2.549 Z-0.462 F100
G1 X10.573 Y-2.543 Z-0.515 F500
G1 X10.573 Y-2.525 Z-0.565 F500
G1 X10.573 Y-2.497 Z-0.610 F500
G1 X10.573 Y-2.459 Z-0.648 F500
G1 X10.573 Y-2.414 Z-0.676 F500
G1 X10.573 Y-2.363 Z-0.694 F500
G1 X10.573 Y-2.310 Z-0.700 F500
G1 X10.573 Y-2.000 Z-0.700 F500
G1 X10.573 Y41.000 Z-0.700 F500
G1 X10.573 Y41.053 Z-0.694 F500
G1 X10.573 Y41.103 Z-0.676 F500
G1 X10.573 Y41.149 Z-0.648 F500
G1 X10.573 Y41.186 Z-0.610 F500
G1 X10.573 Y41.215 Z-0.565 F500
G1 X10.573 Y41.232 Z-0.515 F500
G1 X10.573 Y41.238 Z-0.462 F500
G1 X10.573 Y41.238 Z1.000 F500
G1 X12.041 Y-2.549 Z1.000 F500
G1 X12.041 Y-2.549 Z0.000 F500
G1 X12.041 Y-2.549 Z-0.462 F100
G1 X12.041 Y-2.543 Z-0.515 F500
G1 X12.041 Y-2.525 Z-0.565 F500
G1 X12.041 Y-2.497 Z-0.610 F500
G1 X12.041 Y-2.459 Z-0.648 F500
G1 X12.041 Y-2.414 Z-0.676 F500
G1 X12.041 Y-2.363 Z-0.694 F500
G1 X12.041 Y-2.310 Z-0.700 F500
G1 X12.041 Y-2.000 Z-0.700 F500
G1 X12.041 Y41.000 Z-0.700 F500
G1 X12.041 Y41.053 Z-0.694 F500
G1 X12.041 Y41.103 Z-0.676 F500
G1 X12.041 Y41.149 Z-0.648 F500
G1 X12.041 Y41.186 Z-0.610 F500
G1 X12.041 Y41.215 Z-0.565 F500
G1 X12.041 Y41.232 Z-0.515 F500
G1 X12.041 Y41.238 Z-0.462 F500
G1 X12.041 Y41.238 Z1.000 F500
G1 X13.510 Y-2.549 Z1.000 F500
G1 X13.510 Y-2.549 Z0.000 F500
G1 X13.510 Y-2.549 Z-0.462 F100
G1 X13.510 Y-2.543 Z-0.515 F500
G1 X13.510 Y-2.525 Z-0.565 F500
G1 X13.510 Y-2.497 Z-0.610 F500
G1 X13.510 Y-2.459 Z-0.648 F500
G1 X13.510 Y-2.414 Z-0.676 F500
G1 X13.510 Y-2.363 Z-0.694 F500
G1 X13.510 Y-2.310 Z-0.700 F500
G1 X13.510 Y-2.000 Z-0.700 F500
G1 X13.510 Y41.000 Z-0.700 F500
G1 X13.510 Y41.053 Z-0.694 F500
G1 X13.510 Y41.103 Z-0.676 F500
G1 X13.510 Y41.149 Z-0.648 F500
G1 X13.510 Y41.186 Z-0.610 F500
G1 X13.510 Y41.215 Z-0.565 F500
G1 X13.510 Y41.232 Z-0.515 F500
G1 X13.510 Y41.238 Z-0.462 F500
G1 X13.510 Y41.238 Z1.000 F500
G1 X14.979 Y-2.549 Z1.000 F500
G1 X14.979 Y-2.549 Z0.000 F500
G1 X14.979 Y-2.549 Z-0.462 F100
G1 X14.979 Y-2.543 Z-0.515 F500
G1 X14.979 Y-2.525 Z-0.565 F500
G1 X14.979 Y-2.497 Z-0.610 F500
G1 X14.979 Y-2.459 Z-0.648 F500
G1 X14.979 Y-2.414 Z-0.676 F500
G1 X14.979 Y-2.363 Z-0.694 F500
G1 X14.979 Y-2.310 Z-0.700 F500
G1 X14.979 Y-2.000 Z-0.700 F500
G1 X14.979 Y41.000 Z-0.700 F500
G1 X14.979 Y41.053 Z-0.694 F500
G1 X14.979 Y41.103 Z-0.676 F500
G1 X14.979 Y41.149 Z-0.648 F500
G1 X14.979 Y41.186 Z-0.610 F500
G1 X14.979 Y41.215 Z-0.565 F500
G1 X14.979 Y41.232 Z-0.515 F500
G1 X14.979 Y41.238 Z-0.462 F500
G1 X14.979 Y41.238 Z1.000 F500
G1 X16.447 Y-2.549 Z1.000 F500
G1 X16.447 Y-2.549 Z0.000 F500
G1 X16.447 Y-2.549 Z-0.462 F100
G1 X16.447 Y-2.543 Z-0.515 F500
G1 X16.447 Y-2.525 Z-0.565 F500
G1 X16.447 Y-2.497 Z-0.610 F500
G1 X16.447 Y-2.459 Z-0.648 F500
G1 X16.447 Y-2.414 Z-0.676 F500
G1 X16.447 Y-2.363 Z-0.694 F500
G1 X16.447 Y-2.310 Z-0.700 F500
G1 X16.447 Y-2.000 Z-0.700 F500
G1 X16.447 Y41.000 Z-0.700 F500
G1 X16.447 Y41.053 Z-0.694 F500
G1 X16.447 Y41.103 Z-0.676 F500
G1 X16.447 Y41.149 Z-0.648 F500
G1 X16.447 Y41.186 Z-0.610 F500
G1 X16.447 Y41.215 Z-0.565 F500
G1 X16.447 Y41.232 Z-0.515 F500
G1 X16.447 Y41.238 Z-0.462 F500
G1 X16.447 Y41.238 Z1.000 F500
G1 X17.916 Y-2.549 Z1.000 F500
G1 X17.916 Y-2.549 Z0.000 F500
G1 X17.916 Y-2.549 Z-0.462 F100
G1 X17.916 Y-2.543 Z-0.515 F500
G1 X17.916 Y-2.525 Z-0.565 F500
G1 X17.916 Y-2.497 Z-0.610 F500
G1 X17.916 Y-2.459 Z-0.648 F500
G1 X17.916 Y-2.414 Z-0.676 F500
G1 X17.916 Y-2.363 Z-0.694 F500
G1 X17.916 Y-2.310 Z-0.700 F500
G1 X17.916 Y-2.000 Z-0.700 F500
G1 X17.916 Y41.000 Z-0.700 F500
G1 X17.916 Y41.053 Z-0.694 F500
G1 X17.916 Y41.103 Z-0.676 F500
G1 X17.916 Y41.149 Z-0.648 F500
G1 X17.916 Y41.186 Z-0.610 F500
G1 X17.916 Y41.215 Z-0.565 F500
G1 X17.916 Y41.232 Z-0.515 F500
G1 X17.916 Y41.238 Z-0.462 F500
G1 X17.916 Y41.238 Z1.000 F500
G1 X19.385 Y-2.549 Z1.000 F500
G1 X19.385 Y-2.549 Z0.000 F500
G1 X19.385 Y-2.549 Z-0.462 F100
G1 X19.385 Y-2.543 Z-0.515 F500
G1 X19.385 Y-2.525 Z-0.565 F500
G1 X19.385 Y-2.497 Z-0.610 F500
G1 X19.385 Y-2.459 Z-0.648 F500
G1 X19.385 Y-2.414 Z-0.676 F500
G1 X19.385 Y-2.363 Z-0.694 F500
G1 X19.385 Y-2.310 Z-0.700 F500
G1 X19.385 Y-2.000 Z-0.700 F500
G1 X19.385 Y41.000 Z-0.700 F500
G1 X19.385 Y41.053 Z-0.694 F500
G1 X19.385 Y41.103 Z-0.676 F500
G1 X19.385 Y41.149 Z-0.648 F500
G1 X19.385 Y41.186 Z-0.610 F500
G1 X19.385 Y41.215 Z-0.565 F500
G1 X19.385 Y41.232 Z-0.515 F500
G1 X19.385 Y41.238 Z-0.462 F500
G1 X19.385 Y41.238 Z1.000 F500
G1 X20.853 Y-2.549 Z1.000 F500
G1 X20.853 Y-2.549 Z0.000 F500
G1 X20.853 Y-2.549 Z-0.462 F100
G1 X20.853 Y-2.543 Z-0.515 F500
G1 X20.853 Y-2.525 Z-0.565 F500
G1 X20.853 Y-2.497 Z-0.610 F500
G1 X20.853 Y-2.459 Z-0.648 F500
G1 X20.853 Y-2.414 Z-0.676 F500
G1 X20.853 Y-2.363 Z-0.694 F500
G1 X20.853 Y-2.310 Z-0.700 F500
G1 X20.853 Y-2.000 Z-0.700 F500
G1 X20.853 Y41.000 Z-0.700 F500
G1 X20.853 Y41.053 Z-0.694 F500
G1 X20.853 Y41.103 Z-0.676 F500
G1 X20.853 Y41.149 Z-0.648 F500
G1 X20.853 Y41.186 Z-0.610 F500
G1 X20.853 Y41.215 Z-0.565 F500
G1 X20.853 Y41.232 Z-0.515 F500
G1 X20.853 Y41.238 Z-0.462 F500
G1 X20.853 Y41.238 Z1.000 F500
G1 X0.292 Y-2.549 Z1.000 F500
G1 X0.292 Y-2.549 Z0.000 F500
G1 X0.292 Y-2.549 Z-0.562 F100
G1 X0.292 Y-2.543 Z-0.615 F500
G1 X0.292 Y-2.525 Z-0.665 F500
G1 X0.292 Y-2.497 Z-0.710 F500
G1 X0.292 Y-2.459 Z-0.748 F500
G1 X0.292 Y-2.414 Z-0.776 F500
G1 X0.292 Y-2.363 Z-0.794 F500
G1 X0.292 Y-2.310 Z-0.800 F500
G1 X0.292 Y-2.000 Z-0.800 F500
G1 X0.292 Y41.000 Z-0.800 F500
G1 X0.292 Y41.053 Z-0.794 F500
G1 X0.292 Y41.103 Z-0.776 F500
G1 X0.292 Y41.149 Z-0.748 F500
G1 X0.292 Y41.186 Z-0.710 F500
G1 X0.292 Y41.215 Z-0.665 F500
G1 X0.292 Y41.232 Z-0.615 F500
G1 X0.292 Y41.238 Z-0.562 F500
G1 X0.292 Y41.238 Z1.000 F500
G1 X1.761 Y-2.549 Z1.000 F500
G1 X1.761 Y-2.549 Z0.000 F500
G1 X1.761 Y-2.549 Z-0.562 F100
G1 X1.761 Y-2.543 Z-0.615 F500
G1 X1.761 Y-2.525 Z-0.665 F500
G1 X1.761 Y-2.497 Z-0.710 F500
G1 X1.761 Y-2.459 Z-0.748 F500
G1 X1.761 Y-2.414 Z-0.776 F500
G1 X1.761 Y-2.363 Z-0.794 F500
G1 X1.761 Y-2.310 Z-0.800 F500
G1 X1.761 Y-2.000 Z-0.800 F500
G1 X1.761 Y41.000 Z-0.800 F500
G1 X1.761 Y41.053 Z-0.794 F500
G1 X1.761 Y41.103 Z-0.776 F500
G1 X1.761 Y41.149 Z-0.748 F500
G1 X1.761 Y41.186 Z-0.710 F500
G1 X1.761 Y41.215 Z-0.665 F500
G1 X1.761 Y41.232 Z-0.615 F500
G1 X1.761 Y41.238 Z-0.562 F500
G1 X1.761 Y41.238 Z1.000 F500
G1 X3.230 Y-2.549 Z1.000 F500
G1 X3.230 Y-2.549 Z0.000 F500
G1 X3.230 Y-2.549 Z-0.562 F100
G1 X3.230 Y-2.543 Z-0.615 F500
G1 X3.230 Y-2.525 Z-0.665 F500
G1 X3.230 Y-2.497 Z-0.710 F500
G1 X3.230 Y-2.459 Z-0.748 F500
G1 X3.230 Y-2.414 Z-0.776 F500
G1 X3.230 Y-2.363 Z-0.794 F500
G1 X3.230 Y-2.310 Z-0.800 F500
G1 X3.230 Y-2.000 Z-0.800 F500
G1 X3.230 Y41.000 Z-0.800 F500
G1 X3.230 Y41.053 Z-0.794 F500
G1 X3.230 Y41.103 Z-0.776 F500
G1 X3.230 Y41.149 Z-0.748 F500
G1 X3.230 Y41.186 Z-0.710 F500
G1 X3.230 Y41.215 Z-0.665 F500
G1 X3.230 Y41.232 Z-0.615 F500
G1 X3.230 Y41.238 Z-0.562 F500
G1 X3.230 Y41.238 Z1.000 F500
G1 X4.698 Y-2.549 Z1.000 F500
G1 X4.698 Y-2.549 Z0.000 F500
G1 X4.698 Y-2.549 Z-0.562 F100
G1 X4.698 Y-2.543 Z-0.615 F500
G1 X4.698 Y-2.525 Z-0.665 F500
G1 X4.698 Y-2.497 Z-0.710 F500
G1 X4.698 Y-2.459 Z-0.748 F500
G1 X4.698 Y-2.414 Z-0.776 F500
G1 X4.698 Y-2.363 Z-0.794 F500
G1 X4.698 Y-2.310 Z-0.800 F500
G1 X4.698 Y-2.000 Z-0.800 F500
G1 X4.698 Y41.000 Z-0.800 F500
G1 X4.698 Y41.053 Z-0.794 F500
G1 X4.698 Y41.103 Z-0.776 F500
G1 X4.698 Y41.149 Z-0.748 F500
G1 X4.698 Y41.186 Z-0.710 F500
G1 X4.698 Y41.215 Z-0.665 F500
G1 X4.698 Y41.232 Z-0.615 F500
G1 X4.698 Y41.238 Z-0.562 F500
G1 X4.698 Y41.238 Z1.000 F500
G1 X6.167 Y-2.549 Z1.000 F500
G1 X6.167 Y-2.549 Z0.000 F500
G1 X6.167 Y-2.549 Z-0.562 F100
G1 X6.167 Y-2.543 Z-0.615 F500
G1 X6.167 Y-2.525 Z-0.665 F500
G1 X6.167 Y-2.497 Z-0.710 F500
G1 X6.167 Y-2.459 Z-0.748 F500
G1 X6.167 Y-2.414 Z-0.776 F500
G1 X6.167 Y-2.363 Z-0.794 F500
G1 X6.167 Y-2.310 Z-0.800 F500
G1 X6.167 Y-2.000 Z-0.800 F500
G1 X6.167 Y41.000 Z-0.800 F500
G1 X6.167 Y41.053 Z-0.794 F500
G1 X6.167 Y41.103 Z-0.776 F500
G1 X6.167 Y41.149 Z-0.748 F500
G1 X6.167 Y41.186 Z-0.710 F500
G1 X6.167 Y41.215 Z-0.665 F500
G1 X6.167 Y41.232 Z-0.615 F500
G1 X6.167 Y41.238 Z-0.562 F500
G1 X6.167 Y41.238 Z1.000 F500
G1 X7.636 Y-2.549 Z1.000 F500
G1 X7.636 Y-2.549 Z0.000 F500
G1 X7.636 Y-2.549 Z-0.562 F100
G1 X7.636 Y-2.543 Z-0.615 F500
G1 X7.636 Y-2.525 Z-0.665 F500
G1 X7.636 Y-2.497 Z-0.710 F500
G1 X7.636 Y-2.459 Z-0.748 F500
G1 X7.636 Y-2.414 Z-0.776 F500
G1 X7.636 Y-2.363 Z-0.794 F500
G1 X7.636 Y-2.310 Z-0.800 F500
G1 X7.636 Y-2.000 Z-0.800 F500
G1 X7.636 Y41.000 Z-0.800 F500
G1 X7.636 Y41.053 Z-0.794 F500
G1 X7.636 Y41.103 Z-0.776 F500
G1 X7.636 Y41.149 Z-0.748 F500
G1 X7.636 Y41.186 Z-0.710 F500
G1 X7.636 Y41.215 Z-0.665 F500
G1 X7.636 Y41.232 Z-0.615 F500
G1 X7.636 Y41.238 Z-0.562 F500
G1 X7.636 Y41.238 Z1.000 F500
G1 X9.104 Y-2.549 Z1.000 F500
G1 X9.104 Y-2.549 Z0.000 F500
G1 X9.104 Y-2.549 Z-0.562 F100
G1 X9.104 Y-2.543 Z-0.615 F500
G1 X9.104 Y-2.525 Z-0.665 F500
G1 X9.104 Y-2.497 Z-0.710 F500
G1 X9.104 Y-2.459 Z-0.748 F500
G1 X9.104 Y-2.414 Z-0.776 F500
G1 X9.104 Y-2.363 Z-0.794 F500
G1 X9.104 Y-2.310 Z-0.800 F500
G1 X9.104 Y-2.000 Z-0.800 F500
G1 X9.104 Y41.000 Z-0.800 F500
G1 X9.104 Y41.053 Z-0.794 F500
G1 X9.104 Y41.103 Z-0.776 F500
G1 X9.104 Y41.149 Z-0.748 F500
G1 X9.104 Y41.186 Z-0.710 F500
G1 X9.104 Y41.215 Z-0.665 F500
G1 X9.104 Y41.232 Z-0.615 F500
G1 X9.104 Y41.238 Z-0.562 F500
G1 X9.104 Y41.238 Z1.000 F500
G1 X10.573 Y-2.549 Z1.000 F500
G1 X10.573 Y-2.549 Z0.000 F500
G1 X10.573 Y-2.549 Z-0.562 F100
G1 X10.573 Y-2.543 Z-0.615 F500
G1 X10.573 Y-2.525 Z-0.665 F500
G1 X10.573 Y-2.497 Z-0.710 F500
G1 X10.573 Y-2.459 Z-0.748 F500
G1 X10.573 Y-2.414 Z-0.776 F500
G1 X10.573 Y-2.363 Z-0.794 F500
G1 X10.573 Y-2.310 Z-0.800 F500
G1 X10.573 Y-2.000 Z-0.800 F500
G1 X10.573 Y41.000 Z-0.800 F500
G1 X10.573 Y41.053 Z-0.794 F500
G1 X10.573 Y41.103 Z-0.776 F500
G1 X10.573 Y41.149 Z-0.748 F500
G1 X10.573 Y41.186 Z-0.710 F500
G1 X10.573 Y41.215 Z-0.665 F500
G1 X10.573 Y41.232 Z-0.615 F500
G1 X10.573 Y41.238 Z-0.562 F500
G1 X10.573 Y41.238 Z1.000 F500
G1 X12.041 Y-2.549 Z1.000 F500
G1 X12.041 Y-2.549 Z0.000 F500
G1 X12.041 Y-2.549 Z-0.562 F100
G1 X12.041 Y-2.543 Z-0.615 F500
G1 X12.041 Y-2.525 Z-0.665 F500
G1 X12.041 Y-2.497 Z-0.710 F500
G1 X12.041 Y-2.459 Z-0.748 F500
G1 X12.041 Y-2.414 Z-0.776 F500
G1 X12.041 Y-2.363 Z-0.794 F500
G1 X12.041 Y-2.310 Z-0.800 F500
G1 X12.041 Y-2.000 Z-0.800 F500
G1 X12.041 Y41.000 Z-0.800 F500
G1 X12.041 Y41.053 Z-0.794 F500
G1 X12.041 Y41.103 Z-0.776 F500
G1 X12.041 Y41.149 Z-0.748 F500
G1 X12.041 Y41.186 Z-0.710 F500
G1 X12.041 Y41.215 Z-0.665 F500
G1 X12.041 Y41.232 Z-0.615 F500
G1 X12.041 Y41.238 Z-0.562 F500
G1 X12.041 Y41.238 Z1.000 F500
G1 X13.510 Y-2.549 Z1.000 F500
G1 X13.510 Y-2.549 Z0.000 F500
G1 X13.510 Y-2.549 Z-0.562 F100
G1 X13.510 Y-2.543 Z-0.615 F500
G1 X13.510 Y-2.525 Z-0.665 F500
G1 X13.510 Y-2.497 Z-0.710 F500
G1 X13.510 Y-2.459 Z-0.748 F500
G1 X13.510 Y-2.414 Z-0.776 F500
G1 X13.510 Y-2.363 Z-0.794 F500
G1 X13.510 Y-2.310 Z-0.800 F500
G1 X13.510 Y-2.000 Z-0.800 F500
G1 X13.510 Y41.000 Z-0.800 F500
G1 X13.510 Y41.053 Z-0.794 F500
G1 X13.510 Y41.103 Z-0.776 F500
G1 X13.510 Y41.149 Z-0.748 F500
G1 X13.510 Y41.186 Z-0.710 F500
G1 X13.510 Y41.215 Z-0.665 F500
G1 X13.510 Y41.232 Z-0.615 F500
G1 X13.510 Y41.238 Z-0.562 F500
G1 X13.510 Y41.238 Z1.000 F500
G1 X14.979 Y-2.549 Z1.000 F500
G1 X14.979 Y-2.549 Z0.000 F500
G1 X14.979 Y-2.549 Z-0.562 F100
G1 X14.979 Y-2.543 Z-0.615 F500
G1 X14.979 Y-2.525 Z-0.665 F500
G1 X14.979 Y-2.497 Z-0.710 F500
G1 X14.979 Y-2.459 Z-0.748 F500
G1 X14.979 Y-2.414 Z-0.776 F500
G1 X14.979 Y-2.363 Z-0.794 F500
G1 X14.979 Y-2.310 Z-0.800 F500
G1 X14.979 Y-2.000 Z-0.800 F500
G1 X14.979 Y41.000 Z-0.800 F500
G1 X14.979 Y41.053 Z-0.794 F500
G1 X14.979 Y41.103 Z-0.776 F500
G1 X14.979 Y41.149 Z-0.748 F500
G1 X14.979 Y41.186 Z-0.710 F500
G1 X14.979 Y41.215 Z-0.665 F500
G1 X14.979 Y41.232 Z-0.615 F500
G1 X14.979 Y41.238 Z-0.562 F500
G1 X14.979 Y41.238 Z1.000 F500
G1 X16.447 Y-2.549 Z1.000 F500
G1 X16.447 Y-2.549 Z0.000 F500
G1 X16.447 Y-2.549 Z-0.562 F100
G1 X16.447 Y-2.543 Z-0.615 F500
G1 X16.447 Y-2.525 Z-0.665 F500
G1 X16.447 Y-2.497 Z-0.710 F500
G1 X16.447 Y-2.459 Z-0.748 F500
G1 X16.447 Y-2.414 Z-0.776 F500
G1 X16.447 Y-2.363 Z-0.794 F500
G1 X16.447 Y-2.310 Z-0.800 F500
G1 X16.447 Y-2.000 Z-0.800 F500
G1 X16.447 Y41.000 Z-0.800 F500
G1 X16.447 Y41.053 Z-0.794 F500
G1 X16.447 Y41.103 Z-0.776 F500
G1 X16.447 Y41.149 Z-0.748 F500
G1 X16.447 Y41.186 Z-0.710 F500
G1 X16.447 Y41.215 Z-0.665 F500
G1 X16.447 Y41.232 Z-0.615 F500
G1 X16.447 Y41.238 Z-0.562 F500
G1 X16.447 Y41.238 Z1.000 F500
G1 X17.916 Y-2.549 Z1.000 F500
G1 X17.916 Y-2.549 Z0.000 F500
G1 X17.916 Y-2.549 Z-0.562 F100
G1 X17.916 Y-2.543 Z-0.615 F500
G1 X17.916 Y-2.525 Z-0.665 F500
G1 X17.916 Y-2.497 Z-0.710 F500
G1 X17.916 Y-2.459 Z-0.748 F500
G1 X17.916 Y-2.414 Z-0.776 F500
G1 X17.916 Y-2.363 Z-0.794 F500
G1 X17.916 Y-2.310 Z-0.800 F500
G1 X17.916 Y-2.000 Z-0.800 F500
G1 X17.916 Y41.000 Z-0.800 F500
G1 X17.916 Y41.053 Z-0.794 F500
G1 X17.916 Y41.103 Z-0.776 F500
G1 X17.916 Y41.149 Z-0.748 F500
G1 X17.916 Y41.186 Z-0.710 F500
G1 X17.916 Y41.215 Z-0.665 F500
G1 X17.916 Y41.232 Z-0.615 F500
G1 X17.916 Y41.238 Z-0.562 F500
G1 X17.916 Y41.238 Z1.000 F500
G1 X19.385 Y-2.549 Z1.000 F500
G1 X19.385 Y-2.549 Z0.000 F500
G1 X19.385 Y-2.549 Z-0.562 F100
G1 X19.385 Y-2.543 Z-0.615 F500
G1 X19.385 Y-2.525 Z-0.665 F500
G1 X19.385 Y-2.497 Z-0.710 F500
G1 X19.385 Y-2.459 Z-0.748 F500
G1 X19.385 Y-2.414 Z-0.776 F500
G1 X19.385 Y-2.363 Z-0.794 F500
G1 X19.385 Y-2.310 Z-0.800 F500
G1 X19.385 Y-2.000 Z-0.800 F500
G1 X19.385 Y41.000 Z-0.800 F500
G1 X19.385 Y41.053 Z-0.794 F500
G1 X19.385 Y41.103 Z-0.776 F500
G1 X19.385 Y41.149 Z-0.748 F500
G1 X19.385 Y41.186 Z-0.710 F500
G1 X19.385 Y41.215 Z-0.665 F500
G1 X19.385 Y41.232 Z-0.615 F500
G1 X19.385 Y41.238 Z-0.562 F500
G1 X19.385 Y41.238 Z1.000 F500
G1 X20.853 Y-2.549 Z1.000 F500
G1 X20.853 Y-2.549 Z0.000 F500
G1 X20.853 Y-2.549 Z-0.562 F100
G1 X20.853 Y-2.543 Z-0.615 F500
G1 X20.853 Y-2.525 Z-0.665 F500
G1 X20.853 Y-2.497 Z-0.710 F500
G1 X20.853 Y-2.459 Z-0.748 F500
G1 X20.853 Y-2.414 Z-0.776 F500
G1 X20.853 Y-2.363 Z-0.794 F500
G1 X20.853 Y-2.310 Z-0.800 F500
G1 X20.853 Y-2.000 Z-0.800 F500
G1 X20.853 Y41.000 Z-0.800 F500
G1 X20.853 Y41.053 Z-0.794 F500
G1 X20.853 Y41.103 Z-0.776 F500
G1 X20.853 Y41.149 Z-0.748 F500
G1 X20.853 Y41.186 Z-0.710 F500
G1 X20.853 Y41.215 Z-0.665 F500
G1 X20.853 Y41.232 Z-0.615 F500
G1 X20.853 Y41.238 Z-0.562 F500
G1 X20.853 Y41.238 Z1.000 F500
G1 X0.292 Y-2.549 Z1.000 F500
G1 X0.292 Y-2.549 Z0.000 F500
G1 X0.292 Y-2.549 Z-0.662 F100
G1 X0.292 Y-2.543 Z-0.715 F500
G1 X0.292 Y-2.525 Z-0.765 F500
G1 X0.292 Y-2.497 Z-0.810 F500
G1 X0.292 Y-2.459 Z-0.848 F500
G1 X0.292 Y-2.414 Z-0.876 F500
G1 X0.292 Y-2.363 Z-0.894 F500
G1 X0.292 Y-2.310 Z-0.900 F500
G1 X0.292 Y-2.000 Z-0.900 F500
G1 X0.292 Y41.000 Z-0.900 F500
G1 X0.292 Y41.053 Z-0.894 F500
G1 X0.292 Y41.103 Z-0.876 F500
G1 X0.292 Y41.149 Z-0.848 F500
G1 X0.292 Y41.186 Z-0.810 F500
G1 X0.292 Y41.215 Z-0.765 F500
G1 X0.292 Y41.232 Z-0.715 F500
G1 X0.292 Y41.238 Z-0.662 F500
G1 X0.292 Y41.238 Z1.000 F500
G1 X1.761 Y-2.549 Z1.000 F500
G1 X1.761 Y-2.549 Z0.000 F500
G1 X1.761 Y-2.549 Z-0.662 F100
G1 X1.761 Y-2.543 Z-0.715 F500
G1 X1.761 Y-2.525 Z-0.765 F500
G1 X1.761 Y-2.497 Z-0.810 F500
G1 X1.761 Y-2.459 Z-0.848 F500
G1 X1.761 Y-2.414 Z-0.876 F500
G1 X1.761 Y-2.363 Z-0.894 F500
G1 X1.761 Y-2.310 Z-0.900 F500
G1 X1.761 Y-2.000 Z-0.900 F500
G1 X1.761 Y41.000 Z-0.900 F500
G1 X1.761 Y41.053 Z-0.894 F500
G1 X1.761 Y41.103 Z-0.876 F500
G1 X1.761 Y41.149 Z-0.848 F500
G1 X1.761 Y41.186 Z-0.810 F500
G1 X1.761 Y41.215 Z-0.765 F500
G1 X1.761 Y41.232 Z-0.715 F500
G1 X1.761 Y41.238 Z-0.662 F500
G1 X1.761 Y41.238 Z1.000 F500
G1 X3.230 Y-2.549 Z1.000 F500
G1 X3.230 Y-2.549 Z0.000 F500
G1 X3.230 Y-2.549 Z-0.662 F100
G1 X3.230 Y-2.543 Z-0.715 F500
G1 X3.230 Y-2.525 Z-0.765 F500
G1 X3.230 Y-2.497 Z-0.810 F500
G1 X3.230 Y-2.459 Z-0.848 F500
G1 X3.230 Y-2.414 Z-0.876 F500
G1 X3.230 Y-2.363 Z-0.894 F500
G1 X3.230 Y-2.310 Z-0.900 F500
G1 X3.230 Y-2.000 Z-0.900 F500
G1 X3.230 Y41.000 Z-0.900 F500
G1 X3.230 Y41.053 Z-0.894 F500
G1 X3.230 Y41.103 Z-0.876 F500
G1 X3.230 Y41.149 Z-0.848 F500
G1 X3.230 Y41.186 Z-0.810 F500
G1 X3.230 Y41.215 Z-0.765 F500
G1 X3.230 Y41.232 Z-0.715 F500
G1 X3.230 Y41.238 Z-0.662 F500
G1 X3.230 Y41.238 Z1.000 F500
G1 X4.698 Y-2.549 Z1.000 F500
G1 X4.698 Y-2.549 Z0.000 F500
G1 X4.698 Y-2.549 Z-0.662 F100
G1 X4.698 Y-2.543 Z-0.715 F500
G1 X4.698 Y-2.525 Z-0.765 F500
G1 X4.698 Y-2.497 Z-0.810 F500
G1 X4.698 Y-2.459 Z-0.848 F500
G1 X4.698 Y-2.414 Z-0.876 F500
G1 X4.698 Y-2.363 Z-0.894 F500
G1 X4.698 Y-2.310 Z-0.900 F500
G1 X4.698 Y-2.000 Z-0.900 F500
G1 X4.698 Y41.000 Z-0.900 F500
G1 X4.698 Y41.053 Z-0.894 F500
G1 X4.698 Y41.103 Z-0.876 F500
G1 X4.698 Y41.149 Z-0.848 F500
G1 X4.698 Y41.186 Z-0.810 F500
G1 X4.698 Y41.215 Z-0.765 F500
G1 X4.698 Y41.232 Z-0.715 F500
G1 X4.698 Y41.238 Z-0.662 F500
G1 X4.698 Y41.238 Z1.000 F500
G1 X6.167 Y-2.549 Z1.000 F500
G1 X6.167 Y-2.549 Z0.000 F500
G1 X6.167 Y-2.549 Z-0.662 F100
G1 X6.167 Y-2.543 Z-0.715 F500
G1 X6.167 Y-2.525 Z-0.765 F500
G1 X6.167 Y-2.497 Z-0.810 F500
G1 X6.167 Y-2.459 Z-0.848 F500
G1 X6.167 Y-2.414 Z-0.876 F500
G1 X6.167 Y-2.363 Z-0.894 F500
G1 X6.167 Y-2.310 Z-0.900 F500
G1 X6.167 Y-2.000 Z-0.900 F500
G1 X6.167 Y41.000 Z-0.900 F500
G1 X6.167 Y41.053 Z-0.894 F500
G1 X6.167 Y41.103 Z-0.876 F500
G1 X6.167 Y41.149 Z-0.848 F500
G1 X6.167 Y41.186 Z-0.810 F500
G1 X6.167 Y41.215 Z-0.765 F500
G1 X6.167 Y41.232 Z-0.715 F500
G1 X6.167 Y41.238 Z-0.662 F500
G1 X6.167 Y41.238 Z1.000 F500
G1 X7.636 Y-2.549 Z1.000 F500
G1 X7.636 Y-2.549 Z0.000 F500
G1 X7.636 Y-2.549 Z-0.662 F100
G1 X7.636 Y-2.543 Z-0.715 F500
G1 X7.636 Y-2.525 Z-0.765 F500
G1 X7.636 Y-2.497 Z-0.810 F500
G1 X7.636 Y-2.459 Z-0.848 F500
G1 X7.636 Y-2.414 Z-0.876 F500
G1 X7.636 Y-2.363 Z-0.894 F500
G1 X7.636 Y-2.310 Z-0.900 F500
G1 X7.636 Y-2.000 Z-0.900 F500
G1 X7.636 Y41.000 Z-0.900 F500
G1 X7.636 Y41.053 Z-0.894 F500
G1 X7.636 Y41.103 Z-0.876 F500
G1 X7.636 Y41.149 Z-0.848 F500
G1 X7.636 Y41.186 Z-0.810 F500
G1 X7.636 Y41.215 Z-0.765 F500
G1 X7.636 Y41.232 Z-0.715 F500
G1 X7.636 Y41.238 Z-0.662 F500
G1 X7.636 Y41.238 Z1.000 F500
G1 X9.104 Y-2.549 Z1.000 F500
G1 X9.104 Y-2.549 Z0.000 F500
G1 X9.104 Y-2.549 Z-0.662 F100
G1 X9.104 Y-2.543 Z-0.715 F500
G1 X9.104 Y-2.525 Z-0.765 F500
G1 X9.104 Y-2.497 Z-0.810 F500
G1 X9.104 Y-2.459 Z-0.848 F500
G1 X9.104 Y-2.414 Z-0.876 F500
G1 X9.104 Y-2.363 Z-0.894 F500
G1 X9.104 Y-2.310 Z-0.900 F500
G1 X9.104 Y-2.000 Z-0.900 F500
G1 X9.104 Y41.000 Z-0.900 F500
G1 X9.104 Y41.053 Z-0.894 F500
G1 X9.104 Y41.103 Z-0.876 F500
G1 X9.104 Y41.149 Z-0.848 F500
G1 X9.104 Y41.186 Z-0.810 F500
G1 X9.104 Y41.215 Z-0.765 F500
G1 X9.104 Y41.232 Z-0.715 F500
G1 X9.104 Y41.238 Z-0.662 F500
G1 X9.104 Y41.238 Z1.000 F500
G1 X10.573 Y-2.549 Z1.000 F500
G1 X10.573 Y-2.549 Z0.000 F500
G1 X10.573 Y-2.549 Z-0.662 F100
G1 X10.573 Y-2.543 Z-0.715 F500
G1 X10.573 Y-2.525 Z-0.765 F500
G1 X10.573 Y-2.497 Z-0.810 F500
G1 X10.573 Y-2.459 Z-0.848 F500
G1 X10.573 Y-2.414 Z-0.876 F500
G1 X10.573 Y-2.363 Z-0.894 F500
G1 X10.573 Y-2.310 Z-0.900 F500
G1 X10.573 Y-2.000 Z-0.900 F500
G1 X10.573 Y41.000 Z-0.900 F500
G1 X10.573 Y41.053 Z-0.894 F500
G1 X10.573 Y41.103 Z-0.876 F500
G1 X10.573 Y41.149 Z-0.848 F500
G1 X10.573 Y41.186 Z-0.810 F500
G1 X10.573 Y41.215 Z-0.765 F500
G1 X10.573 Y41.232 Z-0.715 F500
G1 X10.573 Y41.238 Z-0.662 F500
G1 X10.573 Y41.238 Z1.000 F500
G1 X12.041 Y-2.549 Z1.000 F500
G1 X12.041 Y-2.549 Z0.000 F500
G1 X12.041 Y-2.549 Z-0.662 F100
G1 X12.041 Y-2.543 Z-0.715 F500
G1 X12.041 Y-2.525 Z-0.765 F500
G1 X12.041 Y-2.497 Z-0.810 F500
G1 X12.041 Y-2.459 Z-0.848 F500
G1 X12.041 Y-2.414 Z-0.876 F500
G1 X12.041 Y-2.363 Z-0.894 F500
G1 X12.041 Y-2.310 Z-0.900 F500
G1 X12.041 Y-2.000 Z-0.900 F500
G1 X12.041 Y41.000 Z-0.900 F500
G1 X12.041 Y41.053 Z-0.894 F500
G1 X12.041 Y41.103 Z-0.876 F500
G1 X12.041 Y41.149 Z-0.848 F500
G1 X12.041 Y41.186 Z-0.810 F500
G1 X12.041 Y41.215 Z-0.765 F500
G1 X12.041 Y41.232 Z-0.715 F500
G1 X12.041 Y41.238 Z-0.662 F500
G1 X12.041 Y41.238 Z1.000 F500
G1 X13.510 Y-2.549 Z1.000 F500
G1 X13.510 Y-2.549 Z0.000 F500
G1 X13.510 Y-2.549 Z-0.662 F100
G1 X13.510 Y-2.543 Z-0.715 F500
G1 X13.510 Y-2.525 Z-0.765 F500
G1 X13.510 Y-2.497 Z-0.810 F500
G1 X13.510 Y-2.459 Z-0.848 F500
G1 X13.510 Y-2.414 Z-0.876 F500
G1 X13.510 Y-2.363 Z-0.894 F500
G1 X13.510 Y-2.310 Z-0.900 F500
G1 X13.510 Y-2.000 Z-0.900 F500
G1 X13.510 Y41.000 Z-0.900 F500
G1 X13.510 Y41.053 Z-0.894 F500
G1 X13.510 Y41.103 Z-0.876 F500
G1 X13.510 Y41.149 Z-0.848 F500
G1 X13.510 Y41.186 Z-0.810 F500
G1 X13.510 Y41.215 Z-0.765 F500
G1 X13.510 Y41.232 Z-0.715 F500
G1 X13.510 Y41.238 Z-0.662 F500
G1 X13.510 Y41.238 Z1.000 F500
G1 X14.979 Y-2.549 Z1.000 F500
G1 X14.979 Y-2.549 Z0.000 F500
G1 X14.979 Y-2.549 Z-0.662 F100
G1 X14.979 Y-2.543 Z-0.715 F500
G1 X14.979 Y-2.525 Z-0.765 F500
G1 X14.979 Y-2.497 Z-0.810 F500
G1 X14.979 Y-2.459 Z-0.848 F500
G1 X14.979 Y-2.414 Z-0.876 F500
G1 X14.979 Y-2.363 Z-0.894 F500
G1 X14.979 Y-2.310 Z-0.900 F500
G1 X14.979 Y-2.000 Z-0.900 F500
G1 X14.979 Y41.000 Z-0.900 F500
G1 X14.979 Y41.053 Z-0.894 F500
G1 X14.979 Y41.103 Z-0.876 F500
G1 X14.979 Y41.149 Z-0.848 F500
G1 X14.979 Y41.186 Z-0.810 F500
G1 X14.979 Y41.215 Z-0.765 F500
G1 X14.979 Y41.232 Z-0.715 F500
G1 X14.979 Y41.238 Z-0.662 F500
G1 X14.979 Y41.238 Z1.000 F500
G1 X16.447 Y-2.549 Z1.000 F500
G1 X16.447 Y-2.549 Z0.000 F500
G1 X16.447 Y-2.549 Z-0.662 F100
G1 X16.447 Y-2.543 Z-0.715 F500
G1 X16.447 Y-2.525 Z-0.765 F500
G1 X16.447 Y-2.497 Z-0.810 F500
G1 X16.447 Y-2.459 Z-0.848 F500
G1 X16.447 Y-2.414 Z-0.876 F500
G1 X16.447 Y-2.363 Z-0.894 F500
G1 X16.447 Y-2.310 Z-0.900 F500
G1 X16.447 Y-2.000 Z-0.900 F500
G1 X16.447 Y41.000 Z-0.900 F500
G1 X16.447 Y41.053 Z-0.894 F500
G1 X16.447 Y41.103 Z-0.876 F500
G1 X16.447 Y41.149 Z-0.848 F500
G1 X16.447 Y41.186 Z-0.810 F500
G1 X16.447 Y41.215 Z-0.765 F500
G1 X16.447 Y41.232 Z-0.715 F500
G1 X16.447 Y41.238 Z-0.662 F500
G1 X16.447 Y41.238 Z1.000 F500
G1 X17.916 Y-2.549 Z1.000 F500
G1 X17.916 Y-2.549 Z0.000 F500
G1 X17.916 Y-2.549 Z-0.662 F100
G1 X17.916 Y-2.543 Z-0.715 F500
G1 X17.916 Y-2.525 Z-0.765 F500
G1 X17.916 Y-2.497 Z-0.810 F500
G1 X17.916 Y-2.459 Z-0.848 F500
G1 X17.916 Y-2.414 Z-0.876 F500
G1 X17.916 Y-2.363 Z-0.894 F500
G1 X17.916 Y-2.310 Z-0.900 F500
G1 X17.916 Y-2.000 Z-0.900 F500
G1 X17.916 Y41.000 Z-0.900 F500
G1 X17.916 Y41.053 Z-0.894 F500
G1 X17.916 Y41.103 Z-0.876 F500
G1 X17.916 Y41.149 Z-0.848 F500
G1 X17.916 Y41.186 Z-0.810 F500
G1 X17.916 Y41.215 Z-0.765 F500
G1 X17.916 Y41.232 Z-0.715 F500
G1 X17.916 Y41.238 Z-0.662 F500
G1 X17.916 Y41.238 Z1.000 F500
G1 X19.385 Y-2.549 Z1.000 F500
G1 X19.385 Y-2.549 Z0.000 F500
G1 X19.385 Y-2.549 Z-0.662 F100
G1 X19.385 Y-2.543 Z-0.715 F500
G1 X19.385 Y-2.525 Z-0.765 F500
G1 X19.385 Y-2.497 Z-0.810 F500
G1 X19.385 Y-2.459 Z-0.848 F500
G1 X19.385 Y-2.414 Z-0.876 F500
G1 X19.385 Y-2.363 Z-0.894 F500
G1 X19.385 Y-2.310 Z-0.900 F500
G1 X19.385 Y-2.000 Z-0.900 F500
G1 X19.385 Y41.000 Z-0.900 F500
G1 X19.385 Y41.053 Z-0.894 F500
G1 X19.385 Y41.103 Z-0.876 F500
G1 X19.385 Y41.149 Z-0.848 F500
G1 X19.385 Y41.186 Z-0.810 F500
G1 X19.385 Y41.215 Z-0.765 F500
G1 X19.385 Y41.232 Z-0.715 F500
G1 X19.385 Y41.238 Z-0.662 F500
G1 X19.385 Y41.238 Z1.000 F500
G1 X20.853 Y-2.549 Z1.000 F500
G1 X20.853 Y-2.549 Z0.000 F500
G1 X20.853 Y-2.549 Z-0.662 F100
G1 X20.853 Y-2.543 Z-0.715 F500
G1 X20.853 Y-2.525 Z-0.765 F500
G1 X20.853 Y-2.497 Z-0.810 F500
G1 X20.853 Y-2.459 Z-0.848 F500
G1 X20.853 Y-2.414 Z-0.876 F500
G1 X20.853 Y-2.363 Z-0.894 F500
G1 X20.853 Y-2.310 Z-0.900 F500
G1 X20.853 Y-2.000 Z-0.900 F500
G1 X20.853 Y41.000 Z-0.900 F500
G1 X20.853 Y41.053 Z-0.894 F500
G1 X20.853 Y41.103 Z-0.876 F500
G1 X20.853 Y41.149 Z-0.848 F500
G1 X20.853 Y41.186 Z-0.810 F500
G1 X20.853 Y41.215 Z-0.765 F500
G1 X20.853 Y41.232 Z-0.715 F500
G1 X20.853 Y41.238 Z-0.662 F500
G1 X20.853 Y41.238 Z1.000 F500
G1 X0.292 Y-2.549 Z1.000 F500
G1 X0.292 Y-2.549 Z0.000 F500
G1 X0.292 Y-2.549 Z-0.762 F100
G1 X0.292 Y-2.543 Z-0.815 F500
G1 X0.292 Y-2.525 Z-0.865 F500
G1 X0.292 Y-2.497 Z-0.910 F500
G1 X0.292 Y-2.459 Z-0.948 F500
G1 X0.292 Y-2.414 Z-0.976 F500
G1 X0.292 Y-2.363 Z-0.994 F500
G1 X0.292 Y-2.310 Z-1.000 F500
G1 X0.292 Y-2.000 Z-1.000 F500
G1 X0.292 Y41.000 Z-1.000 F500
G1 X0.292 Y41.053 Z-0.994 F500
G1 X0.292 Y41.103 Z-0.976 F500
G1 X0.292 Y41.149 Z-0.948 F500
G1 X0.292 Y41.186 Z-0.910 F500
G1 X0.292 Y41.215 Z-0.865 F500
G1 X0.292 Y41.232 Z-0.815 F500
G1 X0.292 Y41.238 Z-0.762 F500
G1 X0.292 Y41.238 Z1.000 F500
G1 X1.761 Y-2.549 Z1.000 F500
G1 X1.761 Y-2.549 Z0.000 F500
G1 X1.761 Y-2.549 Z-0.762 F100
G1 X1.761 Y-2.543 Z-0.815 F500
G1 X1.761 Y-2.525 Z-0.865 F500
G1 X1.761 Y-2.497 Z-0.910 F500
G1 X1.761 Y-2.459 Z-0.948 F500
G1 X1.761 Y-2.414 Z-0.976 F500
G1 X1.761 Y-2.363 Z-0.994 F500
G1 X1.761 Y-2.310 Z-1.000 F500
G1 X1.761 Y-2.000 Z-1.000 F500
G1 X1.761 Y41.000 Z-1.000 F500
G1 X1.761 Y41.053 Z-0.994 F500
G1 X1.761 Y41.103 Z-0.976 F500
G1 X1.761 Y41.149 Z-0.948 F500
G1 X1.761 Y41.186 Z-0.910 F500
G1 X1.761 Y41.215 Z-0.865 F500
G1 X1.761 Y41.232 Z-0.815 F500
G1 X1.761 Y41.238 Z-0.762 F500
G1 X1.761 Y41.238 Z1.000 F500
G1 X3.230 Y-2.549 Z1.000 F500
G1 X3.230 Y-2.549 Z0.000 F500
G1 X3.230 Y-2.549 Z-0.762 F100
G1 X3.230 Y-2.543 Z-0.815 F500
G1 X3.230 Y-2.525 Z-0.865 F500
G1 X3.230 Y-2.497 Z-0.910 F500
G1 X3.230 Y-2.459 Z-0.948 F500
G1 X3.230 Y-2.414 Z-0.976 F500
G1 X3.230 Y-2.363 Z-0.994 F500
G1 X3.230 Y-2.310 Z-1.000 F500
G1 X3.230 Y-2.000 Z-1.000 F500
G1 X3.230 Y41.000 Z-1.000 F500
G1 X3.230 Y41.053 Z-0.994 F500
G1 X3.230 Y41.103 Z-0.976 F500
G1 X3.230 Y41.149 Z-0.948 F500
G1 X3.230 Y41.186 Z-0.910 F500
G1 X3.230 Y41.215 Z-0.865 F500
G1 X3.230 Y41.232 Z-0.815 F500
G1 X3.230 Y41.238 Z-0.762 F500
G1 X3.230 Y41.238 Z1.000 F500
G1 X4.698 Y-2.549 Z1.000 F500
G1 X4.698 Y-2.549 Z0.000 F500
G1 X4.698 Y-2.549 Z-0.762 F100
G1 X4.698 Y-2.543 Z-0.815 F500
G1 X4.698 Y-2.525 Z-0.865 F500
G1 X4.698 Y-2.497 Z-0.910 F500
G1 X4.698 Y-2.459 Z-0.948 F500
G1 X4.698 Y-2.414 Z-0.976 F500
G1 X4.698 Y-2.363 Z-0.994 F500
G1 X4.698 Y-2.310 Z-1.000 F500
G1 X4.698 Y-2.000 Z-1.000 F500
G1 X4.698 Y41.000 Z-1.000 F500
G1 X4.698 Y41.053 Z-0.994 F500
G1 X4.698 Y41.103 Z-0.976 F500
G1 X4.698 Y41.149 Z-0.948 F500
G1 X4.698 Y41.186 Z-0.910 F500
G1 X4.698 Y41.215 Z-0.865 F500
G1 X4.698 Y41.232 Z-0.815 F500
G1 X4.698 Y41.238 Z-0.762 F500
G1 X4.698 Y41.238 Z1.000 F500
G1 X6.167 Y-2.549 Z1.000 F500
G1 X6.167 Y-2.549 Z0.000 F500
G1 X6.167 Y-2.549 Z-0.762 F100
G1 X6.167 Y-2.543 Z-0.815 F500
G1 X6.167 Y-2.525 Z-0.865 F500
G1 X6.167 Y-2.497 Z-0.910 F500
G1 X6.167 Y-2.459 Z-0.948 F500
G1 X6.167 Y-2.414 Z-0.976 F500
G1 X6.167 Y-2.363 Z-0.994 F500
G1 X6.167 Y-2.310 Z-1.000 F500
G1 X6.167 Y-2.000 Z-1.000 F500
G1 X6.167 Y41.000 Z-1.000 F500
G1 X6.167 Y41.053 Z-0.994 F500
G1 X6.167 Y41.103 Z-0.976 F500
G1 X6.167 Y41.149 Z-0.948 F500
G1 X6.167 Y41.186 Z-0.910 F500
G1 X6.167 Y41.215 Z-0.865 F500
G1 X6.167 Y41.232 Z-0.815 F500
G1 X6.167 Y41.238 Z-0.762 F500
G1 X6.167 Y41.238 Z1.000 F500
G1 X7.636 Y-2.549 Z1.000 F500
G1 X7.636 Y-2.549 Z0.000 F500
G1 X7.636 Y-2.549 Z-0.762 F100
G1 X7.636 Y-2.543 Z-0.815 F500
G1 X7.636 Y-2.525 Z-0.865 F500
G1 X7.636 Y-2.497 Z-0.910 F500
G1 X7.636 Y-2.459 Z-0.948 F500
G1 X7.636 Y-2.414 Z-0.976 F500
G1 X7.636 Y-2.363 Z-0.994 F500
G1 X7.636 Y-2.310 Z-1.000 F500
G1 X7.636 Y-2.000 Z-1.000 F500
G1 X7.636 Y41.000 Z-1.000 F500
G1 X7.636 Y41.053 Z-0.994 F500
G1 X7.636 Y41.103 Z-0.976 F500
G1 X7.636 Y41.149 Z-0.948 F500
G1 X7.636 Y41.186 Z-0.910 F500
G1 X7.636 Y41.215 Z-0.865 F500
G1 X7.636 Y41.232 Z-0.815 F500
G1 X7.636 Y41.238 Z-0.762 F500
G1 X7.636 Y41.238 Z1.000 F500
G1 X9.104 Y-2.549 Z1.000 F500
G1 X9.104 Y-2.549 Z0.000 F500
G1 X9.104 Y-2.549 Z-0.762 F100
G1 X9.104 Y-2.543 Z-0.815 F500
G1 X9.104 Y-2.525 Z-0.865 F500
G1 X9.104 Y-2.497 Z-0.910 F500
G1 X9.104 Y-2.459 Z-0.948 F500
G1 X9.104 Y-2.414 Z-0.976 F500
G1 X9.104 Y-2.363 Z-0.994 F500
G1 X9.104 Y-2.310 Z-1.000 F500
G1 X9.104 Y-2.000 Z-1.000 F500
G1 X9.104 Y41.000 Z-1.000 F500
G1 X9.104 Y41.053 Z-0.994 F500
G1 X9.104 Y41.103 Z-0.976 F500
G1 X9.104 Y41.149 Z-0.948 F500
G1 X9.104 Y41.186 Z-0.910 F500
G1 X9.104 Y41.215 Z-0.865 F500
G1 X9.104 Y41.232 Z-0.815 F500
G1 X9.104 Y41.238 Z-0.762 F500
G1 X9.104 Y41.238 Z1.000 F500
G1 X10.573 Y-2.549 Z1.000 F500
G1 X10.573 Y-2.549 Z0.000 F500
G1 X10.573 Y-2.549 Z-0.762 F100
G1 X10.573 Y-2.543 Z-0.815 F500
G1 X10.573 Y-2.525 Z-0.865 F500
G1 X10.573 Y-2.497 Z-0.910 F500
G1 X10.573 Y-2.459 Z-0.948 F500
G1 X10.573 Y-2.414 Z-0.976 F500
G1 X10.573 Y-2.363 Z-0.994 F500
G1 X10.573 Y-2.310 Z-1.000 F500
G1 X10.573 Y-2.000 Z-1.000 F500
G1 X10.573 Y41.000 Z-1.000 F500
G1 X10.573 Y41.053 Z-0.994 F500
G1 X10.573 Y41.103 Z-0.976 F500
G1 X10.573 Y41.149 Z-0.948 F500
G1 X10.573 Y41.186 Z-0.910 F500
G1 X10.573 Y41.215 Z-0.865 F500
G1 X10.573 Y41.232 Z-0.815 F500
G1 X10.573 Y41.238 Z-0.762 F500
G1 X10.573 Y41.238 Z1.000 F500
G1 X12.041 Y-2.549 Z1.000 F500
G1 X12.041 Y-2.549 Z0.000 F500
G1 X12.041 Y-2.549 Z-0.762 F100
G1 X12.041 Y-2.543 Z-0.815 F500
G1 X12.041 Y-2.525 Z-0.865 F500
G1 X12.041 Y-2.497 Z-0.910 F500
G1 X12.041 Y-2.459 Z-0.948 F500
G1 X12.041 Y-2.414 Z-0.976 F500
G1 X12.041 Y-2.363 Z-0.994 F500
G1 X12.041 Y-2.310 Z-1.000 F500
G1 X12.041 Y-2.000 Z-1.000 F500
G1 X12.041 Y41.000 Z-1.000 F500
G1 X12.041 Y41.053 Z-0.994 F500
G1 X12.041 Y41.103 Z-0.976 F500
G1 X12.041 Y41.149 Z-0.948 F500
G1 X12.041 Y41.186 Z-0.910 F500
G1 X12.041 Y41.215 Z-0.865 F500
G1 X12.041 Y41.232 Z-0.815 F500
G1 X12.041 Y41.238 Z-0.762 F500
G1 X12.041 Y41.238 Z1.000 F500
G1 X13.510 Y-2.549 Z1.000 F500
G1 X13.510 Y-2.549 Z0.000 F500
G1 X13.510 Y-2.549 Z-0.762 F100
G1 X13.510 Y-2.543 Z-0.815 F500
G1 X13.510 Y-2.525 Z-0.865 F500
G1 X13.510 Y-2.497 Z-0.910 F500
G1 X13.510 Y-2.459 Z-0.948 F500
G1 X13.510 Y-2.414 Z-0.976 F500
G1 X13.510 Y-2.363 Z-0.994 F500
G1 X13.510 Y-2.310 Z-1.000 F500
G1 X13.510 Y-2.000 Z-1.000 F500
G1 X13.510 Y41.000 Z-1.000 F500
G1 X13.510 Y41.053 Z-0.994 F500
G1 X13.510 Y41.103 Z-0.976 F500
G1 X13.510 Y41.149 Z-0.948 F500
G1 X13.510 Y41.186 Z-0.910 F500
G1 X13.510 Y41.215 Z-0.865 F500
G1 X13.510 Y41.232 Z-0.815 F500
G1 X13.510 Y41.238 Z-0.762 F500
G1 X13.510 Y41.238 Z1.000 F500
G1 X14.979 Y-2.549 Z1.000 F500
G1 X14.979 Y-2.549 Z0.000 F500
G1 X14.979 Y-2.549 Z-0.762 F100
G1 X14.979 Y-2.543 Z-0.815 F500
G1 X14.979 Y-2.525 Z-0.865 F500
G1 X14.979 Y-2.497 Z-0.910 F500
G1 X14.979 Y-2.459 Z-0.948 F500
G1 X14.979 Y-2.414 Z-0.976 F500
G1 X14.979 Y-2.363 Z-0.994 F500
G1 X14.979 Y-2.310 Z-1.000 F500
G1 X14.979 Y-2.000 Z-1.000 F500
G1 X14.979 Y41.000 Z-1.000 F500
G1 X14.979 Y41.053 Z-0.994 F500
G1 X14.979 Y41.103 Z-0.976 F500
G1 X14.979 Y41.149 Z-0.948 F500
G1 X14.979 Y41.186 Z-0.910 F500
G1 X14.979 Y41.215 Z-0.865 F500
G1 X14.979 Y41.232 Z-0.815 F500
G1 X14.979 Y41.238 Z-0.762 F500
G1 X14.979 Y41.238 Z1.000 F500
G1 X16.447 Y-2.549 Z1.000 F500
G1 X16.447 Y-2.549 Z0.000 F500
G1 X16.447 Y-2.549 Z-0.762 F100
G1 X16.447 Y-2.543 Z-0.815 F500
G1 X16.447 Y-2.525 Z-0.865 F500
G1 X16.447 Y-2.497 Z-0.910 F500
G1 X16.447 Y-2.459 Z-0.948 F500
G1 X16.447 Y-2.414 Z-0.976 F500
G1 X16.447 Y-2.363 Z-0.994 F500
G1 X16.447 Y-2.310 Z-1.000 F500
G1 X16.447 Y-2.000 Z-1.000 F500
G1 X16.447 Y41.000 Z-1.000 F500
G1 X16.447 Y41.053 Z-0.994 F500
G1 X16.447 Y41.103 Z-0.976 F500
G1 X16.447 Y41.149 Z-0.948 F500
G1 X16.447 Y41.186 Z-0.910 F500
G1 X16.447 Y41.215 Z-0.865 F500
G1 X16.447 Y41.232 Z-0.815 F500
G1 X16.447 Y41.238 Z-0.762 F500
G1 X16.447 Y41.238 Z1.000 F500
G1 X17.916 Y-2.549 Z1.000 F500
G1 X17.916 Y-2.549 Z0.000 F500
G1 X17.916 Y-2.549 Z-0.762 F100
G1 X17.916 Y-2.543 Z-0.815 F500
G1 X17.916 Y-2.525 Z-0.865 F500
G1 X17.916 Y-2.497 Z-0.910 F500
G1 X17.916 Y-2.459 Z-0.948 F500
G1 X17.916 Y-2.414 Z-0.976 F500
G1 X17.916 Y-2.363 Z-0.994 F500
G1 X17.916 Y-2.310 Z-1.000 F500
G1 X17.916 Y-2.000 Z-1.000 F500
G1 X17.916 Y41.000 Z-1.000 F500
G1 X17.916 Y41.053 Z-0.994 F500
G1 X17.916 Y41.103 Z-0.976 F500
G1 X17.916 Y41.149 Z-0.948 F500
G1 X17.916 Y41.186 Z-0.910 F500
G1 X17.916 Y41.215 Z-0.865 F500
G1 X17.916 Y41.232 Z-0.815 F500
G1 X17.916 Y41.238 Z-0.762 F500
G1 X17.916 Y41.238 Z1.000 F500
G1 X19.385 Y-2.549 Z1.000 F500
G1 X19.385 Y-2.549 Z0.000 F500
G1 X19.385 Y-2.549 Z-0.762 F100
G1 X19.385 Y-2.543 Z-0.815 F500
G1 X19.385 Y-2.525 Z-0.865 F500
G1 X19.385 Y-2.497 Z-0.910 F500
G1 X19.385 Y-2.459 Z-0.948 F500
G1 X19.385 Y-2.414 Z-0.976 F500
G1 X19.385 Y-2.363 Z-0.994 F500
G1 X19.385 Y-2.310 Z-1.000 F500
G1 X19.385 Y-2.000 Z-1.000 F500
G1 X19.385 Y41.000 Z-1.000 F500
G1 X19.385 Y41.053 Z-0.994 F500
G1 X19.385 Y41.103 Z-0.976 F500
G1 X19.385 Y41.149 Z-0.948 F500
G1 X19.385 Y41.186 Z-0.910 F500
G1 X19.385 Y41.215 Z-0.865 F500
G1 X19.385 Y41.232 Z-0.815 F500
G1 X19.385 Y41.238 Z-0.762 F500
G1 X19.385 Y41.238 Z1.000 F500
G1 X20.853 Y-2.549 Z1.000 F500
G1 X20.853 Y-2.549 Z0.000 F500
G1 X20.853 Y-2.549 Z-0.762 F100
G1 X20.853 Y-2.543 Z-0.815 F500
G1 X20.853 Y-2.525 Z-0.865 F500
G1 X20.853 Y-2.497 Z-0.910 F500
G1 X20.853 Y-2.459 Z-0.948 F500
G1 X20.853 Y-2.414 Z-0.976 F500
G1 X20.853 Y-2.363 Z-0.994 F500
G1 X20.853 Y-2.310 Z-1.000 F500
G1 X20.853 Y-2.000 Z-1.000 F500
G1 X20.853 Y41.000 Z-1.000 F500
G1 X20.853 Y41.053 Z-0.994 F500
G1 X20.853 Y41.103 Z-0.976 F500
G1 X20.853 Y41.149 Z-0.948 F500
G1 X20.853 Y41.186 Z-0.910 F500
G1 X20.853 Y41.215 Z-0.865 F500
G1 X20.853 Y41.232 Z-0.815 F500
G1 X20.853 Y41.238 Z-0.762 F500
G1 X20.853 Y41.238 Z1.000 F500
G1 X0.292 Y-2.549 Z1.000 F500
G1 X0.292 Y-2.549 Z0.000 F500
G1 X0.292 Y-2.549 Z-0.862 F100
G1 X0.292 Y-2.543 Z-0.915 F500
G1 X0.292 Y-2.525 Z-0.965 F500
G1 X0.292 Y-2.497 Z-1.010 F500
G1 X0.292 Y-2.459 Z-1.048 F500
G1 X0.292 Y-2.414 Z-1.076 F500
G1 X0.292 Y-2.363 Z-1.094 F500
G1 X0.292 Y-2.310 Z-1.100 F500
G1 X0.292 Y-2.000 Z-1.100 F500
G1 X0.292 Y41.000 Z-1.100 F500
G1 X0.292 Y41.053 Z-1.094 F500
G1 X0.292 Y41.103 Z-1.076 F500
G1 X0.292 Y41.149 Z-1.048 F500
G1 X0.292 Y41.186 Z-1.010 F500
G1 X0.292 Y41.215 Z-0.965 F500
G1 X0.292 Y41.232 Z-0.915 F500
G1 X0.292 Y41.238 Z-0.862 F500
G1 X0.292 Y41.238 Z1.000 F500
G1 X1.761 Y-2.549 Z1.000 F500
G1 X1.761 Y-2.549 Z0.000 F500
G1 X1.761 Y-2.549 Z-0.862 F100
G1 X1.761 Y-2.543 Z-0.915 F500
G1 X1.761 Y-2.525 Z-0.965 F500
G1 X1.761 Y-2.497 Z-1.010 F500
G1 X1.761 Y-2.459 Z-1.048 F500
G1 X1.761 Y-2.414 Z-1.076 F500
G1 X1.761 Y-2.363 Z-1.094 F500
G1 X1.761 Y-2.310 Z-1.100 F500
G1 X1.761 Y-2.000 Z-1.100 F500
G1 X1.761 Y41.000 Z-1.100 F500
G1 X1.761 Y41.053 Z-1.094 F500
G1 X1.761 Y41.103 Z-1.076 F500
G1 X1.761 Y41.149 Z-1.048 F500
G1 X1.761 Y41.186 Z-1.010 F500
G1 X1.761 Y41.215 Z-0.965 F500
G1 X1.761 Y41.232 Z-0.915 F500
G1 X1.761 Y41.238 Z-0.862 F500
G1 X1.761 Y41.238 Z1.000 F500
G1 X3.230 Y-2.549 Z1.000 F500
G1 X3.230 Y-2.549 Z0.000 F500
G1 X3.230 Y-2.549 Z-0.862 F100
G1 X3.230 Y-2.543 Z-0.915 F500
G1 X3.230 Y-2.525 Z-0.965 F500
G1 X3.230 Y-2.497 Z-1.010 F500
G1 X3.230 Y-2.459 Z-1.048 F500
G1 X3.230 Y-2.414 Z-1.076 F500
G1 X3.230 Y-2.363 Z-1.094 F500
G1 X3.230 Y-2.310 Z-1.100 F500
G1 X3.230 Y-2.000 Z-1.100 F500
G1 X3.230 Y41.000 Z-1.100 F500
G1 X3.230 Y41.053 Z-1.094 F500
G1 X3.230 Y41.103 Z-1.076 F500
G1 X3.230 Y41.149 Z-1.048 F500
G1 X3.230 Y41.186 Z-1.010 F500
G1 X3.230 Y41.215 Z-0.965 F500
G1 X3.230 Y41.232 Z-0.915 F500
G1 X3.230 Y41.238 Z-0.862 F500
G1 X3.230 Y41.238 Z1.000 F500
G1 X4.698 Y-2.549 Z1.000 F500
G1 X4.698 Y-2.549 Z0.000 F500
G1 X4.698 Y-2.549 Z-0.862 F100
G1 X4.698 Y-2.543 Z-0.915 F500
G1 X4.698 Y-2.525 Z-0.965 F500
G1 X4.698 Y-2.497 Z-1.010 F500
G1 X4.698 Y-2.459 Z-1.048 F500
G1 X4.698 Y-2.414 Z-1.076 F500
G1 X4.698 Y-2.363 Z-1.094 F500
G1 X4.698 Y-2.310 Z-1.100 F500
G1 X4.698 Y-2.000 Z-1.100 F500
G1 X4.698 Y41.000 Z-1.100 F500
G1 X4.698 Y41.053 Z-1.094 F500
G1 X4.698 Y41.103 Z-1.076 F500
G1 X4.698 Y41.149 Z-1.048 F500
G1 X4.698 Y41.186 Z-1.010 F500
G1 X4.698 Y41.215 Z-0.965 F500
G1 X4.698 Y41.232 Z-0.915 F500
G1 X4.698 Y41.238 Z-0.862 F500
G1 X4.698 Y41.238 Z1.000 F500
G1 X6.167 Y-2.549 Z1.000 F500
G1 X6.167 Y-2.549 Z0.000 F500
G1 X6.167 Y-2.549 Z-0.862 F100
G1 X6.167 Y-2.543 Z-0.915 F500
G1 X6.167 Y-2.525 Z-0.965 F500
G1 X6.167 Y-2.497 Z-1.010 F500
G1 X6.167 Y-2.459 Z-1.048 F500
G1 X6.167 Y-2.414 Z-1.076 F500
G1 X6.167 Y-2.363 Z-1.094 F500
G1 X6.167 Y-2.310 Z-1.100 F500
G1 X6.167 Y-2.000 Z-1.100 F500
G1 X6.167 Y41.000 Z-1.100 F500
G1 X6.167 Y41.053 Z-1.094 F500
G1 X6.167 Y41.103 Z-1.076 F500
G1 X6.167 Y41.149 Z-1.048 F500
G1 X6.167 Y41.186 Z-1.010 F500
G1 X6.167 Y41.215 Z-0.965 F500
G1 X6.167 Y41.232 Z-0.915 F500
G1 X6.167 Y41.238 Z-0.862 F500
G1 X6.167 Y41.238 Z1.000 F500
G1 X7.636 Y-2.549 Z1.000 F500
G1 X7.636 Y-2.549 Z0.000 F500
G1 X7.636 Y-2.549 Z-0.862 F100
G1 X7.636 Y-2.543 Z-0.915 F500
G1 X7.636 Y-2.525 Z-0.965 F500
G1 X7.636 Y-2.497 Z-1.010 F500
G1 X7.636 Y-2.459 Z-1.048 F500
G1 X7.636 Y-2.414 Z-1.076 F500
G1 X7.636 Y-2.363 Z-1.094 F500
