;Milling Test Piece - will a magic feed and speed just work better?
;Notch is upper left corner.  The pockets are milled out with increasing
;spindle speed to the right, and feedrate going down.
;
;Machine
;vendor: Snapmaker
;model: Desktop CNC
;description: Generic Snapmaker Marlin v20180725
;tool: 6mm 3 flute endmill
;The post-processor for Snapmaker doesn't export spindle speeds.
;I know from on-site experimenation that hand-editing the spindle
;speed as a percentage, i.e.: P100 is '100% of my 18000 RPM maximum'
; P50 is 9000 RPM, the minimum controllable speed for Snapmaker'
; works to specify spindle speed.
;IDK if the machine will update it's speed while running a program.
;I introduced a 2 second dwell to allow the spindle to ramp up or down

M3 P100
G4 S2
G21
G90
;When using Fusion for Personal Use, the feedrate of rapid
;moves is reduced to match the feedrate of cutting moves,
;which can increase machining time. Unrestricted rapid moves
;are available with a Fusion Subscription.

;Notching Upper Left Corner
G0 X-44.948 Y-116.781 Z64.525
G1 X-44.948 Y-116.781 Z64.525 F500
G1 X-44.948 Y-116.781 Z14.525 F500
G1 X-44.948 Y-116.781 Z10.225 F500
G1 X-44.948 Y-116.781 Z9.625 F500
G1 X-44.940 Y-116.783 Z9.531 F500
G1 X-44.919 Y-116.789 Z9.440 F500
G1 X-44.884 Y-116.798 Z9.353 F500
G1 X-44.837 Y-116.810 Z9.272 F500
G1 X-44.777 Y-116.825 Z9.201 F500
G1 X-44.708 Y-116.843 Z9.140 F500
G1 X-44.630 Y-116.863 Z9.090 F500
G1 X-44.546 Y-116.884 Z9.054 F500
G1 X-44.457 Y-116.907 Z9.032 F500
G1 X-44.366 Y-116.930 Z9.025 F500
G1 X-43.907 Y-117.040 Z9.025 F500
G1 X-43.445 Y-117.136 Z9.025 F500
G1 X-42.979 Y-117.218 Z9.025 F500
G1 X-42.512 Y-117.285 Z9.025 F500
G1 X-42.042 Y-117.338 Z9.025 F500
G1 X-41.572 Y-117.376 Z9.025 F500
G1 X-41.100 Y-117.400 Z9.025 F500
G1 X-40.697 Y-117.400 Z9.025 F500
G1 X-40.548 Y-117.393 Z9.025 F500
G1 X-39.787 Y-116.938 Z9.025 F500
G1 X-38.965 Y-116.608 Z9.025 F500
G1 X-38.126 Y-116.375 Z9.025 F500
G1 X-37.844 Y-116.263 Z9.025 F500
G1 X-37.594 Y-116.093 Z9.025 F500
G1 X-37.386 Y-115.873 Z9.025 F500
G1 X-37.229 Y-115.614 Z9.025 F500
G1 X-37.133 Y-115.327 Z9.025 F500
G1 X-37.100 Y-115.026 Z9.025 F500
G1 X-37.111 Y-114.933 Z9.045 F500
G1 X-37.136 Y-114.842 Z9.065 F500
G1 X-37.175 Y-114.756 Z9.085 F500
G1 X-37.227 Y-114.678 Z9.105 F500
G1 X-37.290 Y-114.608 Z9.125 F500
G1 X-37.364 Y-114.550 Z9.145 F500
G1 X-37.446 Y-114.503 Z9.165 F500
G1 X-37.534 Y-114.470 Z9.185 F500
G1 X-37.626 Y-114.452 Z9.205 F500
G1 X-37.720 Y-114.447 Z9.225 F500
G1 X-37.794 Y-114.455 Z9.225 F500
G1 X-37.867 Y-114.471 Z9.225 F500
G1 X-37.938 Y-114.496 Z9.225 F500
G1 X-38.004 Y-114.530 Z9.225 F500
G1 X-40.981 Y-116.283 Z9.225 F500
G1 X-41.052 Y-116.332 Z9.225 F500
G1 X-41.115 Y-116.391 Z9.225 F500
G1 X-41.169 Y-116.458 Z9.225 F500
G1 X-41.213 Y-116.532 Z9.225 F500
G1 X-41.246 Y-116.611 Z9.225 F500
G1 X-41.267 Y-116.694 Z9.225 F500
G1 X-41.276 Y-116.780 Z9.225 F500
G1 X-41.272 Y-116.874 Z9.205 F500
G1 X-41.253 Y-116.966 Z9.185 F500
G1 X-41.220 Y-117.054 Z9.165 F500
G1 X-41.174 Y-117.136 Z9.145 F500
G1 X-41.115 Y-117.210 Z9.125 F500
G1 X-41.046 Y-117.273 Z9.105 F500
G1 X-40.967 Y-117.325 Z9.085 F500
G1 X-40.882 Y-117.364 Z9.065 F500
G1 X-40.791 Y-117.389 Z9.045 F500
G1 X-40.697 Y-117.400 Z9.025 F500
G1 X-38.483 Y-117.400 Z9.025 F500
G1 X-38.282 Y-117.385 Z9.025 F500
G1 X-38.081 Y-117.359 Z9.025 F500
G1 X-37.880 Y-117.327 Z9.025 F500
G1 X-37.829 Y-117.315 Z9.025 F500
G1 X-37.779 Y-117.299 Z9.025 F500
G1 X-37.678 Y-117.252 Z9.025 F500
G1 X-37.624 Y-117.224 Z9.025 F500
G1 X-37.550 Y-117.180 Z9.025 F500
G1 X-37.477 Y-117.121 Z9.025 F500
G1 X-37.379 Y-117.023 Z9.025 F500
G1 X-37.319 Y-116.950 Z9.025 F500
G1 X-37.276 Y-116.877 Z9.025 F500
G1 X-37.248 Y-116.822 Z9.025 F500
G1 X-37.201 Y-116.721 Z9.025 F500
G1 X-37.185 Y-116.671 Z9.025 F500
G1 X-37.173 Y-116.620 Z9.025 F500
G1 X-37.140 Y-116.419 Z9.025 F500
G1 X-37.115 Y-116.218 Z9.025 F500
G1 X-37.113 Y-116.184 Z9.025 F500
G1 X-37.116 Y-116.097 Z9.025 F500
G1 X-37.131 Y-116.011 Z9.025 F500
G1 X-37.159 Y-115.929 Z9.025 F500
G1 X-37.198 Y-115.851 Z9.025 F500
G1 X-37.248 Y-115.780 Z9.025 F500
G1 X-37.308 Y-115.716 Z9.025 F500
G1 X-37.377 Y-115.662 Z9.025 F500
G1 X-37.452 Y-115.619 Z9.025 F500
G1 X-37.533 Y-115.587 Z9.025 F500
G1 X-37.623 Y-115.559 Z9.032 F500
G1 X-37.710 Y-115.532 Z9.054 F500
G1 X-37.793 Y-115.506 Z9.090 F500
G1 X-37.870 Y-115.482 Z9.140 F500
G1 X-37.938 Y-115.460 Z9.201 F500
G1 X-37.997 Y-115.442 Z9.272 F500
G1 X-38.043 Y-115.427 Z9.353 F500
G1 X-38.078 Y-115.417 Z9.440 F500
G1 X-38.099 Y-115.410 Z9.531 F500
G1 X-38.106 Y-115.408 Z9.625 F500
G1 X-38.106 Y-115.408 Z64.525 F500
;When using Fusion for Personal Use, the feedrate of rapid
;moves is reduced to match the feedrate of cutting moves,
;which can increase machining time. Unrestricted rapid moves
;are available with a Fusion Subscription.

;9000-100
M3 P50
G4 S4
G0 X-29.998 Y-122.054 Z64.525
G1 X-29.998 Y-122.054 Z64.525 F100
G1 X-29.998 Y-122.054 Z14.525 F100
G1 X-29.998 Y-122.054 Z12.025 F100
G1 X-30.131 Y-121.955 Z12.019 F100
G1 X-30.272 Y-121.870 Z12.013 F100
G1 X-30.421 Y-121.798 Z12.008 F100
G1 X-30.576 Y-121.741 Z12.002 F100
G1 X-30.736 Y-121.699 Z11.996 F100
G1 X-30.899 Y-121.672 Z11.990 F100
G1 X-31.064 Y-121.661 Z11.985 F100
G1 X-31.229 Y-121.665 Z11.979 F100
G1 X-31.393 Y-121.685 Z11.973 F100
G1 X-31.554 Y-121.721 Z11.967 F100
G1 X-31.711 Y-121.771 Z11.962 F100
G1 X-31.863 Y-121.837 Z11.956 F100
G1 X-32.008 Y-121.916 Z11.950 F100
G1 X-32.144 Y-122.009 Z11.944 F100
G1 X-32.272 Y-122.114 Z11.938 F100
G1 X-32.388 Y-122.231 Z11.933 F100
G1 X-32.493 Y-122.358 Z11.927 F100
G1 X-32.586 Y-122.495 Z11.921 F100
G1 X-32.665 Y-122.640 Z11.915 F100
G1 X-32.730 Y-122.792 Z11.910 F100
G1 X-32.780 Y-122.949 Z11.904 F100
G1 X-32.815 Y-123.110 Z11.898 F100
G1 X-32.835 Y-123.274 Z11.892 F100
G1 X-32.839 Y-123.439 Z11.887 F100
G1 X-32.828 Y-123.603 Z11.881 F100
G1 X-32.801 Y-123.766 Z11.875 F100
G1 X-32.758 Y-123.925 Z11.869 F100
G1 X-32.701 Y-124.080 Z11.863 F100
G1 X-32.629 Y-124.229 Z11.858 F100
G1 X-32.544 Y-124.370 Z11.852 F100
G1 X-32.445 Y-124.502 Z11.846 F100
G1 X-32.335 Y-124.624 Z11.840 F100
G1 X-32.213 Y-124.736 Z11.835 F100
G1 X-32.081 Y-124.835 Z11.829 F100
G1 X-31.941 Y-124.922 Z11.823 F100
G1 X-31.793 Y-124.994 Z11.817 F100
G1 X-31.638 Y-125.052 Z11.812 F100
G1 X-31.479 Y-125.096 Z11.806 F100
G1 X-31.317 Y-125.124 Z11.800 F100
G1 X-31.152 Y-125.137 Z11.794 F100
G1 X-30.987 Y-125.134 Z11.788 F100
G1 X-30.824 Y-125.115 Z11.783 F100
G1 X-30.663 Y-125.081 Z11.777 F100
G1 X-30.505 Y-125.031 Z11.771 F100
G1 X-30.353 Y-124.968 Z11.765 F100
G1 X-30.208 Y-124.890 Z11.760 F100
G1 X-30.071 Y-124.798 Z11.754 F100
G1 X-29.943 Y-124.694 Z11.748 F100
G1 X-29.826 Y-124.578 Z11.742 F100
G1 X-29.720 Y-124.452 Z11.737 F100
G1 X-29.627 Y-124.316 Z11.731 F100
G1 X-29.547 Y-124.172 Z11.725 F100
G1 X-29.481 Y-124.021 Z11.719 F100
G1 X-29.429 Y-123.865 Z11.713 F100
G1 X-29.393 Y-123.704 Z11.708 F100
G1 X-29.372 Y-123.541 Z11.702 F100
G1 X-29.367 Y-123.376 Z11.696 F100
G1 X-29.377 Y-123.212 Z11.690 F100
G1 X-29.403 Y-123.049 Z11.685 F100
G1 X-29.444 Y-122.889 Z11.679 F100
G1 X-29.500 Y-122.735 Z11.673 F100
G1 X-29.570 Y-122.586 Z11.667 F100
G1 X-29.654 Y-122.444 Z11.662 F100
G1 X-29.751 Y-122.312 Z11.656 F100
G1 X-29.861 Y-122.189 Z11.650 F100
G1 X-29.981 Y-122.077 Z11.644 F100
G1 X-30.112 Y-121.976 Z11.638 F100
G1 X-30.252 Y-121.889 Z11.633 F100
G1 X-30.399 Y-121.816 Z11.627 F100
G1 X-30.552 Y-121.756 Z11.621 F100
G1 X-30.711 Y-121.712 Z11.615 F100
G1 X-30.873 Y-121.682 Z11.610 F100
G1 X-31.037 Y-121.668 Z11.604 F100
G1 X-31.201 Y-121.670 Z11.598 F100
G1 X-31.365 Y-121.688 Z11.592 F100
G1 X-31.526 Y-121.720 Z11.587 F100
G1 X-31.683 Y-121.768 Z11.581 F100
G1 X-31.836 Y-121.831 Z11.575 F100
G1 X-31.981 Y-121.908 Z11.569 F100
G1 X-32.119 Y-121.998 Z11.563 F100
G1 X-32.247 Y-122.101 Z11.558 F100
G1 X-32.365 Y-122.215 Z11.552 F100
G1 X-32.472 Y-122.341 Z11.546 F100
G1 X-32.566 Y-122.475 Z11.540 F100
G1 X-32.647 Y-122.618 Z11.535 F100
G1 X-32.714 Y-122.768 Z11.529 F100
G1 X-32.767 Y-122.924 Z11.523 F100
G1 X-32.804 Y-123.084 Z11.517 F100
G1 X-32.826 Y-123.247 Z11.512 F100
G1 X-32.833 Y-123.411 Z11.506 F100
G1 X-32.824 Y-123.575 Z11.500 F100
G1 X-32.800 Y-123.738 Z11.494 F100
G1 X-32.760 Y-123.898 Z11.488 F100
G1 X-32.705 Y-124.053 Z11.483 F100
G1 X-32.636 Y-124.202 Z11.477 F100
G1 X-32.553 Y-124.344 Z11.471 F100
G1 X-32.457 Y-124.477 Z11.465 F100
G1 X-32.349 Y-124.601 Z11.460 F100
G1 X-32.229 Y-124.713 Z11.454 F100
G1 X-32.099 Y-124.814 Z11.448 F100
G1 X-31.961 Y-124.903 Z11.442 F100
G1 X-31.815 Y-124.977 Z11.437 F100
G1 X-31.662 Y-125.038 Z11.431 F100
G1 X-31.504 Y-125.083 Z11.425 F100
G1 X-31.343 Y-125.114 Z11.419 F100
G1 X-31.179 Y-125.129 Z11.413 F100
G1 X-31.015 Y-125.129 Z11.408 F100
G1 X-30.852 Y-125.112 Z11.402 F100
G1 X-30.691 Y-125.081 Z11.396 F100
G1 X-30.533 Y-125.034 Z11.390 F100
G1 X-30.381 Y-124.973 Z11.385 F100
G1 X-30.235 Y-124.898 Z11.379 F100
G1 X-30.097 Y-124.809 Z11.373 F100
G1 X-29.968 Y-124.707 Z11.367 F100
G1 X-29.850 Y-124.593 Z11.362 F100
G1 X-29.742 Y-124.469 Z11.356 F100
G1 X-29.647 Y-124.335 Z11.350 F100
G1 X-29.565 Y-124.193 Z11.344 F100
G1 X-29.497 Y-124.044 Z11.338 F100
G1 X-29.443 Y-123.889 Z11.333 F100
G1 X-29.404 Y-123.729 Z11.327 F100
G1 X-29.381 Y-123.567 Z11.321 F100
G1 X-29.373 Y-123.403 Z11.315 F100
G1 X-29.381 Y-123.239 Z11.310 F100
G1 X-29.404 Y-123.077 Z11.304 F100
G1 X-29.442 Y-122.918 Z11.298 F100
G1 X-29.495 Y-122.763 Z11.292 F100
G1 X-29.563 Y-122.613 Z11.287 F100
G1 X-29.645 Y-122.471 Z11.281 F100
G1 X-29.740 Y-122.337 Z11.275 F100
G1 X-29.847 Y-122.213 Z11.269 F100
G1 X-29.965 Y-122.099 Z11.263 F100
G1 X-30.094 Y-121.998 Z11.258 F100
G1 X-30.231 Y-121.909 Z11.252 F100
G1 X-30.377 Y-121.833 Z11.246 F100
G1 X-30.529 Y-121.771 Z11.240 F100
G1 X-30.686 Y-121.724 Z11.235 F100
G1 X-30.847 Y-121.693 Z11.229 F100
G1 X-31.010 Y-121.676 Z11.223 F100
G1 X-31.174 Y-121.676 Z11.217 F100
G1 X-31.337 Y-121.690 Z11.212 F100
G1 X-31.498 Y-121.720 Z11.206 F100
G1 X-31.656 Y-121.766 Z11.200 F100
G1 X-31.808 Y-121.826 Z11.194 F100
G1 X-31.954 Y-121.900 Z11.188 F100
G1 X-32.093 Y-121.988 Z11.183 F100
G1 X-32.222 Y-122.088 Z11.177 F100
G1 X-32.341 Y-122.200 Z11.171 F100
G1 X-32.449 Y-122.323 Z11.165 F100
G1 X-32.545 Y-122.456 Z11.160 F100
G1 X-32.628 Y-122.597 Z11.154 F100
G1 X-32.698 Y-122.746 Z11.148 F100
G1 X-32.752 Y-122.900 Z11.142 F100
G1 X-32.792 Y-123.059 Z11.137 F100
G1 X-32.817 Y-123.221 Z11.131 F100
G1 X-32.826 Y-123.384 Z11.125 F100
G1 X-32.820 Y-123.548 Z11.119 F100
G1 X-32.798 Y-123.710 Z11.113 F100
G1 X-32.761 Y-123.870 Z11.108 F100
G1 X-32.709 Y-124.025 Z11.102 F100
G1 X-32.642 Y-124.175 Z11.096 F100
G1 X-32.562 Y-124.317 Z11.090 F100
G1 X-32.468 Y-124.452 Z11.085 F100
G1 X-32.363 Y-124.576 Z11.079 F100
G1 X-32.245 Y-124.691 Z11.073 F100
G1 X-32.118 Y-124.793 Z11.067 F100
G1 X-31.981 Y-124.883 Z11.062 F100
G1 X-31.837 Y-124.960 Z11.056 F100
G1 X-31.686 Y-125.022 Z11.050 F100
G1 X-31.529 Y-125.070 Z11.044 F100
G1 X-31.369 Y-125.103 Z11.038 F100
G1 X-31.206 Y-125.121 Z11.033 F100
G1 X-31.043 Y-125.123 Z11.027 F100
G1 X-30.880 Y-125.109 Z11.021 F100
G1 X-30.718 Y-125.081 Z11.015 F100
G1 X-30.561 Y-125.037 Z11.010 F100
G1 X-30.408 Y-124.978 Z11.004 F100
G1 X-30.262 Y-124.905 Z10.998 F100
G1 X-30.123 Y-124.818 Z10.992 F100
G1 X-29.993 Y-124.719 Z10.987 F100
G1 X-29.873 Y-124.608 Z10.981 F100
G1 X-29.764 Y-124.486 Z10.975 F100
G1 X-29.667 Y-124.355 Z10.969 F100
G1 X-29.583 Y-124.214 Z10.963 F100
G1 X-29.513 Y-124.067 Z10.958 F100
G1 X-29.457 Y-123.913 Z10.952 F100
G1 X-29.416 Y-123.755 Z10.946 F100
G1 X-29.390 Y-123.594 Z10.940 F100
G1 X-29.380 Y-123.430 Z10.935 F100
G1 X-29.385 Y-123.267 Z10.929 F100
G1 X-29.405 Y-123.105 Z10.923 F100
G1 X-29.441 Y-122.946 Z10.917 F100
G1 X-29.492 Y-122.790 Z10.912 F100
G1 X-29.557 Y-122.640 Z10.906 F100
G1 X-29.636 Y-122.497 Z10.900 F100
G1 X-29.729 Y-122.363 Z10.894 F100
G1 X-29.833 Y-122.237 Z10.888 F100
G1 X-29.950 Y-122.122 Z10.883 F100
G1 X-30.076 Y-122.019 Z10.877 F100
G1 X-30.212 Y-121.928 Z10.871 F100
G1 X-30.356 Y-121.850 Z10.865 F100
G1 X-30.506 Y-121.787 Z10.860 F100
G1 X-30.662 Y-121.737 Z10.854 F100
G1 X-30.821 Y-121.703 Z10.848 F100
G1 X-30.983 Y-121.685 Z10.842 F100
G1 X-31.147 Y-121.681 Z10.837 F100
G1 X-31.309 Y-121.693 Z10.831 F100
G1 X-31.470 Y-121.721 Z10.825 F100
G1 X-31.628 Y-121.763 Z10.819 F100
G1 X-31.781 Y-121.821 Z10.813 F100
G1 X-31.927 Y-121.892 Z10.808 F100
G1 X-32.066 Y-121.978 Z10.802 F100
G1 X-32.197 Y-122.076 Z10.796 F100
G1 X-32.318 Y-122.186 Z10.790 F100
G1 X-32.427 Y-122.307 Z10.785 F100
G1 X-32.525 Y-122.437 Z10.779 F100
G1 X-32.610 Y-122.577 Z10.773 F100
G1 X-32.681 Y-122.724 Z10.767 F100
G1 X-32.738 Y-122.877 Z10.762 F100
G1 X-32.780 Y-123.034 Z10.756 F100
G1 X-32.808 Y-123.195 Z10.750 F100
G1 X-32.819 Y-123.358 Z10.744 F100
G1 X-32.815 Y-123.521 Z10.738 F100
G1 X-32.796 Y-123.683 Z10.733 F100
G1 X-32.762 Y-123.842 Z10.727 F100
G1 X-32.712 Y-123.997 Z10.721 F100
G1 X-32.648 Y-124.147 Z10.715 F100
G1 X-32.571 Y-124.291 Z10.710 F100
G1 X-32.480 Y-124.426 Z10.704 F100
G1 X-32.376 Y-124.552 Z10.698 F100
G1 X-32.261 Y-124.667 Z10.692 F100
G1 X-32.136 Y-124.772 Z10.687 F100
G1 X-32.001 Y-124.863 Z10.681 F100
G1 X-31.858 Y-124.942 Z10.675 F100
G1 X-31.708 Y-125.007 Z10.669 F100
G1 X-31.553 Y-125.057 Z10.663 F100
G1 X-31.394 Y-125.092 Z10.658 F100
G1 X-31.232 Y-125.112 Z10.652 F100
G1 X-31.069 Y-125.117 Z10.646 F100
G1 X-30.907 Y-125.106 Z10.640 F100
G1 X-30.746 Y-125.080 Z10.635 F100
G1 X-30.588 Y-125.039 Z10.629 F100
G1 X-30.435 Y-124.983 Z10.623 F100
G1 X-30.289 Y-124.912 Z10.617 F100
G1 X-30.149 Y-124.828 Z10.612 F100
G1 X-30.018 Y-124.732 Z10.606 F100
G1 X-29.897 Y-124.623 Z10.600 F100
G1 X-29.787 Y-124.503 Z10.594 F100
G1 X-29.688 Y-124.373 Z10.588 F100
G1 X-29.602 Y-124.235 Z10.583 F100
G1 X-29.530 Y-124.089 Z10.577 F100
G1 X-29.472 Y-123.937 Z10.571 F100
G1 X-29.429 Y-123.780 Z10.565 F100
G1 X-29.400 Y-123.619 Z10.560 F100
G1 X-29.387 Y-123.457 Z10.554 F100
G1 X-29.390 Y-123.294 Z10.548 F100
G1 X-29.408 Y-123.132 Z10.542 F100
G1 X-29.441 Y-122.973 Z10.537 F100
G1 X-29.489 Y-122.817 Z10.531 F100
G1 X-29.552 Y-122.667 Z10.525 F100
G1 X-29.628 Y-122.524 Z10.519 F100
G1 X-29.718 Y-122.388 Z10.513 F100
G1 X-29.820 Y-122.261 Z10.508 F100
G1 X-29.934 Y-122.145 Z10.502 F100
G1 X-30.058 Y-122.040 Z10.496 F100
G1 X-30.192 Y-121.948 Z10.490 F100
G1 X-30.334 Y-121.868 Z10.485 F100
G1 X-30.483 Y-121.802 Z10.479 F100
G1 X-30.637 Y-121.751 Z10.473 F100
G1 X-30.796 Y-121.715 Z10.467 F100
G1 X-30.957 Y-121.693 Z10.462 F100
G1 X-31.119 Y-121.687 Z10.456 F100
G1 X-31.282 Y-121.697 Z10.450 F100
G1 X-31.443 Y-121.722 Z10.444 F100
G1 X-31.600 Y-121.762 Z10.438 F100
G1 X-31.753 Y-121.817 Z10.433 F100
G1 X-31.901 Y-121.886 Z10.427 F100
G1 X-32.041 Y-121.969 Z10.421 F100
G1 X-32.172 Y-122.064 Z10.415 F100
G1 X-32.294 Y-122.172 Z10.410 F100
G1 X-32.405 Y-122.290 Z10.404 F100
G1 X-32.504 Y-122.419 Z10.398 F100
G1 X-32.591 Y-122.557 Z10.392 F100
G1 X-32.664 Y-122.702 Z10.387 F100
G1 X-32.723 Y-122.853 Z10.381 F100
G1 X-32.768 Y-123.009 Z10.375 F100
G1 X-32.797 Y-123.169 Z10.369 F100
G1 X-32.812 Y-123.331 Z10.363 F100
G1 X-32.810 Y-123.493 Z10.358 F100
G1 X-32.794 Y-123.655 Z10.352 F100
G1 X-32.762 Y-123.814 Z10.346 F100
G1 X-32.715 Y-123.970 Z10.340 F100
G1 X-32.654 Y-124.120 Z10.335 F100
G1 X-32.579 Y-124.264 Z10.329 F100
G1 X-32.490 Y-124.400 Z10.323 F100
G1 X-32.389 Y-124.527 Z10.317 F100
G1 X-32.276 Y-124.644 Z10.312 F100
G1 X-32.153 Y-124.750 Z10.306 F100
G1 X-32.020 Y-124.844 Z10.300 F100
G1 X-31.879 Y-124.924 Z10.294 F100
G1 X-31.731 Y-124.991 Z10.288 F100
G1 X-31.577 Y-125.043 Z10.283 F100
G1 X-31.419 Y-125.081 Z10.277 F100
G1 X-31.259 Y-125.104 Z10.271 F100
G1 X-31.097 Y-125.111 Z10.265 F100
G1 X-30.934 Y-125.102 Z10.260 F100
G1 X-30.774 Y-125.079 Z10.254 F100
G1 X-30.616 Y-125.040 Z10.248 F100
G1 X-30.463 Y-124.987 Z10.242 F100
G1 X-30.316 Y-124.919 Z10.237 F100
G1 X-30.175 Y-124.837 Z10.231 F100
G1 X-30.043 Y-124.743 Z10.225 F100
G1 X-29.921 Y-124.637 Z10.219 F100
G1 X-29.809 Y-124.519 Z10.213 F100
G1 X-29.709 Y-124.391 Z10.208 F100
G1 X-29.621 Y-124.255 Z10.202 F100
G1 X-29.547 Y-124.110 Z10.196 F100
G1 X-29.487 Y-123.960 Z10.190 F100
G1 X-29.441 Y-123.804 Z10.185 F100
G1 X-29.410 Y-123.645 Z10.179 F100
G1 X-29.395 Y-123.483 Z10.173 F100
G1 X-29.395 Y-123.321 Z10.167 F100
G1 X-29.410 Y-123.160 Z10.162 F100
G1 X-29.441 Y-123.001 Z10.156 F100
G1 X-29.486 Y-122.845 Z10.150 F100
G1 X-29.546 Y-122.695 Z10.144 F100
G1 X-29.620 Y-122.550 Z10.138 F100
G1 X-29.708 Y-122.414 Z10.133 F100
G1 X-29.807 Y-122.286 Z10.127 F100
G1 X-29.919 Y-122.169 Z10.121 F100
G1 X-30.041 Y-122.062 Z10.115 F100
G1 X-30.173 Y-121.968 Z10.110 F100
G1 X-30.313 Y-121.886 Z10.104 F100
G1 X-30.460 Y-121.818 Z10.098 F100
G1 X-30.613 Y-121.765 Z10.092 F100
G1 X-30.771 Y-121.726 Z10.087 F100
G1 X-30.931 Y-121.702 Z10.081 F100
G1 X-31.093 Y-121.694 Z10.075 F100
G1 X-31.255 Y-121.701 Z10.069 F100
G1 X-31.415 Y-121.723 Z10.063 F100
G1 X-31.573 Y-121.761 Z10.058 F100
G1 X-31.726 Y-121.813 Z10.052 F100
G1 X-31.874 Y-121.879 Z10.046 F100
G1 X-32.015 Y-121.959 Z10.040 F100
G1 X-32.147 Y-122.053 Z10.035 F100
G1 X-32.270 Y-122.158 Z10.029 F100
G1 X-32.382 Y-122.274 Z10.023 F100
G1 X-32.483 Y-122.401 Z10.017 F100
G1 X-32.572 Y-122.536 Z10.012 F100
G1 X-32.647 Y-122.680 Z10.006 F100
G1 X-32.708 Y-122.830 Z10.000 F100
G1 X-32.755 Y-122.985 Z9.994 F100
G1 X-32.787 Y-123.143 Z9.988 F100
G1 X-32.804 Y-123.304 Z9.983 F100
G1 X-32.805 Y-123.466 Z9.977 F100
G1 X-32.791 Y-123.628 Z9.971 F100
G1 X-32.762 Y-123.787 Z9.965 F100
G1 X-32.718 Y-123.943 Z9.960 F100
G1 X-32.659 Y-124.093 Z9.954 F100
G1 X-32.586 Y-124.238 Z9.948 F100
G1 X-32.500 Y-124.375 Z9.942 F100
G1 X-32.401 Y-124.503 Z9.937 F100
G1 X-32.291 Y-124.621 Z9.931 F100
G1 X-32.170 Y-124.728 Z9.925 F100
G1 X-32.039 Y-124.824 Z9.919 F100
G1 X-31.900 Y-124.906 Z9.913 F100
G1 X-31.753 Y-124.975 Z9.908 F100
G1 X-31.601 Y-125.029 Z9.902 F100
G1 X-31.445 Y-125.069 Z9.896 F100
G1 X-31.285 Y-125.094 Z9.890 F100
G1 X-31.123 Y-125.104 Z9.885 F100
G1 X-30.962 Y-125.098 Z9.879 F100
G1 X-30.801 Y-125.077 Z9.873 F100
G1 X-30.644 Y-125.041 Z9.867 F100
G1 X-30.490 Y-124.990 Z9.862 F100
G1 X-30.342 Y-124.925 Z9.856 F100
G1 X-30.201 Y-124.846 Z9.850 F100
G1 X-30.068 Y-124.754 Z9.844 F100
G1 X-29.945 Y-124.650 Z9.838 F100
G1 X-29.831 Y-124.534 Z9.833 F100
G1 X-29.730 Y-124.409 Z9.827 F100
G1 X-29.640 Y-124.274 Z9.821 F100
G1 X-29.564 Y-124.132 Z9.815 F100
G1 X-29.502 Y-123.983 Z9.810 F100
G1 X-29.454 Y-123.829 Z9.804 F100
G1 X-29.421 Y-123.671 Z9.798 F100
G1 X-29.403 Y-123.510 Z9.792 F100
G1 X-29.400 Y-123.349 Z9.787 F100
G1 X-29.413 Y-123.188 Z9.781 F100
G1 X-29.441 Y-123.028 Z9.775 F100
G1 X-29.484 Y-122.873 Z9.769 F100
G1 X-29.541 Y-122.722 Z9.763 F100
G1 X-29.613 Y-122.577 Z9.758 F100
G1 X-29.698 Y-122.440 Z9.752 F100
G1 X-29.795 Y-122.311 Z9.746 F100
G1 X-29.905 Y-122.192 Z9.740 F100
G1 X-30.025 Y-122.084 Z9.735 F100
G1 X-30.155 Y-121.988 Z9.729 F100
G1 X-30.293 Y-121.904 Z9.723 F100
G1 X-30.439 Y-121.835 Z9.717 F100
G1 X-30.590 Y-121.779 Z9.712 F100
G1 X-30.746 Y-121.738 Z9.706 F100
G1 X-30.905 Y-121.712 Z9.700 F100
G1 X-31.066 Y-121.701 Z9.694 F100
G1 X-31.227 Y-121.705 Z9.688 F100
G1 X-31.388 Y-121.725 Z9.683 F100
G1 X-31.545 Y-121.760 Z9.677 F100
G1 X-31.699 Y-121.809 Z9.671 F100
G1 X-31.847 Y-121.873 Z9.665 F100
G1 X-31.988 Y-121.951 Z9.660 F100
G1 X-32.122 Y-122.042 Z9.654 F100
G1 X-32.246 Y-122.145 Z9.648 F100
G1 X-32.360 Y-122.259 Z9.642 F100
G1 X-32.462 Y-122.383 Z9.637 F100
G1 X-32.552 Y-122.517 Z9.631 F100
G1 X-32.630 Y-122.659 Z9.625 F100
G1 X-32.693 Y-122.807 Z9.619 F100
G1 X-32.742 Y-122.961 Z9.613 F100
G1 X-32.776 Y-123.118 Z9.608 F100
G1 X-32.795 Y-123.279 Z9.602 F100
G1 X-32.799 Y-123.440 Z9.596 F100
G1 X-32.788 Y-123.600 Z9.590 F100
G1 X-32.761 Y-123.759 Z9.585 F100
G1 X-32.720 Y-123.915 Z9.579 F100
G1 X-32.664 Y-124.066 Z9.573 F100
G1 X-32.593 Y-124.211 Z9.567 F100
G1 X-32.510 Y-124.349 Z9.562 F100
G1 X-32.413 Y-124.478 Z9.556 F100
G1 X-32.305 Y-124.597 Z9.550 F100
G1 X-32.186 Y-124.706 Z9.544 F100
G1 X-32.057 Y-124.803 Z9.538 F100
G1 X-31.920 Y-124.887 Z9.533 F100
G1 X-31.775 Y-124.958 Z9.527 F100
G1 X-31.625 Y-125.015 Z9.521 F100
G1 X-31.469 Y-125.057 Z9.515 F100
G1 X-31.310 Y-125.084 Z9.510 F100
G1 X-31.150 Y-125.097 Z9.504 F100
G1 X-30.989 Y-125.093 Z9.498 F100
G1 X-30.828 Y-125.075 Z9.492 F100
G1 X-30.671 Y-125.042 Z9.487 F100
G1 X-30.517 Y-124.993 Z9.481 F100
G1 X-30.369 Y-124.931 Z9.475 F100
G1 X-30.227 Y-124.854 Z9.469 F100
G1 X-30.094 Y-124.765 Z9.463 F100
G1 X-29.969 Y-124.663 Z9.458 F100
G1 X-29.854 Y-124.550 Z9.452 F100
G1 X-29.751 Y-124.427 Z9.446 F100
G1 X-29.660 Y-124.294 Z9.440 F100
G1 X-29.582 Y-124.153 Z9.435 F100
G1 X-29.518 Y-124.006 Z9.429 F100
G1 X-29.467 Y-123.853 Z9.423 F100
G1 X-29.432 Y-123.696 Z9.417 F100
G1 X-29.412 Y-123.536 Z9.412 F100
G1 X-29.407 Y-123.375 Z9.406 F100
G1 X-29.417 Y-123.215 Z9.400 F100
G1 X-29.442 Y-123.056 Z9.394 F100
G1 X-29.482 Y-122.900 Z9.388 F100
G1 X-29.537 Y-122.749 Z9.383 F100
G1 X-29.606 Y-122.603 Z9.377 F100
G1 X-29.689 Y-122.465 Z9.371 F100
G1 X-29.784 Y-122.335 Z9.365 F100
G1 X-29.891 Y-122.215 Z9.360 F100
G1 X-30.009 Y-122.106 Z9.354 F100
G1 X-30.136 Y-122.008 Z9.348 F100
G1 X-30.273 Y-121.923 Z9.342 F100
G1 X-30.416 Y-121.851 Z9.337 F100
G1 X-30.566 Y-121.794 Z9.331 F100
G1 X-30.721 Y-121.750 Z9.325 F100
G1 X-30.879 Y-121.722 Z9.319 F100
G1 X-31.040 Y-121.708 Z9.313 F100
G1 X-31.200 Y-121.710 Z9.308 F100
G1 X-31.360 Y-121.727 Z9.302 F100
G1 X-31.518 Y-121.760 Z9.296 F100
G1 X-31.671 Y-121.807 Z9.290 F100
G1 X-31.820 Y-121.868 Z9.285 F100
G1 X-31.962 Y-121.943 Z9.279 F100
G1 X-32.096 Y-122.031 Z9.273 F100
G1 X-32.222 Y-122.132 Z9.267 F100
G1 X-32.337 Y-122.244 Z9.262 F100
G1 X-32.441 Y-122.367 Z9.256 F100
G1 X-32.533 Y-122.498 Z9.250 F100
G1 X-32.612 Y-122.638 Z9.244 F100
G1 X-32.677 Y-122.785 Z9.238 F100
G1 X-32.729 Y-122.937 Z9.233 F100
G1 X-32.765 Y-123.093 Z9.227 F100
G1 X-32.787 Y-123.252 Z9.221 F100
G1 X-32.793 Y-123.413 Z9.215 F100
G1 X-32.784 Y-123.573 Z9.210 F100
G1 X-32.760 Y-123.732 Z9.204 F100
G1 X-32.721 Y-123.888 Z9.198 F100
G1 X-32.668 Y-124.039 Z9.192 F100
G1 X-32.600 Y-124.184 Z9.187 F100
G1 X-32.519 Y-124.323 Z9.181 F100
G1 X-32.425 Y-124.453 Z9.175 F100
G1 X-32.319 Y-124.574 Z9.169 F100
G1 X-32.202 Y-124.684 Z9.163 F100
G1 X-32.075 Y-124.783 Z9.158 F100
G1 X-31.940 Y-124.869 Z9.152 F100
G1 X-31.797 Y-124.941 Z9.146 F100
G1 X-31.647 Y-125.000 Z9.140 F100
G1 X-31.493 Y-125.045 Z9.135 F100
G1 X-31.336 Y-125.075 Z9.129 F100
G1 X-31.176 Y-125.089 Z9.123 F100
G1 X-31.016 Y-125.089 Z9.117 F100
G1 X-30.856 Y-125.073 Z9.112 F100
G1 X-30.699 Y-125.042 Z9.106 F100
G1 X-30.545 Y-124.996 Z9.100 F100
G1 X-30.396 Y-124.936 Z9.094 F100
G1 X-30.254 Y-124.862 Z9.088 F100
G1 X-30.119 Y-124.775 Z9.083 F100
G1 X-29.993 Y-124.676 Z9.077 F100
G1 X-29.877 Y-124.565 Z9.071 F100
G1 X-29.773 Y-124.443 Z9.065 F100
G1 X-29.680 Y-124.313 Z9.060 F100
G1 X-29.600 Y-124.174 Z9.054 F100
G1 X-29.533 Y-124.028 Z9.048 F100
G1 X-29.481 Y-123.876 Z9.042 F100
G1 X-29.443 Y-123.720 Z9.037 F100
G1 X-29.421 Y-123.562 Z9.031 F100
G1 X-29.413 Y-123.401 Z9.025 F100
G1 X-29.421 Y-123.238 Z9.025 F100
G1 X-29.444 Y-123.077 Z9.025 F100
G1 X-29.483 Y-122.918 Z9.025 F100
G1 X-29.538 Y-122.764 Z9.025 F100
G1 X-29.606 Y-122.616 Z9.025 F100
G1 X-29.689 Y-122.476 Z9.025 F100
G1 X-29.785 Y-122.343 Z9.025 F100
G1 X-29.893 Y-122.221 Z9.025 F100
G1 X-30.013 Y-122.110 Z9.025 F100
G1 X-30.143 Y-122.011 Z9.025 F100
G1 X-30.281 Y-121.925 Z9.025 F100
G1 X-30.428 Y-121.853 Z9.025 F100
G1 X-30.580 Y-121.795 Z9.025 F100
G1 X-30.738 Y-121.752 Z9.025 F100
G1 X-30.899 Y-121.724 Z9.025 F100
G1 X-31.062 Y-121.712 Z9.025 F100
G1 X-31.225 Y-121.716 Z9.025 F100
G1 X-31.387 Y-121.736 Z9.025 F100
G1 X-31.546 Y-121.771 Z9.025 F100
G1 X-31.701 Y-121.822 Z9.025 F100
G1 X-31.851 Y-121.887 Z9.025 F100
G1 X-31.994 Y-121.966 Z9.025 F100
G1 X-32.128 Y-122.059 Z9.025 F100
G1 X-32.253 Y-122.164 Z9.025 F100
G1 X-32.367 Y-122.281 Z9.025 F100
G1 X-32.469 Y-122.408 Z9.025 F100
G1 X-32.559 Y-122.545 Z9.025 F100
G1 X-32.634 Y-122.689 Z9.025 F100
G1 X-32.696 Y-122.841 Z9.025 F100
G1 X-32.743 Y-122.997 Z9.025 F100
G1 X-32.774 Y-123.157 Z9.025 F100
G1 X-32.790 Y-123.320 Z9.025 F100
G1 X-32.790 Y-123.483 Z9.025 F100
G1 X-32.774 Y-123.645 Z9.025 F100
G1 X-32.743 Y-123.806 Z9.025 F100
G1 X-32.696 Y-123.962 Z9.025 F100
G1 X-32.634 Y-124.113 Z9.025 F100
G1 X-32.559 Y-124.258 Z9.025 F100
G1 X-32.469 Y-124.394 Z9.025 F100
G1 X-32.367 Y-124.522 Z9.025 F100
G1 X-32.253 Y-124.638 Z9.025 F100
G1 X-32.128 Y-124.744 Z9.025 F100
G1 X-31.994 Y-124.836 Z9.025 F100
G1 X-31.851 Y-124.916 Z9.025 F100
G1 X-31.701 Y-124.981 Z9.025 F100
G1 X-31.546 Y-125.031 Z9.025 F100
G1 X-31.387 Y-125.067 Z9.025 F100
G1 X-31.225 Y-125.086 Z9.025 F100
G1 X-31.062 Y-125.090 Z9.025 F100
G1 X-30.899 Y-125.078 Z9.025 F100
G1 X-30.738 Y-125.051 Z9.025 F100
G1 X-30.580 Y-125.008 Z9.025 F100
G1 X-30.428 Y-124.950 Z9.025 F100
G1 X-30.281 Y-124.878 Z9.025 F100
G1 X-30.143 Y-124.792 Z9.025 F100
G1 X-30.013 Y-124.693 Z9.025 F100
G1 X-29.893 Y-124.581 Z9.025 F100
G1 X-29.785 Y-124.459 Z9.025 F100
G1 X-29.689 Y-124.327 Z9.025 F100
G1 X-29.606 Y-124.186 Z9.025 F100
G1 X-29.538 Y-124.038 Z9.025 F100
G1 X-29.483 Y-123.884 Z9.025 F100
G1 X-29.444 Y-123.726 Z9.025 F100
G1 X-29.421 Y-123.564 Z9.025 F100
G1 X-29.413 Y-123.401 Z9.025 F100
G1 X-29.384 Y-122.516 Z9.025 F100
G1 X-29.358 Y-122.276 Z9.025 F100
G1 X-29.398 Y-122.038 Z9.025 F100
G1 X-29.502 Y-121.820 Z9.025 F100
G1 X-29.661 Y-121.639 Z9.025 F100
G1 X-29.864 Y-121.509 Z9.025 F100
G1 X-30.095 Y-121.438 Z9.025 F100
G1 X-30.299 Y-121.421 Z9.025 F100
G1 X-30.903 Y-121.400 Z9.025 F100
G1 X-31.507 Y-121.400 Z9.025 F100
G1 X-31.708 Y-121.405 Z9.025 F100
G1 X-31.910 Y-121.414 Z9.025 F100
G1 X-32.111 Y-121.439 Z9.025 F100
G1 X-32.312 Y-121.471 Z9.025 F100
G1 X-32.413 Y-121.498 Z9.025 F100
G1 X-32.514 Y-121.544 Z9.025 F100
G1 X-32.614 Y-121.597 Z9.025 F100
G1 X-32.664 Y-121.630 Z9.025 F100
G1 X-32.715 Y-121.672 Z9.025 F100
G1 X-32.817 Y-121.773 Z9.025 F100
G1 X-32.860 Y-121.823 Z9.025 F100
G1 X-32.895 Y-121.873 Z9.025 F100
G1 X-32.916 Y-121.909 Z9.025 F100
G1 X-32.997 Y-122.074 Z9.025 F100
G1 X-33.014 Y-122.125 Z9.025 F100
G1 X-33.026 Y-122.175 Z9.025 F100
G1 X-33.043 Y-122.276 Z9.025 F100
G1 X-33.070 Y-122.477 Z9.025 F100
G1 X-33.095 Y-122.678 Z9.025 F100
G1 X-33.100 Y-122.880 Z9.025 F100
G1 X-33.100 Y-124.087 Z9.025 F100
G1 X-33.078 Y-124.289 Z9.025 F100
G1 X-33.048 Y-124.490 Z9.025 F100
G1 X-33.009 Y-124.691 Z9.025 F100
G1 X-32.968 Y-124.791 Z9.025 F100
G1 X-32.916 Y-124.892 Z9.025 F100
G1 X-32.885 Y-124.943 Z9.025 F100
G1 X-32.847 Y-124.993 Z9.025 F100
G1 X-32.751 Y-125.094 Z9.025 F100
G1 X-32.715 Y-125.128 Z9.025 F100
G1 X-32.665 Y-125.169 Z9.025 F100
G1 X-32.614 Y-125.203 Z9.025 F100
G1 X-32.514 Y-125.256 Z9.025 F100
G1 X-32.430 Y-125.295 Z9.025 F100
G1 X-32.371 Y-125.314 Z9.025 F100
G1 X-32.312 Y-125.329 Z9.025 F100
G1 X-32.111 Y-125.361 Z9.025 F100
G1 X-31.910 Y-125.377 Z9.025 F100
G1 X-31.708 Y-125.392 Z9.025 F100
G1 X-31.507 Y-125.400 Z9.025 F100
G1 X-30.903 Y-125.400 Z9.025 F100
G1 X-30.299 Y-125.379 Z9.025 F100
G1 X-30.097 Y-125.362 Z9.025 F100
G1 X-29.896 Y-125.330 Z9.025 F100
G1 X-29.833 Y-125.316 Z9.025 F100
G1 X-29.769 Y-125.295 Z9.025 F100
G1 X-29.695 Y-125.260 Z9.025 F100
G1 X-29.594 Y-125.208 Z9.025 F100
G1 X-29.544 Y-125.175 Z9.025 F100
G1 X-29.493 Y-125.136 Z9.025 F100
G1 X-29.449 Y-125.094 Z9.025 F100
G1 X-29.358 Y-125.000 Z9.025 F100
G1 X-29.292 Y-124.906 Z9.025 F100
G1 X-29.284 Y-124.892 Z9.025 F100
G1 X-29.233 Y-124.792 Z9.025 F100
G1 X-29.191 Y-124.691 Z9.025 F100
G1 X-29.152 Y-124.490 Z9.025 F100
G1 X-29.122 Y-124.289 Z9.025 F100
G1 X-29.100 Y-124.087 Z9.025 F100
G1 X-29.100 Y-122.880 Z9.025 F100
G1 X-29.105 Y-122.678 Z9.025 F100
G1 X-29.130 Y-122.477 Z9.025 F100
G1 X-29.157 Y-122.276 Z9.025 F100
G1 X-29.174 Y-122.175 Z9.025 F100
G1 X-29.186 Y-122.125 Z9.025 F100
G1 X-29.203 Y-122.074 Z9.025 F100
G1 X-29.292 Y-121.894 Z9.025 F100
G1 X-29.305 Y-121.873 Z9.025 F100
G1 X-29.340 Y-121.823 Z9.025 F100
G1 X-29.383 Y-121.773 Z9.025 F100
G1 X-29.493 Y-121.665 Z9.025 F100
G1 X-29.544 Y-121.624 Z9.025 F100
G1 X-29.594 Y-121.592 Z9.025 F100
G1 X-29.695 Y-121.540 Z9.025 F100
G1 X-29.794 Y-121.496 Z9.025 F100
G1 X-29.896 Y-121.470 Z9.025 F100
G1 X-30.095 Y-121.438 Z9.025 F100
G1 X-30.116 Y-121.455 Z9.033 F100
G1 X-30.132 Y-121.467 Z9.054 F100
G1 X-30.138 Y-121.472 Z9.082 F100
G1 X-30.138 Y-121.472 Z14.525 F100
G1 X-30.006 Y-122.047 Z14.525 F100
G1 X-30.006 Y-122.047 Z11.525 F100
G1 X-30.139 Y-121.950 Z11.519 F100
G1 X-30.281 Y-121.865 Z11.513 F100
G1 X-30.430 Y-121.794 Z11.508 F100
G1 X-30.585 Y-121.738 Z11.502 F100
G1 X-30.745 Y-121.697 Z11.496 F100
G1 X-30.908 Y-121.671 Z11.490 F100
G1 X-31.073 Y-121.660 Z11.485 F100
G1 X-31.238 Y-121.666 Z11.479 F100
G1 X-31.402 Y-121.686 Z11.473 F100
G1 X-31.563 Y-121.723 Z11.467 F100
G1 X-31.720 Y-121.774 Z11.462 F100
G1 X-31.871 Y-121.840 Z11.456 F100
G1 X-32.016 Y-121.920 Z11.450 F100
G1 X-32.152 Y-122.014 Z11.444 F100
G1 X-32.278 Y-122.120 Z11.438 F100
G1 X-32.394 Y-122.237 Z11.433 F100
G1 X-32.499 Y-122.365 Z11.427 F100
G1 X-32.591 Y-122.503 Z11.421 F100
G1 X-32.669 Y-122.648 Z11.415 F100
G1 X-32.733 Y-122.800 Z11.410 F100
G1 X-32.783 Y-122.958 Z11.404 F100
G1 X-32.817 Y-123.119 Z11.398 F100
G1 X-32.836 Y-123.283 Z11.392 F100
G1 X-32.839 Y-123.448 Z11.387 F100
G1 X-32.827 Y-123.612 Z11.381 F100
G1 X-32.799 Y-123.775 Z11.375 F100
G1 X-32.755 Y-123.934 Z11.369 F100
G1 X-32.697 Y-124.088 Z11.363 F100
G1 X-32.625 Y-124.236 Z11.358 F100
G1 X-32.539 Y-124.377 Z11.352 F100
G1 X-32.439 Y-124.509 Z11.346 F100
G1 X-32.328 Y-124.631 Z11.340 F100
G1 X-32.206 Y-124.741 Z11.335 F100
G1 X-32.074 Y-124.840 Z11.329 F100
G1 X-31.933 Y-124.926 Z11.323 F100
G1 X-31.784 Y-124.998 Z11.317 F100
G1 X-31.630 Y-125.055 Z11.312 F100
G1 X-31.470 Y-125.098 Z11.306 F100
G1 X-31.308 Y-125.125 Z11.300 F100
G1 X-31.143 Y-125.137 Z11.294 F100
G1 X-30.978 Y-125.133 Z11.288 F100
G1 X-30.815 Y-125.113 Z11.283 F100
G1 X-30.654 Y-125.078 Z11.277 F100
G1 X-30.497 Y-125.028 Z11.271 F100
G1 X-30.345 Y-124.964 Z11.265 F100
G1 X-30.200 Y-124.885 Z11.260 F100
G1 X-30.064 Y-124.793 Z11.254 F100
G1 X-29.937 Y-124.688 Z11.248 F100
G1 X-29.820 Y-124.572 Z11.242 F100
G1 X-29.715 Y-124.445 Z11.237 F100
G1 X-29.622 Y-124.309 Z11.231 F100
G1 X-29.543 Y-124.164 Z11.225 F100
G1 X-29.477 Y-124.013 Z11.219 F100
G1 X-29.427 Y-123.856 Z11.213 F100
G1 X-29.391 Y-123.695 Z11.208 F100
G1 X-29.371 Y-123.532 Z11.202 F100
G1 X-29.366 Y-123.367 Z11.196 F100
G1 X-29.377 Y-123.203 Z11.190 F100
G1 X-29.404 Y-123.040 Z11.185 F100
G1 X-29.446 Y-122.881 Z11.179 F100
G1 X-29.503 Y-122.726 Z11.173 F100
G1 X-29.574 Y-122.578 Z11.167 F100
G1 X-29.659 Y-122.437 Z11.162 F100
G1 X-29.756 Y-122.305 Z11.156 F100
G1 X-29.866 Y-122.182 Z11.150 F100
G1 X-29.987 Y-122.071 Z11.144 F100
G1 X-30.119 Y-121.971 Z11.138 F100
G1 X-30.259 Y-121.885 Z11.133 F100
G1 X-30.406 Y-121.812 Z11.127 F100
G1 X-30.560 Y-121.753 Z11.121 F100
G1 X-30.718 Y-121.709 Z11.115 F100
G1 X-30.881 Y-121.681 Z11.110 F100
G1 X-31.045 Y-121.668 Z11.104 F100
G1 X-31.209 Y-121.670 Z11.098 F100
G1 X-31.373 Y-121.688 Z11.092 F100
G1 X-31.534 Y-121.722 Z11.087 F100
G1 X-31.691 Y-121.771 Z11.081 F100
G1 X-31.843 Y-121.834 Z11.075 F100
G1 X-31.988 Y-121.912 Z11.069 F100
G1 X-32.125 Y-122.002 Z11.063 F100
G1 X-32.253 Y-122.106 Z11.058 F100
G1 X-32.370 Y-122.221 Z11.052 F100
G1 X-32.476 Y-122.347 Z11.046 F100
G1 X-32.570 Y-122.482 Z11.040 F100
G1 X-32.650 Y-122.625 Z11.035 F100
G1 X-32.717 Y-122.775 Z11.029 F100
G1 X-32.769 Y-122.931 Z11.023 F100
G1 X-32.805 Y-123.092 Z11.017 F100
G1 X-32.827 Y-123.255 Z11.012 F100
G1 X-32.833 Y-123.419 Z11.006 F100
G1 X-32.823 Y-123.583 Z11.000 F100
G1 X-32.798 Y-123.745 Z10.994 F100
G1 X-32.758 Y-123.905 Z10.988 F100
G1 X-32.702 Y-124.060 Z10.983 F100
G1 X-32.632 Y-124.208 Z10.977 F100
G1 X-32.549 Y-124.350 Z10.971 F100
G1 X-32.452 Y-124.483 Z10.965 F100
G1 X-32.343 Y-124.606 Z10.960 F100
G1 X-32.223 Y-124.718 Z10.954 F100
G1 X-32.093 Y-124.819 Z10.948 F100
G1 X-31.954 Y-124.906 Z10.942 F100
G1 X-31.808 Y-124.980 Z10.937 F100
G1 X-31.655 Y-125.040 Z10.931 F100
G1 X-31.497 Y-125.085 Z10.925 F100
G1 X-31.335 Y-125.115 Z10.919 F100
G1 X-31.172 Y-125.129 Z10.913 F100
G1 X-31.007 Y-125.128 Z10.908 F100
G1 X-30.844 Y-125.111 Z10.902 F100
G1 X-30.683 Y-125.079 Z10.896 F100
G1 X-30.526 Y-125.032 Z10.890 F100
G1 X-30.374 Y-124.970 Z10.885 F100
G1 X-30.228 Y-124.894 Z10.879 F100
G1 X-30.091 Y-124.804 Z10.873 F100
G1 X-29.962 Y-124.702 Z10.867 F100
G1 X-29.844 Y-124.588 Z10.862 F100
G1 X-29.737 Y-124.463 Z10.856 F100
G1 X-29.643 Y-124.329 Z10.850 F100
G1 X-29.561 Y-124.186 Z10.844 F100
G1 X-29.494 Y-124.037 Z10.838 F100
G1 X-29.441 Y-123.881 Z10.833 F100
G1 X-29.403 Y-123.722 Z10.827 F100
G1 X-29.380 Y-123.560 Z10.821 F100
G1 X-29.373 Y-123.396 Z10.815 F100
G1 X-29.381 Y-123.232 Z10.810 F100
G1 X-29.405 Y-123.070 Z10.804 F100
G1 X-29.444 Y-122.910 Z10.798 F100
G1 X-29.498 Y-122.755 Z10.792 F100
G1 X-29.566 Y-122.606 Z10.787 F100
G1 X-29.648 Y-122.465 Z10.781 F100
G1 X-29.744 Y-122.331 Z10.775 F100
G1 X-29.851 Y-122.207 Z10.769 F100
G1 X-29.970 Y-122.094 Z10.763 F100
G1 X-30.099 Y-121.993 Z10.758 F100
G1 X-30.237 Y-121.904 Z10.752 F100
G1 X-30.383 Y-121.829 Z10.746 F100
G1 X-30.535 Y-121.768 Z10.740 F100
G1 X-30.693 Y-121.722 Z10.735 F100
G1 X-30.854 Y-121.691 Z10.729 F100
G1 X-31.017 Y-121.675 Z10.723 F100
G1 X-31.181 Y-121.675 Z10.717 F100
G1 X-31.344 Y-121.691 Z10.712 F100
G1 X-31.505 Y-121.722 Z10.706 F100
G1 X-31.662 Y-121.767 Z10.700 F100
G1 X-31.814 Y-121.828 Z10.694 F100
G1 X-31.960 Y-121.903 Z10.688 F100
G1 X-32.098 Y-121.991 Z10.683 F100
G1 X-32.227 Y-122.092 Z10.677 F100
G1 X-32.346 Y-122.205 Z10.671 F100
G1 X-32.454 Y-122.328 Z10.665 F100
G1 X-32.549 Y-122.461 Z10.660 F100
G1 X-32.631 Y-122.603 Z10.654 F100
G1 X-32.700 Y-122.752 Z10.648 F100
G1 X-32.754 Y-122.906 Z10.642 F100
G1 X-32.794 Y-123.065 Z10.637 F100
G1 X-32.818 Y-123.227 Z10.631 F100
G1 X-32.826 Y-123.391 Z10.625 F100
G1 X-32.819 Y-123.554 Z10.619 F100
G1 X-32.797 Y-123.717 Z10.613 F100
G1 X-32.759 Y-123.876 Z10.608 F100
G1 X-32.706 Y-124.031 Z10.602 F100
G1 X-32.639 Y-124.180 Z10.596 F100
G1 X-32.558 Y-124.323 Z10.590 F100
G1 X-32.464 Y-124.457 Z10.585 F100
G1 X-32.358 Y-124.581 Z10.579 F100
G1 X-32.240 Y-124.695 Z10.573 F100
G1 X-32.113 Y-124.797 Z10.567 F100
G1 X-31.976 Y-124.886 Z10.562 F100
G1 X-31.831 Y-124.962 Z10.556 F100
G1 X-31.679 Y-125.024 Z10.550 F100
G1 X-31.523 Y-125.072 Z10.544 F100
G1 X-31.362 Y-125.104 Z10.538 F100
G1 X-31.200 Y-125.121 Z10.533 F100
G1 X-31.036 Y-125.123 Z10.527 F100
G1 X-30.873 Y-125.109 Z10.521 F100
G1 X-30.712 Y-125.079 Z10.515 F100
G1 X-30.555 Y-125.035 Z10.510 F100
G1 X-30.402 Y-124.975 Z10.504 F100
G1 X-30.256 Y-124.902 Z10.498 F100
G1 X-30.117 Y-124.815 Z10.492 F100
G1 X-29.988 Y-124.715 Z10.487 F100
G1 X-29.868 Y-124.604 Z10.481 F100
G1 X-29.760 Y-124.481 Z10.475 F100
G1 X-29.663 Y-124.349 Z10.469 F100
G1 X-29.580 Y-124.209 Z10.463 F100
G1 X-29.510 Y-124.061 Z10.458 F100
G1 X-29.455 Y-123.907 Z10.452 F100
G1 X-29.415 Y-123.749 Z10.446 F100
G1 X-29.389 Y-123.587 Z10.440 F100
G1 X-29.379 Y-123.424 Z10.435 F100
G1 X-29.385 Y-123.261 Z10.429 F100
G1 X-29.406 Y-123.099 Z10.423 F100
G1 X-29.442 Y-122.939 Z10.417 F100
G1 X-29.494 Y-122.784 Z10.412 F100
G1 X-29.559 Y-122.635 Z10.406 F100
G1 X-29.639 Y-122.492 Z10.400 F100
G1 X-29.732 Y-122.357 Z10.394 F100
G1 X-29.837 Y-122.232 Z10.388 F100
G1 X-29.954 Y-122.118 Z10.383 F100
G1 X-30.081 Y-122.015 Z10.377 F100
G1 X-30.217 Y-121.924 Z10.371 F100
G1 X-30.360 Y-121.847 Z10.365 F100
G1 X-30.511 Y-121.784 Z10.360 F100
G1 X-30.667 Y-121.735 Z10.354 F100
G1 X-30.827 Y-121.702 Z10.348 F100
G1 X-30.989 Y-121.684 Z10.342 F100
G1 X-31.152 Y-121.681 Z10.337 F100
G1 X-31.315 Y-121.694 Z10.331 F100
G1 X-31.476 Y-121.722 Z10.325 F100
G1 X-31.633 Y-121.765 Z10.319 F100
G1 X-31.786 Y-121.823 Z10.313 F100
G1 X-31.932 Y-121.895 Z10.308 F100
G1 X-32.071 Y-121.980 Z10.302 F100
G1 X-32.201 Y-122.079 Z10.296 F100
G1 X-32.322 Y-122.189 Z10.290 F100
G1 X-32.431 Y-122.311 Z10.285 F100
G1 X-32.528 Y-122.442 Z10.279 F100
G1 X-32.612 Y-122.581 Z10.273 F100
G1 X-32.683 Y-122.728 Z10.267 F100
G1 X-32.740 Y-122.882 Z10.262 F100
G1 X-32.782 Y-123.039 Z10.256 F100
G1 X-32.808 Y-123.200 Z10.250 F100
G1 X-32.819 Y-123.363 Z10.244 F100
G1 X-32.815 Y-123.526 Z10.238 F100
G1 X-32.795 Y-123.688 Z10.233 F100
G1 X-32.760 Y-123.847 Z10.227 F100
G1 X-32.710 Y-124.002 Z10.221 F100
G1 X-32.646 Y-124.152 Z10.215 F100
G1 X-32.568 Y-124.295 Z10.210 F100
G1 X-32.476 Y-124.430 Z10.204 F100
G1 X-32.372 Y-124.556 Z10.198 F100
G1 X-32.257 Y-124.671 Z10.192 F100
G1 X-32.131 Y-124.775 Z10.187 F100
G1 X-31.996 Y-124.866 Z10.181 F100
G1 X-31.853 Y-124.944 Z10.175 F100
G1 X-31.703 Y-125.008 Z10.169 F100
G1 X-31.548 Y-125.058 Z10.163 F100
G1 X-31.389 Y-125.093 Z10.158 F100
G1 X-31.227 Y-125.113 Z10.152 F100
G1 X-31.064 Y-125.117 Z10.146 F100
G1 X-30.901 Y-125.105 Z10.140 F100
G1 X-30.741 Y-125.079 Z10.135 F100
G1 X-30.583 Y-125.037 Z10.129 F100
G1 X-30.431 Y-124.980 Z10.123 F100
G1 X-30.284 Y-124.910 Z10.117 F100
G1 X-30.145 Y-124.825 Z10.112 F100
G1 X-30.014 Y-124.728 Z10.106 F100
G1 X-29.893 Y-124.619 Z10.100 F100
G1 X-29.783 Y-124.499 Z10.094 F100
G1 X-29.685 Y-124.369 Z10.088 F100
G1 X-29.599 Y-124.230 Z10.083 F100
G1 X-29.528 Y-124.084 Z10.077 F100
G1 X-29.470 Y-123.932 Z10.071 F100
G1 X-29.427 Y-123.775 Z10.065 F100
G1 X-29.399 Y-123.614 Z10.060 F100
G1 X-29.387 Y-123.452 Z10.054 F100
G1 X-29.390 Y-123.289 Z10.048 F100
G1 X-29.408 Y-123.127 Z10.042 F100
G1 X-29.442 Y-122.968 Z10.037 F100
G1 X-29.490 Y-122.813 Z10.031 F100
G1 X-29.553 Y-122.662 Z10.025 F100
G1 X-29.630 Y-122.519 Z10.019 F100
G1 X-29.720 Y-122.384 Z10.013 F100
G1 X-29.823 Y-122.258 Z10.008 F100
G1 X-29.937 Y-122.142 Z10.002 F100
G1 X-30.062 Y-122.037 Z9.996 F100
G1 X-30.196 Y-121.945 Z9.990 F100
G1 X-30.338 Y-121.866 Z9.985 F100
G1 X-30.487 Y-121.800 Z9.979 F100
G1 X-30.641 Y-121.749 Z9.973 F100
G1 X-30.800 Y-121.713 Z9.967 F100
G1 X-30.961 Y-121.692 Z9.962 F100
G1 X-31.124 Y-121.687 Z9.956 F100
G1 X-31.286 Y-121.697 Z9.950 F100
G1 X-31.447 Y-121.722 Z9.944 F100
G1 X-31.604 Y-121.763 Z9.938 F100
G1 X-31.757 Y-121.818 Z9.933 F100
G1 X-31.904 Y-121.887 Z9.927 F100
G1 X-32.044 Y-121.970 Z9.921 F100
G1 X-32.176 Y-122.066 Z9.915 F100
G1 X-32.297 Y-122.174 Z9.910 F100
G1 X-32.408 Y-122.293 Z9.904 F100
G1 X-32.507 Y-122.422 Z9.898 F100
G1 X-32.593 Y-122.560 Z9.892 F100
G1 X-32.666 Y-122.705 Z9.887 F100
G1 X-32.725 Y-122.857 Z9.881 F100
G1 X-32.769 Y-123.013 Z9.875 F100
G1 X-32.798 Y-123.173 Z9.869 F100
G1 X-32.812 Y-123.335 Z9.863 F100
G1 X-32.810 Y-123.497 Z9.858 F100
G1 X-32.793 Y-123.659 Z9.852 F100
G1 X-32.761 Y-123.818 Z9.846 F100
G1 X-32.714 Y-123.973 Z9.840 F100
G1 X-32.652 Y-124.124 Z9.835 F100
G1 X-32.576 Y-124.267 Z9.829 F100
G1 X-32.487 Y-124.403 Z9.823 F100
G1 X-32.386 Y-124.530 Z9.817 F100
G1 X-32.273 Y-124.647 Z9.812 F100
G1 X-32.149 Y-124.752 Z9.806 F100
G1 X-32.016 Y-124.846 Z9.800 F100
G1 X-31.875 Y-124.926 Z9.794 F100
G1 X-31.727 Y-124.992 Z9.788 F100
G1 X-31.573 Y-125.044 Z9.783 F100
G1 X-31.415 Y-125.082 Z9.777 F100
G1 X-31.255 Y-125.104 Z9.771 F100
G1 X-31.092 Y-125.111 Z9.765 F100
G1 X-30.930 Y-125.102 Z9.760 F100
G1 X-30.770 Y-125.078 Z9.754 F100
G1 X-30.612 Y-125.039 Z9.748 F100
G1 X-30.459 Y-124.985 Z9.742 F100
G1 X-30.312 Y-124.917 Z9.737 F100
G1 X-30.172 Y-124.835 Z9.731 F100
G1 X-30.040 Y-124.741 Z9.725 F100
G1 X-29.918 Y-124.634 Z9.719 F100
G1 X-29.806 Y-124.516 Z9.713 F100
G1 X-29.706 Y-124.388 Z9.708 F100
G1 X-29.619 Y-124.251 Z9.702 F100
G1 X-29.545 Y-124.107 Z9.696 F100
G1 X-29.485 Y-123.956 Z9.690 F100
G1 X-29.440 Y-123.800 Z9.685 F100
G1 X-29.409 Y-123.641 Z9.679 F100
G1 X-29.394 Y-123.479 Z9.673 F100
G1 X-29.395 Y-123.317 Z9.667 F100
G1 X-29.410 Y-123.156 Z9.662 F100
G1 X-29.441 Y-122.997 Z9.656 F100
G1 X-29.487 Y-122.841 Z9.650 F100
G1 X-29.547 Y-122.691 Z9.644 F100
G1 X-29.622 Y-122.547 Z9.638 F100
G1 X-29.709 Y-122.411 Z9.633 F100
G1 X-29.809 Y-122.283 Z9.627 F100
G1 X-29.921 Y-122.166 Z9.621 F100
G1 X-30.044 Y-122.060 Z9.615 F100
G1 X-30.176 Y-121.965 Z9.610 F100
G1 X-30.316 Y-121.884 Z9.604 F100
G1 X-30.463 Y-121.817 Z9.598 F100
G1 X-30.616 Y-121.763 Z9.592 F100
G1 X-30.774 Y-121.725 Z9.587 F100
G1 X-30.934 Y-121.702 Z9.581 F100
G1 X-31.096 Y-121.693 Z9.575 F100
G1 X-31.258 Y-121.701 Z9.569 F100
G1 X-31.418 Y-121.723 Z9.563 F100
G1 X-31.576 Y-121.761 Z9.558 F100
G1 X-31.729 Y-121.814 Z9.552 F100
G1 X-31.877 Y-121.880 Z9.546 F100
G1 X-32.017 Y-121.961 Z9.540 F100
G1 X-32.149 Y-122.054 Z9.535 F100
G1 X-32.272 Y-122.160 Z9.529 F100
G1 X-32.384 Y-122.276 Z9.523 F100
G1 X-32.485 Y-122.403 Z9.517 F100
G1 X-32.573 Y-122.539 Z9.512 F100
G1 X-32.648 Y-122.682 Z9.506 F100
G1 X-32.709 Y-122.832 Z9.500 F100
G1 X-32.756 Y-122.987 Z9.494 F100
G1 X-32.787 Y-123.146 Z9.488 F100
G1 X-32.804 Y-123.307 Z9.483 F100
G1 X-32.805 Y-123.469 Z9.477 F100
G1 X-32.791 Y-123.630 Z9.471 F100
G1 X-32.761 Y-123.789 Z9.465 F100
G1 X-32.717 Y-123.945 Z9.460 F100
G1 X-32.658 Y-124.096 Z9.454 F100
G1 X-32.584 Y-124.240 Z9.448 F100
G1 X-32.498 Y-124.377 Z9.442 F100
G1 X-32.399 Y-124.505 Z9.437 F100
G1 X-32.289 Y-124.623 Z9.431 F100
G1 X-32.167 Y-124.730 Z9.425 F100
G1 X-32.037 Y-124.825 Z9.419 F100
G1 X-31.897 Y-124.907 Z9.413 F100
G1 X-31.751 Y-124.976 Z9.408 F100
G1 X-31.598 Y-125.030 Z9.402 F100
G1 X-31.442 Y-125.070 Z9.396 F100
G1 X-31.282 Y-125.094 Z9.390 F100
G1 X-31.120 Y-125.104 Z9.385 F100
G1 X-30.959 Y-125.098 Z9.379 F100
G1 X-30.799 Y-125.077 Z9.373 F100
G1 X-30.641 Y-125.040 Z9.367 F100
G1 X-30.488 Y-124.989 Z9.362 F100
G1 X-30.340 Y-124.924 Z9.356 F100
G1 X-30.199 Y-124.845 Z9.350 F100
G1 X-30.066 Y-124.752 Z9.344 F100
G1 X-29.942 Y-124.648 Z9.338 F100
G1 X-29.829 Y-124.532 Z9.333 F100
G1 X-29.728 Y-124.407 Z9.327 F100
G1 X-29.639 Y-124.272 Z9.321 F100
G1 X-29.563 Y-124.129 Z9.315 F100
G1 X-29.501 Y-123.980 Z9.310 F100
G1 X-29.453 Y-123.826 Z9.304 F100
G1 X-29.420 Y-123.668 Z9.298 F100
G1 X-29.402 Y-123.507 Z9.292 F100
G1 X-29.400 Y-123.346 Z9.287 F100
G1 X-29.413 Y-123.185 Z9.281 F100
G1 X-29.441 Y-123.026 Z9.275 F100
G1 X-29.484 Y-122.870 Z9.269 F100
G1 X-29.542 Y-122.719 Z9.263 F100
G1 X-29.614 Y-122.575 Z9.258 F100
G1 X-29.699 Y-122.437 Z9.252 F100
G1 X-29.796 Y-122.309 Z9.246 F100
G1 X-29.906 Y-122.190 Z9.240 F100
G1 X-30.026 Y-122.082 Z9.235 F100
G1 X-30.156 Y-121.986 Z9.229 F100
G1 X-30.295 Y-121.903 Z9.223 F100
G1 X-30.440 Y-121.833 Z9.217 F100
G1 X-30.592 Y-121.778 Z9.212 F100
G1 X-30.748 Y-121.737 Z9.206 F100
G1 X-30.907 Y-121.711 Z9.200 F100
G1 X-31.068 Y-121.700 Z9.194 F100
G1 X-31.229 Y-121.705 Z9.188 F100
G1 X-31.389 Y-121.725 Z9.183 F100
G1 X-31.547 Y-121.760 Z9.177 F100
G1 X-31.700 Y-121.810 Z9.171 F100
G1 X-31.848 Y-121.874 Z9.165 F100
G1 X-31.990 Y-121.951 Z9.160 F100
G1 X-32.123 Y-122.042 Z9.154 F100
G1 X-32.247 Y-122.145 Z9.148 F100
G1 X-32.361 Y-122.260 Z9.142 F100
G1 X-32.463 Y-122.385 Z9.137 F100
G1 X-32.553 Y-122.518 Z9.131 F100
G1 X-32.630 Y-122.660 Z9.125 F100
G1 X-32.694 Y-122.809 Z9.119 F100
G1 X-32.742 Y-122.962 Z9.113 F100
G1 X-32.777 Y-123.120 Z9.108 F100
G1 X-32.796 Y-123.280 Z9.102 F100
G1 X-32.799 Y-123.441 Z9.096 F100
G1 X-32.788 Y-123.602 Z9.090 F100
G1 X-32.761 Y-123.761 Z9.085 F100
G1 X-32.719 Y-123.916 Z9.079 F100
G1 X-32.663 Y-124.067 Z9.073 F100
G1 X-32.592 Y-124.212 Z9.067 F100
G1 X-32.509 Y-124.350 Z9.062 F100
G1 X-32.412 Y-124.479 Z9.056 F100
G1 X-32.304 Y-124.598 Z9.050 F100
G1 X-32.185 Y-124.707 Z9.044 F100
G1 X-32.056 Y-124.804 Z9.038 F100
G1 X-31.919 Y-124.888 Z9.033 F100
G1 X-31.774 Y-124.959 Z9.027 F100
G1 X-31.623 Y-125.015 Z9.021 F100
G1 X-31.467 Y-125.057 Z9.015 F100
G1 X-31.309 Y-125.085 Z9.010 F100
G1 X-31.148 Y-125.097 Z9.004 F100
G1 X-30.987 Y-125.093 Z8.998 F100
G1 X-30.827 Y-125.075 Z8.992 F100
G1 X-30.669 Y-125.041 Z8.987 F100
G1 X-30.516 Y-124.993 Z8.981 F100
G1 X-30.367 Y-124.930 Z8.975 F100
G1 X-30.226 Y-124.853 Z8.969 F100
G1 X-30.092 Y-124.764 Z8.963 F100
G1 X-29.968 Y-124.662 Z8.958 F100
G1 X-29.853 Y-124.549 Z8.952 F100
G1 X-29.750 Y-124.425 Z8.946 F100
G1 X-29.659 Y-124.293 Z8.940 F100
G1 X-29.581 Y-124.152 Z8.935 F100
G1 X-29.517 Y-124.004 Z8.929 F100
G1 X-29.467 Y-123.851 Z8.923 F100
G1 X-29.431 Y-123.694 Z8.917 F100
G1 X-29.411 Y-123.535 Z8.912 F100
G1 X-29.406 Y-123.374 Z8.906 F100
G1 X-29.416 Y-123.213 Z8.900 F100
G1 X-29.442 Y-123.054 Z8.894 F100
G1 X-29.482 Y-122.898 Z8.888 F100
G1 X-29.537 Y-122.747 Z8.883 F100
G1 X-29.606 Y-122.602 Z8.877 F100
G1 X-29.689 Y-122.464 Z8.871 F100
G1 X-29.784 Y-122.334 Z8.865 F100
G1 X-29.891 Y-122.214 Z8.860 F100
G1 X-30.009 Y-122.105 Z8.854 F100
G1 X-30.137 Y-122.007 Z8.848 F100
G1 X-30.273 Y-121.922 Z8.842 F100
G1 X-30.417 Y-121.851 Z8.837 F100
G1 X-30.567 Y-121.793 Z8.831 F100
G1 X-30.722 Y-121.749 Z8.825 F100
G1 X-30.880 Y-121.721 Z8.819 F100
G1 X-31.040 Y-121.708 Z8.813 F100
G1 X-31.201 Y-121.710 Z8.808 F100
G1 X-31.361 Y-121.727 Z8.802 F100
G1 X-31.518 Y-121.759 Z8.796 F100
G1 X-31.672 Y-121.806 Z8.790 F100
G1 X-31.821 Y-121.868 Z8.785 F100
G1 X-31.963 Y-121.943 Z8.779 F100
G1 X-32.097 Y-122.031 Z8.773 F100
G1 X-32.222 Y-122.132 Z8.767 F100
G1 X-32.337 Y-122.244 Z8.762 F100
G1 X-32.441 Y-122.367 Z8.756 F100
G1 X-32.533 Y-122.498 Z8.750 F100
G1 X-32.612 Y-122.638 Z8.744 F100
G1 X-32.678 Y-122.785 Z8.738 F100
G1 X-32.729 Y-122.937 Z8.733 F100
G1 X-32.765 Y-123.093 Z8.727 F100
G1 X-32.787 Y-123.253 Z8.721 F100
G1 X-32.793 Y-123.413 Z8.715 F100
G1 X-32.784 Y-123.573 Z8.710 F100
G1 X-32.760 Y-123.732 Z8.704 F100
G1 X-32.721 Y-123.888 Z8.698 F100
G1 X-32.667 Y-124.039 Z8.692 F100
G1 X-32.600 Y-124.185 Z8.687 F100
G1 X-32.518 Y-124.323 Z8.681 F100
G1 X-32.424 Y-124.453 Z8.675 F100
G1 X-32.318 Y-124.574 Z8.669 F100
G1 X-32.202 Y-124.684 Z8.663 F100
G1 X-32.075 Y-124.783 Z8.658 F100
G1 X-31.939 Y-124.869 Z8.652 F100
G1 X-31.796 Y-124.942 Z8.646 F100
G1 X-31.647 Y-125.000 Z8.640 F100
G1 X-31.493 Y-125.045 Z8.635 F100
G1 X-31.335 Y-125.075 Z8.629 F100
G1 X-31.175 Y-125.089 Z8.623 F100
G1 X-31.015 Y-125.088 Z8.617 F100
G1 X-30.855 Y-125.073 Z8.612 F100
G1 X-30.698 Y-125.042 Z8.606 F100
G1 X-30.544 Y-124.996 Z8.600 F100
G1 X-30.396 Y-124.936 Z8.594 F100
G1 X-30.253 Y-124.862 Z8.588 F100
G1 X-30.119 Y-124.775 Z8.583 F100
G1 X-29.993 Y-124.675 Z8.577 F100
G1 X-29.877 Y-124.565 Z8.571 F100
G1 X-29.772 Y-124.443 Z8.565 F100
G1 X-29.679 Y-124.312 Z8.560 F100
G1 X-29.599 Y-124.173 Z8.554 F100
G1 X-29.533 Y-124.027 Z8.548 F100
G1 X-29.481 Y-123.876 Z8.542 F100
G1 X-29.443 Y-123.720 Z8.537 F100
G1 X-29.420 Y-123.561 Z8.531 F100
G1 X-29.413 Y-123.401 Z8.525 F100
G1 X-29.420 Y-123.238 Z8.525 F100
G1 X-29.444 Y-123.076 Z8.525 F100
G1 X-29.483 Y-122.918 Z8.525 F100
G1 X-29.537 Y-122.764 Z8.525 F100
G1 X-29.606 Y-122.616 Z8.525 F100
G1 X-29.689 Y-122.475 Z8.525 F100
G1 X-29.785 Y-122.343 Z8.525 F100
G1 X-29.893 Y-122.221 Z8.525 F100
G1 X-30.013 Y-122.110 Z8.525 F100
G1 X-30.142 Y-122.011 Z8.525 F100
G1 X-30.281 Y-121.924 Z8.525 F100
G1 X-30.427 Y-121.852 Z8.525 F100
G1 X-30.580 Y-121.794 Z8.525 F100
G1 X-30.738 Y-121.751 Z8.525 F100
G1 X-30.898 Y-121.724 Z8.525 F100
G1 X-31.061 Y-121.712 Z8.525 F100
G1 X-31.225 Y-121.716 Z8.525 F100
G1 X-31.387 Y-121.736 Z8.525 F100
G1 X-31.546 Y-121.771 Z8.525 F100
G1 X-31.701 Y-121.821 Z8.525 F100
G1 X-31.851 Y-121.886 Z8.525 F100
G1 X-31.994 Y-121.966 Z8.525 F100
G1 X-32.128 Y-122.059 Z8.525 F100
G1 X-32.253 Y-122.164 Z8.525 F100
G1 X-32.367 Y-122.281 Z8.525 F100
G1 X-32.469 Y-122.408 Z8.525 F100
G1 X-32.558 Y-122.545 Z8.525 F100
G1 X-32.634 Y-122.689 Z8.525 F100
G1 X-32.696 Y-122.840 Z8.525 F100
G1 X-32.743 Y-122.997 Z8.525 F100
G1 X-32.774 Y-123.157 Z8.525 F100
G1 X-32.790 Y-123.319 Z8.525 F100
G1 X-32.790 Y-123.483 Z8.525 F100
G1 X-32.774 Y-123.645 Z8.525 F100
G1 X-32.743 Y-123.805 Z8.525 F100
G1 X-32.696 Y-123.962 Z8.525 F100
G1 X-32.634 Y-124.113 Z8.525 F100
G1 X-32.558 Y-124.258 Z8.525 F100
G1 X-32.469 Y-124.394 Z8.525 F100
G1 X-32.367 Y-124.521 Z8.525 F100
G1 X-32.253 Y-124.638 Z8.525 F100
G1 X-32.128 Y-124.744 Z8.525 F100
G1 X-31.994 Y-124.836 Z8.525 F100
G1 X-31.851 Y-124.916 Z8.525 F100
G1 X-31.701 Y-124.981 Z8.525 F100
G1 X-31.546 Y-125.031 Z8.525 F100
G1 X-31.387 Y-125.067 Z8.525 F100
G1 X-31.225 Y-125.086 Z8.525 F100
G1 X-31.061 Y-125.090 Z8.525 F100
G1 X-30.898 Y-125.078 Z8.525 F100
G1 X-30.738 Y-125.051 Z8.525 F100
G1 X-30.580 Y-125.008 Z8.525 F100
G1 X-30.427 Y-124.950 Z8.525 F100
G1 X-30.281 Y-124.878 Z8.525 F100
G1 X-30.142 Y-124.792 Z8.525 F100
G1 X-30.013 Y-124.692 Z8.525 F100
G1 X-29.893 Y-124.581 Z8.525 F100
G1 X-29.785 Y-124.459 Z8.525 F100
G1 X-29.689 Y-124.327 Z8.525 F100
G1 X-29.606 Y-124.186 Z8.525 F100
G1 X-29.537 Y-124.038 Z8.525 F100
G1 X-29.483 Y-123.884 Z8.525 F100
G1 X-29.444 Y-123.726 Z8.525 F100
G1 X-29.420 Y-123.564 Z8.525 F100
G1 X-29.413 Y-123.401 Z8.525 F100
G1 X-29.383 Y-122.515 Z8.525 F100
G1 X-29.357 Y-122.276 Z8.525 F100
G1 X-29.398 Y-122.038 Z8.525 F100
G1 X-29.502 Y-121.820 Z8.525 F100
G1 X-29.661 Y-121.639 Z8.525 F100
G1 X-29.863 Y-121.509 Z8.525 F100
G1 X-30.094 Y-121.438 Z8.525 F100
G1 X-30.299 Y-121.421 Z8.525 F100
G1 X-30.903 Y-121.400 Z8.525 F100
G1 X-31.507 Y-121.400 Z8.525 F100
G1 X-31.708 Y-121.405 Z8.525 F100
G1 X-31.910 Y-121.414 Z8.525 F100
G1 X-32.111 Y-121.439 Z8.525 F100
G1 X-32.312 Y-121.471 Z8.525 F100
G1 X-32.413 Y-121.498 Z8.525 F100
G1 X-32.514 Y-121.544 Z8.525 F100
G1 X-32.614 Y-121.597 Z8.525 F100
G1 X-32.664 Y-121.630 Z8.525 F100
G1 X-32.715 Y-121.672 Z8.525 F100
G1 X-32.817 Y-121.773 Z8.525 F100
G1 X-32.860 Y-121.823 Z8.525 F100
G1 X-32.895 Y-121.873 Z8.525 F100
G1 X-32.916 Y-121.909 Z8.525 F100
G1 X-32.997 Y-122.074 Z8.525 F100
G1 X-33.014 Y-122.125 Z8.525 F100
G1 X-33.026 Y-122.175 Z8.525 F100
G1 X-33.043 Y-122.276 Z8.525 F100
G1 X-33.070 Y-122.477 Z8.525 F100
G1 X-33.095 Y-122.678 Z8.525 F100
G1 X-33.100 Y-122.880 Z8.525 F100
G1 X-33.100 Y-124.087 Z8.525 F100
G1 X-33.078 Y-124.289 Z8.525 F100
G1 X-33.048 Y-124.490 Z8.525 F100
G1 X-33.009 Y-124.691 Z8.525 F100
G1 X-32.968 Y-124.791 Z8.525 F100
G1 X-32.916 Y-124.892 Z8.525 F100
G1 X-32.885 Y-124.943 Z8.525 F100
G1 X-32.847 Y-124.993 Z8.525 F100
G1 X-32.751 Y-125.094 Z8.525 F100
G1 X-32.715 Y-125.128 Z8.525 F100
G1 X-32.665 Y-125.169 Z8.525 F100
G1 X-32.614 Y-125.203 Z8.525 F100
G1 X-32.514 Y-125.256 Z8.525 F100
G1 X-32.430 Y-125.295 Z8.525 F100
G1 X-32.371 Y-125.314 Z8.525 F100
G1 X-32.312 Y-125.329 Z8.525 F100
G1 X-32.111 Y-125.361 Z8.525 F100
G1 X-31.910 Y-125.377 Z8.525 F100
G1 X-31.708 Y-125.392 Z8.525 F100
G1 X-31.507 Y-125.400 Z8.525 F100
G1 X-30.903 Y-125.400 Z8.525 F100
G1 X-30.299 Y-125.379 Z8.525 F100
G1 X-30.097 Y-125.362 Z8.525 F100
G1 X-29.896 Y-125.330 Z8.525 F100
G1 X-29.833 Y-125.316 Z8.525 F100
G1 X-29.769 Y-125.295 Z8.525 F100
G1 X-29.695 Y-125.260 Z8.525 F100
G1 X-29.594 Y-125.208 Z8.525 F100
G1 X-29.544 Y-125.175 Z8.525 F100
G1 X-29.493 Y-125.136 Z8.525 F100
G1 X-29.449 Y-125.094 Z8.525 F100
G1 X-29.358 Y-125.000 Z8.525 F100
G1 X-29.292 Y-124.906 Z8.525 F100
G1 X-29.284 Y-124.892 Z8.525 F100
G1 X-29.233 Y-124.792 Z8.525 F100
G1 X-29.191 Y-124.691 Z8.525 F100
G1 X-29.152 Y-124.490 Z8.525 F100
G1 X-29.122 Y-124.289 Z8.525 F100
G1 X-29.100 Y-124.087 Z8.525 F100
G1 X-29.100 Y-122.880 Z8.525 F100
G1 X-29.105 Y-122.678 Z8.525 F100
G1 X-29.130 Y-122.477 Z8.525 F100
G1 X-29.157 Y-122.276 Z8.525 F100
G1 X-29.174 Y-122.175 Z8.525 F100
G1 X-29.186 Y-122.125 Z8.525 F100
G1 X-29.203 Y-122.074 Z8.525 F100
G1 X-29.292 Y-121.894 Z8.525 F100
G1 X-29.305 Y-121.873 Z8.525 F100
G1 X-29.340 Y-121.823 Z8.525 F100
G1 X-29.383 Y-121.773 Z8.525 F100
G1 X-29.493 Y-121.665 Z8.525 F100
G1 X-29.544 Y-121.624 Z8.525 F100
G1 X-29.594 Y-121.592 Z8.525 F100
G1 X-29.695 Y-121.540 Z8.525 F100
G1 X-29.794 Y-121.496 Z8.525 F100
G1 X-29.896 Y-121.470 Z8.525 F100
G1 X-30.094 Y-121.438 Z8.525 F100
G1 X-30.119 Y-121.450 Z8.525 F100
G1 X-30.137 Y-121.472 Z8.525 F100
G1 X-30.177 Y-121.557 Z8.532 F100
G1 X-30.215 Y-121.640 Z8.554 F100
G1 X-30.252 Y-121.719 Z8.590 F100
G1 X-30.286 Y-121.791 Z8.640 F100
G1 X-30.317 Y-121.856 Z8.701 F100
G1 X-30.342 Y-121.912 Z8.772 F100
G1 X-30.363 Y-121.956 Z8.853 F100
G1 X-30.379 Y-121.989 Z8.940 F100
G1 X-30.388 Y-122.009 Z9.031 F100
G1 X-30.391 Y-122.015 Z9.125 F100
G1 X-30.391 Y-122.015 Z64.525 F100
;When using Fusion for Personal Use, the feedrate of rapid
;moves is reduced to match the feedrate of cutting moves,
;which can increase machining time. Unrestricted rapid moves
;are available with a Fusion Subscription.

;13500-100
M3 P75
G4 S4
G0 X-18.999 Y-122.053 Z24.525
G1 X-18.999 Y-122.053 Z24.525 F100
G1 X-18.999 Y-122.053 Z14.525 F100
G1 X-18.999 Y-122.053 Z12.025 F100
G1 X-19.132 Y-121.955 Z12.019 F100
G1 X-19.273 Y-121.869 Z12.013 F100
G1 X-19.422 Y-121.798 Z12.008 F100
G1 X-19.577 Y-121.741 Z12.002 F100
G1 X-19.737 Y-121.699 Z11.996 F100
G1 X-19.900 Y-121.672 Z11.990 F100
G1 X-20.065 Y-121.661 Z11.985 F100
G1 X-20.230 Y-121.665 Z11.979 F100
G1 X-20.394 Y-121.685 Z11.973 F100
G1 X-20.555 Y-121.721 Z11.967 F100
G1 X-20.712 Y-121.772 Z11.962 F100
G1 X-20.864 Y-121.837 Z11.956 F100
G1 X-21.009 Y-121.917 Z11.950 F100
G1 X-21.145 Y-122.009 Z11.944 F100
G1 X-21.272 Y-122.115 Z11.938 F100
G1 X-21.389 Y-122.232 Z11.933 F100
G1 X-21.494 Y-122.359 Z11.927 F100
G1 X-21.586 Y-122.496 Z11.921 F100
G1 X-21.665 Y-122.641 Z11.915 F100
G1 X-21.730 Y-122.793 Z11.910 F100
G1 X-21.781 Y-122.950 Z11.904 F100
G1 X-21.816 Y-123.111 Z11.898 F100
G1 X-21.835 Y-123.275 Z11.892 F100
G1 X-21.839 Y-123.440 Z11.887 F100
G1 X-21.828 Y-123.604 Z11.881 F100
G1 X-21.800 Y-123.767 Z11.875 F100
G1 X-21.758 Y-123.927 Z11.869 F100
G1 X-21.700 Y-124.081 Z11.863 F100
G1 X-21.629 Y-124.230 Z11.858 F100
G1 X-21.543 Y-124.371 Z11.852 F100
G1 X-21.444 Y-124.503 Z11.846 F100
G1 X-21.334 Y-124.625 Z11.840 F100
G1 X-21.212 Y-124.737 Z11.835 F100
G1 X-21.080 Y-124.836 Z11.829 F100
G1 X-20.940 Y-124.922 Z11.823 F100
G1 X-20.791 Y-124.995 Z11.817 F100
G1 X-20.637 Y-125.053 Z11.812 F100
G1 X-20.478 Y-125.096 Z11.806 F100
G1 X-20.315 Y-125.124 Z11.800 F100
G1 X-20.151 Y-125.137 Z11.794 F100
G1 X-19.986 Y-125.133 Z11.788 F100
G1 X-19.822 Y-125.115 Z11.783 F100
G1 X-19.661 Y-125.080 Z11.777 F100
G1 X-19.504 Y-125.031 Z11.771 F100
G1 X-19.352 Y-124.967 Z11.765 F100
G1 X-19.207 Y-124.889 Z11.760 F100
G1 X-19.070 Y-124.797 Z11.754 F100
G1 X-18.943 Y-124.693 Z11.748 F100
G1 X-18.825 Y-124.578 Z11.742 F100
G1 X-18.720 Y-124.451 Z11.737 F100
G1 X-18.626 Y-124.315 Z11.731 F100
G1 X-18.546 Y-124.171 Z11.725 F100
G1 X-18.480 Y-124.020 Z11.719 F100
G1 X-18.429 Y-123.864 Z11.713 F100
G1 X-18.393 Y-123.703 Z11.708 F100
G1 X-18.372 Y-123.540 Z11.702 F100
G1 X-18.366 Y-123.375 Z11.696 F100
G1 X-18.377 Y-123.211 Z11.690 F100
G1 X-18.403 Y-123.048 Z11.685 F100
G1 X-18.444 Y-122.888 Z11.679 F100
G1 X-18.500 Y-122.734 Z11.673 F100
G1 X-18.570 Y-122.585 Z11.667 F100
G1 X-18.655 Y-122.443 Z11.662 F100
G1 X-18.752 Y-122.311 Z11.656 F100
G1 X-18.861 Y-122.188 Z11.650 F100
G1 X-18.982 Y-122.076 Z11.644 F100
G1 X-19.113 Y-121.976 Z11.638 F100
G1 X-19.252 Y-121.889 Z11.633 F100
G1 X-19.400 Y-121.815 Z11.627 F100
G1 X-19.553 Y-121.756 Z11.621 F100
G1 X-19.712 Y-121.711 Z11.615 F100
G1 X-19.874 Y-121.682 Z11.610 F100
G1 X-20.038 Y-121.668 Z11.604 F100
G1 X-20.202 Y-121.670 Z11.598 F100
G1 X-20.366 Y-121.688 Z11.592 F100
G1 X-20.527 Y-121.721 Z11.587 F100
G1 X-20.684 Y-121.769 Z11.581 F100
G1 X-20.837 Y-121.831 Z11.575 F100
G1 X-20.982 Y-121.908 Z11.569 F100
G1 X-21.120 Y-121.999 Z11.563 F100
G1 X-21.248 Y-122.102 Z11.558 F100
G1 X-21.366 Y-122.216 Z11.552 F100
G1 X-21.472 Y-122.341 Z11.546 F100
G1 X-21.566 Y-122.476 Z11.540 F100
G1 X-21.647 Y-122.619 Z11.535 F100
G1 X-21.714 Y-122.769 Z11.529 F100
G1 X-21.767 Y-122.925 Z11.523 F100
G1 X-21.804 Y-123.085 Z11.517 F100
G1 X-21.826 Y-123.248 Z11.512 F100
G1 X-21.833 Y-123.412 Z11.506 F100
G1 X-21.824 Y-123.576 Z11.500 F100
G1 X-21.799 Y-123.739 Z11.494 F100
G1 X-21.759 Y-123.898 Z11.488 F100
G1 X-21.705 Y-124.053 Z11.483 F100
G1 X-21.635 Y-124.203 Z11.477 F100
G1 X-21.552 Y-124.344 Z11.471 F100
G1 X-21.456 Y-124.478 Z11.465 F100
G1 X-21.348 Y-124.601 Z11.460 F100
G1 X-21.228 Y-124.714 Z11.454 F100
G1 X-21.099 Y-124.815 Z11.448 F100
G1 X-20.960 Y-124.903 Z11.442 F100
G1 X-20.814 Y-124.978 Z11.437 F100
G1 X-20.661 Y-125.038 Z11.431 F100
G1 X-20.503 Y-125.084 Z11.425 F100
G1 X-20.342 Y-125.114 Z11.419 F100
G1 X-20.178 Y-125.129 Z11.413 F100
G1 X-20.014 Y-125.128 Z11.408 F100
G1 X-19.851 Y-125.112 Z11.402 F100
G1 X-19.690 Y-125.081 Z11.396 F100
G1 X-19.532 Y-125.034 Z11.390 F100
G1 X-19.380 Y-124.973 Z11.385 F100
G1 X-19.234 Y-124.897 Z11.379 F100
G1 X-19.096 Y-124.808 Z11.373 F100
G1 X-18.967 Y-124.706 Z11.367 F100
G1 X-18.849 Y-124.593 Z11.362 F100
G1 X-18.741 Y-124.469 Z11.356 F100
G1 X-18.646 Y-124.335 Z11.350 F100
G1 X-18.564 Y-124.192 Z11.344 F100
G1 X-18.496 Y-124.043 Z11.338 F100
G1 X-18.443 Y-123.888 Z11.333 F100
G1 X-18.404 Y-123.728 Z11.327 F100
G1 X-18.381 Y-123.566 Z11.321 F100
G1 X-18.373 Y-123.402 Z11.315 F100
G1 X-18.380 Y-123.238 Z11.310 F100
G1 X-18.404 Y-123.076 Z11.304 F100
G1 X-18.442 Y-122.917 Z11.298 F100
G1 X-18.496 Y-122.762 Z11.292 F100
G1 X-18.564 Y-122.612 Z11.287 F100
G1 X-18.645 Y-122.470 Z11.281 F100
G1 X-18.740 Y-122.336 Z11.275 F100
G1 X-18.847 Y-122.212 Z11.269 F100
G1 X-18.966 Y-122.099 Z11.263 F100
G1 X-19.094 Y-121.997 Z11.258 F100
G1 X-19.232 Y-121.908 Z11.252 F100
G1 X-19.378 Y-121.832 Z11.246 F100
G1 X-19.530 Y-121.771 Z11.240 F100
G1 X-19.687 Y-121.724 Z11.235 F100
G1 X-19.848 Y-121.692 Z11.229 F100
G1 X-20.011 Y-121.676 Z11.223 F100
G1 X-20.175 Y-121.676 Z11.217 F100
G1 X-20.338 Y-121.690 Z11.212 F100
G1 X-20.499 Y-121.721 Z11.206 F100
G1 X-20.656 Y-121.766 Z11.200 F100
G1 X-20.809 Y-121.826 Z11.194 F100
G1 X-20.955 Y-121.900 Z11.188 F100
G1 X-21.093 Y-121.988 Z11.183 F100
G1 X-21.223 Y-122.088 Z11.177 F100
G1 X-21.342 Y-122.201 Z11.171 F100
G1 X-21.450 Y-122.324 Z11.165 F100
G1 X-21.546 Y-122.457 Z11.160 F100
G1 X-21.629 Y-122.598 Z11.154 F100
G1 X-21.698 Y-122.746 Z11.148 F100
G1 X-21.753 Y-122.901 Z11.142 F100
G1 X-21.792 Y-123.060 Z11.137 F100
G1 X-21.817 Y-123.222 Z11.131 F100
G1 X-21.826 Y-123.385 Z11.125 F100
G1 X-21.820 Y-123.549 Z11.119 F100
G1 X-21.798 Y-123.711 Z11.113 F100
G1 X-21.761 Y-123.871 Z11.108 F100
G1 X-21.708 Y-124.026 Z11.102 F100
G1 X-21.642 Y-124.176 Z11.096 F100
G1 X-21.561 Y-124.318 Z11.090 F100
G1 X-21.468 Y-124.452 Z11.085 F100
G1 X-21.362 Y-124.577 Z11.079 F100
G1 X-21.245 Y-124.691 Z11.073 F100
G1 X-21.117 Y-124.794 Z11.067 F100
G1 X-20.980 Y-124.884 Z11.062 F100
G1 X-20.836 Y-124.960 Z11.056 F100
G1 X-20.685 Y-125.023 Z11.050 F100
G1 X-20.528 Y-125.071 Z11.044 F100
G1 X-20.368 Y-125.103 Z11.038 F100
G1 X-20.205 Y-125.121 Z11.033 F100
G1 X-20.042 Y-125.123 Z11.027 F100
G1 X-19.879 Y-125.109 Z11.021 F100
G1 X-19.718 Y-125.080 Z11.015 F100
G1 X-19.560 Y-125.036 Z11.010 F100
G1 X-19.407 Y-124.978 Z11.004 F100
G1 X-19.261 Y-124.905 Z10.998 F100
G1 X-19.122 Y-124.818 Z10.992 F100
G1 X-18.992 Y-124.719 Z10.987 F100
G1 X-18.872 Y-124.608 Z10.981 F100
G1 X-18.763 Y-124.486 Z10.975 F100
G1 X-18.667 Y-124.354 Z10.969 F100
G1 X-18.583 Y-124.214 Z10.963 F100
G1 X-18.513 Y-124.066 Z10.958 F100
G1 X-18.457 Y-123.912 Z10.952 F100
G1 X-18.416 Y-123.754 Z10.946 F100
G1 X-18.390 Y-123.593 Z10.940 F100
G1 X-18.380 Y-123.430 Z10.935 F100
G1 X-18.385 Y-123.266 Z10.929 F100
G1 X-18.405 Y-123.104 Z10.923 F100
G1 X-18.441 Y-122.945 Z10.917 F100
G1 X-18.492 Y-122.789 Z10.912 F100
G1 X-18.557 Y-122.640 Z10.906 F100
G1 X-18.637 Y-122.497 Z10.900 F100
G1 X-18.729 Y-122.362 Z10.894 F100
G1 X-18.834 Y-122.237 Z10.888 F100
G1 X-18.950 Y-122.122 Z10.883 F100
G1 X-19.077 Y-122.018 Z10.877 F100
G1 X-19.212 Y-121.927 Z10.871 F100
G1 X-19.356 Y-121.850 Z10.865 F100
G1 X-19.506 Y-121.786 Z10.860 F100
G1 X-19.662 Y-121.737 Z10.854 F100
G1 X-19.822 Y-121.703 Z10.848 F100
G1 X-19.984 Y-121.684 Z10.842 F100
G1 X-20.147 Y-121.681 Z10.837 F100
G1 X-20.310 Y-121.693 Z10.831 F100
G1 X-20.471 Y-121.721 Z10.825 F100
G1 X-20.628 Y-121.764 Z10.819 F100
G1 X-20.781 Y-121.821 Z10.813 F100
G1 X-20.928 Y-121.893 Z10.808 F100
G1 X-21.067 Y-121.978 Z10.802 F100
G1 X-21.197 Y-122.076 Z10.796 F100
G1 X-21.318 Y-122.186 Z10.790 F100
G1 X-21.428 Y-122.307 Z10.785 F100
G1 X-21.525 Y-122.438 Z10.779 F100
G1 X-21.610 Y-122.577 Z10.773 F100
G1 X-21.681 Y-122.724 Z10.767 F100
G1 X-21.738 Y-122.877 Z10.762 F100
G1 X-21.780 Y-123.035 Z10.756 F100
G1 X-21.808 Y-123.196 Z10.750 F100
G1 X-21.819 Y-123.358 Z10.744 F100
G1 X-21.815 Y-123.521 Z10.738 F100
G1 X-21.796 Y-123.683 Z10.733 F100
G1 X-21.762 Y-123.843 Z10.727 F100
G1 X-21.712 Y-123.998 Z10.721 F100
G1 X-21.648 Y-124.148 Z10.715 F100
G1 X-21.570 Y-124.291 Z10.710 F100
G1 X-21.479 Y-124.426 Z10.704 F100
G1 X-21.375 Y-124.552 Z10.698 F100
G1 X-21.260 Y-124.668 Z10.692 F100
G1 X-21.135 Y-124.772 Z10.687 F100
G1 X-21.000 Y-124.864 Z10.681 F100
G1 X-20.857 Y-124.942 Z10.675 F100
G1 X-20.708 Y-125.007 Z10.669 F100
G1 X-20.553 Y-125.057 Z10.663 F100
G1 X-20.393 Y-125.092 Z10.658 F100
G1 X-20.232 Y-125.112 Z10.652 F100
G1 X-20.069 Y-125.117 Z10.646 F100
G1 X-19.906 Y-125.106 Z10.640 F100
G1 X-19.745 Y-125.080 Z10.635 F100
G1 X-19.588 Y-125.038 Z10.629 F100
G1 X-19.435 Y-124.982 Z10.623 F100
G1 X-19.288 Y-124.912 Z10.617 F100
G1 X-19.148 Y-124.828 Z10.612 F100
G1 X-19.017 Y-124.731 Z10.606 F100
G1 X-18.896 Y-124.622 Z10.600 F100
G1 X-18.786 Y-124.503 Z10.594 F100
G1 X-18.688 Y-124.373 Z10.588 F100
G1 X-18.602 Y-124.234 Z10.583 F100
G1 X-18.530 Y-124.088 Z10.577 F100
G1 X-18.472 Y-123.936 Z10.571 F100
G1 X-18.428 Y-123.779 Z10.565 F100
G1 X-18.400 Y-123.619 Z10.560 F100
G1 X-18.387 Y-123.456 Z10.554 F100
G1 X-18.390 Y-123.294 Z10.548 F100
G1 X-18.408 Y-123.132 Z10.542 F100
G1 X-18.441 Y-122.972 Z10.537 F100
G1 X-18.489 Y-122.817 Z10.531 F100
G1 X-18.552 Y-122.666 Z10.525 F100
G1 X-18.628 Y-122.523 Z10.519 F100
G1 X-18.718 Y-122.387 Z10.513 F100
G1 X-18.821 Y-122.261 Z10.508 F100
G1 X-18.934 Y-122.145 Z10.502 F100
G1 X-19.059 Y-122.040 Z10.496 F100
G1 X-19.192 Y-121.947 Z10.490 F100
G1 X-19.334 Y-121.868 Z10.485 F100
G1 X-19.483 Y-121.802 Z10.479 F100
G1 X-19.638 Y-121.751 Z10.473 F100
G1 X-19.796 Y-121.714 Z10.467 F100
G1 X-19.957 Y-121.693 Z10.462 F100
G1 X-20.120 Y-121.687 Z10.456 F100
G1 X-20.282 Y-121.697 Z10.450 F100
G1 X-20.443 Y-121.722 Z10.444 F100
G1 X-20.601 Y-121.762 Z10.438 F100
G1 X-20.754 Y-121.817 Z10.433 F100
G1 X-20.901 Y-121.886 Z10.427 F100
G1 X-21.041 Y-121.969 Z10.421 F100
G1 X-21.173 Y-122.064 Z10.415 F100
G1 X-21.294 Y-122.172 Z10.410 F100
G1 X-21.405 Y-122.291 Z10.404 F100
G1 X-21.505 Y-122.419 Z10.398 F100
G1 X-21.591 Y-122.557 Z10.392 F100
G1 X-21.664 Y-122.702 Z10.387 F100
G1 X-21.724 Y-122.853 Z10.381 F100
G1 X-21.768 Y-123.010 Z10.375 F100
G1 X-21.797 Y-123.169 Z10.369 F100
G1 X-21.812 Y-123.331 Z10.363 F100
G1 X-21.810 Y-123.494 Z10.358 F100
G1 X-21.794 Y-123.655 Z10.352 F100
G1 X-21.762 Y-123.815 Z10.346 F100
G1 X-21.715 Y-123.970 Z10.340 F100
G1 X-21.654 Y-124.121 Z10.335 F100
G1 X-21.578 Y-124.265 Z10.329 F100
G1 X-21.490 Y-124.401 Z10.323 F100
G1 X-21.388 Y-124.528 Z10.317 F100
G1 X-21.276 Y-124.645 Z10.312 F100
G1 X-21.152 Y-124.750 Z10.306 F100
G1 X-21.019 Y-124.844 Z10.300 F100
G1 X-20.878 Y-124.925 Z10.294 F100
G1 X-20.730 Y-124.991 Z10.288 F100
G1 X-20.577 Y-125.044 Z10.283 F100
G1 X-20.419 Y-125.081 Z10.277 F100
G1 X-20.258 Y-125.104 Z10.271 F100
G1 X-20.096 Y-125.111 Z10.265 F100
G1 X-19.934 Y-125.102 Z10.260 F100
G1 X-19.773 Y-125.079 Z10.254 F100
G1 X-19.616 Y-125.040 Z10.248 F100
G1 X-19.463 Y-124.986 Z10.242 F100
G1 X-19.315 Y-124.919 Z10.237 F100
G1 X-19.175 Y-124.837 Z10.231 F100
G1 X-19.043 Y-124.743 Z10.225 F100
G1 X-18.920 Y-124.636 Z10.219 F100
G1 X-18.809 Y-124.519 Z10.213 F100
G1 X-18.708 Y-124.391 Z10.208 F100
G1 X-18.621 Y-124.254 Z10.202 F100
G1 X-18.547 Y-124.110 Z10.196 F100
G1 X-18.486 Y-123.959 Z10.190 F100
G1 X-18.441 Y-123.804 Z10.185 F100
G1 X-18.410 Y-123.644 Z10.179 F100
G1 X-18.395 Y-123.483 Z10.173 F100
G1 X-18.395 Y-123.321 Z10.167 F100
G1 X-18.410 Y-123.159 Z10.162 F100
G1 X-18.441 Y-123.000 Z10.156 F100
G1 X-18.486 Y-122.845 Z10.150 F100
G1 X-18.546 Y-122.694 Z10.144 F100
G1 X-18.620 Y-122.550 Z10.138 F100
G1 X-18.708 Y-122.413 Z10.133 F100
G1 X-18.808 Y-122.286 Z10.127 F100
G1 X-18.919 Y-122.168 Z10.121 F100
G1 X-19.041 Y-122.062 Z10.115 F100
G1 X-19.173 Y-121.967 Z10.110 F100
G1 X-19.313 Y-121.886 Z10.104 F100
G1 X-19.461 Y-121.818 Z10.098 F100
G1 X-19.614 Y-121.765 Z10.092 F100
G1 X-19.771 Y-121.726 Z10.087 F100
G1 X-19.931 Y-121.702 Z10.081 F100
G1 X-20.093 Y-121.694 Z10.075 F100
G1 X-20.255 Y-121.701 Z10.069 F100
G1 X-20.416 Y-121.723 Z10.063 F100
G1 X-20.573 Y-121.761 Z10.058 F100
G1 X-20.726 Y-121.813 Z10.052 F100
G1 X-20.874 Y-121.879 Z10.046 F100
G1 X-21.015 Y-121.960 Z10.040 F100
G1 X-21.147 Y-122.053 Z10.035 F100
G1 X-21.270 Y-122.158 Z10.029 F100
G1 X-21.383 Y-122.275 Z10.023 F100
G1 X-21.483 Y-122.401 Z10.017 F100
G1 X-21.572 Y-122.537 Z10.012 F100
G1 X-21.647 Y-122.680 Z10.006 F100
G1 X-21.708 Y-122.830 Z10.000 F100
G1 X-21.755 Y-122.985 Z9.994 F100
G1 X-21.787 Y-123.144 Z9.988 F100
G1 X-21.804 Y-123.305 Z9.983 F100
G1 X-21.805 Y-123.467 Z9.977 F100
G1 X-21.791 Y-123.628 Z9.971 F100
G1 X-21.762 Y-123.787 Z9.965 F100
G1 X-21.717 Y-123.943 Z9.960 F100
G1 X-21.659 Y-124.094 Z9.954 F100
G1 X-21.586 Y-124.238 Z9.948 F100
G1 X-21.500 Y-124.375 Z9.942 F100
G1 X-21.401 Y-124.503 Z9.937 F100
G1 X-21.290 Y-124.621 Z9.931 F100
G1 X-21.169 Y-124.729 Z9.925 F100
G1 X-21.039 Y-124.824 Z9.919 F100
G1 X-20.899 Y-124.906 Z9.913 F100
G1 X-20.753 Y-124.975 Z9.908 F100
G1 X-20.601 Y-125.029 Z9.902 F100
G1 X-20.444 Y-125.069 Z9.896 F100
G1 X-20.284 Y-125.094 Z9.890 F100
G1 X-20.123 Y-125.104 Z9.885 F100
G1 X-19.961 Y-125.098 Z9.879 F100
G1 X-19.801 Y-125.077 Z9.873 F100
G1 X-19.643 Y-125.041 Z9.867 F100
G1 X-19.490 Y-124.990 Z9.862 F100
G1 X-19.342 Y-124.925 Z9.856 F100
G1 X-19.201 Y-124.846 Z9.850 F100
G1 X-19.068 Y-124.754 Z9.844 F100
G1 X-18.944 Y-124.650 Z9.838 F100
G1 X-18.831 Y-124.534 Z9.833 F100
G1 X-18.729 Y-124.409 Z9.827 F100
G1 X-18.640 Y-124.274 Z9.821 F100
G1 X-18.564 Y-124.132 Z9.815 F100
G1 X-18.502 Y-123.983 Z9.810 F100
G1 X-18.454 Y-123.828 Z9.804 F100
G1 X-18.421 Y-123.670 Z9.798 F100
G1 X-18.403 Y-123.510 Z9.792 F100
G1 X-18.400 Y-123.348 Z9.787 F100
G1 X-18.413 Y-123.187 Z9.781 F100
G1 X-18.441 Y-123.028 Z9.775 F100
G1 X-18.484 Y-122.872 Z9.769 F100
G1 X-18.541 Y-122.721 Z9.763 F100
G1 X-18.613 Y-122.577 Z9.758 F100
G1 X-18.698 Y-122.439 Z9.752 F100
G1 X-18.795 Y-122.311 Z9.746 F100
G1 X-18.905 Y-122.192 Z9.740 F100
G1 X-19.025 Y-122.084 Z9.735 F100
G1 X-19.155 Y-121.988 Z9.729 F100
G1 X-19.293 Y-121.904 Z9.723 F100
G1 X-19.439 Y-121.834 Z9.717 F100
G1 X-19.590 Y-121.779 Z9.712 F100
G1 X-19.746 Y-121.738 Z9.706 F100
G1 X-19.905 Y-121.712 Z9.700 F100
G1 X-20.066 Y-121.701 Z9.694 F100
G1 X-20.228 Y-121.705 Z9.688 F100
G1 X-20.388 Y-121.725 Z9.683 F100
G1 X-20.545 Y-121.760 Z9.677 F100
G1 X-20.699 Y-121.809 Z9.671 F100
G1 X-20.847 Y-121.873 Z9.665 F100
G1 X-20.988 Y-121.951 Z9.660 F100
G1 X-21.122 Y-122.042 Z9.654 F100
G1 X-21.246 Y-122.145 Z9.648 F100
G1 X-21.360 Y-122.259 Z9.642 F100
G1 X-21.462 Y-122.384 Z9.637 F100
G1 X-21.552 Y-122.517 Z9.631 F100
G1 X-21.630 Y-122.659 Z9.625 F100
G1 X-21.693 Y-122.807 Z9.619 F100
G1 X-21.742 Y-122.961 Z9.613 F100
G1 X-21.776 Y-123.119 Z9.608 F100
G1 X-21.795 Y-123.279 Z9.602 F100
G1 X-21.799 Y-123.440 Z9.596 F100
G1 X-21.788 Y-123.601 Z9.590 F100
G1 X-21.761 Y-123.760 Z9.585 F100
G1 X-21.719 Y-123.915 Z9.579 F100
G1 X-21.663 Y-124.066 Z9.573 F100
G1 X-21.593 Y-124.211 Z9.567 F100
G1 X-21.509 Y-124.349 Z9.562 F100
G1 X-21.413 Y-124.478 Z9.556 F100
G1 X-21.305 Y-124.598 Z9.550 F100
G1 X-21.186 Y-124.706 Z9.544 F100
G1 X-21.057 Y-124.803 Z9.538 F100
G1 X-20.920 Y-124.887 Z9.533 F100
G1 X-20.775 Y-124.958 Z9.527 F100
G1 X-20.624 Y-125.015 Z9.521 F100
G1 X-20.469 Y-125.057 Z9.515 F100
G1 X-20.310 Y-125.085 Z9.510 F100
G1 X-20.149 Y-125.097 Z9.504 F100
G1 X-19.988 Y-125.093 Z9.498 F100
G1 X-19.828 Y-125.075 Z9.492 F100
G1 X-19.671 Y-125.041 Z9.487 F100
G1 X-19.517 Y-124.993 Z9.481 F100
G1 X-19.369 Y-124.931 Z9.475 F100
G1 X-19.227 Y-124.854 Z9.469 F100
G1 X-19.093 Y-124.765 Z9.463 F100
G1 X-18.969 Y-124.663 Z9.458 F100
G1 X-18.854 Y-124.550 Z9.452 F100
G1 X-18.751 Y-124.426 Z9.446 F100
G1 X-18.660 Y-124.294 Z9.440 F100
G1 X-18.582 Y-124.153 Z9.435 F100
G1 X-18.517 Y-124.006 Z9.429 F100
G1 X-18.467 Y-123.853 Z9.423 F100
G1 X-18.432 Y-123.696 Z9.417 F100
G1 X-18.412 Y-123.536 Z9.412 F100
G1 X-18.406 Y-123.375 Z9.406 F100
G1 X-18.417 Y-123.214 Z9.400 F100
G1 X-18.442 Y-123.055 Z9.394 F100
G1 X-18.482 Y-122.900 Z9.388 F100
G1 X-18.537 Y-122.748 Z9.383 F100
G1 X-18.606 Y-122.603 Z9.377 F100
G1 X-18.689 Y-122.465 Z9.371 F100
G1 X-18.784 Y-122.335 Z9.365 F100
G1 X-18.891 Y-122.215 Z9.360 F100
G1 X-19.009 Y-122.106 Z9.354 F100
G1 X-19.136 Y-122.008 Z9.348 F100
G1 X-19.273 Y-121.923 Z9.342 F100
G1 X-19.416 Y-121.851 Z9.337 F100
G1 X-19.566 Y-121.793 Z9.331 F100
G1 X-19.721 Y-121.750 Z9.325 F100
G1 X-19.879 Y-121.722 Z9.319 F100
G1 X-20.040 Y-121.708 Z9.313 F100
G1 X-20.200 Y-121.710 Z9.308 F100
G1 X-20.360 Y-121.727 Z9.302 F100
G1 X-20.518 Y-121.760 Z9.296 F100
G1 X-20.671 Y-121.807 Z9.290 F100
G1 X-20.820 Y-121.868 Z9.285 F100
G1 X-20.962 Y-121.943 Z9.279 F100
G1 X-21.096 Y-122.031 Z9.273 F100
G1 X-21.222 Y-122.132 Z9.267 F100
G1 X-21.337 Y-122.244 Z9.262 F100
G1 X-21.441 Y-122.367 Z9.256 F100
G1 X-21.533 Y-122.498 Z9.250 F100
G1 X-21.612 Y-122.638 Z9.244 F100
G1 X-21.677 Y-122.785 Z9.238 F100
G1 X-21.729 Y-122.937 Z9.233 F100
G1 X-21.765 Y-123.093 Z9.227 F100
G1 X-21.787 Y-123.252 Z9.221 F100
G1 X-21.793 Y-123.413 Z9.215 F100
G1 X-21.784 Y-123.573 Z9.210 F100
G1 X-21.760 Y-123.732 Z9.204 F100
G1 X-21.721 Y-123.888 Z9.198 F100
G1 X-21.667 Y-124.039 Z9.192 F100
G1 X-21.600 Y-124.185 Z9.187 F100
G1 X-21.519 Y-124.323 Z9.181 F100
G1 X-21.425 Y-124.453 Z9.175 F100
G1 X-21.319 Y-124.574 Z9.169 F100
G1 X-21.202 Y-124.684 Z9.163 F100
G1 X-21.075 Y-124.783 Z9.158 F100
G1 X-20.940 Y-124.869 Z9.152 F100
G1 X-20.796 Y-124.941 Z9.146 F100
G1 X-20.647 Y-125.000 Z9.140 F100
G1 X-20.493 Y-125.045 Z9.135 F100
G1 X-20.335 Y-125.075 Z9.129 F100
G1 X-20.176 Y-125.089 Z9.123 F100
G1 X-20.015 Y-125.089 Z9.117 F100
G1 X-19.856 Y-125.073 Z9.112 F100
G1 X-19.698 Y-125.042 Z9.106 F100
G1 X-19.545 Y-124.996 Z9.100 F100
G1 X-19.396 Y-124.936 Z9.094 F100
G1 X-19.254 Y-124.862 Z9.088 F100
G1 X-19.119 Y-124.775 Z9.083 F100
G1 X-18.993 Y-124.676 Z9.077 F100
G1 X-18.877 Y-124.565 Z9.071 F100
G1 X-18.773 Y-124.443 Z9.065 F100
G1 X-18.680 Y-124.313 Z9.060 F100
G1 X-18.600 Y-124.174 Z9.054 F100
G1 X-18.533 Y-124.028 Z9.048 F100
G1 X-18.481 Y-123.876 Z9.042 F100
G1 X-18.443 Y-123.720 Z9.037 F100
G1 X-18.420 Y-123.562 Z9.031 F100
G1 X-18.413 Y-123.401 Z9.025 F100
G1 X-18.421 Y-123.238 Z9.025 F100
G1 X-18.444 Y-123.077 Z9.025 F100
G1 X-18.483 Y-122.918 Z9.025 F100
G1 X-18.538 Y-122.764 Z9.025 F100
G1 X-18.606 Y-122.616 Z9.025 F100
G1 X-18.689 Y-122.475 Z9.025 F100
G1 X-18.785 Y-122.343 Z9.025 F100
G1 X-18.893 Y-122.221 Z9.025 F100
G1 X-19.013 Y-122.110 Z9.025 F100
G1 X-19.143 Y-122.011 Z9.025 F100
G1 X-19.281 Y-121.925 Z9.025 F100
G1 X-19.428 Y-121.852 Z9.025 F100
G1 X-19.580 Y-121.795 Z9.025 F100
G1 X-19.738 Y-121.752 Z9.025 F100
G1 X-19.899 Y-121.724 Z9.025 F100
G1 X-20.061 Y-121.712 Z9.025 F100
G1 X-20.225 Y-121.716 Z9.025 F100
G1 X-20.387 Y-121.736 Z9.025 F100
G1 X-20.546 Y-121.771 Z9.025 F100
G1 X-20.701 Y-121.822 Z9.025 F100
G1 X-20.851 Y-121.887 Z9.025 F100
G1 X-20.994 Y-121.966 Z9.025 F100
G1 X-21.128 Y-122.059 Z9.025 F100
G1 X-21.253 Y-122.164 Z9.025 F100
G1 X-21.367 Y-122.281 Z9.025 F100
G1 X-21.469 Y-122.408 Z9.025 F100
G1 X-21.558 Y-122.545 Z9.025 F100
G1 X-21.634 Y-122.689 Z9.025 F100
G1 X-21.696 Y-122.841 Z9.025 F100
G1 X-21.743 Y-122.997 Z9.025 F100
G1 X-21.774 Y-123.157 Z9.025 F100
G1 X-21.790 Y-123.320 Z9.025 F100
G1 X-21.790 Y-123.483 Z9.025 F100
G1 X-21.774 Y-123.645 Z9.025 F100
G1 X-21.743 Y-123.806 Z9.025 F100
G1 X-21.696 Y-123.962 Z9.025 F100
G1 X-21.634 Y-124.113 Z9.025 F100
G1 X-21.558 Y-124.258 Z9.025 F100
G1 X-21.469 Y-124.394 Z9.025 F100
G1 X-21.367 Y-124.522 Z9.025 F100
G1 X-21.253 Y-124.638 Z9.025 F100
G1 X-21.128 Y-124.744 Z9.025 F100
G1 X-20.994 Y-124.836 Z9.025 F100
G1 X-20.851 Y-124.916 Z9.025 F100
G1 X-20.701 Y-124.981 Z9.025 F100
G1 X-20.546 Y-125.031 Z9.025 F100
G1 X-20.387 Y-125.067 Z9.025 F100
G1 X-20.225 Y-125.086 Z9.025 F100
G1 X-20.061 Y-125.090 Z9.025 F100
G1 X-19.899 Y-125.078 Z9.025 F100
G1 X-19.738 Y-125.051 Z9.025 F100
G1 X-19.580 Y-125.008 Z9.025 F100
G1 X-19.428 Y-124.950 Z9.025 F100
G1 X-19.281 Y-124.878 Z9.025 F100
G1 X-19.143 Y-124.792 Z9.025 F100
G1 X-19.013 Y-124.693 Z9.025 F100
G1 X-18.893 Y-124.581 Z9.025 F100
G1 X-18.785 Y-124.459 Z9.025 F100
G1 X-18.689 Y-124.327 Z9.025 F100
G1 X-18.606 Y-124.186 Z9.025 F100
G1 X-18.538 Y-124.038 Z9.025 F100
G1 X-18.483 Y-123.884 Z9.025 F100
G1 X-18.444 Y-123.726 Z9.025 F100
G1 X-18.421 Y-123.564 Z9.025 F100
G1 X-18.413 Y-123.401 Z9.025 F100
G1 X-18.384 Y-122.516 Z9.025 F100
G1 X-18.358 Y-122.276 Z9.025 F100
G1 X-18.398 Y-122.038 Z9.025 F100
G1 X-18.502 Y-121.820 Z9.025 F100
G1 X-18.662 Y-121.639 Z9.025 F100
G1 X-18.864 Y-121.509 Z9.025 F100
G1 X-19.095 Y-121.438 Z9.025 F100
G1 X-19.232 Y-121.417 Z9.025 F100
G1 X-19.433 Y-121.405 Z9.025 F100
G1 X-20.037 Y-121.400 Z9.025 F100
G1 X-20.641 Y-121.400 Z9.025 F100
G1 X-20.843 Y-121.411 Z9.025 F100
G1 X-21.044 Y-121.429 Z9.025 F100
G1 X-21.308 Y-121.471 Z9.025 F100
G1 X-21.377 Y-121.487 Z9.025 F100
G1 X-21.447 Y-121.512 Z9.025 F100
G1 X-21.548 Y-121.561 Z9.025 F100
G1 X-21.648 Y-121.620 Z9.025 F100
G1 X-21.715 Y-121.672 Z9.025 F100
G1 X-21.850 Y-121.810 Z9.025 F100
G1 X-21.896 Y-121.873 Z9.025 F100
G1 X-21.950 Y-121.974 Z9.025 F100
G1 X-21.997 Y-122.074 Z9.025 F100
G1 X-22.026 Y-122.175 Z9.025 F100
G1 X-22.051 Y-122.327 Z9.025 F100
G1 X-22.071 Y-122.477 Z9.025 F100
G1 X-22.095 Y-122.678 Z9.025 F100
G1 X-22.100 Y-122.880 Z9.025 F100
G1 X-22.100 Y-124.087 Z9.025 F100
G1 X-22.078 Y-124.289 Z9.025 F100
G1 X-22.048 Y-124.490 Z9.025 F100
G1 X-22.009 Y-124.691 Z9.025 F100
G1 X-21.967 Y-124.792 Z9.025 F100
G1 X-21.915 Y-124.892 Z9.025 F100
G1 X-21.886 Y-124.942 Z9.025 F100
G1 X-21.850 Y-124.991 Z9.025 F100
G1 X-21.751 Y-125.094 Z9.025 F100
G1 X-21.700 Y-125.142 Z9.025 F100
G1 X-21.648 Y-125.181 Z9.025 F100
G1 X-21.548 Y-125.239 Z9.025 F100
G1 X-21.447 Y-125.289 Z9.025 F100
G1 X-21.432 Y-125.295 Z9.025 F100
G1 X-21.339 Y-125.323 Z9.025 F100
G1 X-21.245 Y-125.339 Z9.025 F100
G1 X-21.044 Y-125.368 Z9.025 F100
G1 X-20.843 Y-125.387 Z9.025 F100
G1 X-20.641 Y-125.400 Z9.025 F100
G1 X-20.037 Y-125.400 Z9.025 F100
G1 X-19.433 Y-125.395 Z9.025 F100
G1 X-19.232 Y-125.383 Z9.025 F100
G1 X-19.030 Y-125.351 Z9.025 F100
G1 X-18.829 Y-125.315 Z9.025 F100
G1 X-18.769 Y-125.295 Z9.025 F100
G1 X-18.628 Y-125.226 Z9.025 F100
G1 X-18.538 Y-125.172 Z9.025 F100
G1 X-18.449 Y-125.094 Z9.025 F100
G1 X-18.426 Y-125.071 Z9.025 F100
G1 X-18.344 Y-124.981 Z9.025 F100
G1 X-18.284 Y-124.892 Z9.025 F100
G1 X-18.225 Y-124.776 Z9.025 F100
G1 X-18.191 Y-124.691 Z9.025 F100
G1 X-18.152 Y-124.490 Z9.025 F100
G1 X-18.122 Y-124.289 Z9.025 F100
G1 X-18.100 Y-124.087 Z9.025 F100
G1 X-18.100 Y-122.880 Z9.025 F100
G1 X-18.105 Y-122.678 Z9.025 F100
G1 X-18.130 Y-122.477 Z9.025 F100
G1 X-18.157 Y-122.276 Z9.025 F100
G1 X-18.174 Y-122.175 Z9.025 F100
G1 X-18.186 Y-122.125 Z9.025 F100
G1 X-18.203 Y-122.074 Z9.025 F100
G1 X-18.225 Y-122.024 Z9.025 F100
G1 X-18.305 Y-121.873 Z9.025 F100
G1 X-18.357 Y-121.801 Z9.025 F100
G1 X-18.426 Y-121.729 Z9.025 F100
G1 X-18.485 Y-121.672 Z9.025 F100
G1 X-18.556 Y-121.615 Z9.025 F100
G1 X-18.628 Y-121.574 Z9.025 F100
G1 X-18.728 Y-121.523 Z9.025 F100
G1 X-18.779 Y-121.501 Z9.025 F100
G1 X-18.829 Y-121.485 Z9.025 F100
G1 X-18.892 Y-121.471 Z9.025 F100
G1 X-19.095 Y-121.438 Z9.025 F100
G1 X-19.188 Y-121.434 Z9.025 F100
G1 X-19.280 Y-121.444 Z9.025 F100
G1 X-19.349 Y-121.471 Z9.030 F100
G1 X-19.416 Y-121.497 Z9.043 F100
G1 X-19.482 Y-121.522 Z9.066 F100
G1 X-19.541 Y-121.575 Z9.104 F100
G1 X-19.595 Y-121.624 Z9.154 F100
G1 X-19.644 Y-121.667 Z9.213 F100
G1 X-19.672 Y-121.717 Z9.284 F100
G1 X-19.695 Y-121.756 Z9.362 F100
G1 X-19.711 Y-121.785 Z9.446 F100
G1 X-19.721 Y-121.803 Z9.534 F100
G1 X-19.725 Y-121.809 Z9.625 F100
G1 X-19.725 Y-121.809 Z14.525 F100
G1 X-18.994 Y-122.058 Z14.525 F100
G1 X-18.994 Y-122.058 Z11.525 F100
G1 X-19.126 Y-121.959 Z11.519 F100
G1 X-19.267 Y-121.873 Z11.513 F100
G1 X-19.416 Y-121.801 Z11.508 F100
G1 X-19.571 Y-121.743 Z11.502 F100
G1 X-19.730 Y-121.701 Z11.496 F100
G1 X-19.893 Y-121.673 Z11.490 F100
G1 X-20.058 Y-121.661 Z11.485 F100
G1 X-20.223 Y-121.665 Z11.479 F100
G1 X-20.387 Y-121.685 Z11.473 F100
G1 X-20.548 Y-121.720 Z11.467 F100
G1 X-20.706 Y-121.770 Z11.462 F100
G1 X-20.858 Y-121.834 Z11.456 F100
G1 X-21.003 Y-121.913 Z11.450 F100
G1 X-21.140 Y-122.006 Z11.444 F100
G1 X-21.267 Y-122.110 Z11.438 F100
G1 X-21.384 Y-122.227 Z11.433 F100
G1 X-21.490 Y-122.354 Z11.427 F100
G1 X-21.583 Y-122.491 Z11.421 F100
G1 X-21.662 Y-122.635 Z11.415 F100
G1 X-21.728 Y-122.787 Z11.410 F100
G1 X-21.779 Y-122.944 Z11.404 F100
G1 X-21.814 Y-123.105 Z11.398 F100
G1 X-21.835 Y-123.269 Z11.392 F100
G1 X-21.839 Y-123.433 Z11.387 F100
G1 X-21.828 Y-123.598 Z11.381 F100
G1 X-21.802 Y-123.761 Z11.375 F100
G1 X-21.760 Y-123.920 Z11.369 F100
G1 X-21.703 Y-124.075 Z11.363 F100
G1 X-21.632 Y-124.224 Z11.358 F100
G1 X-21.546 Y-124.365 Z11.352 F100
G1 X-21.448 Y-124.498 Z11.346 F100
G1 X-21.338 Y-124.621 Z11.340 F100
G1 X-21.217 Y-124.732 Z11.335 F100
G1 X-21.085 Y-124.832 Z11.329 F100
G1 X-20.945 Y-124.919 Z11.323 F100
G1 X-20.797 Y-124.992 Z11.317 F100
G1 X-20.643 Y-125.051 Z11.312 F100
G1 X-20.484 Y-125.095 Z11.306 F100
G1 X-20.322 Y-125.123 Z11.300 F100
G1 X-20.157 Y-125.136 Z11.294 F100
G1 X-19.993 Y-125.134 Z11.288 F100
G1 X-19.829 Y-125.116 Z11.283 F100
G1 X-19.668 Y-125.082 Z11.277 F100
G1 X-19.510 Y-125.033 Z11.271 F100
G1 X-19.358 Y-124.970 Z11.265 F100
G1 X-19.213 Y-124.892 Z11.260 F100
G1 X-19.075 Y-124.801 Z11.254 F100
G1 X-18.947 Y-124.698 Z11.248 F100
G1 X-18.830 Y-124.582 Z11.242 F100
G1 X-18.723 Y-124.456 Z11.237 F100
G1 X-18.630 Y-124.321 Z11.231 F100
G1 X-18.549 Y-124.177 Z11.225 F100
G1 X-18.483 Y-124.026 Z11.219 F100
G1 X-18.431 Y-123.870 Z11.213 F100
G1 X-18.394 Y-123.709 Z11.208 F100
G1 X-18.372 Y-123.546 Z11.202 F100
G1 X-18.366 Y-123.381 Z11.196 F100
G1 X-18.376 Y-123.217 Z11.190 F100
G1 X-18.402 Y-123.054 Z11.185 F100
G1 X-18.442 Y-122.894 Z11.179 F100
G1 X-18.498 Y-122.739 Z11.173 F100
G1 X-18.568 Y-122.591 Z11.167 F100
G1 X-18.651 Y-122.449 Z11.162 F100
G1 X-18.748 Y-122.316 Z11.156 F100
G1 X-18.857 Y-122.192 Z11.150 F100
G1 X-18.977 Y-122.080 Z11.144 F100
G1 X-19.108 Y-121.980 Z11.138 F100
G1 X-19.247 Y-121.892 Z11.133 F100
G1 X-19.394 Y-121.818 Z11.127 F100
G1 X-19.547 Y-121.758 Z11.121 F100
G1 X-19.706 Y-121.713 Z11.115 F100
G1 X-19.868 Y-121.683 Z11.110 F100
G1 X-20.031 Y-121.669 Z11.104 F100
G1 X-20.196 Y-121.670 Z11.098 F100
G1 X-20.360 Y-121.687 Z11.092 F100
G1 X-20.521 Y-121.720 Z11.087 F100
G1 X-20.679 Y-121.767 Z11.081 F100
G1 X-20.831 Y-121.829 Z11.075 F100
G1 X-20.977 Y-121.906 Z11.069 F100
G1 X-21.115 Y-121.996 Z11.063 F100
G1 X-21.243 Y-122.098 Z11.058 F100
G1 X-21.361 Y-122.212 Z11.052 F100
G1 X-21.468 Y-122.337 Z11.046 F100
G1 X-21.563 Y-122.471 Z11.040 F100
G1 X-21.644 Y-122.614 Z11.035 F100
G1 X-21.712 Y-122.764 Z11.029 F100
G1 X-21.765 Y-122.920 Z11.023 F100
G1 X-21.803 Y-123.080 Z11.017 F100
G1 X-21.826 Y-123.242 Z11.012 F100
G1 X-21.833 Y-123.407 Z11.006 F100
G1 X-21.824 Y-123.571 Z11.000 F100
G1 X-21.800 Y-123.733 Z10.994 F100
G1 X-21.761 Y-123.893 Z10.988 F100
G1 X-21.707 Y-124.048 Z10.983 F100
G1 X-21.638 Y-124.198 Z10.977 F100
G1 X-21.555 Y-124.340 Z10.971 F100
G1 X-21.460 Y-124.473 Z10.965 F100
G1 X-21.352 Y-124.597 Z10.960 F100
G1 X-21.232 Y-124.710 Z10.954 F100
G1 X-21.103 Y-124.812 Z10.948 F100
G1 X-20.965 Y-124.900 Z10.942 F100
G1 X-20.819 Y-124.975 Z10.937 F100
G1 X-20.666 Y-125.036 Z10.931 F100
G1 X-20.509 Y-125.082 Z10.925 F100
G1 X-20.347 Y-125.113 Z10.919 F100
G1 X-20.184 Y-125.129 Z10.913 F100
G1 X-20.020 Y-125.129 Z10.908 F100
G1 X-19.856 Y-125.113 Z10.902 F100
G1 X-19.695 Y-125.082 Z10.896 F100
G1 X-19.537 Y-125.036 Z10.890 F100
G1 X-19.385 Y-124.975 Z10.885 F100
G1 X-19.239 Y-124.900 Z10.879 F100
G1 X-19.101 Y-124.811 Z10.873 F100
G1 X-18.972 Y-124.710 Z10.867 F100
G1 X-18.853 Y-124.597 Z10.862 F100
G1 X-18.745 Y-124.473 Z10.856 F100
G1 X-18.649 Y-124.339 Z10.850 F100
G1 X-18.567 Y-124.197 Z10.844 F100
G1 X-18.498 Y-124.048 Z10.838 F100
G1 X-18.444 Y-123.893 Z10.833 F100
G1 X-18.405 Y-123.734 Z10.827 F100
G1 X-18.381 Y-123.572 Z10.821 F100
G1 X-18.373 Y-123.408 Z10.815 F100
G1 X-18.380 Y-123.244 Z10.810 F100
G1 X-18.403 Y-123.082 Z10.804 F100
G1 X-18.441 Y-122.922 Z10.798 F100
G1 X-18.494 Y-122.767 Z10.792 F100
G1 X-18.561 Y-122.617 Z10.787 F100
G1 X-18.643 Y-122.475 Z10.781 F100
G1 X-18.737 Y-122.341 Z10.775 F100
G1 X-18.844 Y-122.216 Z10.769 F100
G1 X-18.962 Y-122.102 Z10.763 F100
G1 X-19.090 Y-122.000 Z10.758 F100
G1 X-19.228 Y-121.911 Z10.752 F100
G1 X-19.373 Y-121.835 Z10.746 F100
G1 X-19.525 Y-121.773 Z10.740 F100
G1 X-19.682 Y-121.726 Z10.735 F100
G1 X-19.843 Y-121.694 Z10.729 F100
G1 X-20.006 Y-121.677 Z10.723 F100
G1 X-20.170 Y-121.676 Z10.717 F100
G1 X-20.333 Y-121.690 Z10.712 F100
G1 X-20.494 Y-121.720 Z10.706 F100
G1 X-20.652 Y-121.765 Z10.700 F100
G1 X-20.804 Y-121.824 Z10.694 F100
G1 X-20.950 Y-121.898 Z10.688 F100
G1 X-21.089 Y-121.985 Z10.683 F100
G1 X-21.219 Y-122.086 Z10.677 F100
G1 X-21.338 Y-122.197 Z10.671 F100
G1 X-21.447 Y-122.320 Z10.665 F100
G1 X-21.543 Y-122.453 Z10.660 F100
G1 X-21.626 Y-122.594 Z10.654 F100
G1 X-21.696 Y-122.742 Z10.648 F100
G1 X-21.751 Y-122.896 Z10.642 F100
G1 X-21.791 Y-123.055 Z10.637 F100
G1 X-21.816 Y-123.217 Z10.631 F100
G1 X-21.826 Y-123.381 Z10.625 F100
G1 X-21.820 Y-123.544 Z10.619 F100
G1 X-21.799 Y-123.707 Z10.613 F100
G1 X-21.762 Y-123.866 Z10.608 F100
G1 X-21.710 Y-124.022 Z10.602 F100
G1 X-21.644 Y-124.171 Z10.596 F100
G1 X-21.564 Y-124.314 Z10.590 F100
G1 X-21.471 Y-124.449 Z10.585 F100
G1 X-21.365 Y-124.574 Z10.579 F100
G1 X-21.248 Y-124.688 Z10.573 F100
G1 X-21.121 Y-124.791 Z10.567 F100
G1 X-20.984 Y-124.881 Z10.562 F100
G1 X-20.840 Y-124.958 Z10.556 F100
G1 X-20.689 Y-125.021 Z10.550 F100
G1 X-20.533 Y-125.069 Z10.544 F100
G1 X-20.373 Y-125.103 Z10.538 F100
G1 X-20.210 Y-125.121 Z10.533 F100
G1 X-20.046 Y-125.123 Z10.527 F100
G1 X-19.883 Y-125.110 Z10.521 F100
G1 X-19.722 Y-125.081 Z10.515 F100
G1 X-19.564 Y-125.038 Z10.510 F100
G1 X-19.412 Y-124.979 Z10.504 F100
G1 X-19.265 Y-124.907 Z10.498 F100
G1 X-19.126 Y-124.821 Z10.492 F100
G1 X-18.996 Y-124.722 Z10.487 F100
G1 X-18.875 Y-124.611 Z10.481 F100
G1 X-18.766 Y-124.489 Z10.475 F100
G1 X-18.669 Y-124.358 Z10.469 F100
G1 X-18.585 Y-124.218 Z10.463 F100
G1 X-18.515 Y-124.070 Z10.458 F100
G1 X-18.458 Y-123.917 Z10.452 F100
G1 X-18.417 Y-123.759 Z10.446 F100
G1 X-18.391 Y-123.597 Z10.440 F100
G1 X-18.380 Y-123.434 Z10.435 F100
G1 X-18.385 Y-123.271 Z10.429 F100
G1 X-18.405 Y-123.109 Z10.423 F100
G1 X-18.440 Y-122.949 Z10.417 F100
G1 X-18.491 Y-122.794 Z10.412 F100
G1 X-18.556 Y-122.644 Z10.406 F100
G1 X-18.634 Y-122.501 Z10.400 F100
G1 X-18.727 Y-122.366 Z10.394 F100
G1 X-18.831 Y-122.240 Z10.388 F100
G1 X-18.947 Y-122.125 Z10.383 F100
G1 X-19.073 Y-122.021 Z10.377 F100
G1 X-19.209 Y-121.930 Z10.371 F100
G1 X-19.352 Y-121.852 Z10.365 F100
G1 X-19.502 Y-121.788 Z10.360 F100
G1 X-19.658 Y-121.739 Z10.354 F100
G1 X-19.818 Y-121.704 Z10.348 F100
G1 X-19.980 Y-121.685 Z10.342 F100
G1 X-20.143 Y-121.681 Z10.337 F100
G1 X-20.306 Y-121.693 Z10.331 F100
G1 X-20.467 Y-121.720 Z10.325 F100
G1 X-20.624 Y-121.763 Z10.319 F100
G1 X-20.777 Y-121.820 Z10.313 F100
G1 X-20.924 Y-121.891 Z10.308 F100
G1 X-21.063 Y-121.976 Z10.302 F100
G1 X-21.194 Y-122.074 Z10.296 F100
G1 X-21.315 Y-122.184 Z10.290 F100
G1 X-21.425 Y-122.304 Z10.285 F100
G1 X-21.523 Y-122.435 Z10.279 F100
G1 X-21.608 Y-122.574 Z10.273 F100
G1 X-21.680 Y-122.721 Z10.267 F100
G1 X-21.737 Y-122.874 Z10.262 F100
G1 X-21.779 Y-123.031 Z10.256 F100
G1 X-21.807 Y-123.192 Z10.250 F100
G1 X-21.819 Y-123.355 Z10.244 F100
G1 X-21.815 Y-123.518 Z10.238 F100
G1 X-21.797 Y-123.680 Z10.233 F100
G1 X-21.762 Y-123.839 Z10.227 F100
G1 X-21.713 Y-123.994 Z10.221 F100
G1 X-21.650 Y-124.145 Z10.215 F100
G1 X-21.572 Y-124.288 Z10.210 F100
G1 X-21.481 Y-124.423 Z10.204 F100
G1 X-21.378 Y-124.549 Z10.198 F100
G1 X-21.263 Y-124.665 Z10.192 F100
G1 X-21.138 Y-124.770 Z10.187 F100
G1 X-21.003 Y-124.862 Z10.181 F100
G1 X-20.861 Y-124.941 Z10.175 F100
G1 X-20.711 Y-125.006 Z10.169 F100
G1 X-20.556 Y-125.056 Z10.163 F100
G1 X-20.397 Y-125.092 Z10.158 F100
G1 X-20.235 Y-125.112 Z10.152 F100
G1 X-20.072 Y-125.117 Z10.146 F100
G1 X-19.910 Y-125.106 Z10.140 F100
G1 X-19.749 Y-125.081 Z10.135 F100
G1 X-19.591 Y-125.040 Z10.129 F100
G1 X-19.438 Y-124.984 Z10.123 F100
G1 X-19.291 Y-124.914 Z10.117 F100
G1 X-19.151 Y-124.830 Z10.112 F100
G1 X-19.020 Y-124.733 Z10.106 F100
G1 X-18.899 Y-124.625 Z10.100 F100
G1 X-18.788 Y-124.505 Z10.094 F100
G1 X-18.690 Y-124.376 Z10.088 F100
G1 X-18.604 Y-124.238 Z10.083 F100
G1 X-18.531 Y-124.092 Z10.077 F100
G1 X-18.473 Y-123.940 Z10.071 F100
G1 X-18.429 Y-123.783 Z10.065 F100
G1 X-18.401 Y-123.622 Z10.060 F100
G1 X-18.387 Y-123.460 Z10.054 F100
G1 X-18.390 Y-123.297 Z10.048 F100
G1 X-18.407 Y-123.135 Z10.042 F100
G1 X-18.440 Y-122.976 Z10.037 F100
G1 X-18.488 Y-122.820 Z10.031 F100
G1 X-18.550 Y-122.670 Z10.025 F100
G1 X-18.627 Y-122.526 Z10.019 F100
G1 X-18.716 Y-122.390 Z10.013 F100
G1 X-18.818 Y-122.264 Z10.008 F100
G1 X-18.932 Y-122.147 Z10.002 F100
G1 X-19.056 Y-122.042 Z9.996 F100
G1 X-19.190 Y-121.949 Z9.990 F100
G1 X-19.331 Y-121.870 Z9.985 F100
G1 X-19.480 Y-121.804 Z9.979 F100
G1 X-19.634 Y-121.752 Z9.973 F100
G1 X-19.793 Y-121.715 Z9.967 F100
G1 X-19.954 Y-121.694 Z9.962 F100
G1 X-20.117 Y-121.688 Z9.956 F100
G1 X-20.279 Y-121.697 Z9.950 F100
G1 X-20.440 Y-121.722 Z9.944 F100
G1 X-20.597 Y-121.761 Z9.938 F100
G1 X-20.751 Y-121.816 Z9.933 F100
G1 X-20.898 Y-121.885 Z9.927 F100
G1 X-21.038 Y-121.967 Z9.921 F100
G1 X-21.170 Y-122.063 Z9.915 F100
G1 X-21.292 Y-122.170 Z9.910 F100
G1 X-21.403 Y-122.289 Z9.904 F100
G1 X-21.503 Y-122.417 Z9.898 F100
G1 X-21.590 Y-122.554 Z9.892 F100
G1 X-21.663 Y-122.699 Z9.887 F100
G1 X-21.722 Y-122.851 Z9.881 F100
G1 X-21.767 Y-123.007 Z9.875 F100
G1 X-21.797 Y-123.167 Z9.869 F100
G1 X-21.811 Y-123.328 Z9.863 F100
G1 X-21.810 Y-123.491 Z9.858 F100
G1 X-21.794 Y-123.652 Z9.852 F100
G1 X-21.762 Y-123.812 Z9.846 F100
G1 X-21.716 Y-123.967 Z9.840 F100
G1 X-21.655 Y-124.118 Z9.835 F100
G1 X-21.580 Y-124.262 Z9.829 F100
G1 X-21.491 Y-124.398 Z9.823 F100
G1 X-21.390 Y-124.526 Z9.817 F100
G1 X-21.278 Y-124.643 Z9.812 F100
G1 X-21.154 Y-124.749 Z9.806 F100
G1 X-21.022 Y-124.842 Z9.800 F100
G1 X-20.881 Y-124.923 Z9.794 F100
G1 X-20.733 Y-124.990 Z9.788 F100
G1 X-20.579 Y-125.043 Z9.783 F100
G1 X-20.422 Y-125.081 Z9.777 F100
G1 X-20.261 Y-125.103 Z9.771 F100
G1 X-20.099 Y-125.111 Z9.765 F100
G1 X-19.937 Y-125.103 Z9.760 F100
G1 X-19.776 Y-125.079 Z9.754 F100
G1 X-19.618 Y-125.041 Z9.748 F100
G1 X-19.465 Y-124.988 Z9.742 F100
G1 X-19.318 Y-124.920 Z9.737 F100
G1 X-19.177 Y-124.839 Z9.731 F100
G1 X-19.045 Y-124.745 Z9.725 F100
G1 X-18.922 Y-124.638 Z9.719 F100
G1 X-18.810 Y-124.521 Z9.713 F100
G1 X-18.710 Y-124.393 Z9.708 F100
G1 X-18.622 Y-124.257 Z9.702 F100
G1 X-18.548 Y-124.113 Z9.696 F100
G1 X-18.487 Y-123.962 Z9.690 F100
G1 X-18.442 Y-123.806 Z9.685 F100
G1 X-18.411 Y-123.647 Z9.679 F100
G1 X-18.395 Y-123.486 Z9.673 F100
G1 X-18.395 Y-123.324 Z9.667 F100
G1 X-18.410 Y-123.162 Z9.662 F100
G1 X-18.440 Y-123.003 Z9.656 F100
G1 X-18.485 Y-122.847 Z9.650 F100
G1 X-18.545 Y-122.697 Z9.644 F100
G1 X-18.619 Y-122.552 Z9.638 F100
G1 X-18.706 Y-122.416 Z9.633 F100
G1 X-18.806 Y-122.288 Z9.627 F100
G1 X-18.917 Y-122.170 Z9.621 F100
G1 X-19.040 Y-122.064 Z9.615 F100
G1 X-19.171 Y-121.969 Z9.610 F100
G1 X-19.311 Y-121.887 Z9.604 F100
G1 X-19.458 Y-121.819 Z9.598 F100
G1 X-19.611 Y-121.766 Z9.592 F100
G1 X-19.769 Y-121.727 Z9.587 F100
G1 X-19.929 Y-121.703 Z9.581 F100
G1 X-20.091 Y-121.694 Z9.575 F100
G1 X-20.253 Y-121.701 Z9.569 F100
G1 X-20.413 Y-121.723 Z9.563 F100
G1 X-20.571 Y-121.760 Z9.558 F100
G1 X-20.724 Y-121.812 Z9.552 F100
G1 X-20.872 Y-121.879 Z9.546 F100
G1 X-21.013 Y-121.959 Z9.540 F100
G1 X-21.145 Y-122.052 Z9.535 F100
G1 X-21.268 Y-122.157 Z9.529 F100
G1 X-21.381 Y-122.273 Z9.523 F100
G1 X-21.482 Y-122.400 Z9.517 F100
G1 X-21.571 Y-122.535 Z9.512 F100
G1 X-21.646 Y-122.678 Z9.506 F100
G1 X-21.707 Y-122.828 Z9.500 F100
G1 X-21.754 Y-122.983 Z9.494 F100
G1 X-21.786 Y-123.142 Z9.488 F100
G1 X-21.803 Y-123.303 Z9.483 F100
G1 X-21.805 Y-123.465 Z9.477 F100
G1 X-21.791 Y-123.626 Z9.471 F100
G1 X-21.762 Y-123.785 Z9.465 F100
G1 X-21.718 Y-123.941 Z9.460 F100
G1 X-21.659 Y-124.092 Z9.454 F100
G1 X-21.587 Y-124.237 Z9.448 F100
G1 X-21.501 Y-124.374 Z9.442 F100
G1 X-21.402 Y-124.502 Z9.437 F100
G1 X-21.292 Y-124.620 Z9.431 F100
G1 X-21.171 Y-124.727 Z9.425 F100
G1 X-21.040 Y-124.823 Z9.419 F100
G1 X-20.901 Y-124.905 Z9.413 F100
G1 X-20.755 Y-124.974 Z9.408 F100
G1 X-20.603 Y-125.029 Z9.402 F100
G1 X-20.446 Y-125.069 Z9.396 F100
G1 X-20.286 Y-125.094 Z9.390 F100
G1 X-20.125 Y-125.104 Z9.385 F100
G1 X-19.963 Y-125.098 Z9.379 F100
G1 X-19.803 Y-125.077 Z9.373 F100
G1 X-19.645 Y-125.041 Z9.367 F100
G1 X-19.492 Y-124.991 Z9.362 F100
G1 X-19.344 Y-124.926 Z9.356 F100
G1 X-19.202 Y-124.847 Z9.350 F100
G1 X-19.069 Y-124.755 Z9.344 F100
G1 X-18.946 Y-124.651 Z9.338 F100
G1 X-18.832 Y-124.536 Z9.333 F100
G1 X-18.730 Y-124.410 Z9.327 F100
G1 X-18.641 Y-124.276 Z9.321 F100
G1 X-18.565 Y-124.133 Z9.315 F100
G1 X-18.502 Y-123.984 Z9.310 F100
G1 X-18.454 Y-123.830 Z9.304 F100
G1 X-18.421 Y-123.672 Z9.298 F100
G1 X-18.403 Y-123.512 Z9.292 F100
G1 X-18.400 Y-123.350 Z9.287 F100
G1 X-18.413 Y-123.189 Z9.281 F100
G1 X-18.441 Y-123.030 Z9.275 F100
G1 X-18.483 Y-122.874 Z9.269 F100
G1 X-18.541 Y-122.723 Z9.263 F100
G1 X-18.612 Y-122.578 Z9.258 F100
G1 X-18.697 Y-122.441 Z9.252 F100
G1 X-18.794 Y-122.312 Z9.246 F100
G1 X-18.904 Y-122.193 Z9.240 F100
G1 X-19.024 Y-122.085 Z9.235 F100
G1 X-19.153 Y-121.989 Z9.229 F100
G1 X-19.292 Y-121.905 Z9.223 F100
G1 X-19.437 Y-121.835 Z9.217 F100
G1 X-19.589 Y-121.780 Z9.212 F100
G1 X-19.745 Y-121.738 Z9.206 F100
G1 X-19.904 Y-121.712 Z9.200 F100
G1 X-20.065 Y-121.701 Z9.194 F100
G1 X-20.226 Y-121.705 Z9.188 F100
G1 X-20.386 Y-121.725 Z9.183 F100
G1 X-20.544 Y-121.760 Z9.177 F100
G1 X-20.697 Y-121.809 Z9.171 F100
G1 X-20.845 Y-121.873 Z9.165 F100
G1 X-20.987 Y-121.951 Z9.160 F100
G1 X-21.120 Y-122.041 Z9.154 F100
G1 X-21.245 Y-122.144 Z9.148 F100
G1 X-21.359 Y-122.258 Z9.142 F100
G1 X-21.461 Y-122.383 Z9.137 F100
G1 X-21.552 Y-122.516 Z9.131 F100
G1 X-21.629 Y-122.658 Z9.125 F100
G1 X-21.692 Y-122.806 Z9.119 F100
G1 X-21.741 Y-122.960 Z9.113 F100
G1 X-21.776 Y-123.118 Z9.108 F100
G1 X-21.795 Y-123.278 Z9.102 F100
G1 X-21.799 Y-123.439 Z9.096 F100
G1 X-21.788 Y-123.600 Z9.090 F100
G1 X-21.761 Y-123.758 Z9.085 F100
G1 X-21.720 Y-123.914 Z9.079 F100
G1 X-21.664 Y-124.065 Z9.073 F100
G1 X-21.594 Y-124.210 Z9.067 F100
G1 X-21.510 Y-124.348 Z9.062 F100
G1 X-21.414 Y-124.477 Z9.056 F100
G1 X-21.306 Y-124.597 Z9.050 F100
G1 X-21.187 Y-124.706 Z9.044 F100
G1 X-21.058 Y-124.803 Z9.038 F100
G1 X-20.921 Y-124.887 Z9.033 F100
G1 X-20.776 Y-124.958 Z9.027 F100
G1 X-20.625 Y-125.015 Z9.021 F100
G1 X-20.470 Y-125.057 Z9.015 F100
G1 X-20.311 Y-125.084 Z9.010 F100
G1 X-20.150 Y-125.097 Z9.004 F100
G1 X-19.989 Y-125.094 Z8.998 F100
G1 X-19.829 Y-125.075 Z8.992 F100
G1 X-19.672 Y-125.042 Z8.987 F100
G1 X-19.518 Y-124.994 Z8.981 F100
G1 X-19.370 Y-124.931 Z8.975 F100
G1 X-19.228 Y-124.855 Z8.969 F100
G1 X-19.094 Y-124.765 Z8.963 F100
G1 X-18.969 Y-124.664 Z8.958 F100
G1 X-18.855 Y-124.551 Z8.952 F100
G1 X-18.752 Y-124.427 Z8.946 F100
G1 X-18.660 Y-124.295 Z8.940 F100
G1 X-18.582 Y-124.154 Z8.935 F100
G1 X-18.518 Y-124.006 Z8.929 F100
G1 X-18.468 Y-123.854 Z8.923 F100
G1 X-18.432 Y-123.697 Z8.917 F100
G1 X-18.412 Y-123.537 Z8.912 F100
G1 X-18.407 Y-123.376 Z8.906 F100
G1 X-18.417 Y-123.215 Z8.900 F100
G1 X-18.442 Y-123.057 Z8.894 F100
G1 X-18.482 Y-122.901 Z8.888 F100
G1 X-18.537 Y-122.749 Z8.883 F100
G1 X-18.606 Y-122.604 Z8.877 F100
G1 X-18.688 Y-122.466 Z8.871 F100
G1 X-18.783 Y-122.336 Z8.865 F100
G1 X-18.890 Y-122.216 Z8.860 F100
G1 X-19.008 Y-122.107 Z8.854 F100
G1 X-19.136 Y-122.009 Z8.848 F100
G1 X-19.272 Y-121.924 Z8.842 F100
G1 X-19.416 Y-121.852 Z8.837 F100
G1 X-19.566 Y-121.794 Z8.831 F100
G1 X-19.721 Y-121.751 Z8.825 F100
G1 X-19.879 Y-121.722 Z8.819 F100
G1 X-20.039 Y-121.709 Z8.813 F100
G1 X-20.200 Y-121.710 Z8.808 F100
G1 X-20.359 Y-121.728 Z8.802 F100
G1 X-20.517 Y-121.760 Z8.796 F100
G1 X-20.671 Y-121.807 Z8.790 F100
G1 X-20.819 Y-121.868 Z8.785 F100
G1 X-20.961 Y-121.943 Z8.779 F100
G1 X-21.096 Y-122.031 Z8.773 F100
G1 X-21.221 Y-122.132 Z8.767 F100
G1 X-21.336 Y-122.244 Z8.762 F100
G1 X-21.441 Y-122.366 Z8.756 F100
G1 X-21.533 Y-122.498 Z8.750 F100
G1 X-21.612 Y-122.638 Z8.744 F100
G1 X-21.677 Y-122.784 Z8.738 F100
G1 X-21.728 Y-122.937 Z8.733 F100
G1 X-21.765 Y-123.093 Z8.727 F100
G1 X-21.786 Y-123.252 Z8.721 F100
G1 X-21.793 Y-123.412 Z8.715 F100
G1 X-21.784 Y-123.573 Z8.710 F100
G1 X-21.760 Y-123.732 Z8.704 F100
G1 X-21.721 Y-123.887 Z8.698 F100
G1 X-21.667 Y-124.039 Z8.692 F100
G1 X-21.600 Y-124.184 Z8.687 F100
G1 X-21.519 Y-124.323 Z8.681 F100
G1 X-21.425 Y-124.453 Z8.675 F100
G1 X-21.319 Y-124.574 Z8.669 F100
G1 X-21.202 Y-124.684 Z8.663 F100
G1 X-21.075 Y-124.782 Z8.658 F100
G1 X-20.940 Y-124.869 Z8.652 F100
G1 X-20.797 Y-124.941 Z8.646 F100
G1 X-20.647 Y-125.000 Z8.640 F100
G1 X-20.493 Y-125.045 Z8.635 F100
G1 X-20.336 Y-125.075 Z8.629 F100
G1 X-20.176 Y-125.089 Z8.623 F100
G1 X-20.016 Y-125.089 Z8.617 F100
G1 X-19.856 Y-125.073 Z8.612 F100
G1 X-19.699 Y-125.042 Z8.606 F100
G1 X-19.545 Y-124.996 Z8.600 F100
G1 X-19.396 Y-124.936 Z8.594 F100
G1 X-19.254 Y-124.862 Z8.588 F100
G1 X-19.119 Y-124.775 Z8.583 F100
G1 X-18.993 Y-124.676 Z8.577 F100
G1 X-18.877 Y-124.565 Z8.571 F100
G1 X-18.773 Y-124.444 Z8.565 F100
G1 X-18.680 Y-124.313 Z8.560 F100
G1 X-18.600 Y-124.174 Z8.554 F100
G1 X-18.533 Y-124.028 Z8.548 F100
G1 X-18.481 Y-123.876 Z8.542 F100
G1 X-18.443 Y-123.720 Z8.537 F100
G1 X-18.421 Y-123.562 Z8.531 F100
G1 X-18.413 Y-123.401 Z8.525 F100
G1 X-18.421 Y-123.238 Z8.525 F100
G1 X-18.444 Y-123.077 Z8.525 F100
G1 X-18.483 Y-122.918 Z8.525 F100
G1 X-18.538 Y-122.764 Z8.525 F100
G1 X-18.606 Y-122.616 Z8.525 F100
G1 X-18.689 Y-122.476 Z8.525 F100
G1 X-18.785 Y-122.344 Z8.525 F100
G1 X-18.893 Y-122.222 Z8.525 F100
G1 X-19.013 Y-122.110 Z8.525 F100
G1 X-19.143 Y-122.011 Z8.525 F100
G1 X-19.281 Y-121.925 Z8.525 F100
G1 X-19.428 Y-121.853 Z8.525 F100
G1 X-19.580 Y-121.795 Z8.525 F100
G1 X-19.738 Y-121.752 Z8.525 F100
G1 X-19.899 Y-121.725 Z8.525 F100
G1 X-20.061 Y-121.713 Z8.525 F100
G1 X-20.225 Y-121.717 Z8.525 F100
G1 X-20.387 Y-121.736 Z8.525 F100
G1 X-20.546 Y-121.772 Z8.525 F100
G1 X-20.701 Y-121.822 Z8.525 F100
G1 X-20.851 Y-121.887 Z8.525 F100
G1 X-20.994 Y-121.966 Z8.525 F100
G1 X-21.128 Y-122.059 Z8.525 F100
G1 X-21.253 Y-122.164 Z8.525 F100
G1 X-21.367 Y-122.281 Z8.525 F100
G1 X-21.469 Y-122.409 Z8.525 F100
G1 X-21.558 Y-122.545 Z8.525 F100
G1 X-21.634 Y-122.690 Z8.525 F100
G1 X-21.696 Y-122.841 Z8.525 F100
G1 X-21.742 Y-122.997 Z8.525 F100
G1 X-21.774 Y-123.157 Z8.525 F100
G1 X-21.789 Y-123.320 Z8.525 F100
G1 X-21.789 Y-123.483 Z8.525 F100
G1 X-21.774 Y-123.646 Z8.525 F100
G1 X-21.742 Y-123.806 Z8.525 F100
G1 X-21.696 Y-123.962 Z8.525 F100
G1 X-21.634 Y-124.113 Z8.525 F100
G1 X-21.558 Y-124.258 Z8.525 F100
G1 X-21.469 Y-124.394 Z8.525 F100
G1 X-21.367 Y-124.522 Z8.525 F100
G1 X-21.253 Y-124.638 Z8.525 F100
G1 X-21.128 Y-124.744 Z8.525 F100
G1 X-20.994 Y-124.836 Z8.525 F100
G1 X-20.851 Y-124.916 Z8.525 F100
G1 X-20.701 Y-124.981 Z8.525 F100
G1 X-20.546 Y-125.031 Z8.525 F100
G1 X-20.387 Y-125.067 Z8.525 F100
G1 X-20.225 Y-125.086 Z8.525 F100
G1 X-20.061 Y-125.090 Z8.525 F100
G1 X-19.899 Y-125.078 Z8.525 F100
G1 X-19.738 Y-125.051 Z8.525 F100
G1 X-19.580 Y-125.008 Z8.525 F100
G1 X-19.428 Y-124.950 Z8.525 F100
G1 X-19.281 Y-124.878 Z8.525 F100
G1 X-19.143 Y-124.792 Z8.525 F100
G1 X-19.013 Y-124.693 Z8.525 F100
G1 X-18.893 Y-124.581 Z8.525 F100
G1 X-18.785 Y-124.459 Z8.525 F100
G1 X-18.689 Y-124.327 Z8.525 F100
G1 X-18.606 Y-124.187 Z8.525 F100
G1 X-18.538 Y-124.038 Z8.525 F100
G1 X-18.483 Y-123.885 Z8.525 F100
G1 X-18.444 Y-123.726 Z8.525 F100
G1 X-18.421 Y-123.565 Z8.525 F100
G1 X-18.413 Y-123.401 Z8.525 F100
G1 X-18.384 Y-122.516 Z8.525 F100
G1 X-18.358 Y-122.276 Z8.525 F100
G1 X-18.398 Y-122.038 Z8.525 F100
G1 X-18.502 Y-121.820 Z8.525 F100
G1 X-18.662 Y-121.639 Z8.525 F100
G1 X-18.865 Y-121.508 Z8.525 F100
G1 X-19.095 Y-121.438 Z8.525 F100
G1 X-19.232 Y-121.417 Z8.525 F100
G1 X-19.433 Y-121.405 Z8.525 F100
G1 X-20.037 Y-121.400 Z8.525 F100
G1 X-20.641 Y-121.400 Z8.525 F100
G1 X-20.843 Y-121.411 Z8.525 F100
G1 X-21.044 Y-121.429 Z8.525 F100
G1 X-21.308 Y-121.471 Z8.525 F100
G1 X-21.377 Y-121.487 Z8.525 F100
G1 X-21.447 Y-121.512 Z8.525 F100
G1 X-21.548 Y-121.561 Z8.525 F100
G1 X-21.648 Y-121.620 Z8.525 F100
G1 X-21.715 Y-121.672 Z8.525 F100
G1 X-21.850 Y-121.810 Z8.525 F100
G1 X-21.896 Y-121.873 Z8.525 F100
G1 X-21.950 Y-121.974 Z8.525 F100
G1 X-21.997 Y-122.074 Z8.525 F100
G1 X-22.026 Y-122.175 Z8.525 F100
G1 X-22.051 Y-122.327 Z8.525 F100
G1 X-22.071 Y-122.477 Z8.525 F100
G1 X-22.095 Y-122.678 Z8.525 F100
G1 X-22.100 Y-122.880 Z8.525 F100
G1 X-22.100 Y-124.087 Z8.525 F100
G1 X-22.078 Y-124.289 Z8.525 F100
G1 X-22.048 Y-124.490 Z8.525 F100
G1 X-22.009 Y-124.691 Z8.525 F100
