;Titan-2-1-Face
;Machine
;vendor: Snapmaker
;model: Desktop CNC
;description: Generic Snapmaker Marlin v20180725
;tool: 6mm 3 Flute endmill

M3 P100
G4 S2
G21
G90
;When using Fusion for Personal Use, the feedrate of rapid
;moves is reduced to match the feedrate of cutting moves,
;which can increase machining time. Unrestricted rapid moves
;are available with a Fusion Subscription.

;Titan-2-1-Face
G0 X46.228 Y-1.027 Z56.588
G1 X46.228 Y-1.027 Z56.588 F500
G1 X46.228 Y-1.027 Z6.588 F500
G1 X46.228 Y-1.027 Z2.100 F150
G1 X46.220 Y-1.027 Z2.006 F500
G1 X46.198 Y-1.027 Z1.915 F500
G1 X46.162 Y-1.027 Z1.828 F500
G1 X46.113 Y-1.027 Z1.747 F500
G1 X46.052 Y-1.027 Z1.676 F500
G1 X45.980 Y-1.027 Z1.615 F500
G1 X45.900 Y-1.027 Z1.565 F500
G1 X45.813 Y-1.027 Z1.529 F500
G1 X45.722 Y-1.027 Z1.507 F500
G1 X45.628 Y-1.027 Z1.500 F500
G1 X45.339 Y-1.027 Z1.500 F500
G1 X-3.010 Y-1.027 Z1.500 F500
G1 X-3.159 Y-1.020 Z1.500 F500
G1 X-3.306 Y-0.997 Z1.500 F500
G1 X-3.450 Y-0.960 Z1.500 F500
G1 X-3.590 Y-0.908 Z1.500 F500
G1 X-3.724 Y-0.843 Z1.500 F500
G1 X-3.851 Y-0.764 Z1.500 F500
G1 X-3.968 Y-0.672 Z1.500 F500
G1 X-4.076 Y-0.570 Z1.500 F500
G1 X-4.173 Y-0.457 Z1.500 F500
G1 X-4.259 Y-0.334 Z1.500 F500
G1 X-4.331 Y-0.204 Z1.500 F500
G1 X-4.390 Y-0.067 Z1.500 F500
G1 X-4.434 Y0.075 Z1.500 F500
G1 X-4.464 Y0.221 Z1.500 F500
G1 X-4.479 Y0.369 Z1.500 F500
G1 X-4.479 Y0.518 Z1.500 F500
G1 X-4.464 Y0.667 Z1.500 F500
G1 X-4.434 Y0.813 Z1.500 F500
G1 X-4.390 Y0.955 Z1.500 F500
G1 X-4.331 Y1.092 Z1.500 F500
G1 X-4.259 Y1.222 Z1.500 F500
G1 X-4.173 Y1.345 Z1.500 F500
G1 X-4.076 Y1.458 Z1.500 F500
G1 X-3.968 Y1.560 Z1.500 F500
G1 X-3.851 Y1.652 Z1.500 F500
G1 X-3.724 Y1.730 Z1.500 F500
G1 X-3.590 Y1.796 Z1.500 F500
G1 X-3.450 Y1.848 Z1.500 F500
G1 X-3.306 Y1.885 Z1.500 F500
G1 X-3.159 Y1.908 Z1.500 F500
G1 X-3.010 Y1.915 Z1.500 F500
G1 X45.339 Y1.915 Z1.500 F500
G1 X45.488 Y1.923 Z1.500 F500
G1 X45.635 Y1.945 Z1.500 F500
G1 X45.780 Y1.983 Z1.500 F500
G1 X45.919 Y2.034 Z1.500 F500
G1 X46.053 Y2.100 Z1.500 F500
G1 X46.180 Y2.179 Z1.500 F500
G1 X46.297 Y2.270 Z1.500 F500
G1 X46.405 Y2.373 Z1.500 F500
G1 X46.503 Y2.486 Z1.500 F500
G1 X46.588 Y2.608 Z1.500 F500
G1 X46.660 Y2.739 Z1.500 F500
G1 X46.719 Y2.876 Z1.500 F500
G1 X46.763 Y3.018 Z1.500 F500
G1 X46.793 Y3.164 Z1.500 F500
G1 X46.809 Y3.312 Z1.500 F500
G1 X46.809 Y3.461 Z1.500 F500
G1 X46.793 Y3.609 Z1.500 F500
G1 X46.763 Y3.755 Z1.500 F500
G1 X46.719 Y3.898 Z1.500 F500
G1 X46.660 Y4.035 Z1.500 F500
G1 X46.588 Y4.165 Z1.500 F500
G1 X46.503 Y4.287 Z1.500 F500
G1 X46.405 Y4.400 Z1.500 F500
G1 X46.297 Y4.503 Z1.500 F500
G1 X46.180 Y4.594 Z1.500 F500
G1 X46.053 Y4.673 Z1.500 F500
G1 X45.919 Y4.739 Z1.500 F500
G1 X45.780 Y4.790 Z1.500 F500
G1 X45.635 Y4.828 Z1.500 F500
G1 X45.488 Y4.850 Z1.500 F500
G1 X45.339 Y4.858 Z1.500 F500
G1 X-3.010 Y4.858 Z1.500 F500
G1 X-3.159 Y4.865 Z1.500 F500
G1 X-3.306 Y4.888 Z1.500 F500
G1 X-3.450 Y4.925 Z1.500 F500
G1 X-3.590 Y4.977 Z1.500 F500
G1 X-3.724 Y5.043 Z1.500 F500
G1 X-3.851 Y5.122 Z1.500 F500
G1 X-3.968 Y5.213 Z1.500 F500
G1 X-4.076 Y5.315 Z1.500 F500
G1 X-4.173 Y5.429 Z1.500 F500
G1 X-4.259 Y5.551 Z1.500 F500
G1 X-4.331 Y5.681 Z1.500 F500
G1 X-4.390 Y5.818 Z1.500 F500
G1 X-4.434 Y5.960 Z1.500 F500
G1 X-4.464 Y6.106 Z1.500 F500
G1 X-4.479 Y6.255 Z1.500 F500
G1 X-4.479 Y6.404 Z1.500 F500
G1 X-4.464 Y6.552 Z1.500 F500
G1 X-4.434 Y6.698 Z1.500 F500
G1 X-4.390 Y6.840 Z1.500 F500
G1 X-4.331 Y6.977 Z1.500 F500
G1 X-4.259 Y7.107 Z1.500 F500
G1 X-4.173 Y7.230 Z1.500 F500
G1 X-4.076 Y7.343 Z1.500 F500
G1 X-3.968 Y7.446 Z1.500 F500
G1 X-3.851 Y7.537 Z1.500 F500
G1 X-3.724 Y7.616 Z1.500 F500
G1 X-3.590 Y7.681 Z1.500 F500
G1 X-3.450 Y7.733 Z1.500 F500
G1 X-3.306 Y7.770 Z1.500 F500
G1 X-3.159 Y7.793 Z1.500 F500
G1 X-3.010 Y7.800 Z1.500 F500
G1 X45.339 Y7.800 Z1.500 F500
G1 X45.488 Y7.808 Z1.500 F500
G1 X45.635 Y7.831 Z1.500 F500
G1 X45.780 Y7.868 Z1.500 F500
G1 X45.919 Y7.920 Z1.500 F500
G1 X46.053 Y7.985 Z1.500 F500
G1 X46.180 Y8.064 Z1.500 F500
G1 X46.297 Y8.155 Z1.500 F500
G1 X46.405 Y8.258 Z1.500 F500
G1 X46.503 Y8.371 Z1.500 F500
G1 X46.588 Y8.494 Z1.500 F500
G1 X46.660 Y8.624 Z1.500 F500
G1 X46.719 Y8.761 Z1.500 F500
G1 X46.763 Y8.903 Z1.500 F500
G1 X46.793 Y9.049 Z1.500 F500
G1 X46.809 Y9.197 Z1.500 F500
G1 X46.809 Y9.346 Z1.500 F500
G1 X46.793 Y9.495 Z1.500 F500
G1 X46.763 Y9.641 Z1.500 F500
G1 X46.719 Y9.783 Z1.500 F500
G1 X46.660 Y9.920 Z1.500 F500
G1 X46.588 Y10.050 Z1.500 F500
G1 X46.503 Y10.172 Z1.500 F500
G1 X46.405 Y10.285 Z1.500 F500
G1 X46.297 Y10.388 Z1.500 F500
G1 X46.180 Y10.479 Z1.500 F500
G1 X46.053 Y10.558 Z1.500 F500
G1 X45.919 Y10.624 Z1.500 F500
G1 X45.780 Y10.676 Z1.500 F500
G1 X45.635 Y10.713 Z1.500 F500
G1 X45.488 Y10.736 Z1.500 F500
G1 X45.339 Y10.743 Z1.500 F500
G1 X-3.010 Y10.743 Z1.500 F500
G1 X-3.159 Y10.751 Z1.500 F500
G1 X-3.306 Y10.773 Z1.500 F500
G1 X-3.450 Y10.811 Z1.500 F500
G1 X-3.590 Y10.862 Z1.500 F500
G1 X-3.724 Y10.928 Z1.500 F500
G1 X-3.851 Y11.007 Z1.500 F500
G1 X-3.968 Y11.098 Z1.500 F500
G1 X-4.076 Y11.201 Z1.500 F500
G1 X-4.173 Y11.314 Z1.500 F500
G1 X-4.259 Y11.436 Z1.500 F500
G1 X-4.331 Y11.566 Z1.500 F500
G1 X-4.390 Y11.703 Z1.500 F500
G1 X-4.434 Y11.846 Z1.500 F500
G1 X-4.464 Y11.992 Z1.500 F500
G1 X-4.479 Y12.140 Z1.500 F500
G1 X-4.479 Y12.289 Z1.500 F500
G1 X-4.464 Y12.437 Z1.500 F500
G1 X-4.434 Y12.583 Z1.500 F500
G1 X-4.390 Y12.725 Z1.500 F500
G1 X-4.331 Y12.862 Z1.500 F500
G1 X-4.259 Y12.993 Z1.500 F500
G1 X-4.173 Y13.115 Z1.500 F500
G1 X-4.076 Y13.228 Z1.500 F500
G1 X-3.968 Y13.331 Z1.500 F500
G1 X-3.851 Y13.422 Z1.500 F500
G1 X-3.724 Y13.501 Z1.500 F500
G1 X-3.590 Y13.566 Z1.500 F500
G1 X-3.450 Y13.618 Z1.500 F500
G1 X-3.306 Y13.656 Z1.500 F500
G1 X-3.159 Y13.678 Z1.500 F500
G1 X-3.010 Y13.686 Z1.500 F500
G1 X45.339 Y13.686 Z1.500 F500
G1 X45.488 Y13.693 Z1.500 F500
G1 X45.635 Y13.716 Z1.500 F500
G1 X45.780 Y13.753 Z1.500 F500
G1 X45.919 Y13.805 Z1.500 F500
G1 X46.053 Y13.871 Z1.500 F500
G1 X46.180 Y13.949 Z1.500 F500
G1 X46.297 Y14.041 Z1.500 F500
G1 X46.405 Y14.143 Z1.500 F500
G1 X46.503 Y14.256 Z1.500 F500
G1 X46.588 Y14.379 Z1.500 F500
G1 X46.660 Y14.509 Z1.500 F500
G1 X46.719 Y14.646 Z1.500 F500
G1 X46.763 Y14.788 Z1.500 F500
G1 X46.793 Y14.934 Z1.500 F500
G1 X46.809 Y15.083 Z1.500 F500
G1 X46.809 Y15.232 Z1.500 F500
G1 X46.793 Y15.380 Z1.500 F500
G1 X46.763 Y15.526 Z1.500 F500
G1 X46.719 Y15.668 Z1.500 F500
G1 X46.660 Y15.805 Z1.500 F500
G1 X46.588 Y15.935 Z1.500 F500
G1 X46.503 Y16.058 Z1.500 F500
G1 X46.405 Y16.171 Z1.500 F500
G1 X46.297 Y16.273 Z1.500 F500
G1 X46.180 Y16.365 Z1.500 F500
G1 X46.053 Y16.443 Z1.500 F500
G1 X45.919 Y16.509 Z1.500 F500
G1 X45.780 Y16.561 Z1.500 F500
G1 X45.635 Y16.598 Z1.500 F500
G1 X45.488 Y16.621 Z1.500 F500
G1 X45.339 Y16.628 Z1.500 F500
G1 X-3.010 Y16.628 Z1.500 F500
G1 X-3.104 Y16.628 Z1.507 F1500
G1 X-3.195 Y16.628 Z1.529 F1500
G1 X-3.282 Y16.628 Z1.565 F1500
G1 X-3.363 Y16.628 Z1.615 F1500
G1 X-3.434 Y16.628 Z1.676 F1500
G1 X-3.495 Y16.628 Z1.747 F1500
G1 X-3.545 Y16.628 Z1.828 F1500
G1 X-3.581 Y16.628 Z1.915 F1500
G1 X-3.603 Y16.628 Z2.006 F1500
G1 X-3.610 Y16.628 Z2.100 F1500
G1 X-3.610 Y16.628 Z6.588 F500
G1 X-3.899 Y-1.027 Z6.588 F500
G1 X-3.899 Y-1.027 Z1.600 F150
G1 X-3.891 Y-1.027 Z1.506 F500
G1 X-3.869 Y-1.027 Z1.415 F500
G1 X-3.833 Y-1.027 Z1.328 F500
G1 X-3.784 Y-1.027 Z1.247 F500
G1 X-3.723 Y-1.027 Z1.176 F500
G1 X-3.651 Y-1.027 Z1.115 F500
G1 X-3.571 Y-1.027 Z1.065 F500
G1 X-3.484 Y-1.027 Z1.029 F500
G1 X-3.392 Y-1.027 Z1.007 F500
G1 X-3.299 Y-1.027 Z1.000 F500
G1 X-3.010 Y-1.027 Z1.000 F500
G1 X45.339 Y-1.027 Z1.000 F500
G1 X45.488 Y-1.020 Z1.000 F500
G1 X45.635 Y-0.997 Z1.000 F500
G1 X45.780 Y-0.960 Z1.000 F500
G1 X45.919 Y-0.908 Z1.000 F500
G1 X46.053 Y-0.843 Z1.000 F500
G1 X46.180 Y-0.764 Z1.000 F500
G1 X46.297 Y-0.672 Z1.000 F500
G1 X46.405 Y-0.570 Z1.000 F500
G1 X46.503 Y-0.457 Z1.000 F500
G1 X46.588 Y-0.334 Z1.000 F500
G1 X46.660 Y-0.204 Z1.000 F500
G1 X46.719 Y-0.067 Z1.000 F500
G1 X46.763 Y0.075 Z1.000 F500
G1 X46.793 Y0.221 Z1.000 F500
G1 X46.809 Y0.369 Z1.000 F500
G1 X46.809 Y0.518 Z1.000 F500
G1 X46.793 Y0.667 Z1.000 F500
G1 X46.763 Y0.813 Z1.000 F500
G1 X46.719 Y0.955 Z1.000 F500
G1 X46.660 Y1.092 Z1.000 F500
G1 X46.588 Y1.222 Z1.000 F500
G1 X46.503 Y1.345 Z1.000 F500
G1 X46.405 Y1.458 Z1.000 F500
G1 X46.297 Y1.560 Z1.000 F500
G1 X46.180 Y1.652 Z1.000 F500
G1 X46.053 Y1.730 Z1.000 F500
G1 X45.919 Y1.796 Z1.000 F500
G1 X45.780 Y1.848 Z1.000 F500
G1 X45.635 Y1.885 Z1.000 F500
G1 X45.488 Y1.908 Z1.000 F500
G1 X45.339 Y1.915 Z1.000 F500
G1 X-3.010 Y1.915 Z1.000 F500
G1 X-3.159 Y1.923 Z1.000 F500
G1 X-3.306 Y1.945 Z1.000 F500
G1 X-3.450 Y1.983 Z1.000 F500
G1 X-3.590 Y2.034 Z1.000 F500
G1 X-3.724 Y2.100 Z1.000 F500
G1 X-3.851 Y2.179 Z1.000 F500
G1 X-3.968 Y2.270 Z1.000 F500
G1 X-4.076 Y2.373 Z1.000 F500
G1 X-4.173 Y2.486 Z1.000 F500
G1 X-4.259 Y2.608 Z1.000 F500
G1 X-4.331 Y2.739 Z1.000 F500
G1 X-4.390 Y2.876 Z1.000 F500
G1 X-4.434 Y3.018 Z1.000 F500
G1 X-4.464 Y3.164 Z1.000 F500
G1 X-4.479 Y3.312 Z1.000 F500
G1 X-4.479 Y3.461 Z1.000 F500
G1 X-4.464 Y3.609 Z1.000 F500
G1 X-4.434 Y3.755 Z1.000 F500
G1 X-4.390 Y3.898 Z1.000 F500
G1 X-4.331 Y4.035 Z1.000 F500
G1 X-4.259 Y4.165 Z1.000 F500
G1 X-4.173 Y4.287 Z1.000 F500
G1 X-4.076 Y4.400 Z1.000 F500
G1 X-3.968 Y4.503 Z1.000 F500
G1 X-3.851 Y4.594 Z1.000 F500
G1 X-3.724 Y4.673 Z1.000 F500
G1 X-3.590 Y4.739 Z1.000 F500
G1 X-3.450 Y4.790 Z1.000 F500
G1 X-3.306 Y4.828 Z1.000 F500
G1 X-3.159 Y4.850 Z1.000 F500
G1 X-3.010 Y4.858 Z1.000 F500
G1 X45.339 Y4.858 Z1.000 F500
G1 X45.488 Y4.865 Z1.000 F500
G1 X45.635 Y4.888 Z1.000 F500
G1 X45.780 Y4.925 Z1.000 F500
G1 X45.919 Y4.977 Z1.000 F500
G1 X46.053 Y5.043 Z1.000 F500
G1 X46.180 Y5.122 Z1.000 F500
G1 X46.297 Y5.213 Z1.000 F500
G1 X46.405 Y5.315 Z1.000 F500
G1 X46.503 Y5.429 Z1.000 F500
G1 X46.588 Y5.551 Z1.000 F500
G1 X46.660 Y5.681 Z1.000 F500
G1 X46.719 Y5.818 Z1.000 F500
G1 X46.763 Y5.960 Z1.000 F500
G1 X46.793 Y6.106 Z1.000 F500
G1 X46.809 Y6.255 Z1.000 F500
G1 X46.809 Y6.404 Z1.000 F500
G1 X46.793 Y6.552 Z1.000 F500
G1 X46.763 Y6.698 Z1.000 F500
G1 X46.719 Y6.840 Z1.000 F500
G1 X46.660 Y6.977 Z1.000 F500
G1 X46.588 Y7.107 Z1.000 F500
G1 X46.503 Y7.230 Z1.000 F500
G1 X46.405 Y7.343 Z1.000 F500
G1 X46.297 Y7.446 Z1.000 F500
G1 X46.180 Y7.537 Z1.000 F500
G1 X46.053 Y7.616 Z1.000 F500
G1 X45.919 Y7.681 Z1.000 F500
G1 X45.780 Y7.733 Z1.000 F500
G1 X45.635 Y7.770 Z1.000 F500
G1 X45.488 Y7.793 Z1.000 F500
G1 X45.339 Y7.800 Z1.000 F500
G1 X-3.010 Y7.800 Z1.000 F500
G1 X-3.159 Y7.808 Z1.000 F500
G1 X-3.306 Y7.831 Z1.000 F500
G1 X-3.450 Y7.868 Z1.000 F500
G1 X-3.590 Y7.920 Z1.000 F500
G1 X-3.724 Y7.985 Z1.000 F500
G1 X-3.851 Y8.064 Z1.000 F500
G1 X-3.968 Y8.155 Z1.000 F500
G1 X-4.076 Y8.258 Z1.000 F500
G1 X-4.173 Y8.371 Z1.000 F500
G1 X-4.259 Y8.494 Z1.000 F500
G1 X-4.331 Y8.624 Z1.000 F500
G1 X-4.390 Y8.761 Z1.000 F500
G1 X-4.434 Y8.903 Z1.000 F500
G1 X-4.464 Y9.049 Z1.000 F500
G1 X-4.479 Y9.197 Z1.000 F500
G1 X-4.479 Y9.346 Z1.000 F500
G1 X-4.464 Y9.495 Z1.000 F500
G1 X-4.434 Y9.641 Z1.000 F500
G1 X-4.390 Y9.783 Z1.000 F500
G1 X-4.331 Y9.920 Z1.000 F500
G1 X-4.259 Y10.050 Z1.000 F500
G1 X-4.173 Y10.172 Z1.000 F500
G1 X-4.076 Y10.285 Z1.000 F500
G1 X-3.968 Y10.388 Z1.000 F500
G1 X-3.851 Y10.479 Z1.000 F500
G1 X-3.724 Y10.558 Z1.000 F500
G1 X-3.590 Y10.624 Z1.000 F500
G1 X-3.450 Y10.676 Z1.000 F500
G1 X-3.306 Y10.713 Z1.000 F500
G1 X-3.159 Y10.736 Z1.000 F500
G1 X-3.010 Y10.743 Z1.000 F500
G1 X45.339 Y10.743 Z1.000 F500
G1 X45.488 Y10.751 Z1.000 F500
G1 X45.635 Y10.773 Z1.000 F500
G1 X45.780 Y10.811 Z1.000 F500
G1 X45.919 Y10.862 Z1.000 F500
G1 X46.053 Y10.928 Z1.000 F500
G1 X46.180 Y11.007 Z1.000 F500
G1 X46.297 Y11.098 Z1.000 F500
G1 X46.405 Y11.201 Z1.000 F500
G1 X46.503 Y11.314 Z1.000 F500
G1 X46.588 Y11.436 Z1.000 F500
G1 X46.660 Y11.566 Z1.000 F500
G1 X46.719 Y11.703 Z1.000 F500
G1 X46.763 Y11.846 Z1.000 F500
G1 X46.793 Y11.992 Z1.000 F500
G1 X46.809 Y12.140 Z1.000 F500
G1 X46.809 Y12.289 Z1.000 F500
G1 X46.793 Y12.437 Z1.000 F500
G1 X46.763 Y12.583 Z1.000 F500
G1 X46.719 Y12.725 Z1.000 F500
G1 X46.660 Y12.862 Z1.000 F500
G1 X46.588 Y12.993 Z1.000 F500
G1 X46.503 Y13.115 Z1.000 F500
G1 X46.405 Y13.228 Z1.000 F500
G1 X46.297 Y13.331 Z1.000 F500
G1 X46.180 Y13.422 Z1.000 F500
G1 X46.053 Y13.501 Z1.000 F500
G1 X45.919 Y13.566 Z1.000 F500
G1 X45.780 Y13.618 Z1.000 F500
G1 X45.635 Y13.656 Z1.000 F500
G1 X45.488 Y13.678 Z1.000 F500
G1 X45.339 Y13.686 Z1.000 F500
G1 X-3.010 Y13.686 Z1.000 F500
G1 X-3.159 Y13.693 Z1.000 F500
G1 X-3.306 Y13.716 Z1.000 F500
G1 X-3.450 Y13.753 Z1.000 F500
G1 X-3.590 Y13.805 Z1.000 F500
G1 X-3.724 Y13.871 Z1.000 F500
G1 X-3.851 Y13.949 Z1.000 F500
G1 X-3.968 Y14.041 Z1.000 F500
G1 X-4.076 Y14.143 Z1.000 F500
G1 X-4.173 Y14.256 Z1.000 F500
G1 X-4.259 Y14.379 Z1.000 F500
G1 X-4.331 Y14.509 Z1.000 F500
G1 X-4.390 Y14.646 Z1.000 F500
G1 X-4.434 Y14.788 Z1.000 F500
G1 X-4.464 Y14.934 Z1.000 F500
G1 X-4.479 Y15.083 Z1.000 F500
G1 X-4.479 Y15.232 Z1.000 F500
G1 X-4.464 Y15.380 Z1.000 F500
G1 X-4.434 Y15.526 Z1.000 F500
G1 X-4.390 Y15.668 Z1.000 F500
G1 X-4.331 Y15.805 Z1.000 F500
G1 X-4.259 Y15.935 Z1.000 F500
G1 X-4.173 Y16.058 Z1.000 F500
G1 X-4.076 Y16.171 Z1.000 F500
G1 X-3.968 Y16.273 Z1.000 F500
G1 X-3.851 Y16.365 Z1.000 F500
G1 X-3.724 Y16.443 Z1.000 F500
G1 X-3.590 Y16.509 Z1.000 F500
G1 X-3.450 Y16.561 Z1.000 F500
G1 X-3.306 Y16.598 Z1.000 F500
G1 X-3.159 Y16.621 Z1.000 F500
G1 X-3.010 Y16.628 Z1.000 F500
G1 X45.339 Y16.628 Z1.000 F500
G1 X45.433 Y16.628 Z1.007 F1500
G1 X45.525 Y16.628 Z1.029 F1500
G1 X45.611 Y16.628 Z1.065 F1500
G1 X45.692 Y16.628 Z1.115 F1500
G1 X45.763 Y16.628 Z1.176 F1500
G1 X45.825 Y16.628 Z1.247 F1500
G1 X45.874 Y16.628 Z1.328 F1500
G1 X45.910 Y16.628 Z1.415 F1500
G1 X45.932 Y16.628 Z1.506 F1500
G1 X45.939 Y16.628 Z1.600 F1500
G1 X45.939 Y16.628 Z6.588 F500
G1 X46.228 Y-1.027 Z6.588 F500
G1 X46.228 Y-1.027 Z1.100 F150
G1 X46.220 Y-1.027 Z1.006 F500
G1 X46.198 Y-1.027 Z0.915 F500
G1 X46.162 Y-1.027 Z0.828 F500
G1 X46.113 Y-1.027 Z0.747 F500
G1 X46.052 Y-1.027 Z0.676 F500
G1 X45.980 Y-1.027 Z0.615 F500
G1 X45.900 Y-1.027 Z0.565 F500
G1 X45.813 Y-1.027 Z0.529 F500
G1 X45.722 Y-1.027 Z0.507 F500
G1 X45.628 Y-1.027 Z0.500 F500
G1 X45.339 Y-1.027 Z0.500 F500
G1 X-3.010 Y-1.027 Z0.500 F500
G1 X-3.159 Y-1.020 Z0.500 F500
G1 X-3.306 Y-0.997 Z0.500 F500
G1 X-3.450 Y-0.960 Z0.500 F500
G1 X-3.590 Y-0.908 Z0.500 F500
G1 X-3.724 Y-0.843 Z0.500 F500
G1 X-3.851 Y-0.764 Z0.500 F500
G1 X-3.968 Y-0.672 Z0.500 F500
G1 X-4.076 Y-0.570 Z0.500 F500
G1 X-4.173 Y-0.457 Z0.500 F500
G1 X-4.259 Y-0.334 Z0.500 F500
G1 X-4.331 Y-0.204 Z0.500 F500
G1 X-4.390 Y-0.067 Z0.500 F500
G1 X-4.434 Y0.075 Z0.500 F500
G1 X-4.464 Y0.221 Z0.500 F500
G1 X-4.479 Y0.369 Z0.500 F500
G1 X-4.479 Y0.518 Z0.500 F500
G1 X-4.464 Y0.667 Z0.500 F500
G1 X-4.434 Y0.813 Z0.500 F500
G1 X-4.390 Y0.955 Z0.500 F500
G1 X-4.331 Y1.092 Z0.500 F500
G1 X-4.259 Y1.222 Z0.500 F500
G1 X-4.173 Y1.345 Z0.500 F500
G1 X-4.076 Y1.458 Z0.500 F500
G1 X-3.968 Y1.560 Z0.500 F500
G1 X-3.851 Y1.652 Z0.500 F500
G1 X-3.724 Y1.730 Z0.500 F500
G1 X-3.590 Y1.796 Z0.500 F500
G1 X-3.450 Y1.848 Z0.500 F500
G1 X-3.306 Y1.885 Z0.500 F500
G1 X-3.159 Y1.908 Z0.500 F500
G1 X-3.010 Y1.915 Z0.500 F500
G1 X45.339 Y1.915 Z0.500 F500
G1 X45.488 Y1.923 Z0.500 F500
G1 X45.635 Y1.945 Z0.500 F500
G1 X45.780 Y1.983 Z0.500 F500
G1 X45.919 Y2.034 Z0.500 F500
G1 X46.053 Y2.100 Z0.500 F500
G1 X46.180 Y2.179 Z0.500 F500
G1 X46.297 Y2.270 Z0.500 F500
G1 X46.405 Y2.373 Z0.500 F500
G1 X46.503 Y2.486 Z0.500 F500
G1 X46.588 Y2.608 Z0.500 F500
G1 X46.660 Y2.739 Z0.500 F500
G1 X46.719 Y2.876 Z0.500 F500
G1 X46.763 Y3.018 Z0.500 F500
G1 X46.793 Y3.164 Z0.500 F500
G1 X46.809 Y3.312 Z0.500 F500
G1 X46.809 Y3.461 Z0.500 F500
G1 X46.793 Y3.609 Z0.500 F500
G1 X46.763 Y3.755 Z0.500 F500
G1 X46.719 Y3.898 Z0.500 F500
G1 X46.660 Y4.035 Z0.500 F500
G1 X46.588 Y4.165 Z0.500 F500
G1 X46.503 Y4.287 Z0.500 F500
G1 X46.405 Y4.400 Z0.500 F500
G1 X46.297 Y4.503 Z0.500 F500
G1 X46.180 Y4.594 Z0.500 F500
G1 X46.053 Y4.673 Z0.500 F500
G1 X45.919 Y4.739 Z0.500 F500
G1 X45.780 Y4.790 Z0.500 F500
G1 X45.635 Y4.828 Z0.500 F500
G1 X45.488 Y4.850 Z0.500 F500
G1 X45.339 Y4.858 Z0.500 F500
G1 X-3.010 Y4.858 Z0.500 F500
G1 X-3.159 Y4.865 Z0.500 F500
G1 X-3.306 Y4.888 Z0.500 F500
G1 X-3.450 Y4.925 Z0.500 F500
G1 X-3.590 Y4.977 Z0.500 F500
G1 X-3.724 Y5.043 Z0.500 F500
G1 X-3.851 Y5.122 Z0.500 F500
G1 X-3.968 Y5.213 Z0.500 F500
G1 X-4.076 Y5.315 Z0.500 F500
G1 X-4.173 Y5.429 Z0.500 F500
G1 X-4.259 Y5.551 Z0.500 F500
G1 X-4.331 Y5.681 Z0.500 F500
G1 X-4.390 Y5.818 Z0.500 F500
G1 X-4.434 Y5.960 Z0.500 F500
G1 X-4.464 Y6.106 Z0.500 F500
G1 X-4.479 Y6.255 Z0.500 F500
G1 X-4.479 Y6.404 Z0.500 F500
G1 X-4.464 Y6.552 Z0.500 F500
G1 X-4.434 Y6.698 Z0.500 F500
G1 X-4.390 Y6.840 Z0.500 F500
G1 X-4.331 Y6.977 Z0.500 F500
G1 X-4.259 Y7.107 Z0.500 F500
G1 X-4.173 Y7.230 Z0.500 F500
G1 X-4.076 Y7.343 Z0.500 F500
G1 X-3.968 Y7.446 Z0.500 F500
G1 X-3.851 Y7.537 Z0.500 F500
G1 X-3.724 Y7.616 Z0.500 F500
G1 X-3.590 Y7.681 Z0.500 F500
G1 X-3.450 Y7.733 Z0.500 F500
G1 X-3.306 Y7.770 Z0.500 F500
G1 X-3.159 Y7.793 Z0.500 F500
G1 X-3.010 Y7.800 Z0.500 F500
G1 X45.339 Y7.800 Z0.500 F500
G1 X45.488 Y7.808 Z0.500 F500
G1 X45.635 Y7.831 Z0.500 F500
G1 X45.780 Y7.868 Z0.500 F500
G1 X45.919 Y7.920 Z0.500 F500
G1 X46.053 Y7.985 Z0.500 F500
G1 X46.180 Y8.064 Z0.500 F500
G1 X46.297 Y8.155 Z0.500 F500
G1 X46.405 Y8.258 Z0.500 F500
G1 X46.503 Y8.371 Z0.500 F500
G1 X46.588 Y8.494 Z0.500 F500
G1 X46.660 Y8.624 Z0.500 F500
G1 X46.719 Y8.761 Z0.500 F500
G1 X46.763 Y8.903 Z0.500 F500
G1 X46.793 Y9.049 Z0.500 F500
G1 X46.809 Y9.197 Z0.500 F500
G1 X46.809 Y9.346 Z0.500 F500
G1 X46.793 Y9.495 Z0.500 F500
G1 X46.763 Y9.641 Z0.500 F500
G1 X46.719 Y9.783 Z0.500 F500
G1 X46.660 Y9.920 Z0.500 F500
G1 X46.588 Y10.050 Z0.500 F500
G1 X46.503 Y10.172 Z0.500 F500
G1 X46.405 Y10.285 Z0.500 F500
G1 X46.297 Y10.388 Z0.500 F500
G1 X46.180 Y10.479 Z0.500 F500
G1 X46.053 Y10.558 Z0.500 F500
G1 X45.919 Y10.624 Z0.500 F500
G1 X45.780 Y10.676 Z0.500 F500
G1 X45.635 Y10.713 Z0.500 F500
G1 X45.488 Y10.736 Z0.500 F500
G1 X45.339 Y10.743 Z0.500 F500
G1 X-3.010 Y10.743 Z0.500 F500
G1 X-3.159 Y10.751 Z0.500 F500
G1 X-3.306 Y10.773 Z0.500 F500
G1 X-3.450 Y10.811 Z0.500 F500
G1 X-3.590 Y10.862 Z0.500 F500
G1 X-3.724 Y10.928 Z0.500 F500
G1 X-3.851 Y11.007 Z0.500 F500
G1 X-3.968 Y11.098 Z0.500 F500
G1 X-4.076 Y11.201 Z0.500 F500
G1 X-4.173 Y11.314 Z0.500 F500
G1 X-4.259 Y11.436 Z0.500 F500
G1 X-4.331 Y11.566 Z0.500 F500
G1 X-4.390 Y11.703 Z0.500 F500
G1 X-4.434 Y11.846 Z0.500 F500
G1 X-4.464 Y11.992 Z0.500 F500
G1 X-4.479 Y12.140 Z0.500 F500
G1 X-4.479 Y12.289 Z0.500 F500
G1 X-4.464 Y12.437 Z0.500 F500
G1 X-4.434 Y12.583 Z0.500 F500
G1 X-4.390 Y12.725 Z0.500 F500
G1 X-4.331 Y12.862 Z0.500 F500
G1 X-4.259 Y12.993 Z0.500 F500
G1 X-4.173 Y13.115 Z0.500 F500
G1 X-4.076 Y13.228 Z0.500 F500
G1 X-3.968 Y13.331 Z0.500 F500
G1 X-3.851 Y13.422 Z0.500 F500
G1 X-3.724 Y13.501 Z0.500 F500
G1 X-3.590 Y13.566 Z0.500 F500
G1 X-3.450 Y13.618 Z0.500 F500
G1 X-3.306 Y13.656 Z0.500 F500
G1 X-3.159 Y13.678 Z0.500 F500
G1 X-3.010 Y13.686 Z0.500 F500
G1 X45.339 Y13.686 Z0.500 F500
G1 X45.488 Y13.693 Z0.500 F500
G1 X45.635 Y13.716 Z0.500 F500
G1 X45.780 Y13.753 Z0.500 F500
G1 X45.919 Y13.805 Z0.500 F500
G1 X46.053 Y13.871 Z0.500 F500
G1 X46.180 Y13.949 Z0.500 F500
G1 X46.297 Y14.041 Z0.500 F500
G1 X46.405 Y14.143 Z0.500 F500
G1 X46.503 Y14.256 Z0.500 F500
G1 X46.588 Y14.379 Z0.500 F500
G1 X46.660 Y14.509 Z0.500 F500
G1 X46.719 Y14.646 Z0.500 F500
G1 X46.763 Y14.788 Z0.500 F500
G1 X46.793 Y14.934 Z0.500 F500
G1 X46.809 Y15.083 Z0.500 F500
G1 X46.809 Y15.232 Z0.500 F500
G1 X46.793 Y15.380 Z0.500 F500
G1 X46.763 Y15.526 Z0.500 F500
G1 X46.719 Y15.668 Z0.500 F500
G1 X46.660 Y15.805 Z0.500 F500
G1 X46.588 Y15.935 Z0.500 F500
G1 X46.503 Y16.058 Z0.500 F500
G1 X46.405 Y16.171 Z0.500 F500
G1 X46.297 Y16.273 Z0.500 F500
G1 X46.180 Y16.365 Z0.500 F500
G1 X46.053 Y16.443 Z0.500 F500
G1 X45.919 Y16.509 Z0.500 F500
G1 X45.780 Y16.561 Z0.500 F500
G1 X45.635 Y16.598 Z0.500 F500
G1 X45.488 Y16.621 Z0.500 F500
G1 X45.339 Y16.628 Z0.500 F500
G1 X-3.010 Y16.628 Z0.500 F500
G1 X-3.104 Y16.628 Z0.507 F1500
G1 X-3.195 Y16.628 Z0.529 F1500
G1 X-3.282 Y16.628 Z0.565 F1500
G1 X-3.363 Y16.628 Z0.615 F1500
G1 X-3.434 Y16.628 Z0.676 F1500
G1 X-3.495 Y16.628 Z0.747 F1500
G1 X-3.545 Y16.628 Z0.828 F1500
G1 X-3.581 Y16.628 Z0.915 F1500
G1 X-3.603 Y16.628 Z1.006 F1500
G1 X-3.610 Y16.628 Z1.100 F1500
G1 X-3.610 Y16.628 Z6.588 F500
G1 X-3.899 Y-1.027 Z6.588 F500
G1 X-3.899 Y-1.027 Z0.600 F150
G1 X-3.891 Y-1.027 Z0.506 F500
G1 X-3.869 Y-1.027 Z0.415 F500
G1 X-3.833 Y-1.027 Z0.328 F500
G1 X-3.784 Y-1.027 Z0.247 F500
G1 X-3.723 Y-1.027 Z0.176 F500
G1 X-3.651 Y-1.027 Z0.115 F500
G1 X-3.571 Y-1.027 Z0.065 F500
G1 X-3.484 Y-1.027 Z0.029 F500
G1 X-3.392 Y-1.027 Z0.007 F500
G1 X-3.299 Y-1.027 Z0.000 F500
G1 X-3.010 Y-1.027 Z0.000 F500
G1 X45.339 Y-1.027 Z0.000 F500
G1 X45.488 Y-1.020 Z0.000 F500
G1 X45.635 Y-0.997 Z0.000 F500
G1 X45.780 Y-0.960 Z0.000 F500
G1 X45.919 Y-0.908 Z0.000 F500
G1 X46.053 Y-0.843 Z0.000 F500
G1 X46.180 Y-0.764 Z0.000 F500
G1 X46.297 Y-0.672 Z0.000 F500
G1 X46.405 Y-0.570 Z0.000 F500
G1 X46.503 Y-0.457 Z0.000 F500
G1 X46.588 Y-0.334 Z0.000 F500
G1 X46.660 Y-0.204 Z0.000 F500
G1 X46.719 Y-0.067 Z0.000 F500
G1 X46.763 Y0.075 Z0.000 F500
G1 X46.793 Y0.221 Z0.000 F500
G1 X46.809 Y0.369 Z0.000 F500
G1 X46.809 Y0.518 Z0.000 F500
G1 X46.793 Y0.667 Z0.000 F500
G1 X46.763 Y0.813 Z0.000 F500
G1 X46.719 Y0.955 Z0.000 F500
G1 X46.660 Y1.092 Z0.000 F500
G1 X46.588 Y1.222 Z0.000 F500
G1 X46.503 Y1.345 Z0.000 F500
G1 X46.405 Y1.458 Z0.000 F500
G1 X46.297 Y1.560 Z0.000 F500
G1 X46.180 Y1.652 Z0.000 F500
G1 X46.053 Y1.730 Z0.000 F500
G1 X45.919 Y1.796 Z0.000 F500
G1 X45.780 Y1.848 Z0.000 F500
G1 X45.635 Y1.885 Z0.000 F500
G1 X45.488 Y1.908 Z0.000 F500
G1 X45.339 Y1.915 Z0.000 F500
G1 X-3.010 Y1.915 Z0.000 F500
G1 X-3.159 Y1.923 Z0.000 F500
G1 X-3.306 Y1.945 Z0.000 F500
G1 X-3.450 Y1.983 Z0.000 F500
G1 X-3.590 Y2.034 Z0.000 F500
G1 X-3.724 Y2.100 Z0.000 F500
G1 X-3.851 Y2.179 Z0.000 F500
G1 X-3.968 Y2.270 Z0.000 F500
G1 X-4.076 Y2.373 Z0.000 F500
G1 X-4.173 Y2.486 Z0.000 F500
G1 X-4.259 Y2.608 Z0.000 F500
G1 X-4.331 Y2.739 Z0.000 F500
G1 X-4.390 Y2.876 Z0.000 F500
G1 X-4.434 Y3.018 Z0.000 F500
G1 X-4.464 Y3.164 Z0.000 F500
G1 X-4.479 Y3.312 Z0.000 F500
G1 X-4.479 Y3.461 Z0.000 F500
G1 X-4.464 Y3.609 Z0.000 F500
G1 X-4.434 Y3.755 Z0.000 F500
G1 X-4.390 Y3.898 Z0.000 F500
G1 X-4.331 Y4.035 Z0.000 F500
G1 X-4.259 Y4.165 Z0.000 F500
G1 X-4.173 Y4.287 Z0.000 F500
G1 X-4.076 Y4.400 Z0.000 F500
G1 X-3.968 Y4.503 Z0.000 F500
G1 X-3.851 Y4.594 Z0.000 F500
G1 X-3.724 Y4.673 Z0.000 F500
G1 X-3.590 Y4.739 Z0.000 F500
G1 X-3.450 Y4.790 Z0.000 F500
G1 X-3.306 Y4.828 Z0.000 F500
G1 X-3.159 Y4.850 Z0.000 F500
G1 X-3.010 Y4.858 Z0.000 F500
G1 X45.339 Y4.858 Z0.000 F500
G1 X45.488 Y4.865 Z0.000 F500
G1 X45.635 Y4.888 Z0.000 F500
G1 X45.780 Y4.925 Z0.000 F500
G1 X45.919 Y4.977 Z0.000 F500
G1 X46.053 Y5.043 Z0.000 F500
G1 X46.180 Y5.122 Z0.000 F500
G1 X46.297 Y5.213 Z0.000 F500
G1 X46.405 Y5.315 Z0.000 F500
G1 X46.503 Y5.429 Z0.000 F500
G1 X46.588 Y5.551 Z0.000 F500
G1 X46.660 Y5.681 Z0.000 F500
G1 X46.719 Y5.818 Z0.000 F500
G1 X46.763 Y5.960 Z0.000 F500
G1 X46.793 Y6.106 Z0.000 F500
G1 X46.809 Y6.255 Z0.000 F500
G1 X46.809 Y6.404 Z0.000 F500
G1 X46.793 Y6.552 Z0.000 F500
G1 X46.763 Y6.698 Z0.000 F500
G1 X46.719 Y6.840 Z0.000 F500
G1 X46.660 Y6.977 Z0.000 F500
G1 X46.588 Y7.107 Z0.000 F500
G1 X46.503 Y7.230 Z0.000 F500
G1 X46.405 Y7.343 Z0.000 F500
G1 X46.297 Y7.446 Z0.000 F500
G1 X46.180 Y7.537 Z0.000 F500
G1 X46.053 Y7.616 Z0.000 F500
G1 X45.919 Y7.681 Z0.000 F500
G1 X45.780 Y7.733 Z0.000 F500
G1 X45.635 Y7.770 Z0.000 F500
G1 X45.488 Y7.793 Z0.000 F500
G1 X45.339 Y7.800 Z0.000 F500
G1 X-3.010 Y7.800 Z0.000 F500
G1 X-3.159 Y7.808 Z0.000 F500
G1 X-3.306 Y7.831 Z0.000 F500
G1 X-3.450 Y7.868 Z0.000 F500
G1 X-3.590 Y7.920 Z0.000 F500
G1 X-3.724 Y7.985 Z0.000 F500
G1 X-3.851 Y8.064 Z0.000 F500
G1 X-3.968 Y8.155 Z0.000 F500
G1 X-4.076 Y8.258 Z0.000 F500
G1 X-4.173 Y8.371 Z0.000 F500
G1 X-4.259 Y8.494 Z0.000 F500
G1 X-4.331 Y8.624 Z0.000 F500
G1 X-4.390 Y8.761 Z0.000 F500
G1 X-4.434 Y8.903 Z0.000 F500
G1 X-4.464 Y9.049 Z0.000 F500
G1 X-4.479 Y9.197 Z0.000 F500
G1 X-4.479 Y9.346 Z0.000 F500
G1 X-4.464 Y9.495 Z0.000 F500
G1 X-4.434 Y9.641 Z0.000 F500
G1 X-4.390 Y9.783 Z0.000 F500
G1 X-4.331 Y9.920 Z0.000 F500
G1 X-4.259 Y10.050 Z0.000 F500
G1 X-4.173 Y10.172 Z0.000 F500
G1 X-4.076 Y10.285 Z0.000 F500
G1 X-3.968 Y10.388 Z0.000 F500
G1 X-3.851 Y10.479 Z0.000 F500
G1 X-3.724 Y10.558 Z0.000 F500
G1 X-3.590 Y10.624 Z0.000 F500
G1 X-3.450 Y10.676 Z0.000 F500
G1 X-3.306 Y10.713 Z0.000 F500
G1 X-3.159 Y10.736 Z0.000 F500
G1 X-3.010 Y10.743 Z0.000 F500
G1 X45.339 Y10.743 Z0.000 F500
G1 X45.488 Y10.751 Z0.000 F500
G1 X45.635 Y10.773 Z0.000 F500
G1 X45.780 Y10.811 Z0.000 F500
G1 X45.919 Y10.862 Z0.000 F500
G1 X46.053 Y10.928 Z0.000 F500
G1 X46.180 Y11.007 Z0.000 F500
G1 X46.297 Y11.098 Z0.000 F500
G1 X46.405 Y11.201 Z0.000 F500
G1 X46.503 Y11.314 Z0.000 F500
G1 X46.588 Y11.436 Z0.000 F500
G1 X46.660 Y11.566 Z0.000 F500
G1 X46.719 Y11.703 Z0.000 F500
G1 X46.763 Y11.846 Z0.000 F500
G1 X46.793 Y11.992 Z0.000 F500
G1 X46.809 Y12.140 Z0.000 F500
G1 X46.809 Y12.289 Z0.000 F500
G1 X46.793 Y12.437 Z0.000 F500
G1 X46.763 Y12.583 Z0.000 F500
G1 X46.719 Y12.725 Z0.000 F500
G1 X46.660 Y12.862 Z0.000 F500
G1 X46.588 Y12.993 Z0.000 F500
G1 X46.503 Y13.115 Z0.000 F500
G1 X46.405 Y13.228 Z0.000 F500
G1 X46.297 Y13.331 Z0.000 F500
G1 X46.180 Y13.422 Z0.000 F500
G1 X46.053 Y13.501 Z0.000 F500
G1 X45.919 Y13.566 Z0.000 F500
G1 X45.780 Y13.618 Z0.000 F500
G1 X45.635 Y13.656 Z0.000 F500
G1 X45.488 Y13.678 Z0.000 F500
G1 X45.339 Y13.686 Z0.000 F500
G1 X-3.010 Y13.686 Z0.000 F500
G1 X-3.159 Y13.693 Z0.000 F500
G1 X-3.306 Y13.716 Z0.000 F500
G1 X-3.450 Y13.753 Z0.000 F500
G1 X-3.590 Y13.805 Z0.000 F500
G1 X-3.724 Y13.871 Z0.000 F500
G1 X-3.851 Y13.949 Z0.000 F500
G1 X-3.968 Y14.041 Z0.000 F500
G1 X-4.076 Y14.143 Z0.000 F500
G1 X-4.173 Y14.256 Z0.000 F500
G1 X-4.259 Y14.379 Z0.000 F500
G1 X-4.331 Y14.509 Z0.000 F500
G1 X-4.390 Y14.646 Z0.000 F500
G1 X-4.434 Y14.788 Z0.000 F500
G1 X-4.464 Y14.934 Z0.000 F500
G1 X-4.479 Y15.083 Z0.000 F500
G1 X-4.479 Y15.232 Z0.000 F500
G1 X-4.464 Y15.380 Z0.000 F500
G1 X-4.434 Y15.526 Z0.000 F500
G1 X-4.390 Y15.668 Z0.000 F500
G1 X-4.331 Y15.805 Z0.000 F500
G1 X-4.259 Y15.935 Z0.000 F500
G1 X-4.173 Y16.058 Z0.000 F500
G1 X-4.076 Y16.171 Z0.000 F500
G1 X-3.968 Y16.273 Z0.000 F500
G1 X-3.851 Y16.365 Z0.000 F500
G1 X-3.724 Y16.443 Z0.000 F500
G1 X-3.590 Y16.509 Z0.000 F500
G1 X-3.450 Y16.561 Z0.000 F500
G1 X-3.306 Y16.598 Z0.000 F500
G1 X-3.159 Y16.621 Z0.000 F500
G1 X-3.010 Y16.628 Z0.000 F500
G1 X45.339 Y16.628 Z0.000 F500
G1 X45.433 Y16.628 Z0.007 F1500
G1 X45.525 Y16.628 Z0.029 F1500
G1 X45.611 Y16.628 Z0.065 F1500
G1 X45.692 Y16.628 Z0.115 F1500
G1 X45.763 Y16.628 Z0.176 F1500
G1 X45.825 Y16.628 Z0.247 F1500
G1 X45.874 Y16.628 Z0.328 F1500
G1 X45.910 Y16.628 Z0.415 F1500
G1 X45.932 Y16.628 Z0.506 F1500
G1 X45.939 Y16.628 Z0.600 F1500
G1 X45.939 Y16.628 Z56.588 F500
G0 X0.000 Y0.000
M5
