;Titan-2-2-Channels
;Machine
;vendor: Snapmaker
;model: Desktop CNC
;description: Generic Snapmaker Marlin v20180725
;tool: 6mm 3 flute endmill

M3 P100
G4 S2
G21
G90
;When using Fusion for Personal Use, the feedrate of rapid
;moves is reduced to match the feedrate of cutting moves,
;which can increase machining time. Unrestricted rapid moves
;are available with a Fusion Subscription.

;Titan-2-2-Channels
G0 X9.814 Y-3.819 Z56.588
G1 X9.814 Y-3.819 Z56.588 F500
G1 X9.814 Y-3.819 Z6.588 F500
G1 X9.814 Y-3.819 Z2.588 F150
G1 X9.814 Y-3.819 Z1.688 F150
G1 X9.820 Y-3.814 Z1.594 F500
G1 X9.835 Y-3.798 Z1.502 F500
G1 X9.861 Y-3.773 Z1.415 F500
G1 X9.896 Y-3.738 Z1.335 F500
G1 X9.939 Y-3.695 Z1.264 F500
G1 X9.989 Y-3.644 Z1.202 F500
G1 X10.046 Y-3.587 Z1.153 F500
G1 X10.108 Y-3.526 Z1.117 F500
G1 X10.172 Y-3.461 Z1.095 F500
G1 X10.239 Y-3.395 Z1.088 F500
G1 X10.663 Y-2.970 Z1.088 F500
G1 X10.724 Y-2.899 Z1.088 F500
G1 X10.773 Y-2.818 Z1.088 F500
G1 X10.809 Y-2.731 Z1.088 F500
G1 X10.831 Y-2.640 Z1.088 F500
G1 X10.838 Y-2.546 Z1.088 F500
G1 X10.831 Y-2.452 Z1.088 F500
G1 X10.809 Y-2.361 Z1.088 F500
G1 X10.773 Y-2.274 Z1.088 F500
G1 X10.724 Y-2.193 Z1.088 F500
G1 X10.663 Y-2.122 Z1.088 F500
G1 X10.578 Y-2.037 Z1.088 F500
G1 X10.432 Y-1.880 Z1.088 F500
G1 X10.297 Y-1.714 Z1.088 F500
G1 X10.175 Y-1.538 Z1.088 F500
G1 X10.066 Y-1.354 Z1.088 F500
G1 X9.970 Y-1.162 Z1.088 F500
G1 X9.888 Y-0.964 Z1.088 F500
G1 X9.820 Y-0.761 Z1.088 F500
G1 X9.767 Y-0.553 Z1.088 F500
G1 X9.729 Y-0.342 Z1.088 F500
G1 X9.706 Y-0.129 Z1.088 F500
G1 X9.699 Y0.085 Z1.088 F500
G1 X9.699 Y16.424 Z1.088 F500
G1 X9.691 Y16.518 Z1.088 F200
G1 X9.669 Y16.609 Z1.088 F200
G1 X9.633 Y16.696 Z1.088 F200
G1 X9.584 Y16.776 Z1.088 F200
G1 X9.523 Y16.848 Z1.088 F200
G1 X9.451 Y16.909 Z1.088 F200
G1 X9.371 Y16.958 Z1.088 F200
G1 X9.284 Y16.994 Z1.088 F200
G1 X9.193 Y17.016 Z1.088 F200
G1 X9.099 Y17.024 Z1.088 F200
G1 X8.499 Y17.024 Z1.088 F200
G1 X8.405 Y17.024 Z1.095 F200
G1 X8.313 Y17.024 Z1.117 F200
G1 X8.226 Y17.024 Z1.153 F200
G1 X8.146 Y17.024 Z1.202 F200
G1 X8.074 Y17.024 Z1.264 F200
G1 X8.013 Y17.024 Z1.335 F200
G1 X7.964 Y17.024 Z1.415 F200
G1 X7.928 Y17.024 Z1.502 F200
G1 X7.906 Y17.024 Z1.594 F200
G1 X7.899 Y17.024 Z1.688 F200
G1 X7.899 Y17.024 Z6.588 F500
G1 X9.033 Y17.024 Z6.588 F500
G1 X9.033 Y17.024 Z2.588 F150
G1 X9.033 Y17.024 Z1.688 F150
G1 X9.026 Y17.024 Z1.594 F500
G1 X9.004 Y17.024 Z1.502 F500
G1 X8.968 Y17.024 Z1.415 F500
G1 X8.918 Y17.024 Z1.335 F500
G1 X8.857 Y17.024 Z1.264 F500
G1 X8.786 Y17.024 Z1.202 F500
G1 X8.705 Y17.024 Z1.153 F500
G1 X8.618 Y17.024 Z1.117 F500
G1 X8.527 Y17.024 Z1.095 F500
G1 X8.433 Y17.024 Z1.088 F500
G1 X7.833 Y17.024 Z1.088 F500
G1 X7.739 Y17.016 Z1.088 F500
G1 X7.647 Y16.994 Z1.088 F500
G1 X7.561 Y16.958 Z1.088 F500
G1 X7.480 Y16.909 Z1.088 F500
G1 X7.409 Y16.848 Z1.088 F500
G1 X7.347 Y16.776 Z1.088 F500
G1 X7.298 Y16.696 Z1.088 F500
G1 X7.262 Y16.609 Z1.088 F500
G1 X7.240 Y16.518 Z1.088 F500
G1 X7.233 Y16.424 Z1.088 F500
G1 X7.233 Y0.085 Z1.088 F500
G1 X7.225 Y-0.129 Z1.088 F500
G1 X7.202 Y-0.342 Z1.088 F500
G1 X7.164 Y-0.553 Z1.088 F500
G1 X7.111 Y-0.761 Z1.088 F500
G1 X7.044 Y-0.964 Z1.088 F500
G1 X6.962 Y-1.162 Z1.088 F500
G1 X6.866 Y-1.353 Z1.088 F500
G1 X6.757 Y-1.537 Z1.088 F500
G1 X6.635 Y-1.713 Z1.088 F500
G1 X6.500 Y-1.880 Z1.088 F500
G1 X6.354 Y-2.037 Z1.088 F500
G1 X6.270 Y-2.121 Z1.088 F500
G1 X6.208 Y-2.193 Z1.088 F200
G1 X6.159 Y-2.273 Z1.088 F200
G1 X6.123 Y-2.360 Z1.088 F200
G1 X6.101 Y-2.452 Z1.088 F200
G1 X6.094 Y-2.546 Z1.088 F200
G1 X6.101 Y-2.639 Z1.088 F200
G1 X6.123 Y-2.731 Z1.088 F200
G1 X6.159 Y-2.818 Z1.088 F200
G1 X6.208 Y-2.898 Z1.088 F200
G1 X6.270 Y-2.970 Z1.088 F200
G1 X6.694 Y-3.394 Z1.088 F200
G1 X6.760 Y-3.461 Z1.095 F200
G1 X6.825 Y-3.525 Z1.117 F200
G1 X6.886 Y-3.587 Z1.153 F200
G1 X6.943 Y-3.644 Z1.202 F200
G1 X6.994 Y-3.694 Z1.264 F200
G1 X7.037 Y-3.737 Z1.335 F200
G1 X7.072 Y-3.772 Z1.415 F200
G1 X7.097 Y-3.798 Z1.502 F200
G1 X7.113 Y-3.813 Z1.594 F200
G1 X7.118 Y-3.818 Z1.688 F200
G1 X7.118 Y-3.818 Z6.588 F500
G1 X9.814 Y-3.819 Z6.588 F500
G1 X9.814 Y-3.819 Z2.088 F150
G1 X9.814 Y-3.819 Z1.188 F150
G1 X9.820 Y-3.814 Z1.094 F500
G1 X9.835 Y-3.798 Z1.002 F500
G1 X9.861 Y-3.773 Z0.915 F500
G1 X9.896 Y-3.738 Z0.835 F500
G1 X9.939 Y-3.695 Z0.764 F500
G1 X9.989 Y-3.644 Z0.702 F500
G1 X10.046 Y-3.587 Z0.653 F500
G1 X10.108 Y-3.526 Z0.617 F500
G1 X10.172 Y-3.461 Z0.595 F500
G1 X10.239 Y-3.395 Z0.588 F500
G1 X10.663 Y-2.970 Z0.588 F500
G1 X10.724 Y-2.899 Z0.588 F500
G1 X10.773 Y-2.818 Z0.588 F500
G1 X10.809 Y-2.731 Z0.588 F500
G1 X10.831 Y-2.640 Z0.588 F500
G1 X10.838 Y-2.546 Z0.588 F500
G1 X10.831 Y-2.452 Z0.588 F500
G1 X10.809 Y-2.361 Z0.588 F500
G1 X10.773 Y-2.274 Z0.588 F500
G1 X10.724 Y-2.193 Z0.588 F500
G1 X10.663 Y-2.122 Z0.588 F500
G1 X10.578 Y-2.037 Z0.588 F500
G1 X10.432 Y-1.880 Z0.588 F500
G1 X10.297 Y-1.714 Z0.588 F500
G1 X10.175 Y-1.538 Z0.588 F500
G1 X10.066 Y-1.354 Z0.588 F500
G1 X9.970 Y-1.162 Z0.588 F500
G1 X9.888 Y-0.964 Z0.588 F500
G1 X9.820 Y-0.761 Z0.588 F500
G1 X9.767 Y-0.553 Z0.588 F500
G1 X9.729 Y-0.342 Z0.588 F500
G1 X9.706 Y-0.129 Z0.588 F500
G1 X9.699 Y0.085 Z0.588 F500
G1 X9.699 Y16.424 Z0.588 F500
G1 X9.691 Y16.518 Z0.588 F200
G1 X9.669 Y16.609 Z0.588 F200
G1 X9.633 Y16.696 Z0.588 F200
G1 X9.584 Y16.776 Z0.588 F200
G1 X9.523 Y16.848 Z0.588 F200
G1 X9.451 Y16.909 Z0.588 F200
G1 X9.371 Y16.958 Z0.588 F200
G1 X9.284 Y16.994 Z0.588 F200
G1 X9.193 Y17.016 Z0.588 F200
G1 X9.099 Y17.024 Z0.588 F200
G1 X8.499 Y17.024 Z0.588 F200
G1 X8.405 Y17.024 Z0.595 F200
G1 X8.313 Y17.024 Z0.617 F200
G1 X8.226 Y17.024 Z0.653 F200
G1 X8.146 Y17.024 Z0.702 F200
G1 X8.074 Y17.024 Z0.764 F200
G1 X8.013 Y17.024 Z0.835 F200
G1 X7.964 Y17.024 Z0.915 F200
G1 X7.928 Y17.024 Z1.002 F200
G1 X7.906 Y17.024 Z1.094 F200
G1 X7.899 Y17.024 Z1.188 F200
G1 X7.899 Y17.024 Z6.588 F500
G1 X9.033 Y17.024 Z6.588 F500
G1 X9.033 Y17.024 Z2.088 F150
G1 X9.033 Y17.024 Z1.188 F150
G1 X9.026 Y17.024 Z1.094 F500
G1 X9.004 Y17.024 Z1.002 F500
G1 X8.968 Y17.024 Z0.915 F500
G1 X8.918 Y17.024 Z0.835 F500
G1 X8.857 Y17.024 Z0.764 F500
G1 X8.786 Y17.024 Z0.702 F500
G1 X8.705 Y17.024 Z0.653 F500
G1 X8.618 Y17.024 Z0.617 F500
G1 X8.527 Y17.024 Z0.595 F500
G1 X8.433 Y17.024 Z0.588 F500
G1 X7.833 Y17.024 Z0.588 F500
G1 X7.739 Y17.016 Z0.588 F500
G1 X7.647 Y16.994 Z0.588 F500
G1 X7.561 Y16.958 Z0.588 F500
G1 X7.480 Y16.909 Z0.588 F500
G1 X7.409 Y16.848 Z0.588 F500
G1 X7.347 Y16.776 Z0.588 F500
G1 X7.298 Y16.696 Z0.588 F500
G1 X7.262 Y16.609 Z0.588 F500
G1 X7.240 Y16.518 Z0.588 F500
G1 X7.233 Y16.424 Z0.588 F500
G1 X7.233 Y0.085 Z0.588 F500
G1 X7.225 Y-0.129 Z0.588 F500
G1 X7.202 Y-0.342 Z0.588 F500
G1 X7.164 Y-0.553 Z0.588 F500
G1 X7.111 Y-0.761 Z0.588 F500
G1 X7.044 Y-0.964 Z0.588 F500
G1 X6.962 Y-1.162 Z0.588 F500
G1 X6.866 Y-1.353 Z0.588 F500
G1 X6.757 Y-1.537 Z0.588 F500
G1 X6.635 Y-1.713 Z0.588 F500
G1 X6.500 Y-1.880 Z0.588 F500
G1 X6.354 Y-2.037 Z0.588 F500
G1 X6.270 Y-2.121 Z0.588 F500
G1 X6.208 Y-2.193 Z0.588 F200
G1 X6.159 Y-2.273 Z0.588 F200
G1 X6.123 Y-2.360 Z0.588 F200
G1 X6.101 Y-2.452 Z0.588 F200
G1 X6.094 Y-2.546 Z0.588 F200
G1 X6.101 Y-2.639 Z0.588 F200
G1 X6.123 Y-2.731 Z0.588 F200
G1 X6.159 Y-2.818 Z0.588 F200
G1 X6.208 Y-2.898 Z0.588 F200
G1 X6.270 Y-2.970 Z0.588 F200
G1 X6.694 Y-3.394 Z0.588 F200
G1 X6.760 Y-3.461 Z0.595 F200
G1 X6.825 Y-3.525 Z0.617 F200
G1 X6.886 Y-3.587 Z0.653 F200
G1 X6.943 Y-3.644 Z0.702 F200
G1 X6.994 Y-3.694 Z0.764 F200
G1 X7.037 Y-3.737 Z0.835 F200
G1 X7.072 Y-3.772 Z0.915 F200
G1 X7.097 Y-3.798 Z1.002 F200
G1 X7.113 Y-3.813 Z1.094 F200
G1 X7.118 Y-3.818 Z1.188 F200
G1 X7.118 Y-3.818 Z6.588 F500
G1 X9.814 Y-3.819 Z6.588 F500
G1 X9.814 Y-3.819 Z1.588 F150
G1 X9.814 Y-3.819 Z0.688 F150
G1 X9.820 Y-3.814 Z0.594 F500
G1 X9.835 Y-3.798 Z0.502 F500
G1 X9.861 Y-3.773 Z0.415 F500
G1 X9.896 Y-3.738 Z0.335 F500
G1 X9.939 Y-3.695 Z0.264 F500
G1 X9.989 Y-3.644 Z0.202 F500
G1 X10.046 Y-3.587 Z0.153 F500
G1 X10.108 Y-3.526 Z0.117 F500
G1 X10.172 Y-3.461 Z0.095 F500
G1 X10.239 Y-3.395 Z0.088 F500
G1 X10.663 Y-2.970 Z0.088 F500
G1 X10.724 Y-2.899 Z0.088 F500
G1 X10.773 Y-2.818 Z0.088 F500
G1 X10.809 Y-2.731 Z0.088 F500
G1 X10.831 Y-2.640 Z0.088 F500
G1 X10.838 Y-2.546 Z0.088 F500
G1 X10.831 Y-2.452 Z0.088 F500
G1 X10.809 Y-2.361 Z0.088 F500
G1 X10.773 Y-2.274 Z0.088 F500
G1 X10.724 Y-2.193 Z0.088 F500
G1 X10.663 Y-2.122 Z0.088 F500
G1 X10.578 Y-2.037 Z0.088 F500
G1 X10.432 Y-1.880 Z0.088 F500
G1 X10.297 Y-1.714 Z0.088 F500
G1 X10.175 Y-1.538 Z0.088 F500
G1 X10.066 Y-1.354 Z0.088 F500
G1 X9.970 Y-1.162 Z0.088 F500
G1 X9.888 Y-0.964 Z0.088 F500
G1 X9.820 Y-0.761 Z0.088 F500
G1 X9.767 Y-0.553 Z0.088 F500
G1 X9.729 Y-0.342 Z0.088 F500
G1 X9.706 Y-0.129 Z0.088 F500
G1 X9.699 Y0.085 Z0.088 F500
G1 X9.699 Y16.424 Z0.088 F500
G1 X9.691 Y16.518 Z0.088 F200
G1 X9.669 Y16.609 Z0.088 F200
G1 X9.633 Y16.696 Z0.088 F200
G1 X9.584 Y16.776 Z0.088 F200
G1 X9.523 Y16.848 Z0.088 F200
G1 X9.451 Y16.909 Z0.088 F200
G1 X9.371 Y16.958 Z0.088 F200
G1 X9.284 Y16.994 Z0.088 F200
G1 X9.193 Y17.016 Z0.088 F200
G1 X9.099 Y17.024 Z0.088 F200
G1 X8.499 Y17.024 Z0.088 F200
G1 X8.405 Y17.024 Z0.095 F200
G1 X8.313 Y17.024 Z0.117 F200
G1 X8.226 Y17.024 Z0.153 F200
G1 X8.146 Y17.024 Z0.202 F200
G1 X8.074 Y17.024 Z0.264 F200
G1 X8.013 Y17.024 Z0.335 F200
G1 X7.964 Y17.024 Z0.415 F200
G1 X7.928 Y17.024 Z0.502 F200
G1 X7.906 Y17.024 Z0.594 F200
G1 X7.899 Y17.024 Z0.688 F200
G1 X7.899 Y17.024 Z6.588 F500
G1 X9.033 Y17.024 Z6.588 F500
G1 X9.033 Y17.024 Z1.588 F150
G1 X9.033 Y17.024 Z0.688 F150
G1 X9.026 Y17.024 Z0.594 F500
G1 X9.004 Y17.024 Z0.502 F500
G1 X8.968 Y17.024 Z0.415 F500
G1 X8.918 Y17.024 Z0.335 F500
G1 X8.857 Y17.024 Z0.264 F500
G1 X8.786 Y17.024 Z0.202 F500
G1 X8.705 Y17.024 Z0.153 F500
G1 X8.618 Y17.024 Z0.117 F500
G1 X8.527 Y17.024 Z0.095 F500
G1 X8.433 Y17.024 Z0.088 F500
G1 X7.833 Y17.024 Z0.088 F500
G1 X7.739 Y17.016 Z0.088 F500
G1 X7.647 Y16.994 Z0.088 F500
G1 X7.561 Y16.958 Z0.088 F500
G1 X7.480 Y16.909 Z0.088 F500
G1 X7.409 Y16.848 Z0.088 F500
G1 X7.347 Y16.776 Z0.088 F500
G1 X7.298 Y16.696 Z0.088 F500
G1 X7.262 Y16.609 Z0.088 F500
G1 X7.240 Y16.518 Z0.088 F500
G1 X7.233 Y16.424 Z0.088 F500
G1 X7.233 Y0.085 Z0.088 F500
G1 X7.225 Y-0.129 Z0.088 F500
G1 X7.202 Y-0.342 Z0.088 F500
G1 X7.164 Y-0.553 Z0.088 F500
G1 X7.111 Y-0.761 Z0.088 F500
G1 X7.044 Y-0.964 Z0.088 F500
G1 X6.962 Y-1.162 Z0.088 F500
G1 X6.866 Y-1.353 Z0.088 F500
G1 X6.757 Y-1.537 Z0.088 F500
G1 X6.635 Y-1.713 Z0.088 F500
G1 X6.500 Y-1.880 Z0.088 F500
G1 X6.354 Y-2.037 Z0.088 F500
G1 X6.270 Y-2.121 Z0.088 F500
G1 X6.208 Y-2.193 Z0.088 F200
G1 X6.159 Y-2.273 Z0.088 F200
G1 X6.123 Y-2.360 Z0.088 F200
G1 X6.101 Y-2.452 Z0.088 F200
G1 X6.094 Y-2.546 Z0.088 F200
G1 X6.101 Y-2.639 Z0.088 F200
G1 X6.123 Y-2.731 Z0.088 F200
G1 X6.159 Y-2.818 Z0.088 F200
G1 X6.208 Y-2.898 Z0.088 F200
G1 X6.270 Y-2.970 Z0.088 F200
G1 X6.694 Y-3.394 Z0.088 F200
G1 X6.760 Y-3.461 Z0.095 F200
G1 X6.825 Y-3.525 Z0.117 F200
G1 X6.886 Y-3.587 Z0.153 F200
G1 X6.943 Y-3.644 Z0.202 F200
G1 X6.994 Y-3.694 Z0.264 F200
G1 X7.037 Y-3.737 Z0.335 F200
G1 X7.072 Y-3.772 Z0.415 F200
G1 X7.097 Y-3.798 Z0.502 F200
G1 X7.113 Y-3.813 Z0.594 F200
G1 X7.118 Y-3.818 Z0.688 F200
G1 X7.118 Y-3.818 Z6.588 F500
G1 X9.814 Y-3.819 Z6.588 F500
G1 X9.814 Y-3.819 Z1.088 F150
G1 X9.814 Y-3.819 Z0.188 F150
G1 X9.820 Y-3.814 Z0.094 F500
G1 X9.835 Y-3.798 Z0.002 F500
G1 X9.861 Y-3.773 Z-0.085 F500
G1 X9.896 Y-3.738 Z-0.165 F500
G1 X9.939 Y-3.695 Z-0.236 F500
G1 X9.989 Y-3.644 Z-0.298 F500
G1 X10.046 Y-3.587 Z-0.347 F500
G1 X10.108 Y-3.526 Z-0.383 F500
G1 X10.172 Y-3.461 Z-0.405 F500
G1 X10.239 Y-3.395 Z-0.412 F500
G1 X10.663 Y-2.970 Z-0.412 F500
G1 X10.724 Y-2.899 Z-0.412 F500
G1 X10.773 Y-2.818 Z-0.412 F500
G1 X10.809 Y-2.731 Z-0.412 F500
G1 X10.831 Y-2.640 Z-0.412 F500
G1 X10.838 Y-2.546 Z-0.412 F500
G1 X10.831 Y-2.452 Z-0.412 F500
G1 X10.809 Y-2.361 Z-0.412 F500
G1 X10.773 Y-2.274 Z-0.412 F500
G1 X10.724 Y-2.193 Z-0.412 F500
G1 X10.663 Y-2.122 Z-0.412 F500
G1 X10.578 Y-2.037 Z-0.412 F500
G1 X10.432 Y-1.880 Z-0.412 F500
G1 X10.297 Y-1.714 Z-0.412 F500
G1 X10.175 Y-1.538 Z-0.412 F500
G1 X10.066 Y-1.354 Z-0.412 F500
G1 X9.970 Y-1.162 Z-0.412 F500
G1 X9.888 Y-0.964 Z-0.412 F500
G1 X9.820 Y-0.761 Z-0.412 F500
G1 X9.767 Y-0.553 Z-0.412 F500
G1 X9.729 Y-0.342 Z-0.412 F500
G1 X9.706 Y-0.129 Z-0.412 F500
G1 X9.699 Y0.085 Z-0.412 F500
G1 X9.699 Y16.424 Z-0.412 F500
G1 X9.691 Y16.518 Z-0.412 F200
G1 X9.669 Y16.609 Z-0.412 F200
G1 X9.633 Y16.696 Z-0.412 F200
G1 X9.584 Y16.776 Z-0.412 F200
G1 X9.523 Y16.848 Z-0.412 F200
G1 X9.451 Y16.909 Z-0.412 F200
G1 X9.371 Y16.958 Z-0.412 F200
G1 X9.284 Y16.994 Z-0.412 F200
G1 X9.193 Y17.016 Z-0.412 F200
G1 X9.099 Y17.024 Z-0.412 F200
G1 X8.499 Y17.024 Z-0.412 F200
G1 X8.405 Y17.024 Z-0.405 F200
G1 X8.313 Y17.024 Z-0.383 F200
G1 X8.226 Y17.024 Z-0.347 F200
G1 X8.146 Y17.024 Z-0.298 F200
G1 X8.074 Y17.024 Z-0.236 F200
G1 X8.013 Y17.024 Z-0.165 F200
G1 X7.964 Y17.024 Z-0.085 F200
G1 X7.928 Y17.024 Z0.002 F200
G1 X7.906 Y17.024 Z0.094 F200
G1 X7.899 Y17.024 Z0.188 F200
G1 X7.899 Y17.024 Z6.588 F500
G1 X9.033 Y17.024 Z6.588 F500
G1 X9.033 Y17.024 Z1.088 F150
G1 X9.033 Y17.024 Z0.188 F150
G1 X9.026 Y17.024 Z0.094 F500
G1 X9.004 Y17.024 Z0.002 F500
G1 X8.968 Y17.024 Z-0.085 F500
G1 X8.918 Y17.024 Z-0.165 F500
G1 X8.857 Y17.024 Z-0.236 F500
G1 X8.786 Y17.024 Z-0.298 F500
G1 X8.705 Y17.024 Z-0.347 F500
G1 X8.618 Y17.024 Z-0.383 F500
G1 X8.527 Y17.024 Z-0.405 F500
G1 X8.433 Y17.024 Z-0.412 F500
G1 X7.833 Y17.024 Z-0.412 F500
G1 X7.739 Y17.016 Z-0.412 F500
G1 X7.647 Y16.994 Z-0.412 F500
G1 X7.561 Y16.958 Z-0.412 F500
G1 X7.480 Y16.909 Z-0.412 F500
G1 X7.409 Y16.848 Z-0.412 F500
G1 X7.347 Y16.776 Z-0.412 F500
G1 X7.298 Y16.696 Z-0.412 F500
G1 X7.262 Y16.609 Z-0.412 F500
G1 X7.240 Y16.518 Z-0.412 F500
G1 X7.233 Y16.424 Z-0.412 F500
G1 X7.233 Y0.085 Z-0.412 F500
G1 X7.225 Y-0.129 Z-0.412 F500
G1 X7.202 Y-0.342 Z-0.412 F500
G1 X7.164 Y-0.553 Z-0.412 F500
G1 X7.111 Y-0.761 Z-0.412 F500
G1 X7.044 Y-0.964 Z-0.412 F500
G1 X6.962 Y-1.162 Z-0.412 F500
G1 X6.866 Y-1.353 Z-0.412 F500
G1 X6.757 Y-1.537 Z-0.412 F500
G1 X6.635 Y-1.713 Z-0.412 F500
G1 X6.500 Y-1.880 Z-0.412 F500
G1 X6.354 Y-2.037 Z-0.412 F500
G1 X6.270 Y-2.121 Z-0.412 F500
G1 X6.208 Y-2.193 Z-0.412 F200
G1 X6.159 Y-2.273 Z-0.412 F200
G1 X6.123 Y-2.360 Z-0.412 F200
G1 X6.101 Y-2.452 Z-0.412 F200
G1 X6.094 Y-2.546 Z-0.412 F200
G1 X6.101 Y-2.639 Z-0.412 F200
G1 X6.123 Y-2.731 Z-0.412 F200
G1 X6.159 Y-2.818 Z-0.412 F200
G1 X6.208 Y-2.898 Z-0.412 F200
G1 X6.270 Y-2.970 Z-0.412 F200
G1 X6.694 Y-3.394 Z-0.412 F200
G1 X6.760 Y-3.461 Z-0.405 F200
G1 X6.825 Y-3.525 Z-0.383 F200
G1 X6.886 Y-3.587 Z-0.347 F200
G1 X6.943 Y-3.644 Z-0.298 F200
G1 X6.994 Y-3.694 Z-0.236 F200
G1 X7.037 Y-3.737 Z-0.165 F200
G1 X7.072 Y-3.772 Z-0.085 F200
G1 X7.097 Y-3.798 Z0.002 F200
G1 X7.113 Y-3.813 Z0.094 F200
G1 X7.118 Y-3.818 Z0.188 F200
G1 X7.118 Y-3.818 Z6.588 F500
G1 X9.814 Y-3.819 Z6.588 F500
G1 X9.814 Y-3.819 Z0.588 F150
G1 X9.814 Y-3.819 Z-0.312 F150
G1 X9.820 Y-3.814 Z-0.406 F500
G1 X9.835 Y-3.798 Z-0.498 F500
G1 X9.861 Y-3.773 Z-0.585 F500
G1 X9.896 Y-3.738 Z-0.665 F500
G1 X9.939 Y-3.695 Z-0.736 F500
G1 X9.989 Y-3.644 Z-0.798 F500
G1 X10.046 Y-3.587 Z-0.847 F500
G1 X10.108 Y-3.526 Z-0.883 F500
G1 X10.172 Y-3.461 Z-0.905 F500
G1 X10.239 Y-3.395 Z-0.912 F500
G1 X10.663 Y-2.970 Z-0.912 F500
G1 X10.724 Y-2.899 Z-0.912 F500
G1 X10.773 Y-2.818 Z-0.912 F500
G1 X10.809 Y-2.731 Z-0.912 F500
G1 X10.831 Y-2.640 Z-0.912 F500
G1 X10.838 Y-2.546 Z-0.912 F500
G1 X10.831 Y-2.452 Z-0.912 F500
G1 X10.809 Y-2.361 Z-0.912 F500
G1 X10.773 Y-2.274 Z-0.912 F500
G1 X10.724 Y-2.193 Z-0.912 F500
G1 X10.663 Y-2.122 Z-0.912 F500
G1 X10.578 Y-2.037 Z-0.912 F500
G1 X10.432 Y-1.880 Z-0.912 F500
G1 X10.297 Y-1.714 Z-0.912 F500
G1 X10.175 Y-1.538 Z-0.912 F500
G1 X10.066 Y-1.354 Z-0.912 F500
G1 X9.970 Y-1.162 Z-0.912 F500
G1 X9.888 Y-0.964 Z-0.912 F500
G1 X9.820 Y-0.761 Z-0.912 F500
G1 X9.767 Y-0.553 Z-0.912 F500
G1 X9.729 Y-0.342 Z-0.912 F500
G1 X9.706 Y-0.129 Z-0.912 F500
G1 X9.699 Y0.085 Z-0.912 F500
G1 X9.699 Y16.424 Z-0.912 F500
G1 X9.691 Y16.518 Z-0.912 F200
G1 X9.669 Y16.609 Z-0.912 F200
G1 X9.633 Y16.696 Z-0.912 F200
G1 X9.584 Y16.776 Z-0.912 F200
G1 X9.523 Y16.848 Z-0.912 F200
G1 X9.451 Y16.909 Z-0.912 F200
G1 X9.371 Y16.958 Z-0.912 F200
G1 X9.284 Y16.994 Z-0.912 F200
G1 X9.193 Y17.016 Z-0.912 F200
G1 X9.099 Y17.024 Z-0.912 F200
G1 X8.499 Y17.024 Z-0.912 F200
G1 X8.405 Y17.024 Z-0.905 F200
G1 X8.313 Y17.024 Z-0.883 F200
G1 X8.226 Y17.024 Z-0.847 F200
G1 X8.146 Y17.024 Z-0.798 F200
G1 X8.074 Y17.024 Z-0.736 F200
G1 X8.013 Y17.024 Z-0.665 F200
G1 X7.964 Y17.024 Z-0.585 F200
G1 X7.928 Y17.024 Z-0.498 F200
G1 X7.906 Y17.024 Z-0.406 F200
G1 X7.899 Y17.024 Z-0.312 F200
G1 X7.899 Y17.024 Z6.588 F500
G1 X9.033 Y17.024 Z6.588 F500
G1 X9.033 Y17.024 Z0.588 F150
G1 X9.033 Y17.024 Z-0.312 F150
G1 X9.026 Y17.024 Z-0.406 F500
G1 X9.004 Y17.024 Z-0.498 F500
G1 X8.968 Y17.024 Z-0.585 F500
G1 X8.918 Y17.024 Z-0.665 F500
G1 X8.857 Y17.024 Z-0.736 F500
G1 X8.786 Y17.024 Z-0.798 F500
G1 X8.705 Y17.024 Z-0.847 F500
G1 X8.618 Y17.024 Z-0.883 F500
G1 X8.527 Y17.024 Z-0.905 F500
G1 X8.433 Y17.024 Z-0.912 F500
G1 X7.833 Y17.024 Z-0.912 F500
G1 X7.739 Y17.016 Z-0.912 F500
G1 X7.647 Y16.994 Z-0.912 F500
G1 X7.561 Y16.958 Z-0.912 F500
G1 X7.480 Y16.909 Z-0.912 F500
G1 X7.409 Y16.848 Z-0.912 F500
G1 X7.347 Y16.776 Z-0.912 F500
G1 X7.298 Y16.696 Z-0.912 F500
G1 X7.262 Y16.609 Z-0.912 F500
G1 X7.240 Y16.518 Z-0.912 F500
G1 X7.233 Y16.424 Z-0.912 F500
G1 X7.233 Y0.085 Z-0.912 F500
G1 X7.225 Y-0.129 Z-0.912 F500
G1 X7.202 Y-0.342 Z-0.912 F500
G1 X7.164 Y-0.553 Z-0.912 F500
G1 X7.111 Y-0.761 Z-0.912 F500
G1 X7.044 Y-0.964 Z-0.912 F500
G1 X6.962 Y-1.162 Z-0.912 F500
G1 X6.866 Y-1.353 Z-0.912 F500
G1 X6.757 Y-1.537 Z-0.912 F500
G1 X6.635 Y-1.713 Z-0.912 F500
G1 X6.500 Y-1.880 Z-0.912 F500
G1 X6.354 Y-2.037 Z-0.912 F500
G1 X6.270 Y-2.121 Z-0.912 F500
G1 X6.208 Y-2.193 Z-0.912 F200
G1 X6.159 Y-2.273 Z-0.912 F200
G1 X6.123 Y-2.360 Z-0.912 F200
G1 X6.101 Y-2.452 Z-0.912 F200
G1 X6.094 Y-2.546 Z-0.912 F200
G1 X6.101 Y-2.639 Z-0.912 F200
G1 X6.123 Y-2.731 Z-0.912 F200
G1 X6.159 Y-2.818 Z-0.912 F200
G1 X6.208 Y-2.898 Z-0.912 F200
G1 X6.270 Y-2.970 Z-0.912 F200
G1 X6.694 Y-3.394 Z-0.912 F200
G1 X6.760 Y-3.461 Z-0.905 F200
G1 X6.825 Y-3.525 Z-0.883 F200
G1 X6.886 Y-3.587 Z-0.847 F200
G1 X6.943 Y-3.644 Z-0.798 F200
G1 X6.994 Y-3.694 Z-0.736 F200
G1 X7.037 Y-3.737 Z-0.665 F200
G1 X7.072 Y-3.772 Z-0.585 F200
G1 X7.097 Y-3.798 Z-0.498 F200
G1 X7.113 Y-3.813 Z-0.406 F200
G1 X7.118 Y-3.818 Z-0.312 F200
G1 X7.118 Y-3.818 Z6.588 F500
G1 X9.814 Y-3.819 Z6.588 F500
G1 X9.814 Y-3.819 Z0.088 F150
G1 X9.814 Y-3.819 Z-0.812 F150
G1 X9.820 Y-3.814 Z-0.906 F500
G1 X9.835 Y-3.798 Z-0.998 F500
G1 X9.861 Y-3.773 Z-1.085 F500
G1 X9.896 Y-3.738 Z-1.165 F500
G1 X9.939 Y-3.695 Z-1.236 F500
G1 X9.989 Y-3.644 Z-1.298 F500
G1 X10.046 Y-3.587 Z-1.347 F500
G1 X10.108 Y-3.526 Z-1.383 F500
G1 X10.172 Y-3.461 Z-1.405 F500
G1 X10.239 Y-3.395 Z-1.412 F500
G1 X10.663 Y-2.970 Z-1.412 F500
G1 X10.724 Y-2.899 Z-1.412 F500
G1 X10.773 Y-2.818 Z-1.412 F500
G1 X10.809 Y-2.731 Z-1.412 F500
G1 X10.831 Y-2.640 Z-1.412 F500
G1 X10.838 Y-2.546 Z-1.412 F500
G1 X10.831 Y-2.452 Z-1.412 F500
G1 X10.809 Y-2.361 Z-1.412 F500
G1 X10.773 Y-2.274 Z-1.412 F500
G1 X10.724 Y-2.193 Z-1.412 F500
G1 X10.663 Y-2.122 Z-1.412 F500
G1 X10.578 Y-2.037 Z-1.412 F500
G1 X10.432 Y-1.880 Z-1.412 F500
G1 X10.297 Y-1.714 Z-1.412 F500
G1 X10.175 Y-1.538 Z-1.412 F500
G1 X10.066 Y-1.354 Z-1.412 F500
G1 X9.970 Y-1.162 Z-1.412 F500
G1 X9.888 Y-0.964 Z-1.412 F500
G1 X9.820 Y-0.761 Z-1.412 F500
G1 X9.767 Y-0.553 Z-1.412 F500
G1 X9.729 Y-0.342 Z-1.412 F500
G1 X9.706 Y-0.129 Z-1.412 F500
G1 X9.699 Y0.085 Z-1.412 F500
G1 X9.699 Y16.424 Z-1.412 F500
G1 X9.691 Y16.518 Z-1.412 F200
G1 X9.669 Y16.609 Z-1.412 F200
G1 X9.633 Y16.696 Z-1.412 F200
G1 X9.584 Y16.776 Z-1.412 F200
G1 X9.523 Y16.848 Z-1.412 F200
G1 X9.451 Y16.909 Z-1.412 F200
G1 X9.371 Y16.958 Z-1.412 F200
G1 X9.284 Y16.994 Z-1.412 F200
G1 X9.193 Y17.016 Z-1.412 F200
G1 X9.099 Y17.024 Z-1.412 F200
G1 X8.499 Y17.024 Z-1.412 F200
G1 X8.405 Y17.024 Z-1.405 F200
G1 X8.313 Y17.024 Z-1.383 F200
G1 X8.226 Y17.024 Z-1.347 F200
G1 X8.146 Y17.024 Z-1.298 F200
G1 X8.074 Y17.024 Z-1.236 F200
G1 X8.013 Y17.024 Z-1.165 F200
G1 X7.964 Y17.024 Z-1.085 F200
G1 X7.928 Y17.024 Z-0.998 F200
G1 X7.906 Y17.024 Z-0.906 F200
G1 X7.899 Y17.024 Z-0.812 F200
G1 X7.899 Y17.024 Z6.588 F500
G1 X9.033 Y17.024 Z6.588 F500
G1 X9.033 Y17.024 Z0.088 F150
G1 X9.033 Y17.024 Z-0.812 F150
G1 X9.026 Y17.024 Z-0.906 F500
G1 X9.004 Y17.024 Z-0.998 F500
G1 X8.968 Y17.024 Z-1.085 F500
G1 X8.918 Y17.024 Z-1.165 F500
G1 X8.857 Y17.024 Z-1.236 F500
G1 X8.786 Y17.024 Z-1.298 F500
G1 X8.705 Y17.024 Z-1.347 F500
G1 X8.618 Y17.024 Z-1.383 F500
G1 X8.527 Y17.024 Z-1.405 F500
G1 X8.433 Y17.024 Z-1.412 F500
G1 X7.833 Y17.024 Z-1.412 F500
G1 X7.739 Y17.016 Z-1.412 F500
G1 X7.647 Y16.994 Z-1.412 F500
G1 X7.561 Y16.958 Z-1.412 F500
G1 X7.480 Y16.909 Z-1.412 F500
G1 X7.409 Y16.848 Z-1.412 F500
G1 X7.347 Y16.776 Z-1.412 F500
G1 X7.298 Y16.696 Z-1.412 F500
G1 X7.262 Y16.609 Z-1.412 F500
G1 X7.240 Y16.518 Z-1.412 F500
G1 X7.233 Y16.424 Z-1.412 F500
G1 X7.233 Y0.085 Z-1.412 F500
G1 X7.225 Y-0.129 Z-1.412 F500
G1 X7.202 Y-0.342 Z-1.412 F500
G1 X7.164 Y-0.553 Z-1.412 F500
G1 X7.111 Y-0.761 Z-1.412 F500
G1 X7.044 Y-0.964 Z-1.412 F500
G1 X6.962 Y-1.162 Z-1.412 F500
G1 X6.866 Y-1.353 Z-1.412 F500
G1 X6.757 Y-1.537 Z-1.412 F500
G1 X6.635 Y-1.713 Z-1.412 F500
G1 X6.500 Y-1.880 Z-1.412 F500
G1 X6.354 Y-2.037 Z-1.412 F500
G1 X6.270 Y-2.121 Z-1.412 F500
G1 X6.208 Y-2.193 Z-1.412 F200
G1 X6.159 Y-2.273 Z-1.412 F200
G1 X6.123 Y-2.360 Z-1.412 F200
G1 X6.101 Y-2.452 Z-1.412 F200
G1 X6.094 Y-2.546 Z-1.412 F200
G1 X6.101 Y-2.639 Z-1.412 F200
G1 X6.123 Y-2.731 Z-1.412 F200
G1 X6.159 Y-2.818 Z-1.412 F200
G1 X6.208 Y-2.898 Z-1.412 F200
G1 X6.270 Y-2.970 Z-1.412 F200
G1 X6.694 Y-3.394 Z-1.412 F200
G1 X6.760 Y-3.461 Z-1.405 F200
G1 X6.825 Y-3.525 Z-1.383 F200
G1 X6.886 Y-3.587 Z-1.347 F200
G1 X6.943 Y-3.644 Z-1.298 F200
G1 X6.994 Y-3.694 Z-1.236 F200
G1 X7.037 Y-3.737 Z-1.165 F200
G1 X7.072 Y-3.772 Z-1.085 F200
G1 X7.097 Y-3.798 Z-0.998 F200
G1 X7.113 Y-3.813 Z-0.906 F200
G1 X7.118 Y-3.818 Z-0.812 F200
G1 X7.118 Y-3.818 Z6.588 F500
G1 X9.814 Y-3.819 Z6.588 F500
G1 X9.814 Y-3.819 Z-0.412 F150
G1 X9.814 Y-3.819 Z-1.312 F150
G1 X9.820 Y-3.814 Z-1.406 F500
G1 X9.835 Y-3.798 Z-1.498 F500
G1 X9.861 Y-3.773 Z-1.585 F500
G1 X9.896 Y-3.738 Z-1.665 F500
G1 X9.939 Y-3.695 Z-1.736 F500
G1 X9.989 Y-3.644 Z-1.798 F500
G1 X10.046 Y-3.587 Z-1.847 F500
G1 X10.108 Y-3.526 Z-1.883 F500
G1 X10.172 Y-3.461 Z-1.905 F500
G1 X10.239 Y-3.395 Z-1.912 F500
G1 X10.663 Y-2.970 Z-1.912 F500
G1 X10.724 Y-2.899 Z-1.912 F500
G1 X10.773 Y-2.818 Z-1.912 F500
G1 X10.809 Y-2.731 Z-1.912 F500
G1 X10.831 Y-2.640 Z-1.912 F500
G1 X10.838 Y-2.546 Z-1.912 F500
G1 X10.831 Y-2.452 Z-1.912 F500
G1 X10.809 Y-2.361 Z-1.912 F500
G1 X10.773 Y-2.274 Z-1.912 F500
G1 X10.724 Y-2.193 Z-1.912 F500
G1 X10.663 Y-2.122 Z-1.912 F500
G1 X10.578 Y-2.037 Z-1.912 F500
G1 X10.432 Y-1.880 Z-1.912 F500
G1 X10.297 Y-1.714 Z-1.912 F500
G1 X10.175 Y-1.538 Z-1.912 F500
G1 X10.066 Y-1.354 Z-1.912 F500
G1 X9.970 Y-1.162 Z-1.912 F500
G1 X9.888 Y-0.964 Z-1.912 F500
G1 X9.820 Y-0.761 Z-1.912 F500
G1 X9.767 Y-0.553 Z-1.912 F500
G1 X9.729 Y-0.342 Z-1.912 F500
G1 X9.706 Y-0.129 Z-1.912 F500
G1 X9.699 Y0.085 Z-1.912 F500
G1 X9.699 Y16.424 Z-1.912 F500
G1 X9.691 Y16.518 Z-1.912 F200
G1 X9.669 Y16.609 Z-1.912 F200
G1 X9.633 Y16.696 Z-1.912 F200
G1 X9.584 Y16.776 Z-1.912 F200
G1 X9.523 Y16.848 Z-1.912 F200
G1 X9.451 Y16.909 Z-1.912 F200
G1 X9.371 Y16.958 Z-1.912 F200
G1 X9.284 Y16.994 Z-1.912 F200
G1 X9.193 Y17.016 Z-1.912 F200
G1 X9.099 Y17.024 Z-1.912 F200
G1 X8.499 Y17.024 Z-1.912 F200
G1 X8.405 Y17.024 Z-1.905 F200
G1 X8.313 Y17.024 Z-1.883 F200
G1 X8.226 Y17.024 Z-1.847 F200
G1 X8.146 Y17.024 Z-1.798 F200
G1 X8.074 Y17.024 Z-1.736 F200
G1 X8.013 Y17.024 Z-1.665 F200
G1 X7.964 Y17.024 Z-1.585 F200
G1 X7.928 Y17.024 Z-1.498 F200
G1 X7.906 Y17.024 Z-1.406 F200
G1 X7.899 Y17.024 Z-1.312 F200
G1 X7.899 Y17.024 Z6.588 F500
G1 X9.033 Y17.024 Z6.588 F500
G1 X9.033 Y17.024 Z-0.412 F150
G1 X9.033 Y17.024 Z-1.312 F150
G1 X9.026 Y17.024 Z-1.406 F500
G1 X9.004 Y17.024 Z-1.498 F500
G1 X8.968 Y17.024 Z-1.585 F500
G1 X8.918 Y17.024 Z-1.665 F500
G1 X8.857 Y17.024 Z-1.736 F500
G1 X8.786 Y17.024 Z-1.798 F500
G1 X8.705 Y17.024 Z-1.847 F500
G1 X8.618 Y17.024 Z-1.883 F500
G1 X8.527 Y17.024 Z-1.905 F500
G1 X8.433 Y17.024 Z-1.912 F500
G1 X7.833 Y17.024 Z-1.912 F500
G1 X7.739 Y17.016 Z-1.912 F500
G1 X7.647 Y16.994 Z-1.912 F500
G1 X7.561 Y16.958 Z-1.912 F500
G1 X7.480 Y16.909 Z-1.912 F500
G1 X7.409 Y16.848 Z-1.912 F500
G1 X7.347 Y16.776 Z-1.912 F500
G1 X7.298 Y16.696 Z-1.912 F500
G1 X7.262 Y16.609 Z-1.912 F500
G1 X7.240 Y16.518 Z-1.912 F500
G1 X7.233 Y16.424 Z-1.912 F500
G1 X7.233 Y0.085 Z-1.912 F500
G1 X7.225 Y-0.129 Z-1.912 F500
G1 X7.202 Y-0.342 Z-1.912 F500
G1 X7.164 Y-0.553 Z-1.912 F500
G1 X7.111 Y-0.761 Z-1.912 F500
G1 X7.044 Y-0.964 Z-1.912 F500
G1 X6.962 Y-1.162 Z-1.912 F500
G1 X6.866 Y-1.353 Z-1.912 F500
G1 X6.757 Y-1.537 Z-1.912 F500
G1 X6.635 Y-1.713 Z-1.912 F500
G1 X6.500 Y-1.880 Z-1.912 F500
G1 X6.354 Y-2.037 Z-1.912 F500
G1 X6.270 Y-2.121 Z-1.912 F500
G1 X6.208 Y-2.193 Z-1.912 F200
G1 X6.159 Y-2.273 Z-1.912 F200
G1 X6.123 Y-2.360 Z-1.912 F200
G1 X6.101 Y-2.452 Z-1.912 F200
G1 X6.094 Y-2.546 Z-1.912 F200
G1 X6.101 Y-2.639 Z-1.912 F200
G1 X6.123 Y-2.731 Z-1.912 F200
G1 X6.159 Y-2.818 Z-1.912 F200
G1 X6.208 Y-2.898 Z-1.912 F200
G1 X6.270 Y-2.970 Z-1.912 F200
G1 X6.694 Y-3.394 Z-1.912 F200
G1 X6.760 Y-3.461 Z-1.905 F200
G1 X6.825 Y-3.525 Z-1.883 F200
G1 X6.886 Y-3.587 Z-1.847 F200
G1 X6.943 Y-3.644 Z-1.798 F200
G1 X6.994 Y-3.694 Z-1.736 F200
G1 X7.037 Y-3.737 Z-1.665 F200
G1 X7.072 Y-3.772 Z-1.585 F200
G1 X7.097 Y-3.798 Z-1.498 F200
G1 X7.113 Y-3.813 Z-1.406 F200
G1 X7.118 Y-3.818 Z-1.312 F200
G1 X7.118 Y-3.818 Z6.588 F500
G1 X9.814 Y-3.819 Z6.588 F500
G1 X9.814 Y-3.819 Z-0.912 F150
G1 X9.814 Y-3.819 Z-1.812 F150
G1 X9.820 Y-3.814 Z-1.906 F500
G1 X9.835 Y-3.798 Z-1.998 F500
G1 X9.861 Y-3.773 Z-2.085 F500
G1 X9.896 Y-3.738 Z-2.165 F500
G1 X9.939 Y-3.695 Z-2.236 F500
G1 X9.989 Y-3.644 Z-2.298 F500
G1 X10.046 Y-3.587 Z-2.347 F500
G1 X10.108 Y-3.526 Z-2.383 F500
G1 X10.172 Y-3.461 Z-2.405 F500
G1 X10.239 Y-3.395 Z-2.412 F500
G1 X10.663 Y-2.970 Z-2.412 F500
G1 X10.724 Y-2.899 Z-2.412 F500
G1 X10.773 Y-2.818 Z-2.412 F500
G1 X10.809 Y-2.731 Z-2.412 F500
G1 X10.831 Y-2.640 Z-2.412 F500
G1 X10.838 Y-2.546 Z-2.412 F500
G1 X10.831 Y-2.452 Z-2.412 F500
G1 X10.809 Y-2.361 Z-2.412 F500
G1 X10.773 Y-2.274 Z-2.412 F500
G1 X10.724 Y-2.193 Z-2.412 F500
G1 X10.663 Y-2.122 Z-2.412 F500
G1 X10.578 Y-2.037 Z-2.412 F500
G1 X10.432 Y-1.880 Z-2.412 F500
G1 X10.297 Y-1.714 Z-2.412 F500
G1 X10.175 Y-1.538 Z-2.412 F500
G1 X10.066 Y-1.354 Z-2.412 F500
G1 X9.970 Y-1.162 Z-2.412 F500
G1 X9.888 Y-0.964 Z-2.412 F500
G1 X9.820 Y-0.761 Z-2.412 F500
G1 X9.767 Y-0.553 Z-2.412 F500
G1 X9.729 Y-0.342 Z-2.412 F500
G1 X9.706 Y-0.129 Z-2.412 F500
G1 X9.699 Y0.085 Z-2.412 F500
G1 X9.699 Y16.424 Z-2.412 F500
G1 X9.691 Y16.518 Z-2.412 F200
G1 X9.669 Y16.609 Z-2.412 F200
G1 X9.633 Y16.696 Z-2.412 F200
G1 X9.584 Y16.776 Z-2.412 F200
G1 X9.523 Y16.848 Z-2.412 F200
G1 X9.451 Y16.909 Z-2.412 F200
G1 X9.371 Y16.958 Z-2.412 F200
G1 X9.284 Y16.994 Z-2.412 F200
G1 X9.193 Y17.016 Z-2.412 F200
G1 X9.099 Y17.024 Z-2.412 F200
G1 X8.499 Y17.024 Z-2.412 F200
G1 X8.405 Y17.024 Z-2.405 F200
G1 X8.313 Y17.024 Z-2.383 F200
G1 X8.226 Y17.024 Z-2.347 F200
G1 X8.146 Y17.024 Z-2.298 F200
G1 X8.074 Y17.024 Z-2.236 F200
G1 X8.013 Y17.024 Z-2.165 F200
G1 X7.964 Y17.024 Z-2.085 F200
G1 X7.928 Y17.024 Z-1.998 F200
G1 X7.906 Y17.024 Z-1.906 F200
G1 X7.899 Y17.024 Z-1.812 F200
G1 X7.899 Y17.024 Z6.588 F500
G1 X9.033 Y17.024 Z6.588 F500
G1 X9.033 Y17.024 Z-0.912 F150
G1 X9.033 Y17.024 Z-1.812 F150
G1 X9.026 Y17.024 Z-1.906 F500
G1 X9.004 Y17.024 Z-1.998 F500
G1 X8.968 Y17.024 Z-2.085 F500
G1 X8.918 Y17.024 Z-2.165 F500
G1 X8.857 Y17.024 Z-2.236 F500
G1 X8.786 Y17.024 Z-2.298 F500
G1 X8.705 Y17.024 Z-2.347 F500
G1 X8.618 Y17.024 Z-2.383 F500
G1 X8.527 Y17.024 Z-2.405 F500
G1 X8.433 Y17.024 Z-2.412 F500
G1 X7.833 Y17.024 Z-2.412 F500
G1 X7.739 Y17.016 Z-2.412 F500
G1 X7.647 Y16.994 Z-2.412 F500
G1 X7.561 Y16.958 Z-2.412 F500
G1 X7.480 Y16.909 Z-2.412 F500
G1 X7.409 Y16.848 Z-2.412 F500
G1 X7.347 Y16.776 Z-2.412 F500
G1 X7.298 Y16.696 Z-2.412 F500
G1 X7.262 Y16.609 Z-2.412 F500
G1 X7.240 Y16.518 Z-2.412 F500
G1 X7.233 Y16.424 Z-2.412 F500
G1 X7.233 Y0.085 Z-2.412 F500
G1 X7.225 Y-0.129 Z-2.412 F500
G1 X7.202 Y-0.342 Z-2.412 F500
G1 X7.164 Y-0.553 Z-2.412 F500
G1 X7.111 Y-0.761 Z-2.412 F500
G1 X7.044 Y-0.964 Z-2.412 F500
G1 X6.962 Y-1.162 Z-2.412 F500
G1 X6.866 Y-1.353 Z-2.412 F500
G1 X6.757 Y-1.537 Z-2.412 F500
G1 X6.635 Y-1.713 Z-2.412 F500
G1 X6.500 Y-1.880 Z-2.412 F500
G1 X6.354 Y-2.037 Z-2.412 F500
G1 X6.270 Y-2.121 Z-2.412 F500
G1 X6.208 Y-2.193 Z-2.412 F200
G1 X6.159 Y-2.273 Z-2.412 F200
G1 X6.123 Y-2.360 Z-2.412 F200
G1 X6.101 Y-2.452 Z-2.412 F200
G1 X6.094 Y-2.546 Z-2.412 F200
G1 X6.101 Y-2.639 Z-2.412 F200
G1 X6.123 Y-2.731 Z-2.412 F200
G1 X6.159 Y-2.818 Z-2.412 F200
G1 X6.208 Y-2.898 Z-2.412 F200
G1 X6.270 Y-2.970 Z-2.412 F200
G1 X6.694 Y-3.394 Z-2.412 F200
G1 X6.760 Y-3.461 Z-2.405 F200
G1 X6.825 Y-3.525 Z-2.383 F200
G1 X6.886 Y-3.587 Z-2.347 F200
G1 X6.943 Y-3.644 Z-2.298 F200
G1 X6.994 Y-3.694 Z-2.236 F200
G1 X7.037 Y-3.737 Z-2.165 F200
G1 X7.072 Y-3.772 Z-2.085 F200
G1 X7.097 Y-3.798 Z-1.998 F200
G1 X7.113 Y-3.813 Z-1.906 F200
G1 X7.118 Y-3.818 Z-1.812 F200
G1 X7.118 Y-3.818 Z6.588 F500
G1 X9.814 Y-3.819 Z6.588 F500
G1 X9.814 Y-3.819 Z-1.412 F150
G1 X9.814 Y-3.819 Z-2.312 F150
G1 X9.820 Y-3.814 Z-2.406 F500
G1 X9.835 Y-3.798 Z-2.498 F500
G1 X9.861 Y-3.773 Z-2.585 F500
G1 X9.896 Y-3.738 Z-2.665 F500
G1 X9.939 Y-3.695 Z-2.736 F500
G1 X9.989 Y-3.644 Z-2.798 F500
G1 X10.046 Y-3.587 Z-2.847 F500
G1 X10.108 Y-3.526 Z-2.883 F500
G1 X10.172 Y-3.461 Z-2.905 F500
G1 X10.239 Y-3.395 Z-2.912 F500
G1 X10.663 Y-2.970 Z-2.912 F500
G1 X10.724 Y-2.899 Z-2.912 F500
G1 X10.773 Y-2.818 Z-2.912 F500
G1 X10.809 Y-2.731 Z-2.912 F500
G1 X10.831 Y-2.640 Z-2.912 F500
G1 X10.838 Y-2.546 Z-2.912 F500
G1 X10.831 Y-2.452 Z-2.912 F500
G1 X10.809 Y-2.361 Z-2.912 F500
G1 X10.773 Y-2.274 Z-2.912 F500
G1 X10.724 Y-2.193 Z-2.912 F500
G1 X10.663 Y-2.122 Z-2.912 F500
G1 X10.578 Y-2.037 Z-2.912 F500
G1 X10.432 Y-1.880 Z-2.912 F500
G1 X10.297 Y-1.714 Z-2.912 F500
G1 X10.175 Y-1.538 Z-2.912 F500
G1 X10.066 Y-1.354 Z-2.912 F500
G1 X9.970 Y-1.162 Z-2.912 F500
G1 X9.888 Y-0.964 Z-2.912 F500
G1 X9.820 Y-0.761 Z-2.912 F500
G1 X9.767 Y-0.553 Z-2.912 F500
G1 X9.729 Y-0.342 Z-2.912 F500
G1 X9.706 Y-0.129 Z-2.912 F500
G1 X9.699 Y0.085 Z-2.912 F500
G1 X9.699 Y16.424 Z-2.912 F500
G1 X9.691 Y16.518 Z-2.912 F200
G1 X9.669 Y16.609 Z-2.912 F200
G1 X9.633 Y16.696 Z-2.912 F200
G1 X9.584 Y16.776 Z-2.912 F200
G1 X9.523 Y16.848 Z-2.912 F200
G1 X9.451 Y16.909 Z-2.912 F200
G1 X9.371 Y16.958 Z-2.912 F200
G1 X9.284 Y16.994 Z-2.912 F200
G1 X9.193 Y17.016 Z-2.912 F200
G1 X9.099 Y17.024 Z-2.912 F200
G1 X8.499 Y17.024 Z-2.912 F200
G1 X8.405 Y17.024 Z-2.905 F200
G1 X8.313 Y17.024 Z-2.883 F200
G1 X8.226 Y17.024 Z-2.847 F200
G1 X8.146 Y17.024 Z-2.798 F200
G1 X8.074 Y17.024 Z-2.736 F200
G1 X8.013 Y17.024 Z-2.665 F200
G1 X7.964 Y17.024 Z-2.585 F200
G1 X7.928 Y17.024 Z-2.498 F200
G1 X7.906 Y17.024 Z-2.406 F200
G1 X7.899 Y17.024 Z-2.312 F200
G1 X7.899 Y17.024 Z6.588 F500
G1 X9.033 Y17.024 Z6.588 F500
G1 X9.033 Y17.024 Z-1.412 F150
G1 X9.033 Y17.024 Z-2.312 F150
G1 X9.026 Y17.024 Z-2.406 F500
G1 X9.004 Y17.024 Z-2.498 F500
G1 X8.968 Y17.024 Z-2.585 F500
G1 X8.918 Y17.024 Z-2.665 F500
G1 X8.857 Y17.024 Z-2.736 F500
G1 X8.786 Y17.024 Z-2.798 F500
G1 X8.705 Y17.024 Z-2.847 F500
G1 X8.618 Y17.024 Z-2.883 F500
G1 X8.527 Y17.024 Z-2.905 F500
G1 X8.433 Y17.024 Z-2.912 F500
G1 X7.833 Y17.024 Z-2.912 F500
G1 X7.739 Y17.016 Z-2.912 F500
G1 X7.647 Y16.994 Z-2.912 F500
G1 X7.561 Y16.958 Z-2.912 F500
G1 X7.480 Y16.909 Z-2.912 F500
G1 X7.409 Y16.848 Z-2.912 F500
G1 X7.347 Y16.776 Z-2.912 F500
G1 X7.298 Y16.696 Z-2.912 F500
G1 X7.262 Y16.609 Z-2.912 F500
G1 X7.240 Y16.518 Z-2.912 F500
G1 X7.233 Y16.424 Z-2.912 F500
G1 X7.233 Y0.085 Z-2.912 F500
G1 X7.225 Y-0.129 Z-2.912 F500
G1 X7.202 Y-0.342 Z-2.912 F500
G1 X7.164 Y-0.553 Z-2.912 F500
G1 X7.111 Y-0.761 Z-2.912 F500
G1 X7.044 Y-0.964 Z-2.912 F500
G1 X6.962 Y-1.162 Z-2.912 F500
G1 X6.866 Y-1.353 Z-2.912 F500
G1 X6.757 Y-1.537 Z-2.912 F500
G1 X6.635 Y-1.713 Z-2.912 F500
G1 X6.500 Y-1.880 Z-2.912 F500
G1 X6.354 Y-2.037 Z-2.912 F500
G1 X6.270 Y-2.121 Z-2.912 F500
G1 X6.208 Y-2.193 Z-2.912 F200
G1 X6.159 Y-2.273 Z-2.912 F200
G1 X6.123 Y-2.360 Z-2.912 F200
G1 X6.101 Y-2.452 Z-2.912 F200
G1 X6.094 Y-2.546 Z-2.912 F200
G1 X6.101 Y-2.639 Z-2.912 F200
G1 X6.123 Y-2.731 Z-2.912 F200
G1 X6.159 Y-2.818 Z-2.912 F200
G1 X6.208 Y-2.898 Z-2.912 F200
G1 X6.270 Y-2.970 Z-2.912 F200
G1 X6.694 Y-3.394 Z-2.912 F200
G1 X6.760 Y-3.461 Z-2.905 F200
G1 X6.825 Y-3.525 Z-2.883 F200
G1 X6.886 Y-3.587 Z-2.847 F200
G1 X6.943 Y-3.644 Z-2.798 F200
G1 X6.994 Y-3.694 Z-2.736 F200
G1 X7.037 Y-3.737 Z-2.665 F200
G1 X7.072 Y-3.772 Z-2.585 F200
G1 X7.097 Y-3.798 Z-2.498 F200
G1 X7.113 Y-3.813 Z-2.406 F200
G1 X7.118 Y-3.818 Z-2.312 F200
G1 X7.118 Y-3.818 Z6.588 F500
G1 X9.814 Y-3.819 Z6.588 F500
G1 X9.814 Y-3.819 Z-1.912 F150
G1 X9.814 Y-3.819 Z-2.786 F150
G1 X9.820 Y-3.814 Z-2.880 F500
G1 X9.835 Y-3.798 Z-2.972 F500
G1 X9.861 Y-3.773 Z-3.059 F500
G1 X9.896 Y-3.738 Z-3.139 F500
G1 X9.939 Y-3.695 Z-3.211 F500
G1 X9.989 Y-3.644 Z-3.272 F500
G1 X10.046 Y-3.587 Z-3.321 F500
G1 X10.108 Y-3.526 Z-3.357 F500
G1 X10.172 Y-3.461 Z-3.379 F500
G1 X10.239 Y-3.395 Z-3.386 F500
G1 X10.663 Y-2.970 Z-3.386 F500
G1 X10.724 Y-2.899 Z-3.386 F500
G1 X10.773 Y-2.818 Z-3.386 F500
G1 X10.809 Y-2.731 Z-3.386 F500
G1 X10.831 Y-2.640 Z-3.386 F500
G1 X10.838 Y-2.546 Z-3.386 F500
G1 X10.831 Y-2.452 Z-3.386 F500
G1 X10.809 Y-2.361 Z-3.386 F500
G1 X10.773 Y-2.274 Z-3.386 F500
G1 X10.724 Y-2.193 Z-3.386 F500
G1 X10.663 Y-2.122 Z-3.386 F500
G1 X10.578 Y-2.037 Z-3.386 F500
G1 X10.432 Y-1.880 Z-3.386 F500
G1 X10.297 Y-1.714 Z-3.386 F500
G1 X10.175 Y-1.538 Z-3.386 F500
G1 X10.066 Y-1.354 Z-3.386 F500
G1 X9.970 Y-1.162 Z-3.386 F500
G1 X9.888 Y-0.964 Z-3.386 F500
G1 X9.820 Y-0.761 Z-3.386 F500
G1 X9.767 Y-0.553 Z-3.386 F500
G1 X9.729 Y-0.342 Z-3.386 F500
G1 X9.706 Y-0.129 Z-3.386 F500
G1 X9.699 Y0.085 Z-3.386 F500
G1 X9.699 Y16.424 Z-3.386 F500
G1 X9.691 Y16.518 Z-3.386 F200
G1 X9.669 Y16.609 Z-3.386 F200
G1 X9.633 Y16.696 Z-3.386 F200
G1 X9.584 Y16.776 Z-3.386 F200
G1 X9.523 Y16.848 Z-3.386 F200
G1 X9.451 Y16.909 Z-3.386 F200
G1 X9.371 Y16.958 Z-3.386 F200
G1 X9.284 Y16.994 Z-3.386 F200
G1 X9.193 Y17.016 Z-3.386 F200
G1 X9.099 Y17.024 Z-3.386 F200
G1 X8.499 Y17.024 Z-3.386 F200
G1 X8.405 Y17.024 Z-3.379 F200
G1 X8.313 Y17.024 Z-3.357 F200
G1 X8.226 Y17.024 Z-3.321 F200
G1 X8.146 Y17.024 Z-3.272 F200
G1 X8.074 Y17.024 Z-3.211 F200
G1 X8.013 Y17.024 Z-3.139 F200
G1 X7.964 Y17.024 Z-3.059 F200
G1 X7.928 Y17.024 Z-2.972 F200
G1 X7.906 Y17.024 Z-2.880 F200
G1 X7.899 Y17.024 Z-2.786 F200
G1 X7.899 Y17.024 Z6.588 F500
G1 X9.033 Y17.024 Z6.588 F500
G1 X9.033 Y17.024 Z-1.912 F150
G1 X9.033 Y17.024 Z-2.786 F150
G1 X9.026 Y17.024 Z-2.880 F500
G1 X9.004 Y17.024 Z-2.972 F500
G1 X8.968 Y17.024 Z-3.059 F500
G1 X8.918 Y17.024 Z-3.139 F500
G1 X8.857 Y17.024 Z-3.211 F500
G1 X8.786 Y17.024 Z-3.272 F500
G1 X8.705 Y17.024 Z-3.321 F500
G1 X8.618 Y17.024 Z-3.357 F500
G1 X8.527 Y17.024 Z-3.379 F500
G1 X8.433 Y17.024 Z-3.386 F500
G1 X7.833 Y17.024 Z-3.386 F500
G1 X7.739 Y17.016 Z-3.386 F500
G1 X7.647 Y16.994 Z-3.386 F500
G1 X7.561 Y16.958 Z-3.386 F500
G1 X7.480 Y16.909 Z-3.386 F500
G1 X7.409 Y16.848 Z-3.386 F500
G1 X7.347 Y16.776 Z-3.386 F500
G1 X7.298 Y16.696 Z-3.386 F500
G1 X7.262 Y16.609 Z-3.386 F500
G1 X7.240 Y16.518 Z-3.386 F500
G1 X7.233 Y16.424 Z-3.386 F500
G1 X7.233 Y0.085 Z-3.386 F500
G1 X7.225 Y-0.129 Z-3.386 F500
G1 X7.202 Y-0.342 Z-3.386 F500
G1 X7.164 Y-0.553 Z-3.386 F500
G1 X7.111 Y-0.761 Z-3.386 F500
G1 X7.044 Y-0.964 Z-3.386 F500
G1 X6.962 Y-1.162 Z-3.386 F500
G1 X6.866 Y-1.353 Z-3.386 F500
G1 X6.757 Y-1.537 Z-3.386 F500
G1 X6.635 Y-1.713 Z-3.386 F500
G1 X6.500 Y-1.880 Z-3.386 F500
G1 X6.354 Y-2.037 Z-3.386 F500
G1 X6.270 Y-2.121 Z-3.386 F500
G1 X6.208 Y-2.193 Z-3.386 F200
G1 X6.159 Y-2.273 Z-3.386 F200
G1 X6.123 Y-2.360 Z-3.386 F200
G1 X6.101 Y-2.452 Z-3.386 F200
G1 X6.094 Y-2.546 Z-3.386 F200
G1 X6.101 Y-2.639 Z-3.386 F200
G1 X6.123 Y-2.731 Z-3.386 F200
G1 X6.159 Y-2.818 Z-3.386 F200
G1 X6.208 Y-2.898 Z-3.386 F200
G1 X6.270 Y-2.970 Z-3.386 F200
G1 X6.694 Y-3.394 Z-3.386 F200
G1 X6.760 Y-3.461 Z-3.379 F200
G1 X6.825 Y-3.525 Z-3.357 F200
G1 X6.886 Y-3.587 Z-3.321 F200
G1 X6.943 Y-3.644 Z-3.272 F200
G1 X6.994 Y-3.694 Z-3.211 F200
G1 X7.037 Y-3.737 Z-3.139 F200
G1 X7.072 Y-3.772 Z-3.059 F200
G1 X7.097 Y-3.798 Z-2.972 F200
G1 X7.113 Y-3.813 Z-2.880 F200
G1 X7.118 Y-3.818 Z-2.786 F200
G1 X7.118 Y-3.818 Z6.588 F500
G1 X33.296 Y-0.515 Z6.588 F500
G1 X33.296 Y-0.515 Z2.588 F150
G1 X33.296 Y-0.515 Z1.688 F150
G1 X33.304 Y-0.515 Z1.594 F500
G1 X33.326 Y-0.515 Z1.502 F500
G1 X33.362 Y-0.515 Z1.415 F500
G1 X33.411 Y-0.515 Z1.335 F500
G1 X33.472 Y-0.515 Z1.264 F500
G1 X33.544 Y-0.515 Z1.202 F500
G1 X33.624 Y-0.515 Z1.153 F500
G1 X33.711 Y-0.515 Z1.117 F500
G1 X33.802 Y-0.515 Z1.095 F500
G1 X33.896 Y-0.515 Z1.088 F500
G1 X34.496 Y-0.515 Z1.088 F500
G1 X34.590 Y-0.508 Z1.088 F500
G1 X34.682 Y-0.486 Z1.088 F500
G1 X34.769 Y-0.450 Z1.088 F500
G1 X34.849 Y-0.401 Z1.088 F500
G1 X34.920 Y-0.340 Z1.088 F500
G1 X34.982 Y-0.268 Z1.088 F500
G1 X35.031 Y-0.188 Z1.088 F500
G1 X35.067 Y-0.101 Z1.088 F500
G1 X35.089 Y-0.009 Z1.088 F500
G1 X35.096 Y0.085 Z1.088 F500
G1 X35.096 Y16.424 Z1.088 F500
G1 X35.104 Y16.638 Z1.088 F500
G1 X35.127 Y16.851 Z1.088 F500
G1 X35.165 Y17.061 Z1.088 F500
G1 X35.218 Y17.269 Z1.088 F500
G1 X35.285 Y17.472 Z1.088 F500
G1 X35.367 Y17.670 Z1.088 F500
G1 X35.463 Y17.861 Z1.088 F500
G1 X35.572 Y18.046 Z1.088 F500
G1 X35.695 Y18.222 Z1.088 F500
G1 X35.829 Y18.388 Z1.088 F500
G1 X35.975 Y18.545 Z1.088 F500
G1 X36.059 Y18.630 Z1.088 F500
G1 X36.121 Y18.701 Z1.088 F200
G1 X36.170 Y18.781 Z1.088 F200
G1 X36.206 Y18.868 Z1.088 F200
G1 X36.228 Y18.960 Z1.088 F200
G1 X36.235 Y19.054 Z1.088 F200
G1 X36.228 Y19.148 Z1.088 F200
G1 X36.206 Y19.239 Z1.088 F200
G1 X36.170 Y19.326 Z1.088 F200
G1 X36.121 Y19.407 Z1.088 F200
G1 X36.059 Y19.478 Z1.088 F200
G1 X35.635 Y19.902 Z1.088 F200
G1 X35.569 Y19.969 Z1.095 F200
G1 X35.504 Y20.034 Z1.117 F200
G1 X35.443 Y20.095 Z1.153 F200
G1 X35.386 Y20.152 Z1.202 F200
G1 X35.335 Y20.202 Z1.264 F200
G1 X35.292 Y20.246 Z1.335 F200
G1 X35.257 Y20.280 Z1.415 F200
G1 X35.232 Y20.306 Z1.502 F200
G1 X35.216 Y20.321 Z1.594 F200
G1 X35.211 Y20.327 Z1.688 F200
G1 X35.211 Y20.327 Z6.588 F500
G1 X32.513 Y20.328 Z6.588 F500
G1 X32.513 Y20.328 Z2.588 F150
G1 X32.513 Y20.328 Z1.688 F150
G1 X32.508 Y20.323 Z1.594 F500
G1 X32.493 Y20.308 Z1.502 F500
G1 X32.467 Y20.282 Z1.415 F500
G1 X32.432 Y20.247 Z1.335 F500
G1 X32.389 Y20.204 Z1.264 F500
G1 X32.339 Y20.153 Z1.202 F500
G1 X32.282 Y20.097 Z1.153 F500
G1 X32.220 Y20.035 Z1.117 F500
G1 X32.156 Y19.970 Z1.095 F500
G1 X32.089 Y19.904 Z1.088 F500
G1 X31.665 Y19.479 Z1.088 F500
G1 X31.604 Y19.408 Z1.088 F500
G1 X31.555 Y19.327 Z1.088 F500
G1 X31.519 Y19.240 Z1.088 F500
G1 X31.497 Y19.149 Z1.088 F500
G1 X31.490 Y19.055 Z1.088 F500
G1 X31.497 Y18.961 Z1.088 F500
G1 X31.519 Y18.870 Z1.088 F500
G1 X31.555 Y18.783 Z1.088 F500
G1 X31.605 Y18.702 Z1.088 F500
G1 X31.666 Y18.631 Z1.088 F500
G1 X31.750 Y18.546 Z1.088 F500
G1 X31.897 Y18.389 Z1.088 F500
G1 X32.031 Y18.223 Z1.088 F500
G1 X32.153 Y18.047 Z1.088 F500
G1 X32.263 Y17.862 Z1.088 F500
G1 X32.359 Y17.671 Z1.088 F500
G1 X32.441 Y17.473 Z1.088 F500
G1 X32.509 Y17.270 Z1.088 F500
G1 X32.562 Y17.062 Z1.088 F500
G1 X32.600 Y16.851 Z1.088 F500
G1 X32.623 Y16.638 Z1.088 F500
G1 X32.630 Y16.424 Z1.088 F500
G1 X32.630 Y0.085 Z1.088 F500
G1 X32.638 Y-0.009 Z1.088 F200
G1 X32.660 Y-0.101 Z1.088 F200
G1 X32.696 Y-0.188 Z1.088 F200
G1 X32.745 Y-0.268 Z1.088 F200
G1 X32.806 Y-0.340 Z1.088 F200
G1 X32.878 Y-0.401 Z1.088 F200
G1 X32.958 Y-0.450 Z1.088 F200
G1 X33.045 Y-0.486 Z1.088 F200
G1 X33.137 Y-0.508 Z1.088 F200
G1 X33.230 Y-0.515 Z1.088 F200
G1 X33.830 Y-0.515 Z1.088 F200
G1 X33.924 Y-0.515 Z1.095 F200
G1 X34.016 Y-0.515 Z1.117 F200
G1 X34.103 Y-0.515 Z1.153 F200
G1 X34.183 Y-0.515 Z1.202 F200
G1 X34.255 Y-0.515 Z1.264 F200
G1 X34.316 Y-0.515 Z1.335 F200
G1 X34.365 Y-0.515 Z1.415 F200
G1 X34.401 Y-0.515 Z1.502 F200
G1 X34.423 Y-0.515 Z1.594 F200
G1 X34.430 Y-0.515 Z1.688 F200
G1 X34.430 Y-0.515 Z6.588 F500
G1 X33.296 Y-0.515 Z6.588 F500
G1 X33.296 Y-0.515 Z2.088 F150
G1 X33.296 Y-0.515 Z1.188 F150
G1 X33.304 Y-0.515 Z1.094 F500
G1 X33.326 Y-0.515 Z1.002 F500
G1 X33.362 Y-0.515 Z0.915 F500
G1 X33.411 Y-0.515 Z0.835 F500
G1 X33.472 Y-0.515 Z0.764 F500
G1 X33.544 Y-0.515 Z0.702 F500
G1 X33.624 Y-0.515 Z0.653 F500
G1 X33.711 Y-0.515 Z0.617 F500
G1 X33.802 Y-0.515 Z0.595 F500
G1 X33.896 Y-0.515 Z0.588 F500
G1 X34.496 Y-0.515 Z0.588 F500
G1 X34.590 Y-0.508 Z0.588 F500
G1 X34.682 Y-0.486 Z0.588 F500
G1 X34.769 Y-0.450 Z0.588 F500
G1 X34.849 Y-0.401 Z0.588 F500
G1 X34.920 Y-0.340 Z0.588 F500
G1 X34.982 Y-0.268 Z0.588 F500
G1 X35.031 Y-0.188 Z0.588 F500
G1 X35.067 Y-0.101 Z0.588 F500
G1 X35.089 Y-0.009 Z0.588 F500
G1 X35.096 Y0.085 Z0.588 F500
G1 X35.096 Y16.424 Z0.588 F500
G1 X35.104 Y16.638 Z0.588 F500
G1 X35.127 Y16.851 Z0.588 F500
G1 X35.165 Y17.061 Z0.588 F500
G1 X35.218 Y17.269 Z0.588 F500
G1 X35.285 Y17.472 Z0.588 F500
G1 X35.367 Y17.670 Z0.588 F500
G1 X35.463 Y17.861 Z0.588 F500
G1 X35.572 Y18.046 Z0.588 F500
G1 X35.695 Y18.222 Z0.588 F500
G1 X35.829 Y18.388 Z0.588 F500
G1 X35.975 Y18.545 Z0.588 F500
G1 X36.059 Y18.630 Z0.588 F500
G1 X36.121 Y18.701 Z0.588 F200
G1 X36.170 Y18.781 Z0.588 F200
G1 X36.206 Y18.868 Z0.588 F200
G1 X36.228 Y18.960 Z0.588 F200
G1 X36.235 Y19.054 Z0.588 F200
G1 X36.228 Y19.148 Z0.588 F200
G1 X36.206 Y19.239 Z0.588 F200
G1 X36.170 Y19.326 Z0.588 F200
G1 X36.121 Y19.407 Z0.588 F200
G1 X36.059 Y19.478 Z0.588 F200
G1 X35.635 Y19.902 Z0.588 F200
G1 X35.569 Y19.969 Z0.595 F200
G1 X35.504 Y20.034 Z0.617 F200
G1 X35.443 Y20.095 Z0.653 F200
G1 X35.386 Y20.152 Z0.702 F200
G1 X35.335 Y20.202 Z0.764 F200
G1 X35.292 Y20.246 Z0.835 F200
G1 X35.257 Y20.280 Z0.915 F200
G1 X35.232 Y20.306 Z1.002 F200
G1 X35.216 Y20.321 Z1.094 F200
G1 X35.211 Y20.327 Z1.188 F200
G1 X35.211 Y20.327 Z6.588 F500
G1 X32.513 Y20.328 Z6.588 F500
G1 X32.513 Y20.328 Z2.088 F150
G1 X32.513 Y20.328 Z1.188 F150
G1 X32.508 Y20.323 Z1.094 F500
G1 X32.493 Y20.308 Z1.002 F500
G1 X32.467 Y20.282 Z0.915 F500
G1 X32.432 Y20.247 Z0.835 F500
G1 X32.389 Y20.204 Z0.764 F500
G1 X32.339 Y20.153 Z0.702 F500
G1 X32.282 Y20.097 Z0.653 F500
G1 X32.220 Y20.035 Z0.617 F500
G1 X32.156 Y19.970 Z0.595 F500
G1 X32.089 Y19.904 Z0.588 F500
G1 X31.665 Y19.479 Z0.588 F500
G1 X31.604 Y19.408 Z0.588 F500
G1 X31.555 Y19.327 Z0.588 F500
G1 X31.519 Y19.240 Z0.588 F500
G1 X31.497 Y19.149 Z0.588 F500
G1 X31.490 Y19.055 Z0.588 F500
G1 X31.497 Y18.961 Z0.588 F500
G1 X31.519 Y18.870 Z0.588 F500
G1 X31.555 Y18.783 Z0.588 F500
G1 X31.605 Y18.702 Z0.588 F500
G1 X31.666 Y18.631 Z0.588 F500
G1 X31.750 Y18.546 Z0.588 F500
G1 X31.897 Y18.389 Z0.588 F500
G1 X32.031 Y18.223 Z0.588 F500
G1 X32.153 Y18.047 Z0.588 F500
G1 X32.263 Y17.862 Z0.588 F500
G1 X32.359 Y17.671 Z0.588 F500
G1 X32.441 Y17.473 Z0.588 F500
G1 X32.509 Y17.270 Z0.588 F500
G1 X32.562 Y17.062 Z0.588 F500
G1 X32.600 Y16.851 Z0.588 F500
G1 X32.623 Y16.638 Z0.588 F500
G1 X32.630 Y16.424 Z0.588 F500
G1 X32.630 Y0.085 Z0.588 F500
G1 X32.638 Y-0.009 Z0.588 F200
G1 X32.660 Y-0.101 Z0.588 F200
G1 X32.696 Y-0.188 Z0.588 F200
G1 X32.745 Y-0.268 Z0.588 F200
G1 X32.806 Y-0.340 Z0.588 F200
G1 X32.878 Y-0.401 Z0.588 F200
G1 X32.958 Y-0.450 Z0.588 F200
G1 X33.045 Y-0.486 Z0.588 F200
G1 X33.137 Y-0.508 Z0.588 F200
G1 X33.230 Y-0.515 Z0.588 F200
G1 X33.830 Y-0.515 Z0.588 F200
G1 X33.924 Y-0.515 Z0.595 F200
G1 X34.016 Y-0.515 Z0.617 F200
G1 X34.103 Y-0.515 Z0.653 F200
G1 X34.183 Y-0.515 Z0.702 F200
G1 X34.255 Y-0.515 Z0.764 F200
G1 X34.316 Y-0.515 Z0.835 F200
G1 X34.365 Y-0.515 Z0.915 F200
G1 X34.401 Y-0.515 Z1.002 F200
G1 X34.423 Y-0.515 Z1.094 F200
G1 X34.430 Y-0.515 Z1.188 F200
G1 X34.430 Y-0.515 Z6.588 F500
G1 X33.296 Y-0.515 Z6.588 F500
G1 X33.296 Y-0.515 Z1.588 F150
G1 X33.296 Y-0.515 Z0.688 F150
G1 X33.304 Y-0.515 Z0.594 F500
G1 X33.326 Y-0.515 Z0.502 F500
G1 X33.362 Y-0.515 Z0.415 F500
G1 X33.411 Y-0.515 Z0.335 F500
G1 X33.472 Y-0.515 Z0.264 F500
G1 X33.544 Y-0.515 Z0.202 F500
G1 X33.624 Y-0.515 Z0.153 F500
G1 X33.711 Y-0.515 Z0.117 F500
G1 X33.802 Y-0.515 Z0.095 F500
G1 X33.896 Y-0.515 Z0.088 F500
G1 X34.496 Y-0.515 Z0.088 F500
G1 X34.590 Y-0.508 Z0.088 F500
G1 X34.682 Y-0.486 Z0.088 F500
G1 X34.769 Y-0.450 Z0.088 F500
G1 X34.849 Y-0.401 Z0.088 F500
G1 X34.920 Y-0.340 Z0.088 F500
G1 X34.982 Y-0.268 Z0.088 F500
G1 X35.031 Y-0.188 Z0.088 F500
G1 X35.067 Y-0.101 Z0.088 F500
G1 X35.089 Y-0.009 Z0.088 F500
G1 X35.096 Y0.085 Z0.088 F500
G1 X35.096 Y16.424 Z0.088 F500
G1 X35.104 Y16.638 Z0.088 F500
G1 X35.127 Y16.851 Z0.088 F500
G1 X35.165 Y17.061 Z0.088 F500
G1 X35.218 Y17.269 Z0.088 F500
G1 X35.285 Y17.472 Z0.088 F500
G1 X35.367 Y17.670 Z0.088 F500
G1 X35.463 Y17.861 Z0.088 F500
G1 X35.572 Y18.046 Z0.088 F500
G1 X35.695 Y18.222 Z0.088 F500
G1 X35.829 Y18.388 Z0.088 F500
G1 X35.975 Y18.545 Z0.088 F500
G1 X36.059 Y18.630 Z0.088 F500
G1 X36.121 Y18.701 Z0.088 F200
G1 X36.170 Y18.781 Z0.088 F200
G1 X36.206 Y18.868 Z0.088 F200
G1 X36.228 Y18.960 Z0.088 F200
G1 X36.235 Y19.054 Z0.088 F200
G1 X36.228 Y19.148 Z0.088 F200
G1 X36.206 Y19.239 Z0.088 F200
G1 X36.170 Y19.326 Z0.088 F200
G1 X36.121 Y19.407 Z0.088 F200
G1 X36.059 Y19.478 Z0.088 F200
G1 X35.635 Y19.902 Z0.088 F200
G1 X35.569 Y19.969 Z0.095 F200
G1 X35.504 Y20.034 Z0.117 F200
G1 X35.443 Y20.095 Z0.153 F200
G1 X35.386 Y20.152 Z0.202 F200
G1 X35.335 Y20.202 Z0.264 F200
G1 X35.292 Y20.246 Z0.335 F200
G1 X35.257 Y20.280 Z0.415 F200
G1 X35.232 Y20.306 Z0.502 F200
G1 X35.216 Y20.321 Z0.594 F200
G1 X35.211 Y20.327 Z0.688 F200
G1 X35.211 Y20.327 Z6.588 F500
G1 X32.513 Y20.328 Z6.588 F500
G1 X32.513 Y20.328 Z1.588 F150
G1 X32.513 Y20.328 Z0.688 F150
G1 X32.508 Y20.323 Z0.594 F500
G1 X32.493 Y20.308 Z0.502 F500
G1 X32.467 Y20.282 Z0.415 F500
G1 X32.432 Y20.247 Z0.335 F500
G1 X32.389 Y20.204 Z0.264 F500
G1 X32.339 Y20.153 Z0.202 F500
G1 X32.282 Y20.097 Z0.153 F500
G1 X32.220 Y20.035 Z0.117 F500
G1 X32.156 Y19.970 Z0.095 F500
G1 X32.089 Y19.904 Z0.088 F500
G1 X31.665 Y19.479 Z0.088 F500
G1 X31.604 Y19.408 Z0.088 F500
G1 X31.555 Y19.327 Z0.088 F500
G1 X31.519 Y19.240 Z0.088 F500
G1 X31.497 Y19.149 Z0.088 F500
G1 X31.490 Y19.055 Z0.088 F500
G1 X31.497 Y18.961 Z0.088 F500
G1 X31.519 Y18.870 Z0.088 F500
G1 X31.555 Y18.783 Z0.088 F500
G1 X31.605 Y18.702 Z0.088 F500
G1 X31.666 Y18.631 Z0.088 F500
G1 X31.750 Y18.546 Z0.088 F500
G1 X31.897 Y18.389 Z0.088 F500
G1 X32.031 Y18.223 Z0.088 F500
G1 X32.153 Y18.047 Z0.088 F500
G1 X32.263 Y17.862 Z0.088 F500
G1 X32.359 Y17.671 Z0.088 F500
G1 X32.441 Y17.473 Z0.088 F500
G1 X32.509 Y17.270 Z0.088 F500
G1 X32.562 Y17.062 Z0.088 F500
G1 X32.600 Y16.851 Z0.088 F500
G1 X32.623 Y16.638 Z0.088 F500
G1 X32.630 Y16.424 Z0.088 F500
G1 X32.630 Y0.085 Z0.088 F500
G1 X32.638 Y-0.009 Z0.088 F200
G1 X32.660 Y-0.101 Z0.088 F200
G1 X32.696 Y-0.188 Z0.088 F200
G1 X32.745 Y-0.268 Z0.088 F200
G1 X32.806 Y-0.340 Z0.088 F200
G1 X32.878 Y-0.401 Z0.088 F200
G1 X32.958 Y-0.450 Z0.088 F200
G1 X33.045 Y-0.486 Z0.088 F200
G1 X33.137 Y-0.508 Z0.088 F200
G1 X33.230 Y-0.515 Z0.088 F200
G1 X33.830 Y-0.515 Z0.088 F200
G1 X33.924 Y-0.515 Z0.095 F200
G1 X34.016 Y-0.515 Z0.117 F200
G1 X34.103 Y-0.515 Z0.153 F200
G1 X34.183 Y-0.515 Z0.202 F200
G1 X34.255 Y-0.515 Z0.264 F200
G1 X34.316 Y-0.515 Z0.335 F200
G1 X34.365 Y-0.515 Z0.415 F200
G1 X34.401 Y-0.515 Z0.502 F200
G1 X34.423 Y-0.515 Z0.594 F200
G1 X34.430 Y-0.515 Z0.688 F200
G1 X34.430 Y-0.515 Z6.588 F500
G1 X33.296 Y-0.515 Z6.588 F500
G1 X33.296 Y-0.515 Z1.088 F150
G1 X33.296 Y-0.515 Z0.188 F150
G1 X33.304 Y-0.515 Z0.094 F500
G1 X33.326 Y-0.515 Z0.002 F500
G1 X33.362 Y-0.515 Z-0.085 F500
G1 X33.411 Y-0.515 Z-0.165 F500
G1 X33.472 Y-0.515 Z-0.236 F500
G1 X33.544 Y-0.515 Z-0.298 F500
G1 X33.624 Y-0.515 Z-0.347 F500
G1 X33.711 Y-0.515 Z-0.383 F500
G1 X33.802 Y-0.515 Z-0.405 F500
G1 X33.896 Y-0.515 Z-0.412 F500
G1 X34.496 Y-0.515 Z-0.412 F500
G1 X34.590 Y-0.508 Z-0.412 F500
G1 X34.682 Y-0.486 Z-0.412 F500
G1 X34.769 Y-0.450 Z-0.412 F500
G1 X34.849 Y-0.401 Z-0.412 F500
G1 X34.920 Y-0.340 Z-0.412 F500
G1 X34.982 Y-0.268 Z-0.412 F500
G1 X35.031 Y-0.188 Z-0.412 F500
G1 X35.067 Y-0.101 Z-0.412 F500
G1 X35.089 Y-0.009 Z-0.412 F500
G1 X35.096 Y0.085 Z-0.412 F500
G1 X35.096 Y16.424 Z-0.412 F500
G1 X35.104 Y16.638 Z-0.412 F500
G1 X35.127 Y16.851 Z-0.412 F500
G1 X35.165 Y17.061 Z-0.412 F500
G1 X35.218 Y17.269 Z-0.412 F500
G1 X35.285 Y17.472 Z-0.412 F500
G1 X35.367 Y17.670 Z-0.412 F500
G1 X35.463 Y17.861 Z-0.412 F500
G1 X35.572 Y18.046 Z-0.412 F500
G1 X35.695 Y18.222 Z-0.412 F500
G1 X35.829 Y18.388 Z-0.412 F500
G1 X35.975 Y18.545 Z-0.412 F500
G1 X36.059 Y18.630 Z-0.412 F500
G1 X36.121 Y18.701 Z-0.412 F200
G1 X36.170 Y18.781 Z-0.412 F200
G1 X36.206 Y18.868 Z-0.412 F200
G1 X36.228 Y18.960 Z-0.412 F200
G1 X36.235 Y19.054 Z-0.412 F200
G1 X36.228 Y19.148 Z-0.412 F200
G1 X36.206 Y19.239 Z-0.412 F200
G1 X36.170 Y19.326 Z-0.412 F200
G1 X36.121 Y19.407 Z-0.412 F200
G1 X36.059 Y19.478 Z-0.412 F200
G1 X35.635 Y19.902 Z-0.412 F200
G1 X35.569 Y19.969 Z-0.405 F200
G1 X35.504 Y20.034 Z-0.383 F200
G1 X35.443 Y20.095 Z-0.347 F200
G1 X35.386 Y20.152 Z-0.298 F200
G1 X35.335 Y20.202 Z-0.236 F200
G1 X35.292 Y20.246 Z-0.165 F200
G1 X35.257 Y20.280 Z-0.085 F200
G1 X35.232 Y20.306 Z0.002 F200
G1 X35.216 Y20.321 Z0.094 F200
G1 X35.211 Y20.327 Z0.188 F200
G1 X35.211 Y20.327 Z6.588 F500
G1 X32.513 Y20.328 Z6.588 F500
G1 X32.513 Y20.328 Z1.088 F150
G1 X32.513 Y20.328 Z0.188 F150
G1 X32.508 Y20.323 Z0.094 F500
G1 X32.493 Y20.308 Z0.002 F500
G1 X32.467 Y20.282 Z-0.085 F500
G1 X32.432 Y20.247 Z-0.165 F500
G1 X32.389 Y20.204 Z-0.236 F500
G1 X32.339 Y20.153 Z-0.298 F500
G1 X32.282 Y20.097 Z-0.347 F500
G1 X32.220 Y20.035 Z-0.383 F500
G1 X32.156 Y19.970 Z-0.405 F500
G1 X32.089 Y19.904 Z-0.412 F500
G1 X31.665 Y19.479 Z-0.412 F500
G1 X31.604 Y19.408 Z-0.412 F500
G1 X31.555 Y19.327 Z-0.412 F500
G1 X31.519 Y19.240 Z-0.412 F500
G1 X31.497 Y19.149 Z-0.412 F500
G1 X31.490 Y19.055 Z-0.412 F500
G1 X31.497 Y18.961 Z-0.412 F500
G1 X31.519 Y18.870 Z-0.412 F500
G1 X31.555 Y18.783 Z-0.412 F500
G1 X31.605 Y18.702 Z-0.412 F500
G1 X31.666 Y18.631 Z-0.412 F500
G1 X31.750 Y18.546 Z-0.412 F500
G1 X31.897 Y18.389 Z-0.412 F500
G1 X32.031 Y18.223 Z-0.412 F500
G1 X32.153 Y18.047 Z-0.412 F500
G1 X32.263 Y17.862 Z-0.412 F500
G1 X32.359 Y17.671 Z-0.412 F500
G1 X32.441 Y17.473 Z-0.412 F500
G1 X32.509 Y17.270 Z-0.412 F500
G1 X32.562 Y17.062 Z-0.412 F500
G1 X32.600 Y16.851 Z-0.412 F500
G1 X32.623 Y16.638 Z-0.412 F500
G1 X32.630 Y16.424 Z-0.412 F500
G1 X32.630 Y0.085 Z-0.412 F500
G1 X32.638 Y-0.009 Z-0.412 F200
G1 X32.660 Y-0.101 Z-0.412 F200
G1 X32.696 Y-0.188 Z-0.412 F200
G1 X32.745 Y-0.268 Z-0.412 F200
G1 X32.806 Y-0.340 Z-0.412 F200
G1 X32.878 Y-0.401 Z-0.412 F200
G1 X32.958 Y-0.450 Z-0.412 F200
G1 X33.045 Y-0.486 Z-0.412 F200
G1 X33.137 Y-0.508 Z-0.412 F200
G1 X33.230 Y-0.515 Z-0.412 F200
G1 X33.830 Y-0.515 Z-0.412 F200
G1 X33.924 Y-0.515 Z-0.405 F200
G1 X34.016 Y-0.515 Z-0.383 F200
G1 X34.103 Y-0.515 Z-0.347 F200
G1 X34.183 Y-0.515 Z-0.298 F200
G1 X34.255 Y-0.515 Z-0.236 F200
G1 X34.316 Y-0.515 Z-0.165 F200
G1 X34.365 Y-0.515 Z-0.085 F200
G1 X34.401 Y-0.515 Z0.002 F200
G1 X34.423 Y-0.515 Z0.094 F200
G1 X34.430 Y-0.515 Z0.188 F200
G1 X34.430 Y-0.515 Z6.588 F500
G1 X33.296 Y-0.515 Z6.588 F500
G1 X33.296 Y-0.515 Z0.588 F150
G1 X33.296 Y-0.515 Z-0.312 F150
G1 X33.304 Y-0.515 Z-0.406 F500
G1 X33.326 Y-0.515 Z-0.498 F500
G1 X33.362 Y-0.515 Z-0.585 F500
G1 X33.411 Y-0.515 Z-0.665 F500
G1 X33.472 Y-0.515 Z-0.736 F500
G1 X33.544 Y-0.515 Z-0.798 F500
G1 X33.624 Y-0.515 Z-0.847 F500
G1 X33.711 Y-0.515 Z-0.883 F500
G1 X33.802 Y-0.515 Z-0.905 F500
G1 X33.896 Y-0.515 Z-0.912 F500
G1 X34.496 Y-0.515 Z-0.912 F500
G1 X34.590 Y-0.508 Z-0.912 F500
G1 X34.682 Y-0.486 Z-0.912 F500
G1 X34.769 Y-0.450 Z-0.912 F500
G1 X34.849 Y-0.401 Z-0.912 F500
G1 X34.920 Y-0.340 Z-0.912 F500
G1 X34.982 Y-0.268 Z-0.912 F500
G1 X35.031 Y-0.188 Z-0.912 F500
G1 X35.067 Y-0.101 Z-0.912 F500
G1 X35.089 Y-0.009 Z-0.912 F500
G1 X35.096 Y0.085 Z-0.912 F500
G1 X35.096 Y16.424 Z-0.912 F500
G1 X35.104 Y16.638 Z-0.912 F500
G1 X35.127 Y16.851 Z-0.912 F500
G1 X35.165 Y17.061 Z-0.912 F500
G1 X35.218 Y17.269 Z-0.912 F500
G1 X35.285 Y17.472 Z-0.912 F500
G1 X35.367 Y17.670 Z-0.912 F500
G1 X35.463 Y17.861 Z-0.912 F500
G1 X35.572 Y18.046 Z-0.912 F500
G1 X35.695 Y18.222 Z-0.912 F500
G1 X35.829 Y18.388 Z-0.912 F500
G1 X35.975 Y18.545 Z-0.912 F500
G1 X36.059 Y18.630 Z-0.912 F500
G1 X36.121 Y18.701 Z-0.912 F200
G1 X36.170 Y18.781 Z-0.912 F200
G1 X36.206 Y18.868 Z-0.912 F200
G1 X36.228 Y18.960 Z-0.912 F200
G1 X36.235 Y19.054 Z-0.912 F200
G1 X36.228 Y19.148 Z-0.912 F200
G1 X36.206 Y19.239 Z-0.912 F200
G1 X36.170 Y19.326 Z-0.912 F200
G1 X36.121 Y19.407 Z-0.912 F200
G1 X36.059 Y19.478 Z-0.912 F200
G1 X35.635 Y19.902 Z-0.912 F200
G1 X35.569 Y19.969 Z-0.905 F200
G1 X35.504 Y20.034 Z-0.883 F200
G1 X35.443 Y20.095 Z-0.847 F200
G1 X35.386 Y20.152 Z-0.798 F200
G1 X35.335 Y20.202 Z-0.736 F200
G1 X35.292 Y20.246 Z-0.665 F200
G1 X35.257 Y20.280 Z-0.585 F200
G1 X35.232 Y20.306 Z-0.498 F200
G1 X35.216 Y20.321 Z-0.406 F200
G1 X35.211 Y20.327 Z-0.312 F200
G1 X35.211 Y20.327 Z6.588 F500
G1 X32.513 Y20.328 Z6.588 F500
G1 X32.513 Y20.328 Z0.588 F150
G1 X32.513 Y20.328 Z-0.312 F150
G1 X32.508 Y20.323 Z-0.406 F500
G1 X32.493 Y20.308 Z-0.498 F500
G1 X32.467 Y20.282 Z-0.585 F500
G1 X32.432 Y20.247 Z-0.665 F500
G1 X32.389 Y20.204 Z-0.736 F500
G1 X32.339 Y20.153 Z-0.798 F500
G1 X32.282 Y20.097 Z-0.847 F500
G1 X32.220 Y20.035 Z-0.883 F500
G1 X32.156 Y19.970 Z-0.905 F500
G1 X32.089 Y19.904 Z-0.912 F500
G1 X31.665 Y19.479 Z-0.912 F500
G1 X31.604 Y19.408 Z-0.912 F500
G1 X31.555 Y19.327 Z-0.912 F500
G1 X31.519 Y19.240 Z-0.912 F500
G1 X31.497 Y19.149 Z-0.912 F500
G1 X31.490 Y19.055 Z-0.912 F500
G1 X31.497 Y18.961 Z-0.912 F500
G1 X31.519 Y18.870 Z-0.912 F500
G1 X31.555 Y18.783 Z-0.912 F500
G1 X31.605 Y18.702 Z-0.912 F500
G1 X31.666 Y18.631 Z-0.912 F500
G1 X31.750 Y18.546 Z-0.912 F500
G1 X31.897 Y18.389 Z-0.912 F500
G1 X32.031 Y18.223 Z-0.912 F500
G1 X32.153 Y18.047 Z-0.912 F500
G1 X32.263 Y17.862 Z-0.912 F500
G1 X32.359 Y17.671 Z-0.912 F500
G1 X32.441 Y17.473 Z-0.912 F500
G1 X32.509 Y17.270 Z-0.912 F500
G1 X32.562 Y17.062 Z-0.912 F500
G1 X32.600 Y16.851 Z-0.912 F500
G1 X32.623 Y16.638 Z-0.912 F500
G1 X32.630 Y16.424 Z-0.912 F500
G1 X32.630 Y0.085 Z-0.912 F500
G1 X32.638 Y-0.009 Z-0.912 F200
G1 X32.660 Y-0.101 Z-0.912 F200
G1 X32.696 Y-0.188 Z-0.912 F200
G1 X32.745 Y-0.268 Z-0.912 F200
G1 X32.806 Y-0.340 Z-0.912 F200
G1 X32.878 Y-0.401 Z-0.912 F200
G1 X32.958 Y-0.450 Z-0.912 F200
G1 X33.045 Y-0.486 Z-0.912 F200
G1 X33.137 Y-0.508 Z-0.912 F200
G1 X33.230 Y-0.515 Z-0.912 F200
G1 X33.830 Y-0.515 Z-0.912 F200
G1 X33.924 Y-0.515 Z-0.905 F200
G1 X34.016 Y-0.515 Z-0.883 F200
G1 X34.103 Y-0.515 Z-0.847 F200
G1 X34.183 Y-0.515 Z-0.798 F200
G1 X34.255 Y-0.515 Z-0.736 F200
G1 X34.316 Y-0.515 Z-0.665 F200
G1 X34.365 Y-0.515 Z-0.585 F200
G1 X34.401 Y-0.515 Z-0.498 F200
G1 X34.423 Y-0.515 Z-0.406 F200
G1 X34.430 Y-0.515 Z-0.312 F200
G1 X34.430 Y-0.515 Z6.588 F500
G1 X33.296 Y-0.515 Z6.588 F500
G1 X33.296 Y-0.515 Z0.088 F150
G1 X33.296 Y-0.515 Z-0.812 F150
G1 X33.304 Y-0.515 Z-0.906 F500
G1 X33.326 Y-0.515 Z-0.998 F500
G1 X33.362 Y-0.515 Z-1.085 F500
G1 X33.411 Y-0.515 Z-1.165 F500
G1 X33.472 Y-0.515 Z-1.236 F500
G1 X33.544 Y-0.515 Z-1.298 F500
G1 X33.624 Y-0.515 Z-1.347 F500
G1 X33.711 Y-0.515 Z-1.383 F500
G1 X33.802 Y-0.515 Z-1.405 F500
G1 X33.896 Y-0.515 Z-1.412 F500
G1 X34.496 Y-0.515 Z-1.412 F500
G1 X34.590 Y-0.508 Z-1.412 F500
G1 X34.682 Y-0.486 Z-1.412 F500
G1 X34.769 Y-0.450 Z-1.412 F500
G1 X34.849 Y-0.401 Z-1.412 F500
G1 X34.920 Y-0.340 Z-1.412 F500
G1 X34.982 Y-0.268 Z-1.412 F500
G1 X35.031 Y-0.188 Z-1.412 F500
G1 X35.067 Y-0.101 Z-1.412 F500
G1 X35.089 Y-0.009 Z-1.412 F500
G1 X35.096 Y0.085 Z-1.412 F500
G1 X35.096 Y16.424 Z-1.412 F500
G1 X35.104 Y16.638 Z-1.412 F500
G1 X35.127 Y16.851 Z-1.412 F500
G1 X35.165 Y17.061 Z-1.412 F500
G1 X35.218 Y17.269 Z-1.412 F500
G1 X35.285 Y17.472 Z-1.412 F500
G1 X35.367 Y17.670 Z-1.412 F500
G1 X35.463 Y17.861 Z-1.412 F500
G1 X35.572 Y18.046 Z-1.412 F500
G1 X35.695 Y18.222 Z-1.412 F500
G1 X35.829 Y18.388 Z-1.412 F500
G1 X35.975 Y18.545 Z-1.412 F500
G1 X36.059 Y18.630 Z-1.412 F500
G1 X36.121 Y18.701 Z-1.412 F200
G1 X36.170 Y18.781 Z-1.412 F200
G1 X36.206 Y18.868 Z-1.412 F200
G1 X36.228 Y18.960 Z-1.412 F200
G1 X36.235 Y19.054 Z-1.412 F200
G1 X36.228 Y19.148 Z-1.412 F200
G1 X36.206 Y19.239 Z-1.412 F200
G1 X36.170 Y19.326 Z-1.412 F200
G1 X36.121 Y19.407 Z-1.412 F200
G1 X36.059 Y19.478 Z-1.412 F200
G1 X35.635 Y19.902 Z-1.412 F200
G1 X35.569 Y19.969 Z-1.405 F200
G1 X35.504 Y20.034 Z-1.383 F200
G1 X35.443 Y20.095 Z-1.347 F200
G1 X35.386 Y20.152 Z-1.298 F200
G1 X35.335 Y20.202 Z-1.236 F200
G1 X35.292 Y20.246 Z-1.165 F200
G1 X35.257 Y20.280 Z-1.085 F200
G1 X35.232 Y20.306 Z-0.998 F200
G1 X35.216 Y20.321 Z-0.906 F200
G1 X35.211 Y20.327 Z-0.812 F200
G1 X35.211 Y20.327 Z6.588 F500
G1 X32.513 Y20.328 Z6.588 F500
G1 X32.513 Y20.328 Z0.088 F150
G1 X32.513 Y20.328 Z-0.812 F150
G1 X32.508 Y20.323 Z-0.906 F500
G1 X32.493 Y20.308 Z-0.998 F500
G1 X32.467 Y20.282 Z-1.085 F500
G1 X32.432 Y20.247 Z-1.165 F500
G1 X32.389 Y20.204 Z-1.236 F500
G1 X32.339 Y20.153 Z-1.298 F500
G1 X32.282 Y20.097 Z-1.347 F500
G1 X32.220 Y20.035 Z-1.383 F500
G1 X32.156 Y19.970 Z-1.405 F500
G1 X32.089 Y19.904 Z-1.412 F500
G1 X31.665 Y19.479 Z-1.412 F500
G1 X31.604 Y19.408 Z-1.412 F500
G1 X31.555 Y19.327 Z-1.412 F500
G1 X31.519 Y19.240 Z-1.412 F500
G1 X31.497 Y19.149 Z-1.412 F500
G1 X31.490 Y19.055 Z-1.412 F500
G1 X31.497 Y18.961 Z-1.412 F500
G1 X31.519 Y18.870 Z-1.412 F500
G1 X31.555 Y18.783 Z-1.412 F500
G1 X31.605 Y18.702 Z-1.412 F500
G1 X31.666 Y18.631 Z-1.412 F500
G1 X31.750 Y18.546 Z-1.412 F500
G1 X31.897 Y18.389 Z-1.412 F500
G1 X32.031 Y18.223 Z-1.412 F500
G1 X32.153 Y18.047 Z-1.412 F500
G1 X32.263 Y17.862 Z-1.412 F500
G1 X32.359 Y17.671 Z-1.412 F500
G1 X32.441 Y17.473 Z-1.412 F500
G1 X32.509 Y17.270 Z-1.412 F500
G1 X32.562 Y17.062 Z-1.412 F500
G1 X32.600 Y16.851 Z-1.412 F500
G1 X32.623 Y16.638 Z-1.412 F500
G1 X32.630 Y16.424 Z-1.412 F500
G1 X32.630 Y0.085 Z-1.412 F500
G1 X32.638 Y-0.009 Z-1.412 F200
G1 X32.660 Y-0.101 Z-1.412 F200
G1 X32.696 Y-0.188 Z-1.412 F200
G1 X32.745 Y-0.268 Z-1.412 F200
G1 X32.806 Y-0.340 Z-1.412 F200
G1 X32.878 Y-0.401 Z-1.412 F200
G1 X32.958 Y-0.450 Z-1.412 F200
G1 X33.045 Y-0.486 Z-1.412 F200
G1 X33.137 Y-0.508 Z-1.412 F200
G1 X33.230 Y-0.515 Z-1.412 F200
G1 X33.830 Y-0.515 Z-1.412 F200
G1 X33.924 Y-0.515 Z-1.405 F200
G1 X34.016 Y-0.515 Z-1.383 F200
G1 X34.103 Y-0.515 Z-1.347 F200
G1 X34.183 Y-0.515 Z-1.298 F200
G1 X34.255 Y-0.515 Z-1.236 F200
G1 X34.316 Y-0.515 Z-1.165 F200
G1 X34.365 Y-0.515 Z-1.085 F200
G1 X34.401 Y-0.515 Z-0.998 F200
G1 X34.423 Y-0.515 Z-0.906 F200
G1 X34.430 Y-0.515 Z-0.812 F200
G1 X34.430 Y-0.515 Z6.588 F500
G1 X33.296 Y-0.515 Z6.588 F500
G1 X33.296 Y-0.515 Z-0.412 F150
G1 X33.296 Y-0.515 Z-1.312 F150
G1 X33.304 Y-0.515 Z-1.406 F500
G1 X33.326 Y-0.515 Z-1.498 F500
G1 X33.362 Y-0.515 Z-1.585 F500
G1 X33.411 Y-0.515 Z-1.665 F500
G1 X33.472 Y-0.515 Z-1.736 F500
G1 X33.544 Y-0.515 Z-1.798 F500
G1 X33.624 Y-0.515 Z-1.847 F500
G1 X33.711 Y-0.515 Z-1.883 F500
G1 X33.802 Y-0.515 Z-1.905 F500
G1 X33.896 Y-0.515 Z-1.912 F500
G1 X34.496 Y-0.515 Z-1.912 F500
G1 X34.590 Y-0.508 Z-1.912 F500
G1 X34.682 Y-0.486 Z-1.912 F500
G1 X34.769 Y-0.450 Z-1.912 F500
G1 X34.849 Y-0.401 Z-1.912 F500
G1 X34.920 Y-0.340 Z-1.912 F500
G1 X34.982 Y-0.268 Z-1.912 F500
G1 X35.031 Y-0.188 Z-1.912 F500
G1 X35.067 Y-0.101 Z-1.912 F500
G1 X35.089 Y-0.009 Z-1.912 F500
G1 X35.096 Y0.085 Z-1.912 F500
G1 X35.096 Y16.424 Z-1.912 F500
G1 X35.104 Y16.638 Z-1.912 F500
G1 X35.127 Y16.851 Z-1.912 F500
G1 X35.165 Y17.061 Z-1.912 F500
G1 X35.218 Y17.269 Z-1.912 F500
G1 X35.285 Y17.472 Z-1.912 F500
G1 X35.367 Y17.670 Z-1.912 F500
G1 X35.463 Y17.861 Z-1.912 F500
G1 X35.572 Y18.046 Z-1.912 F500
G1 X35.695 Y18.222 Z-1.912 F500
G1 X35.829 Y18.388 Z-1.912 F500
G1 X35.975 Y18.545 Z-1.912 F500
G1 X36.059 Y18.630 Z-1.912 F500
G1 X36.121 Y18.701 Z-1.912 F200
G1 X36.170 Y18.781 Z-1.912 F200
G1 X36.206 Y18.868 Z-1.912 F200
G1 X36.228 Y18.960 Z-1.912 F200
G1 X36.235 Y19.054 Z-1.912 F200
G1 X36.228 Y19.148 Z-1.912 F200
G1 X36.206 Y19.239 Z-1.912 F200
G1 X36.170 Y19.326 Z-1.912 F200
G1 X36.121 Y19.407 Z-1.912 F200
G1 X36.059 Y19.478 Z-1.912 F200
G1 X35.635 Y19.902 Z-1.912 F200
G1 X35.569 Y19.969 Z-1.905 F200
G1 X35.504 Y20.034 Z-1.883 F200
G1 X35.443 Y20.095 Z-1.847 F200
G1 X35.386 Y20.152 Z-1.798 F200
G1 X35.335 Y20.202 Z-1.736 F200
G1 X35.292 Y20.246 Z-1.665 F200
G1 X35.257 Y20.280 Z-1.585 F200
G1 X35.232 Y20.306 Z-1.498 F200
G1 X35.216 Y20.321 Z-1.406 F200
G1 X35.211 Y20.327 Z-1.312 F200
G1 X35.211 Y20.327 Z6.588 F500
G1 X32.513 Y20.328 Z6.588 F500
G1 X32.513 Y20.328 Z-0.412 F150
G1 X32.513 Y20.328 Z-1.312 F150
G1 X32.508 Y20.323 Z-1.406 F500
G1 X32.493 Y20.308 Z-1.498 F500
G1 X32.467 Y20.282 Z-1.585 F500
G1 X32.432 Y20.247 Z-1.665 F500
G1 X32.389 Y20.204 Z-1.736 F500
G1 X32.339 Y20.153 Z-1.798 F500
G1 X32.282 Y20.097 Z-1.847 F500
G1 X32.220 Y20.035 Z-1.883 F500
G1 X32.156 Y19.970 Z-1.905 F500
G1 X32.089 Y19.904 Z-1.912 F500
G1 X31.665 Y19.479 Z-1.912 F500
G1 X31.604 Y19.408 Z-1.912 F500
G1 X31.555 Y19.327 Z-1.912 F500
G1 X31.519 Y19.240 Z-1.912 F500
G1 X31.497 Y19.149 Z-1.912 F500
G1 X31.490 Y19.055 Z-1.912 F500
G1 X31.497 Y18.961 Z-1.912 F500
G1 X31.519 Y18.870 Z-1.912 F500
G1 X31.555 Y18.783 Z-1.912 F500
G1 X31.605 Y18.702 Z-1.912 F500
G1 X31.666 Y18.631 Z-1.912 F500
G1 X31.750 Y18.546 Z-1.912 F500
G1 X31.897 Y18.389 Z-1.912 F500
G1 X32.031 Y18.223 Z-1.912 F500
G1 X32.153 Y18.047 Z-1.912 F500
G1 X32.263 Y17.862 Z-1.912 F500
G1 X32.359 Y17.671 Z-1.912 F500
G1 X32.441 Y17.473 Z-1.912 F500
G1 X32.509 Y17.270 Z-1.912 F500
G1 X32.562 Y17.062 Z-1.912 F500
G1 X32.600 Y16.851 Z-1.912 F500
G1 X32.623 Y16.638 Z-1.912 F500
G1 X32.630 Y16.424 Z-1.912 F500
G1 X32.630 Y0.085 Z-1.912 F500
G1 X32.638 Y-0.009 Z-1.912 F200
G1 X32.660 Y-0.101 Z-1.912 F200
G1 X32.696 Y-0.188 Z-1.912 F200
G1 X32.745 Y-0.268 Z-1.912 F200
G1 X32.806 Y-0.340 Z-1.912 F200
G1 X32.878 Y-0.401 Z-1.912 F200
G1 X32.958 Y-0.450 Z-1.912 F200
G1 X33.045 Y-0.486 Z-1.912 F200
G1 X33.137 Y-0.508 Z-1.912 F200
G1 X33.230 Y-0.515 Z-1.912 F200
G1 X33.830 Y-0.515 Z-1.912 F200
G1 X33.924 Y-0.515 Z-1.905 F200
G1 X34.016 Y-0.515 Z-1.883 F200
G1 X34.103 Y-0.515 Z-1.847 F200
G1 X34.183 Y-0.515 Z-1.798 F200
G1 X34.255 Y-0.515 Z-1.736 F200
G1 X34.316 Y-0.515 Z-1.665 F200
G1 X34.365 Y-0.515 Z-1.585 F200
G1 X34.401 Y-0.515 Z-1.498 F200
G1 X34.423 Y-0.515 Z-1.406 F200
G1 X34.430 Y-0.515 Z-1.312 F200
G1 X34.430 Y-0.515 Z6.588 F500
G1 X33.296 Y-0.515 Z6.588 F500
G1 X33.296 Y-0.515 Z-0.912 F150
G1 X33.296 Y-0.515 Z-1.812 F150
G1 X33.304 Y-0.515 Z-1.906 F500
G1 X33.326 Y-0.515 Z-1.998 F500
G1 X33.362 Y-0.515 Z-2.085 F500
G1 X33.411 Y-0.515 Z-2.165 F500
G1 X33.472 Y-0.515 Z-2.236 F500
G1 X33.544 Y-0.515 Z-2.298 F500
G1 X33.624 Y-0.515 Z-2.347 F500
G1 X33.711 Y-0.515 Z-2.383 F500
G1 X33.802 Y-0.515 Z-2.405 F500
G1 X33.896 Y-0.515 Z-2.412 F500
G1 X34.496 Y-0.515 Z-2.412 F500
G1 X34.590 Y-0.508 Z-2.412 F500
G1 X34.682 Y-0.486 Z-2.412 F500
G1 X34.769 Y-0.450 Z-2.412 F500
G1 X34.849 Y-0.401 Z-2.412 F500
G1 X34.920 Y-0.340 Z-2.412 F500
G1 X34.982 Y-0.268 Z-2.412 F500
G1 X35.031 Y-0.188 Z-2.412 F500
G1 X35.067 Y-0.101 Z-2.412 F500
G1 X35.089 Y-0.009 Z-2.412 F500
G1 X35.096 Y0.085 Z-2.412 F500
G1 X35.096 Y16.424 Z-2.412 F500
G1 X35.104 Y16.638 Z-2.412 F500
G1 X35.127 Y16.851 Z-2.412 F500
G1 X35.165 Y17.061 Z-2.412 F500
G1 X35.218 Y17.269 Z-2.412 F500
G1 X35.285 Y17.472 Z-2.412 F500
G1 X35.367 Y17.670 Z-2.412 F500
G1 X35.463 Y17.861 Z-2.412 F500
G1 X35.572 Y18.046 Z-2.412 F500
G1 X35.695 Y18.222 Z-2.412 F500
G1 X35.829 Y18.388 Z-2.412 F500
G1 X35.975 Y18.545 Z-2.412 F500
G1 X36.059 Y18.630 Z-2.412 F500
G1 X36.121 Y18.701 Z-2.412 F200
G1 X36.170 Y18.781 Z-2.412 F200
G1 X36.206 Y18.868 Z-2.412 F200
G1 X36.228 Y18.960 Z-2.412 F200
G1 X36.235 Y19.054 Z-2.412 F200
G1 X36.228 Y19.148 Z-2.412 F200
G1 X36.206 Y19.239 Z-2.412 F200
G1 X36.170 Y19.326 Z-2.412 F200
G1 X36.121 Y19.407 Z-2.412 F200
G1 X36.059 Y19.478 Z-2.412 F200
G1 X35.635 Y19.902 Z-2.412 F200
G1 X35.569 Y19.969 Z-2.405 F200
G1 X35.504 Y20.034 Z-2.383 F200
G1 X35.443 Y20.095 Z-2.347 F200
G1 X35.386 Y20.152 Z-2.298 F200
G1 X35.335 Y20.202 Z-2.236 F200
G1 X35.292 Y20.246 Z-2.165 F200
G1 X35.257 Y20.280 Z-2.085 F200
G1 X35.232 Y20.306 Z-1.998 F200
G1 X35.216 Y20.321 Z-1.906 F200
G1 X35.211 Y20.327 Z-1.812 F200
G1 X35.211 Y20.327 Z6.588 F500
G1 X32.513 Y20.328 Z6.588 F500
G1 X32.513 Y20.328 Z-0.912 F150
G1 X32.513 Y20.328 Z-1.812 F150
G1 X32.508 Y20.323 Z-1.906 F500
G1 X32.493 Y20.308 Z-1.998 F500
G1 X32.467 Y20.282 Z-2.085 F500
G1 X32.432 Y20.247 Z-2.165 F500
G1 X32.389 Y20.204 Z-2.236 F500
G1 X32.339 Y20.153 Z-2.298 F500
G1 X32.282 Y20.097 Z-2.347 F500
G1 X32.220 Y20.035 Z-2.383 F500
G1 X32.156 Y19.970 Z-2.405 F500
G1 X32.089 Y19.904 Z-2.412 F500
G1 X31.665 Y19.479 Z-2.412 F500
G1 X31.604 Y19.408 Z-2.412 F500
G1 X31.555 Y19.327 Z-2.412 F500
G1 X31.519 Y19.240 Z-2.412 F500
G1 X31.497 Y19.149 Z-2.412 F500
G1 X31.490 Y19.055 Z-2.412 F500
G1 X31.497 Y18.961 Z-2.412 F500
G1 X31.519 Y18.870 Z-2.412 F500
G1 X31.555 Y18.783 Z-2.412 F500
G1 X31.605 Y18.702 Z-2.412 F500
G1 X31.666 Y18.631 Z-2.412 F500
G1 X31.750 Y18.546 Z-2.412 F500
G1 X31.897 Y18.389 Z-2.412 F500
G1 X32.031 Y18.223 Z-2.412 F500
G1 X32.153 Y18.047 Z-2.412 F500
G1 X32.263 Y17.862 Z-2.412 F500
G1 X32.359 Y17.671 Z-2.412 F500
G1 X32.441 Y17.473 Z-2.412 F500
G1 X32.509 Y17.270 Z-2.412 F500
G1 X32.562 Y17.062 Z-2.412 F500
G1 X32.600 Y16.851 Z-2.412 F500
G1 X32.623 Y16.638 Z-2.412 F500
G1 X32.630 Y16.424 Z-2.412 F500
G1 X32.630 Y0.085 Z-2.412 F500
G1 X32.638 Y-0.009 Z-2.412 F200
G1 X32.660 Y-0.101 Z-2.412 F200
G1 X32.696 Y-0.188 Z-2.412 F200
G1 X32.745 Y-0.268 Z-2.412 F200
G1 X32.806 Y-0.340 Z-2.412 F200
G1 X32.878 Y-0.401 Z-2.412 F200
G1 X32.958 Y-0.450 Z-2.412 F200
G1 X33.045 Y-0.486 Z-2.412 F200
G1 X33.137 Y-0.508 Z-2.412 F200
G1 X33.230 Y-0.515 Z-2.412 F200
G1 X33.830 Y-0.515 Z-2.412 F200
G1 X33.924 Y-0.515 Z-2.405 F200
G1 X34.016 Y-0.515 Z-2.383 F200
G1 X34.103 Y-0.515 Z-2.347 F200
G1 X34.183 Y-0.515 Z-2.298 F200
G1 X34.255 Y-0.515 Z-2.236 F200
G1 X34.316 Y-0.515 Z-2.165 F200
G1 X34.365 Y-0.515 Z-2.085 F200
G1 X34.401 Y-0.515 Z-1.998 F200
G1 X34.423 Y-0.515 Z-1.906 F200
G1 X34.430 Y-0.515 Z-1.812 F200
G1 X34.430 Y-0.515 Z6.588 F500
G1 X33.296 Y-0.515 Z6.588 F500
G1 X33.296 Y-0.515 Z-1.412 F150
G1 X33.296 Y-0.515 Z-2.312 F150
G1 X33.304 Y-0.515 Z-2.406 F500
G1 X33.326 Y-0.515 Z-2.498 F500
G1 X33.362 Y-0.515 Z-2.585 F500
G1 X33.411 Y-0.515 Z-2.665 F500
G1 X33.472 Y-0.515 Z-2.736 F500
G1 X33.544 Y-0.515 Z-2.798 F500
G1 X33.624 Y-0.515 Z-2.847 F500
G1 X33.711 Y-0.515 Z-2.883 F500
G1 X33.802 Y-0.515 Z-2.905 F500
G1 X33.896 Y-0.515 Z-2.912 F500
G1 X34.496 Y-0.515 Z-2.912 F500
G1 X34.590 Y-0.508 Z-2.912 F500
G1 X34.682 Y-0.486 Z-2.912 F500
G1 X34.769 Y-0.450 Z-2.912 F500
G1 X34.849 Y-0.401 Z-2.912 F500
G1 X34.920 Y-0.340 Z-2.912 F500
G1 X34.982 Y-0.268 Z-2.912 F500
G1 X35.031 Y-0.188 Z-2.912 F500
G1 X35.067 Y-0.101 Z-2.912 F500
G1 X35.089 Y-0.009 Z-2.912 F500
G1 X35.096 Y0.085 Z-2.912 F500
G1 X35.096 Y16.424 Z-2.912 F500
G1 X35.104 Y16.638 Z-2.912 F500
G1 X35.127 Y16.851 Z-2.912 F500
G1 X35.165 Y17.061 Z-2.912 F500
G1 X35.218 Y17.269 Z-2.912 F500
G1 X35.285 Y17.472 Z-2.912 F500
G1 X35.367 Y17.670 Z-2.912 F500
G1 X35.463 Y17.861 Z-2.912 F500
G1 X35.572 Y18.046 Z-2.912 F500
G1 X35.695 Y18.222 Z-2.912 F500
G1 X35.829 Y18.388 Z-2.912 F500
G1 X35.975 Y18.545 Z-2.912 F500
G1 X36.059 Y18.630 Z-2.912 F500
G1 X36.121 Y18.701 Z-2.912 F200
G1 X36.170 Y18.781 Z-2.912 F200
G1 X36.206 Y18.868 Z-2.912 F200
G1 X36.228 Y18.960 Z-2.912 F200
G1 X36.235 Y19.054 Z-2.912 F200
G1 X36.228 Y19.148 Z-2.912 F200
G1 X36.206 Y19.239 Z-2.912 F200
G1 X36.170 Y19.326 Z-2.912 F200
G1 X36.121 Y19.407 Z-2.912 F200
G1 X36.059 Y19.478 Z-2.912 F200
G1 X35.635 Y19.902 Z-2.912 F200
G1 X35.569 Y19.969 Z-2.905 F200
G1 X35.504 Y20.034 Z-2.883 F200
G1 X35.443 Y20.095 Z-2.847 F200
G1 X35.386 Y20.152 Z-2.798 F200
G1 X35.335 Y20.202 Z-2.736 F200
G1 X35.292 Y20.246 Z-2.665 F200
G1 X35.257 Y20.280 Z-2.585 F200
G1 X35.232 Y20.306 Z-2.498 F200
G1 X35.216 Y20.321 Z-2.406 F200
G1 X35.211 Y20.327 Z-2.312 F200
G1 X35.211 Y20.327 Z6.588 F500
G1 X32.513 Y20.328 Z6.588 F500
G1 X32.513 Y20.328 Z-1.412 F150
G1 X32.513 Y20.328 Z-2.312 F150
G1 X32.508 Y20.323 Z-2.406 F500
G1 X32.493 Y20.308 Z-2.498 F500
G1 X32.467 Y20.282 Z-2.585 F500
G1 X32.432 Y20.247 Z-2.665 F500
G1 X32.389 Y20.204 Z-2.736 F500
G1 X32.339 Y20.153 Z-2.798 F500
G1 X32.282 Y20.097 Z-2.847 F500
G1 X32.220 Y20.035 Z-2.883 F500
G1 X32.156 Y19.970 Z-2.905 F500
G1 X32.089 Y19.904 Z-2.912 F500
G1 X31.665 Y19.479 Z-2.912 F500
G1 X31.604 Y19.408 Z-2.912 F500
G1 X31.555 Y19.327 Z-2.912 F500
G1 X31.519 Y19.240 Z-2.912 F500
G1 X31.497 Y19.149 Z-2.912 F500
G1 X31.490 Y19.055 Z-2.912 F500
G1 X31.497 Y18.961 Z-2.912 F500
G1 X31.519 Y18.870 Z-2.912 F500
G1 X31.555 Y18.783 Z-2.912 F500
G1 X31.605 Y18.702 Z-2.912 F500
G1 X31.666 Y18.631 Z-2.912 F500
G1 X31.750 Y18.546 Z-2.912 F500
G1 X31.897 Y18.389 Z-2.912 F500
G1 X32.031 Y18.223 Z-2.912 F500
G1 X32.153 Y18.047 Z-2.912 F500
G1 X32.263 Y17.862 Z-2.912 F500
G1 X32.359 Y17.671 Z-2.912 F500
G1 X32.441 Y17.473 Z-2.912 F500
G1 X32.509 Y17.270 Z-2.912 F500
G1 X32.562 Y17.062 Z-2.912 F500
G1 X32.600 Y16.851 Z-2.912 F500
G1 X32.623 Y16.638 Z-2.912 F500
G1 X32.630 Y16.424 Z-2.912 F500
G1 X32.630 Y0.085 Z-2.912 F500
G1 X32.638 Y-0.009 Z-2.912 F200
G1 X32.660 Y-0.101 Z-2.912 F200
G1 X32.696 Y-0.188 Z-2.912 F200
G1 X32.745 Y-0.268 Z-2.912 F200
G1 X32.806 Y-0.340 Z-2.912 F200
G1 X32.878 Y-0.401 Z-2.912 F200
G1 X32.958 Y-0.450 Z-2.912 F200
G1 X33.045 Y-0.486 Z-2.912 F200
G1 X33.137 Y-0.508 Z-2.912 F200
G1 X33.230 Y-0.515 Z-2.912 F200
G1 X33.830 Y-0.515 Z-2.912 F200
G1 X33.924 Y-0.515 Z-2.905 F200
G1 X34.016 Y-0.515 Z-2.883 F200
G1 X34.103 Y-0.515 Z-2.847 F200
G1 X34.183 Y-0.515 Z-2.798 F200
G1 X34.255 Y-0.515 Z-2.736 F200
G1 X34.316 Y-0.515 Z-2.665 F200
G1 X34.365 Y-0.515 Z-2.585 F200
G1 X34.401 Y-0.515 Z-2.498 F200
G1 X34.423 Y-0.515 Z-2.406 F200
G1 X34.430 Y-0.515 Z-2.312 F200
G1 X34.430 Y-0.515 Z6.588 F500
G1 X33.296 Y-0.515 Z6.588 F500
G1 X33.296 Y-0.515 Z-1.912 F150
G1 X33.296 Y-0.515 Z-2.786 F150
G1 X33.304 Y-0.515 Z-2.880 F500
G1 X33.326 Y-0.515 Z-2.972 F500
G1 X33.362 Y-0.515 Z-3.059 F500
G1 X33.411 Y-0.515 Z-3.139 F500
G1 X33.472 Y-0.515 Z-3.211 F500
G1 X33.544 Y-0.515 Z-3.272 F500
G1 X33.624 Y-0.515 Z-3.321 F500
G1 X33.711 Y-0.515 Z-3.357 F500
G1 X33.802 Y-0.515 Z-3.379 F500
G1 X33.896 Y-0.515 Z-3.386 F500
G1 X34.496 Y-0.515 Z-3.386 F500
G1 X34.590 Y-0.508 Z-3.386 F500
G1 X34.682 Y-0.486 Z-3.386 F500
G1 X34.769 Y-0.450 Z-3.386 F500
G1 X34.849 Y-0.401 Z-3.386 F500
G1 X34.920 Y-0.340 Z-3.386 F500
G1 X34.982 Y-0.268 Z-3.386 F500
G1 X35.031 Y-0.188 Z-3.386 F500
G1 X35.067 Y-0.101 Z-3.386 F500
G1 X35.089 Y-0.009 Z-3.386 F500
G1 X35.096 Y0.085 Z-3.386 F500
G1 X35.096 Y16.424 Z-3.386 F500
G1 X35.104 Y16.638 Z-3.386 F500
G1 X35.127 Y16.851 Z-3.386 F500
G1 X35.165 Y17.061 Z-3.386 F500
G1 X35.218 Y17.269 Z-3.386 F500
G1 X35.285 Y17.472 Z-3.386 F500
G1 X35.367 Y17.670 Z-3.386 F500
G1 X35.463 Y17.861 Z-3.386 F500
G1 X35.572 Y18.046 Z-3.386 F500
G1 X35.695 Y18.222 Z-3.386 F500
G1 X35.829 Y18.388 Z-3.386 F500
G1 X35.975 Y18.545 Z-3.386 F500
G1 X36.059 Y18.630 Z-3.386 F500
G1 X36.121 Y18.701 Z-3.386 F200
G1 X36.170 Y18.781 Z-3.386 F200
G1 X36.206 Y18.868 Z-3.386 F200
G1 X36.228 Y18.960 Z-3.386 F200
G1 X36.235 Y19.054 Z-3.386 F200
G1 X36.228 Y19.148 Z-3.386 F200
G1 X36.206 Y19.239 Z-3.386 F200
G1 X36.170 Y19.326 Z-3.386 F200
G1 X36.121 Y19.407 Z-3.386 F200
G1 X36.059 Y19.478 Z-3.386 F200
G1 X35.635 Y19.902 Z-3.386 F200
G1 X35.569 Y19.969 Z-3.379 F200
G1 X35.504 Y20.034 Z-3.357 F200
G1 X35.443 Y20.095 Z-3.321 F200
G1 X35.386 Y20.152 Z-3.272 F200
G1 X35.335 Y20.202 Z-3.211 F200
G1 X35.292 Y20.246 Z-3.139 F200
G1 X35.257 Y20.280 Z-3.059 F200
G1 X35.232 Y20.306 Z-2.972 F200
G1 X35.216 Y20.321 Z-2.880 F200
G1 X35.211 Y20.327 Z-2.786 F200
G1 X35.211 Y20.327 Z6.588 F500
G1 X32.513 Y20.328 Z6.588 F500
G1 X32.513 Y20.328 Z-1.912 F150
G1 X32.513 Y20.328 Z-2.786 F150
G1 X32.508 Y20.323 Z-2.880 F500
G1 X32.493 Y20.308 Z-2.972 F500
G1 X32.467 Y20.282 Z-3.059 F500
G1 X32.432 Y20.247 Z-3.139 F500
G1 X32.389 Y20.204 Z-3.211 F500
G1 X32.339 Y20.153 Z-3.272 F500
G1 X32.282 Y20.097 Z-3.321 F500
G1 X32.220 Y20.035 Z-3.357 F500
G1 X32.156 Y19.970 Z-3.379 F500
G1 X32.089 Y19.904 Z-3.386 F500
G1 X31.665 Y19.479 Z-3.386 F500
G1 X31.604 Y19.408 Z-3.386 F500
G1 X31.555 Y19.327 Z-3.386 F500
G1 X31.519 Y19.240 Z-3.386 F500
G1 X31.497 Y19.149 Z-3.386 F500
G1 X31.490 Y19.055 Z-3.386 F500
G1 X31.497 Y18.961 Z-3.386 F500
G1 X31.519 Y18.870 Z-3.386 F500
G1 X31.555 Y18.783 Z-3.386 F500
G1 X31.605 Y18.702 Z-3.386 F500
G1 X31.666 Y18.631 Z-3.386 F500
G1 X31.750 Y18.546 Z-3.386 F500
G1 X31.897 Y18.389 Z-3.386 F500
G1 X32.031 Y18.223 Z-3.386 F500
G1 X32.153 Y18.047 Z-3.386 F500
G1 X32.263 Y17.862 Z-3.386 F500
G1 X32.359 Y17.671 Z-3.386 F500
G1 X32.441 Y17.473 Z-3.386 F500
G1 X32.509 Y17.270 Z-3.386 F500
G1 X32.562 Y17.062 Z-3.386 F500
G1 X32.600 Y16.851 Z-3.386 F500
G1 X32.623 Y16.638 Z-3.386 F500
G1 X32.630 Y16.424 Z-3.386 F500
G1 X32.630 Y0.085 Z-3.386 F500
G1 X32.638 Y-0.009 Z-3.386 F200
G1 X32.660 Y-0.101 Z-3.386 F200
G1 X32.696 Y-0.188 Z-3.386 F200
G1 X32.745 Y-0.268 Z-3.386 F200
G1 X32.806 Y-0.340 Z-3.386 F200
G1 X32.878 Y-0.401 Z-3.386 F200
G1 X32.958 Y-0.450 Z-3.386 F200
G1 X33.045 Y-0.486 Z-3.386 F200
G1 X33.137 Y-0.508 Z-3.386 F200
G1 X33.230 Y-0.515 Z-3.386 F200
G1 X33.830 Y-0.515 Z-3.386 F200
G1 X33.924 Y-0.515 Z-3.379 F200
G1 X34.016 Y-0.515 Z-3.357 F200
G1 X34.103 Y-0.515 Z-3.321 F200
G1 X34.183 Y-0.515 Z-3.272 F200
G1 X34.255 Y-0.515 Z-3.211 F200
G1 X34.316 Y-0.515 Z-3.139 F200
G1 X34.365 Y-0.515 Z-3.059 F200
G1 X34.401 Y-0.515 Z-2.972 F200
G1 X34.423 Y-0.515 Z-2.880 F200
G1 X34.430 Y-0.515 Z-2.786 F200
G1 X34.430 Y-0.515 Z56.588 F500
G0 X0.000 Y0.000
M5
