;Titan-2-5-Chamfers
;Machine
;vendor: Snapmaker
;model: Desktop CNC
;description: Generic Snapmaker Marlin v20180725
;tool: 1/8" 45 degree chamfer mill

M3 P100
G4 S2
G21
G90
;When using Fusion for Personal Use, the feedrate of rapid
;moves is reduced to match the feedrate of cutting moves,
;which can increase machining time. Unrestricted rapid moves
;are available with a Fusion Subscription.

;Titan-2-5-Chf
G0 X29.863 Y-1.566 Z55.000
G1 X29.863 Y-1.566 Z55.000 F500
G1 X29.863 Y-1.566 Z5.000 F500
G1 X29.863 Y-1.566 Z0.635 F100
G1 X29.863 Y-1.566 Z-0.203 F100
G1 X29.863 Y-1.558 Z-0.273 F500
G1 X29.863 Y-1.535 Z-0.340 F500
G1 X29.863 Y-1.497 Z-0.400 F500
G1 X29.863 Y-1.447 Z-0.451 F500
G1 X29.863 Y-1.387 Z-0.489 F500
G1 X29.863 Y-1.319 Z-0.512 F500
G1 X29.863 Y-1.249 Z-0.520 F500
G1 X29.863 Y-0.931 Z-0.520 F500
G1 X29.855 Y-0.861 Z-0.520 F500
G1 X29.832 Y-0.794 Z-0.520 F500
G1 X29.794 Y-0.733 Z-0.520 F500
G1 X29.744 Y-0.683 Z-0.520 F500
G1 X29.683 Y-0.645 Z-0.520 F500
G1 X29.616 Y-0.622 Z-0.520 F500
G1 X29.546 Y-0.614 Z-0.520 F500
G1 X12.783 Y-0.614 Z-0.520 F500
G1 X12.684 Y-0.607 Z-0.520 F500
G1 X12.587 Y-0.585 Z-0.520 F500
G1 X12.493 Y-0.551 Z-0.520 F500
G1 X12.406 Y-0.503 Z-0.520 F500
G1 X12.326 Y-0.443 Z-0.520 F500
G1 X12.256 Y-0.373 Z-0.520 F500
G1 X12.196 Y-0.293 Z-0.520 F500
G1 X12.148 Y-0.205 Z-0.520 F500
G1 X12.113 Y-0.112 Z-0.520 F500
G1 X12.092 Y-0.015 Z-0.520 F500
G1 X12.085 Y0.085 Z-0.520 F500
G1 X12.085 Y16.424 Z-0.520 F500
G1 X12.092 Y16.523 Z-0.520 F500
G1 X12.113 Y16.620 Z-0.520 F500
G1 X12.148 Y16.714 Z-0.520 F500
G1 X12.196 Y16.801 Z-0.520 F500
G1 X12.256 Y16.881 Z-0.520 F500
G1 X12.326 Y16.952 Z-0.520 F500
G1 X12.406 Y17.011 Z-0.520 F500
G1 X12.493 Y17.059 Z-0.520 F500
G1 X12.587 Y17.094 Z-0.520 F500
G1 X12.684 Y17.115 Z-0.520 F500
G1 X12.783 Y17.122 Z-0.520 F500
G1 X29.546 Y17.122 Z-0.520 F500
G1 X29.645 Y17.115 Z-0.520 F500
G1 X29.742 Y17.094 Z-0.520 F500
G1 X29.836 Y17.059 Z-0.520 F500
G1 X29.923 Y17.011 Z-0.520 F500
G1 X30.003 Y16.952 Z-0.520 F500
G1 X30.074 Y16.881 Z-0.520 F500
G1 X30.133 Y16.801 Z-0.520 F500
G1 X30.181 Y16.714 Z-0.520 F500
G1 X30.216 Y16.620 Z-0.520 F500
G1 X30.237 Y16.523 Z-0.520 F500
G1 X30.244 Y16.424 Z-0.520 F500
G1 X30.244 Y0.085 Z-0.520 F500
G1 X30.237 Y-0.015 Z-0.520 F500
G1 X30.216 Y-0.112 Z-0.520 F500
G1 X30.181 Y-0.205 Z-0.520 F500
G1 X30.133 Y-0.293 Z-0.520 F500
G1 X30.074 Y-0.373 Z-0.520 F500
G1 X30.003 Y-0.443 Z-0.520 F500
G1 X29.923 Y-0.503 Z-0.520 F500
G1 X29.836 Y-0.551 Z-0.520 F500
G1 X29.742 Y-0.585 Z-0.520 F500
G1 X29.645 Y-0.607 Z-0.520 F500
G1 X29.546 Y-0.614 Z-0.520 F500
G1 X29.475 Y-0.622 Z-0.520 F500
G1 X29.408 Y-0.645 Z-0.520 F500
G1 X29.348 Y-0.683 Z-0.520 F500
G1 X29.297 Y-0.733 Z-0.520 F500
G1 X29.260 Y-0.794 Z-0.520 F500
G1 X29.236 Y-0.861 Z-0.520 F500
G1 X29.228 Y-0.931 Z-0.520 F500
G1 X29.228 Y-1.249 Z-0.520 F500
G1 X29.228 Y-1.319 Z-0.512 F500
G1 X29.228 Y-1.387 Z-0.489 F500
G1 X29.228 Y-1.447 Z-0.451 F500
G1 X29.228 Y-1.497 Z-0.400 F500
G1 X29.228 Y-1.535 Z-0.340 F500
G1 X29.228 Y-1.558 Z-0.273 F500
G1 X29.228 Y-1.566 Z-0.203 F500
G1 X29.228 Y-1.566 Z5.000 F500
G1 X43.895 Y8.572 Z5.000 F500
G1 X43.895 Y8.572 Z0.635 F100
G1 X43.895 Y8.572 Z-0.203 F100
G1 X43.887 Y8.572 Z-0.273 F500
G1 X43.864 Y8.572 Z-0.340 F500
G1 X43.826 Y8.572 Z-0.400 F500
G1 X43.776 Y8.572 Z-0.451 F500
G1 X43.716 Y8.572 Z-0.489 F500
G1 X43.648 Y8.572 Z-0.512 F500
G1 X43.578 Y8.572 Z-0.520 F500
G1 X43.260 Y8.572 Z-0.520 F500
G1 X43.190 Y8.564 Z-0.520 F500
G1 X43.123 Y8.540 Z-0.520 F500
G1 X43.062 Y8.502 Z-0.520 F500
G1 X43.012 Y8.452 Z-0.520 F500
G1 X42.974 Y8.392 Z-0.520 F500
G1 X42.951 Y8.325 Z-0.520 F500
G1 X42.943 Y8.254 Z-0.520 F500
G1 X42.943 Y2.555 Z-0.520 F500
G1 X42.936 Y2.409 Z-0.520 F500
G1 X42.917 Y2.264 Z-0.520 F500
G1 X42.886 Y2.122 Z-0.520 F500
G1 X42.842 Y1.983 Z-0.520 F500
G1 X42.786 Y1.848 Z-0.520 F500
G1 X42.719 Y1.719 Z-0.520 F500
G1 X42.641 Y1.596 Z-0.520 F500
G1 X42.552 Y1.480 Z-0.520 F500
G1 X42.453 Y1.373 Z-0.520 F500
G1 X40.957 Y-0.124 Z-0.520 F500
G1 X40.849 Y-0.223 Z-0.520 F500
G1 X40.733 Y-0.311 Z-0.520 F500
G1 X40.610 Y-0.390 Z-0.520 F500
G1 X40.481 Y-0.457 Z-0.520 F500
G1 X40.346 Y-0.513 Z-0.520 F500
G1 X40.207 Y-0.557 Z-0.520 F500
G1 X40.065 Y-0.588 Z-0.520 F500
G1 X39.920 Y-0.607 Z-0.520 F500
G1 X39.774 Y-0.614 Z-0.520 F500
G1 X38.181 Y-0.614 Z-0.520 F500
G1 X38.081 Y-0.607 Z-0.520 F500
G1 X37.984 Y-0.585 Z-0.520 F500
G1 X37.891 Y-0.551 Z-0.520 F500
G1 X37.803 Y-0.503 Z-0.520 F500
G1 X37.723 Y-0.443 Z-0.520 F500
G1 X37.653 Y-0.373 Z-0.520 F500
G1 X37.593 Y-0.293 Z-0.520 F500
G1 X37.545 Y-0.205 Z-0.520 F500
G1 X37.511 Y-0.112 Z-0.520 F500
G1 X37.489 Y-0.015 Z-0.520 F500
G1 X37.482 Y0.085 Z-0.520 F500
G1 X37.482 Y16.424 Z-0.520 F500
G1 X37.489 Y16.523 Z-0.520 F500
G1 X37.511 Y16.620 Z-0.520 F500
G1 X37.545 Y16.714 Z-0.520 F500
G1 X37.593 Y16.801 Z-0.520 F500
G1 X37.653 Y16.881 Z-0.520 F500
G1 X37.723 Y16.952 Z-0.520 F500
G1 X37.803 Y17.011 Z-0.520 F500
G1 X37.891 Y17.059 Z-0.520 F500
G1 X37.984 Y17.094 Z-0.520 F500
G1 X38.081 Y17.115 Z-0.520 F500
G1 X38.181 Y17.122 Z-0.520 F500
G1 X39.774 Y17.122 Z-0.520 F500
G1 X39.920 Y17.116 Z-0.520 F500
G1 X40.065 Y17.097 Z-0.520 F500
G1 X40.207 Y17.065 Z-0.520 F500
G1 X40.346 Y17.021 Z-0.520 F500
G1 X40.481 Y16.965 Z-0.520 F500
G1 X40.610 Y16.898 Z-0.520 F500
G1 X40.733 Y16.820 Z-0.520 F500
G1 X40.849 Y16.731 Z-0.520 F500
G1 X40.957 Y16.632 Z-0.520 F500
G1 X42.453 Y15.136 Z-0.520 F500
G1 X42.552 Y15.028 Z-0.520 F500
G1 X42.640 Y14.913 Z-0.520 F500
G1 X42.719 Y14.790 Z-0.520 F500
G1 X42.786 Y14.660 Z-0.520 F500
G1 X42.842 Y14.525 Z-0.520 F500
G1 X42.886 Y14.386 Z-0.520 F500
G1 X42.917 Y14.244 Z-0.520 F500
G1 X42.936 Y14.099 Z-0.520 F500
G1 X42.943 Y13.954 Z-0.520 F500
G1 X42.943 Y8.254 Z-0.520 F500
G1 X42.951 Y8.184 Z-0.520 F500
G1 X42.974 Y8.116 Z-0.520 F500
G1 X43.012 Y8.056 Z-0.520 F500
G1 X43.062 Y8.006 Z-0.520 F500
G1 X43.123 Y7.968 Z-0.520 F500
G1 X43.190 Y7.945 Z-0.520 F500
G1 X43.260 Y7.937 Z-0.520 F500
G1 X43.578 Y7.937 Z-0.520 F500
G1 X43.648 Y7.937 Z-0.512 F500
G1 X43.716 Y7.937 Z-0.489 F500
G1 X43.776 Y7.937 Z-0.451 F500
G1 X43.826 Y7.937 Z-0.400 F500
G1 X43.864 Y7.937 Z-0.340 F500
G1 X43.887 Y7.937 Z-0.273 F500
G1 X43.895 Y7.937 Z-0.203 F500
G1 X43.895 Y7.937 Z5.000 F500
G1 X-1.566 Y7.937 Z5.000 F500
G1 X-1.566 Y7.937 Z0.635 F100
G1 X-1.566 Y7.937 Z-0.203 F100
G1 X-1.558 Y7.937 Z-0.273 F500
G1 X-1.535 Y7.937 Z-0.340 F500
G1 X-1.497 Y7.937 Z-0.400 F500
G1 X-1.447 Y7.937 Z-0.451 F500
G1 X-1.387 Y7.937 Z-0.489 F500
G1 X-1.319 Y7.937 Z-0.512 F500
G1 X-1.249 Y7.937 Z-0.520 F500
G1 X-0.931 Y7.937 Z-0.520 F500
G1 X-0.861 Y7.945 Z-0.520 F500
G1 X-0.794 Y7.968 Z-0.520 F500
G1 X-0.733 Y8.006 Z-0.520 F500
G1 X-0.683 Y8.056 Z-0.520 F500
G1 X-0.645 Y8.116 Z-0.520 F500
G1 X-0.622 Y8.184 Z-0.520 F500
G1 X-0.614 Y8.254 Z-0.520 F500
G1 X-0.614 Y13.954 Z-0.520 F500
G1 X-0.607 Y14.099 Z-0.520 F500
G1 X-0.588 Y14.244 Z-0.520 F500
G1 X-0.557 Y14.386 Z-0.520 F500
G1 X-0.513 Y14.525 Z-0.520 F500
G1 X-0.457 Y14.660 Z-0.520 F500
G1 X-0.390 Y14.790 Z-0.520 F500
G1 X-0.311 Y14.913 Z-0.520 F500
G1 X-0.223 Y15.028 Z-0.520 F500
G1 X-0.124 Y15.136 Z-0.520 F500
G1 X1.372 Y16.632 Z-0.520 F500
G1 X1.480 Y16.731 Z-0.520 F500
G1 X1.596 Y16.820 Z-0.520 F500
G1 X1.719 Y16.898 Z-0.520 F500
G1 X1.848 Y16.965 Z-0.520 F500
G1 X1.983 Y17.021 Z-0.520 F500
G1 X2.122 Y17.065 Z-0.520 F500
G1 X2.264 Y17.097 Z-0.520 F500
G1 X2.409 Y17.116 Z-0.520 F500
G1 X2.555 Y17.122 Z-0.520 F500
G1 X4.148 Y17.122 Z-0.520 F500
G1 X4.248 Y17.115 Z-0.520 F500
G1 X4.345 Y17.094 Z-0.520 F500
G1 X4.438 Y17.059 Z-0.520 F500
G1 X4.526 Y17.011 Z-0.520 F500
G1 X4.606 Y16.952 Z-0.520 F500
G1 X4.676 Y16.881 Z-0.520 F500
G1 X4.736 Y16.801 Z-0.520 F500
G1 X4.784 Y16.714 Z-0.520 F500
G1 X4.818 Y16.620 Z-0.520 F500
G1 X4.840 Y16.523 Z-0.520 F500
G1 X4.847 Y16.424 Z-0.520 F500
G1 X4.847 Y0.085 Z-0.520 F500
G1 X4.840 Y-0.015 Z-0.520 F500
G1 X4.818 Y-0.112 Z-0.520 F500
G1 X4.784 Y-0.205 Z-0.520 F500
G1 X4.736 Y-0.293 Z-0.520 F500
G1 X4.676 Y-0.373 Z-0.520 F500
G1 X4.606 Y-0.443 Z-0.520 F500
G1 X4.526 Y-0.503 Z-0.520 F500
G1 X4.438 Y-0.551 Z-0.520 F500
G1 X4.345 Y-0.585 Z-0.520 F500
G1 X4.248 Y-0.607 Z-0.520 F500
G1 X4.148 Y-0.614 Z-0.520 F500
G1 X2.555 Y-0.614 Z-0.520 F500
G1 X2.409 Y-0.607 Z-0.520 F500
G1 X2.264 Y-0.588 Z-0.520 F500
G1 X2.122 Y-0.557 Z-0.520 F500
G1 X1.983 Y-0.513 Z-0.520 F500
G1 X1.848 Y-0.457 Z-0.520 F500
G1 X1.719 Y-0.390 Z-0.520 F500
G1 X1.596 Y-0.311 Z-0.520 F500
G1 X1.480 Y-0.223 Z-0.520 F500
G1 X1.373 Y-0.124 Z-0.520 F500
G1 X-0.124 Y1.372 Z-0.520 F500
G1 X-0.223 Y1.480 Z-0.520 F500
G1 X-0.311 Y1.596 Z-0.520 F500
G1 X-0.390 Y1.719 Z-0.520 F500
G1 X-0.457 Y1.848 Z-0.520 F500
G1 X-0.513 Y1.983 Z-0.520 F500
G1 X-0.557 Y2.122 Z-0.520 F500
G1 X-0.588 Y2.264 Z-0.520 F500
G1 X-0.607 Y2.409 Z-0.520 F500
G1 X-0.614 Y2.555 Z-0.520 F500
G1 X-0.614 Y8.254 Z-0.520 F500
G1 X-0.622 Y8.325 Z-0.520 F500
G1 X-0.645 Y8.392 Z-0.520 F500
G1 X-0.683 Y8.452 Z-0.520 F500
G1 X-0.733 Y8.502 Z-0.520 F500
G1 X-0.794 Y8.540 Z-0.520 F500
G1 X-0.861 Y8.564 Z-0.520 F500
G1 X-0.931 Y8.572 Z-0.520 F500
G1 X-1.249 Y8.572 Z-0.520 F500
G1 X-1.319 Y8.572 Z-0.512 F500
G1 X-1.387 Y8.572 Z-0.489 F500
G1 X-1.447 Y8.572 Z-0.451 F500
G1 X-1.497 Y8.572 Z-0.400 F500
G1 X-1.535 Y8.572 Z-0.340 F500
G1 X-1.558 Y8.572 Z-0.273 F500
G1 X-1.566 Y8.572 Z-0.203 F500
G1 X-1.566 Y8.572 Z55.000 F500
G0 X0.000 Y0.000
M5
