;Titan-2-6-Countersinks
;Machine
;vendor: Snapmaker
;model: Desktop CNC
;description: Generic Snapmaker Marlin v20180725
;tool: 1/8" 45 degree chamfer mill

M3 P100
G4 S2
G21
G90

;Drill5
G0 X24.339 Y2.960 Z55.000
G0 X24.339 Y2.960 Z55.000
G0 X24.339 Y2.960 Z55.000
G0 X24.339 Y2.960 Z5.000
G0 X24.339 Y2.960 Z4.687
G1 X24.339 Y2.960 Z-0.975 F100
G0 X24.339 Y2.960 Z5.000
G0 X25.397 Y8.254 Z5.000
G0 X25.397 Y8.254 Z5.000
G0 X25.397 Y8.254 Z4.687
G1 X25.397 Y8.254 Z-0.975 F100
G0 X25.397 Y8.254 Z5.000
G0 X24.339 Y13.545 Z5.000
G0 X24.339 Y13.545 Z5.000
G0 X24.339 Y13.545 Z4.687
G1 X24.339 Y13.545 Z-0.975 F100
G0 X24.339 Y13.545 Z5.000
G0 X17.990 Y13.545 Z5.000
G0 X17.990 Y13.545 Z5.000
G0 X17.990 Y13.545 Z4.687
G1 X17.990 Y13.545 Z-0.975 F100
G0 X17.990 Y13.545 Z5.000
G0 X16.932 Y8.254 Z5.000
G0 X16.932 Y8.254 Z5.000
G0 X16.932 Y8.254 Z4.687
G1 X16.932 Y8.254 Z-0.975 F100
G0 X16.932 Y8.254 Z5.000
G0 X17.990 Y2.963 Z5.000
G0 X17.990 Y2.963 Z5.000
G0 X17.990 Y2.963 Z4.687
G1 X17.990 Y2.963 Z-0.975 F100
G0 X17.990 Y2.963 Z5.000
G0 X17.990 Y2.963 Z55.000
G0 X0.000 Y0.000
M5
