;Titan-2-4-Profile-Tabs
;Machine
;vendor: Snapmaker
;model: Desktop CNC
;description: Generic Snapmaker Marlin v20180725
;tool: 3/32 4 flute endmill

M3 P100
G4 S2
G21
G90
;When using Fusion for Personal Use, the feedrate of rapid
;moves is reduced to match the feedrate of cutting moves,
;which can increase machining time. Unrestricted rapid moves
;are available with a Fusion Subscription.

;Titan-2-4-Profile-Tabs
G0 X44.235 Y8.492 Z55.000
G1 X44.235 Y8.492 Z55.000 F500
G1 X44.235 Y8.492 Z5.000 F500
G1 X44.235 Y8.492 Z0.477 F100
G1 X44.235 Y8.492 Z-0.262 F100
G1 X44.229 Y8.492 Z-0.315 F200
G1 X44.212 Y8.492 Z-0.365 F200
G1 X44.183 Y8.492 Z-0.410 F200
G1 X44.145 Y8.492 Z-0.448 F200
G1 X44.100 Y8.492 Z-0.476 F200
G1 X44.050 Y8.492 Z-0.494 F200
G1 X43.997 Y8.492 Z-0.500 F200
G1 X43.759 Y8.492 Z-0.500 F200
G1 X43.706 Y8.486 Z-0.500 F200
G1 X43.655 Y8.469 Z-0.500 F200
G1 X43.610 Y8.440 Z-0.500 F200
G1 X43.572 Y8.403 Z-0.500 F200
G1 X43.544 Y8.358 Z-0.500 F200
G1 X43.526 Y8.307 Z-0.500 F200
G1 X43.520 Y8.254 Z-0.500 F200
G1 X43.520 Y2.555 Z-0.500 F500
G1 X43.513 Y2.378 Z-0.500 F500
G1 X43.493 Y2.203 Z-0.500 F500
G1 X43.458 Y2.030 Z-0.500 F500
G1 X43.410 Y1.860 Z-0.500 F500
G1 X43.349 Y1.694 Z-0.500 F500
G1 X43.275 Y1.534 Z-0.500 F500
G1 X43.189 Y1.379 Z-0.500 F500
G1 X43.091 Y1.233 Z-0.500 F500
G1 X42.981 Y1.094 Z-0.500 F500
G1 X42.862 Y0.964 Z-0.500 F500
G1 X41.365 Y-0.532 Z-0.500 F500
G1 X41.235 Y-0.652 Z-0.500 F500
G1 X41.097 Y-0.762 Z-0.500 F500
G1 X40.950 Y-0.860 Z-0.500 F500
G1 X40.796 Y-0.946 Z-0.500 F500
G1 X40.635 Y-1.020 Z-0.500 F500
G1 X40.469 Y-1.081 Z-0.500 F500
G1 X40.299 Y-1.129 Z-0.500 F500
G1 X40.126 Y-1.164 Z-0.500 F500
G1 X39.951 Y-1.184 Z-0.500 F500
G1 X39.774 Y-1.191 Z-0.500 F500
G1 X2.555 Y-1.191 Z-0.500 F500
G1 X2.378 Y-1.184 Z-0.500 F500
G1 X2.203 Y-1.164 Z-0.500 F500
G1 X2.030 Y-1.129 Z-0.500 F500
G1 X1.860 Y-1.081 Z-0.500 F500
G1 X1.694 Y-1.020 Z-0.500 F500
G1 X1.534 Y-0.946 Z-0.500 F500
G1 X1.379 Y-0.860 Z-0.500 F500
G1 X1.233 Y-0.762 Z-0.500 F500
G1 X1.094 Y-0.652 Z-0.500 F500
G1 X0.964 Y-0.532 Z-0.500 F500
G1 X-0.532 Y0.964 Z-0.500 F500
G1 X-0.652 Y1.094 Z-0.500 F500
G1 X-0.762 Y1.233 Z-0.500 F500
G1 X-0.860 Y1.379 Z-0.500 F500
G1 X-0.946 Y1.534 Z-0.500 F500
G1 X-1.020 Y1.694 Z-0.500 F500
G1 X-1.081 Y1.860 Z-0.500 F500
G1 X-1.129 Y2.030 Z-0.500 F500
G1 X-1.164 Y2.203 Z-0.500 F500
G1 X-1.184 Y2.378 Z-0.500 F500
G1 X-1.191 Y2.555 Z-0.500 F500
G1 X-1.191 Y13.954 Z-0.500 F500
G1 X-1.184 Y14.130 Z-0.500 F500
G1 X-1.164 Y14.305 Z-0.500 F500
G1 X-1.129 Y14.479 Z-0.500 F500
G1 X-1.081 Y14.649 Z-0.500 F500
G1 X-1.020 Y14.814 Z-0.500 F500
G1 X-0.946 Y14.975 Z-0.500 F500
G1 X-0.860 Y15.129 Z-0.500 F500
G1 X-0.762 Y15.276 Z-0.500 F500
G1 X-0.652 Y15.414 Z-0.500 F500
G1 X-0.532 Y15.544 Z-0.500 F500
G1 X0.964 Y17.041 Z-0.500 F500
G1 X1.094 Y17.161 Z-0.500 F500
G1 X1.233 Y17.270 Z-0.500 F500
G1 X1.379 Y17.368 Z-0.500 F500
G1 X1.534 Y17.454 Z-0.500 F500
G1 X1.694 Y17.528 Z-0.500 F500
G1 X1.860 Y17.589 Z-0.500 F500
G1 X2.030 Y17.637 Z-0.500 F500
G1 X2.203 Y17.672 Z-0.500 F500
G1 X2.378 Y17.693 Z-0.500 F500
G1 X2.555 Y17.700 Z-0.500 F500
G1 X39.774 Y17.700 Z-0.500 F500
G1 X39.951 Y17.693 Z-0.500 F500
G1 X40.126 Y17.672 Z-0.500 F500
G1 X40.299 Y17.637 Z-0.500 F500
G1 X40.469 Y17.589 Z-0.500 F500
G1 X40.635 Y17.528 Z-0.500 F500
G1 X40.796 Y17.454 Z-0.500 F500
G1 X40.950 Y17.368 Z-0.500 F500
G1 X41.096 Y17.270 Z-0.500 F500
G1 X41.235 Y17.161 Z-0.500 F500
G1 X41.365 Y17.041 Z-0.500 F500
G1 X42.862 Y15.544 Z-0.500 F500
G1 X42.981 Y15.414 Z-0.500 F500
G1 X43.091 Y15.276 Z-0.500 F500
G1 X43.189 Y15.129 Z-0.500 F500
G1 X43.275 Y14.975 Z-0.500 F500
G1 X43.349 Y14.814 Z-0.500 F500
G1 X43.410 Y14.649 Z-0.500 F500
G1 X43.458 Y14.479 Z-0.500 F500
G1 X43.493 Y14.305 Z-0.500 F500
G1 X43.513 Y14.130 Z-0.500 F500
G1 X43.520 Y13.954 Z-0.500 F500
G1 X43.520 Y8.254 Z-0.500 F500
G1 X43.526 Y8.201 Z-0.500 F200
G1 X43.544 Y8.151 Z-0.500 F200
G1 X43.572 Y8.106 Z-0.500 F200
G1 X43.610 Y8.068 Z-0.500 F200
G1 X43.655 Y8.039 Z-0.500 F200
G1 X43.706 Y8.022 Z-0.500 F200
G1 X43.759 Y8.016 Z-0.500 F200
G1 X43.997 Y8.016 Z-0.500 F200
G1 X44.050 Y8.016 Z-0.494 F200
G1 X44.100 Y8.016 Z-0.476 F200
G1 X44.145 Y8.016 Z-0.448 F200
G1 X44.183 Y8.016 Z-0.410 F200
G1 X44.212 Y8.016 Z-0.365 F200
G1 X44.229 Y8.016 Z-0.315 F200
G1 X44.235 Y8.016 Z-0.262 F200
G1 X44.235 Y8.016 Z5.000 F500
G1 X44.235 Y8.492 Z5.000 F500
G1 X44.235 Y8.492 Z-0.023 F100
G1 X44.235 Y8.492 Z-0.762 F100
G1 X44.229 Y8.492 Z-0.815 F200
G1 X44.212 Y8.492 Z-0.865 F200
G1 X44.183 Y8.492 Z-0.910 F200
G1 X44.145 Y8.492 Z-0.948 F200
G1 X44.100 Y8.492 Z-0.976 F200
G1 X44.050 Y8.492 Z-0.994 F200
G1 X43.997 Y8.492 Z-1.000 F200
G1 X43.759 Y8.492 Z-1.000 F200
G1 X43.706 Y8.486 Z-1.000 F200
G1 X43.655 Y8.469 Z-1.000 F200
G1 X43.610 Y8.440 Z-1.000 F200
G1 X43.572 Y8.403 Z-1.000 F200
G1 X43.544 Y8.358 Z-1.000 F200
G1 X43.526 Y8.307 Z-1.000 F200
G1 X43.520 Y8.254 Z-1.000 F200
G1 X43.520 Y2.555 Z-1.000 F500
G1 X43.513 Y2.378 Z-1.000 F500
G1 X43.493 Y2.203 Z-1.000 F500
G1 X43.458 Y2.030 Z-1.000 F500
G1 X43.410 Y1.860 Z-1.000 F500
G1 X43.349 Y1.694 Z-1.000 F500
G1 X43.275 Y1.534 Z-1.000 F500
G1 X43.189 Y1.379 Z-1.000 F500
G1 X43.091 Y1.233 Z-1.000 F500
G1 X42.981 Y1.094 Z-1.000 F500
G1 X42.862 Y0.964 Z-1.000 F500
G1 X41.365 Y-0.532 Z-1.000 F500
G1 X41.235 Y-0.652 Z-1.000 F500
G1 X41.097 Y-0.762 Z-1.000 F500
G1 X40.950 Y-0.860 Z-1.000 F500
G1 X40.796 Y-0.946 Z-1.000 F500
G1 X40.635 Y-1.020 Z-1.000 F500
G1 X40.469 Y-1.081 Z-1.000 F500
G1 X40.299 Y-1.129 Z-1.000 F500
G1 X40.126 Y-1.164 Z-1.000 F500
G1 X39.951 Y-1.184 Z-1.000 F500
G1 X39.774 Y-1.191 Z-1.000 F500
G1 X2.555 Y-1.191 Z-1.000 F500
G1 X2.378 Y-1.184 Z-1.000 F500
G1 X2.203 Y-1.164 Z-1.000 F500
G1 X2.030 Y-1.129 Z-1.000 F500
G1 X1.860 Y-1.081 Z-1.000 F500
G1 X1.694 Y-1.020 Z-1.000 F500
G1 X1.534 Y-0.946 Z-1.000 F500
G1 X1.379 Y-0.860 Z-1.000 F500
G1 X1.233 Y-0.762 Z-1.000 F500
G1 X1.094 Y-0.652 Z-1.000 F500
G1 X0.964 Y-0.532 Z-1.000 F500
G1 X-0.532 Y0.964 Z-1.000 F500
G1 X-0.652 Y1.094 Z-1.000 F500
G1 X-0.762 Y1.233 Z-1.000 F500
G1 X-0.860 Y1.379 Z-1.000 F500
G1 X-0.946 Y1.534 Z-1.000 F500
G1 X-1.020 Y1.694 Z-1.000 F500
G1 X-1.081 Y1.860 Z-1.000 F500
G1 X-1.129 Y2.030 Z-1.000 F500
G1 X-1.164 Y2.203 Z-1.000 F500
G1 X-1.184 Y2.378 Z-1.000 F500
G1 X-1.191 Y2.555 Z-1.000 F500
G1 X-1.191 Y13.954 Z-1.000 F500
G1 X-1.184 Y14.130 Z-1.000 F500
G1 X-1.164 Y14.305 Z-1.000 F500
G1 X-1.129 Y14.479 Z-1.000 F500
G1 X-1.081 Y14.649 Z-1.000 F500
G1 X-1.020 Y14.814 Z-1.000 F500
G1 X-0.946 Y14.975 Z-1.000 F500
G1 X-0.860 Y15.129 Z-1.000 F500
G1 X-0.762 Y15.276 Z-1.000 F500
G1 X-0.652 Y15.414 Z-1.000 F500
G1 X-0.532 Y15.544 Z-1.000 F500
G1 X0.964 Y17.041 Z-1.000 F500
G1 X1.094 Y17.161 Z-1.000 F500
G1 X1.233 Y17.270 Z-1.000 F500
G1 X1.379 Y17.368 Z-1.000 F500
G1 X1.534 Y17.454 Z-1.000 F500
G1 X1.694 Y17.528 Z-1.000 F500
G1 X1.860 Y17.589 Z-1.000 F500
G1 X2.030 Y17.637 Z-1.000 F500
G1 X2.203 Y17.672 Z-1.000 F500
G1 X2.378 Y17.693 Z-1.000 F500
G1 X2.555 Y17.700 Z-1.000 F500
G1 X39.774 Y17.700 Z-1.000 F500
G1 X39.951 Y17.693 Z-1.000 F500
G1 X40.126 Y17.672 Z-1.000 F500
G1 X40.299 Y17.637 Z-1.000 F500
G1 X40.469 Y17.589 Z-1.000 F500
G1 X40.635 Y17.528 Z-1.000 F500
G1 X40.796 Y17.454 Z-1.000 F500
G1 X40.950 Y17.368 Z-1.000 F500
G1 X41.096 Y17.270 Z-1.000 F500
G1 X41.235 Y17.161 Z-1.000 F500
G1 X41.365 Y17.041 Z-1.000 F500
G1 X42.862 Y15.544 Z-1.000 F500
G1 X42.981 Y15.414 Z-1.000 F500
G1 X43.091 Y15.276 Z-1.000 F500
G1 X43.189 Y15.129 Z-1.000 F500
G1 X43.275 Y14.975 Z-1.000 F500
G1 X43.349 Y14.814 Z-1.000 F500
G1 X43.410 Y14.649 Z-1.000 F500
G1 X43.458 Y14.479 Z-1.000 F500
G1 X43.493 Y14.305 Z-1.000 F500
G1 X43.513 Y14.130 Z-1.000 F500
G1 X43.520 Y13.954 Z-1.000 F500
G1 X43.520 Y8.254 Z-1.000 F500
G1 X43.526 Y8.201 Z-1.000 F200
G1 X43.544 Y8.151 Z-1.000 F200
G1 X43.572 Y8.106 Z-1.000 F200
G1 X43.610 Y8.068 Z-1.000 F200
G1 X43.655 Y8.039 Z-1.000 F200
G1 X43.706 Y8.022 Z-1.000 F200
G1 X43.759 Y8.016 Z-1.000 F200
G1 X43.997 Y8.016 Z-1.000 F200
G1 X44.050 Y8.016 Z-0.994 F200
G1 X44.100 Y8.016 Z-0.976 F200
G1 X44.145 Y8.016 Z-0.948 F200
G1 X44.183 Y8.016 Z-0.910 F200
G1 X44.212 Y8.016 Z-0.865 F200
G1 X44.229 Y8.016 Z-0.815 F200
G1 X44.235 Y8.016 Z-0.762 F200
G1 X44.235 Y8.016 Z5.000 F500
G1 X44.235 Y8.492 Z5.000 F500
G1 X44.235 Y8.492 Z-0.523 F100
G1 X44.235 Y8.492 Z-1.262 F100
G1 X44.229 Y8.492 Z-1.315 F200
G1 X44.212 Y8.492 Z-1.365 F200
G1 X44.183 Y8.492 Z-1.410 F200
G1 X44.145 Y8.492 Z-1.448 F200
G1 X44.100 Y8.492 Z-1.476 F200
G1 X44.050 Y8.492 Z-1.494 F200
G1 X43.997 Y8.492 Z-1.500 F200
G1 X43.759 Y8.492 Z-1.500 F200
G1 X43.706 Y8.486 Z-1.500 F200
G1 X43.655 Y8.469 Z-1.500 F200
G1 X43.610 Y8.440 Z-1.500 F200
G1 X43.572 Y8.403 Z-1.500 F200
G1 X43.544 Y8.358 Z-1.500 F200
G1 X43.526 Y8.307 Z-1.500 F200
G1 X43.520 Y8.254 Z-1.500 F200
G1 X43.520 Y2.555 Z-1.500 F500
G1 X43.513 Y2.378 Z-1.500 F500
G1 X43.493 Y2.203 Z-1.500 F500
G1 X43.458 Y2.030 Z-1.500 F500
G1 X43.410 Y1.860 Z-1.500 F500
G1 X43.349 Y1.694 Z-1.500 F500
G1 X43.275 Y1.534 Z-1.500 F500
G1 X43.189 Y1.379 Z-1.500 F500
G1 X43.091 Y1.233 Z-1.500 F500
G1 X42.981 Y1.094 Z-1.500 F500
G1 X42.862 Y0.964 Z-1.500 F500
G1 X41.365 Y-0.532 Z-1.500 F500
G1 X41.235 Y-0.652 Z-1.500 F500
G1 X41.097 Y-0.762 Z-1.500 F500
G1 X40.950 Y-0.860 Z-1.500 F500
G1 X40.796 Y-0.946 Z-1.500 F500
G1 X40.635 Y-1.020 Z-1.500 F500
G1 X40.469 Y-1.081 Z-1.500 F500
G1 X40.299 Y-1.129 Z-1.500 F500
G1 X40.126 Y-1.164 Z-1.500 F500
G1 X39.951 Y-1.184 Z-1.500 F500
G1 X39.774 Y-1.191 Z-1.500 F500
G1 X2.555 Y-1.191 Z-1.500 F500
G1 X2.378 Y-1.184 Z-1.500 F500
G1 X2.203 Y-1.164 Z-1.500 F500
G1 X2.030 Y-1.129 Z-1.500 F500
G1 X1.860 Y-1.081 Z-1.500 F500
G1 X1.694 Y-1.020 Z-1.500 F500
G1 X1.534 Y-0.946 Z-1.500 F500
G1 X1.379 Y-0.860 Z-1.500 F500
G1 X1.233 Y-0.762 Z-1.500 F500
G1 X1.094 Y-0.652 Z-1.500 F500
G1 X0.964 Y-0.532 Z-1.500 F500
G1 X-0.532 Y0.964 Z-1.500 F500
G1 X-0.652 Y1.094 Z-1.500 F500
G1 X-0.762 Y1.233 Z-1.500 F500
G1 X-0.860 Y1.379 Z-1.500 F500
G1 X-0.946 Y1.534 Z-1.500 F500
G1 X-1.020 Y1.694 Z-1.500 F500
G1 X-1.081 Y1.860 Z-1.500 F500
G1 X-1.129 Y2.030 Z-1.500 F500
G1 X-1.164 Y2.203 Z-1.500 F500
G1 X-1.184 Y2.378 Z-1.500 F500
G1 X-1.191 Y2.555 Z-1.500 F500
G1 X-1.191 Y13.954 Z-1.500 F500
G1 X-1.184 Y14.130 Z-1.500 F500
G1 X-1.164 Y14.305 Z-1.500 F500
G1 X-1.129 Y14.479 Z-1.500 F500
G1 X-1.081 Y14.649 Z-1.500 F500
G1 X-1.020 Y14.814 Z-1.500 F500
G1 X-0.946 Y14.975 Z-1.500 F500
G1 X-0.860 Y15.129 Z-1.500 F500
G1 X-0.762 Y15.276 Z-1.500 F500
G1 X-0.652 Y15.414 Z-1.500 F500
G1 X-0.532 Y15.544 Z-1.500 F500
G1 X0.964 Y17.041 Z-1.500 F500
G1 X1.094 Y17.161 Z-1.500 F500
G1 X1.233 Y17.270 Z-1.500 F500
G1 X1.379 Y17.368 Z-1.500 F500
G1 X1.534 Y17.454 Z-1.500 F500
G1 X1.694 Y17.528 Z-1.500 F500
G1 X1.860 Y17.589 Z-1.500 F500
G1 X2.030 Y17.637 Z-1.500 F500
G1 X2.203 Y17.672 Z-1.500 F500
G1 X2.378 Y17.693 Z-1.500 F500
G1 X2.555 Y17.700 Z-1.500 F500
G1 X39.774 Y17.700 Z-1.500 F500
G1 X39.951 Y17.693 Z-1.500 F500
G1 X40.126 Y17.672 Z-1.500 F500
G1 X40.299 Y17.637 Z-1.500 F500
G1 X40.469 Y17.589 Z-1.500 F500
G1 X40.635 Y17.528 Z-1.500 F500
G1 X40.796 Y17.454 Z-1.500 F500
G1 X40.950 Y17.368 Z-1.500 F500
G1 X41.096 Y17.270 Z-1.500 F500
G1 X41.235 Y17.161 Z-1.500 F500
G1 X41.365 Y17.041 Z-1.500 F500
G1 X42.862 Y15.544 Z-1.500 F500
G1 X42.981 Y15.414 Z-1.500 F500
G1 X43.091 Y15.276 Z-1.500 F500
G1 X43.189 Y15.129 Z-1.500 F500
G1 X43.275 Y14.975 Z-1.500 F500
G1 X43.349 Y14.814 Z-1.500 F500
G1 X43.410 Y14.649 Z-1.500 F500
G1 X43.458 Y14.479 Z-1.500 F500
G1 X43.493 Y14.305 Z-1.500 F500
G1 X43.513 Y14.130 Z-1.500 F500
G1 X43.520 Y13.954 Z-1.500 F500
G1 X43.520 Y8.254 Z-1.500 F500
G1 X43.526 Y8.201 Z-1.500 F200
G1 X43.544 Y8.151 Z-1.500 F200
G1 X43.572 Y8.106 Z-1.500 F200
G1 X43.610 Y8.068 Z-1.500 F200
G1 X43.655 Y8.039 Z-1.500 F200
G1 X43.706 Y8.022 Z-1.500 F200
G1 X43.759 Y8.016 Z-1.500 F200
G1 X43.997 Y8.016 Z-1.500 F200
G1 X44.050 Y8.016 Z-1.494 F200
G1 X44.100 Y8.016 Z-1.476 F200
G1 X44.145 Y8.016 Z-1.448 F200
G1 X44.183 Y8.016 Z-1.410 F200
G1 X44.212 Y8.016 Z-1.365 F200
G1 X44.229 Y8.016 Z-1.315 F200
G1 X44.235 Y8.016 Z-1.262 F200
G1 X44.235 Y8.016 Z5.000 F500
G1 X44.235 Y8.492 Z5.000 F500
G1 X44.235 Y8.492 Z-1.023 F100
G1 X44.235 Y8.492 Z-1.762 F100
G1 X44.229 Y8.492 Z-1.815 F200
G1 X44.212 Y8.492 Z-1.865 F200
G1 X44.183 Y8.492 Z-1.910 F200
G1 X44.145 Y8.492 Z-1.948 F200
G1 X44.100 Y8.492 Z-1.976 F200
G1 X44.050 Y8.492 Z-1.994 F200
G1 X43.997 Y8.492 Z-2.000 F200
G1 X43.759 Y8.492 Z-2.000 F200
G1 X43.706 Y8.486 Z-2.000 F200
G1 X43.655 Y8.469 Z-2.000 F200
G1 X43.610 Y8.440 Z-2.000 F200
G1 X43.572 Y8.403 Z-2.000 F200
G1 X43.544 Y8.358 Z-2.000 F200
G1 X43.526 Y8.307 Z-2.000 F200
G1 X43.520 Y8.254 Z-2.000 F200
G1 X43.520 Y2.555 Z-2.000 F500
G1 X43.513 Y2.378 Z-2.000 F500
G1 X43.493 Y2.203 Z-2.000 F500
G1 X43.458 Y2.030 Z-2.000 F500
G1 X43.410 Y1.860 Z-2.000 F500
G1 X43.349 Y1.694 Z-2.000 F500
G1 X43.275 Y1.534 Z-2.000 F500
G1 X43.189 Y1.379 Z-2.000 F500
G1 X43.091 Y1.233 Z-2.000 F500
G1 X42.981 Y1.094 Z-2.000 F500
G1 X42.862 Y0.964 Z-2.000 F500
G1 X41.365 Y-0.532 Z-2.000 F500
G1 X41.235 Y-0.652 Z-2.000 F500
G1 X41.097 Y-0.762 Z-2.000 F500
G1 X40.950 Y-0.860 Z-2.000 F500
G1 X40.796 Y-0.946 Z-2.000 F500
G1 X40.635 Y-1.020 Z-2.000 F500
G1 X40.469 Y-1.081 Z-2.000 F500
G1 X40.299 Y-1.129 Z-2.000 F500
G1 X40.126 Y-1.164 Z-2.000 F500
G1 X39.951 Y-1.184 Z-2.000 F500
G1 X39.774 Y-1.191 Z-2.000 F500
G1 X2.555 Y-1.191 Z-2.000 F500
G1 X2.378 Y-1.184 Z-2.000 F500
G1 X2.203 Y-1.164 Z-2.000 F500
G1 X2.030 Y-1.129 Z-2.000 F500
G1 X1.860 Y-1.081 Z-2.000 F500
G1 X1.694 Y-1.020 Z-2.000 F500
G1 X1.534 Y-0.946 Z-2.000 F500
G1 X1.379 Y-0.860 Z-2.000 F500
G1 X1.233 Y-0.762 Z-2.000 F500
G1 X1.094 Y-0.652 Z-2.000 F500
G1 X0.964 Y-0.532 Z-2.000 F500
G1 X-0.532 Y0.964 Z-2.000 F500
G1 X-0.652 Y1.094 Z-2.000 F500
G1 X-0.762 Y1.233 Z-2.000 F500
G1 X-0.860 Y1.379 Z-2.000 F500
G1 X-0.946 Y1.534 Z-2.000 F500
G1 X-1.020 Y1.694 Z-2.000 F500
G1 X-1.081 Y1.860 Z-2.000 F500
G1 X-1.129 Y2.030 Z-2.000 F500
G1 X-1.164 Y2.203 Z-2.000 F500
G1 X-1.184 Y2.378 Z-2.000 F500
G1 X-1.191 Y2.555 Z-2.000 F500
G1 X-1.191 Y13.954 Z-2.000 F500
G1 X-1.184 Y14.130 Z-2.000 F500
G1 X-1.164 Y14.305 Z-2.000 F500
G1 X-1.129 Y14.479 Z-2.000 F500
G1 X-1.081 Y14.649 Z-2.000 F500
G1 X-1.020 Y14.814 Z-2.000 F500
G1 X-0.946 Y14.975 Z-2.000 F500
G1 X-0.860 Y15.129 Z-2.000 F500
G1 X-0.762 Y15.276 Z-2.000 F500
G1 X-0.652 Y15.414 Z-2.000 F500
G1 X-0.532 Y15.544 Z-2.000 F500
G1 X0.964 Y17.041 Z-2.000 F500
G1 X1.094 Y17.161 Z-2.000 F500
G1 X1.233 Y17.270 Z-2.000 F500
G1 X1.379 Y17.368 Z-2.000 F500
G1 X1.534 Y17.454 Z-2.000 F500
G1 X1.694 Y17.528 Z-2.000 F500
G1 X1.860 Y17.589 Z-2.000 F500
G1 X2.030 Y17.637 Z-2.000 F500
G1 X2.203 Y17.672 Z-2.000 F500
G1 X2.378 Y17.693 Z-2.000 F500
G1 X2.555 Y17.700 Z-2.000 F500
G1 X39.774 Y17.700 Z-2.000 F500
G1 X39.951 Y17.693 Z-2.000 F500
G1 X40.126 Y17.672 Z-2.000 F500
G1 X40.299 Y17.637 Z-2.000 F500
G1 X40.469 Y17.589 Z-2.000 F500
G1 X40.635 Y17.528 Z-2.000 F500
G1 X40.796 Y17.454 Z-2.000 F500
G1 X40.950 Y17.368 Z-2.000 F500
G1 X41.096 Y17.270 Z-2.000 F500
G1 X41.235 Y17.161 Z-2.000 F500
G1 X41.365 Y17.041 Z-2.000 F500
G1 X42.862 Y15.544 Z-2.000 F500
G1 X42.981 Y15.414 Z-2.000 F500
G1 X43.091 Y15.276 Z-2.000 F500
G1 X43.189 Y15.129 Z-2.000 F500
G1 X43.275 Y14.975 Z-2.000 F500
G1 X43.349 Y14.814 Z-2.000 F500
G1 X43.410 Y14.649 Z-2.000 F500
G1 X43.458 Y14.479 Z-2.000 F500
G1 X43.493 Y14.305 Z-2.000 F500
G1 X43.513 Y14.130 Z-2.000 F500
G1 X43.520 Y13.954 Z-2.000 F500
G1 X43.520 Y8.254 Z-2.000 F500
G1 X43.526 Y8.201 Z-2.000 F200
G1 X43.544 Y8.151 Z-2.000 F200
G1 X43.572 Y8.106 Z-2.000 F200
G1 X43.610 Y8.068 Z-2.000 F200
G1 X43.655 Y8.039 Z-2.000 F200
G1 X43.706 Y8.022 Z-2.000 F200
G1 X43.759 Y8.016 Z-2.000 F200
G1 X43.997 Y8.016 Z-2.000 F200
G1 X44.050 Y8.016 Z-1.994 F200
G1 X44.100 Y8.016 Z-1.976 F200
G1 X44.145 Y8.016 Z-1.948 F200
G1 X44.183 Y8.016 Z-1.910 F200
G1 X44.212 Y8.016 Z-1.865 F200
G1 X44.229 Y8.016 Z-1.815 F200
G1 X44.235 Y8.016 Z-1.762 F200
G1 X44.235 Y8.016 Z5.000 F500
G1 X44.235 Y8.492 Z5.000 F500
G1 X44.235 Y8.492 Z-1.523 F100
G1 X44.235 Y8.492 Z-2.262 F100
G1 X44.229 Y8.492 Z-2.315 F200
G1 X44.212 Y8.492 Z-2.365 F200
G1 X44.183 Y8.492 Z-2.410 F200
G1 X44.145 Y8.492 Z-2.448 F200
G1 X44.100 Y8.492 Z-2.476 F200
G1 X44.050 Y8.492 Z-2.494 F200
G1 X43.997 Y8.492 Z-2.500 F200
G1 X43.759 Y8.492 Z-2.500 F200
G1 X43.706 Y8.486 Z-2.500 F200
G1 X43.655 Y8.469 Z-2.500 F200
G1 X43.610 Y8.440 Z-2.500 F200
G1 X43.572 Y8.403 Z-2.500 F200
G1 X43.544 Y8.358 Z-2.500 F200
G1 X43.526 Y8.307 Z-2.500 F200
G1 X43.520 Y8.254 Z-2.500 F200
G1 X43.520 Y2.555 Z-2.500 F500
G1 X43.513 Y2.378 Z-2.500 F500
G1 X43.493 Y2.203 Z-2.500 F500
G1 X43.458 Y2.030 Z-2.500 F500
G1 X43.410 Y1.860 Z-2.500 F500
G1 X43.349 Y1.694 Z-2.500 F500
G1 X43.275 Y1.534 Z-2.500 F500
G1 X43.189 Y1.379 Z-2.500 F500
G1 X43.091 Y1.233 Z-2.500 F500
G1 X42.981 Y1.094 Z-2.500 F500
G1 X42.862 Y0.964 Z-2.500 F500
G1 X41.365 Y-0.532 Z-2.500 F500
G1 X41.235 Y-0.652 Z-2.500 F500
G1 X41.097 Y-0.762 Z-2.500 F500
G1 X40.950 Y-0.860 Z-2.500 F500
G1 X40.796 Y-0.946 Z-2.500 F500
G1 X40.635 Y-1.020 Z-2.500 F500
G1 X40.469 Y-1.081 Z-2.500 F500
G1 X40.299 Y-1.129 Z-2.500 F500
G1 X40.126 Y-1.164 Z-2.500 F500
G1 X39.951 Y-1.184 Z-2.500 F500
G1 X39.774 Y-1.191 Z-2.500 F500
G1 X2.555 Y-1.191 Z-2.500 F500
G1 X2.378 Y-1.184 Z-2.500 F500
G1 X2.203 Y-1.164 Z-2.500 F500
G1 X2.030 Y-1.129 Z-2.500 F500
G1 X1.860 Y-1.081 Z-2.500 F500
G1 X1.694 Y-1.020 Z-2.500 F500
G1 X1.534 Y-0.946 Z-2.500 F500
G1 X1.379 Y-0.860 Z-2.500 F500
G1 X1.233 Y-0.762 Z-2.500 F500
G1 X1.094 Y-0.652 Z-2.500 F500
G1 X0.964 Y-0.532 Z-2.500 F500
G1 X-0.532 Y0.964 Z-2.500 F500
G1 X-0.652 Y1.094 Z-2.500 F500
G1 X-0.762 Y1.233 Z-2.500 F500
G1 X-0.860 Y1.379 Z-2.500 F500
G1 X-0.946 Y1.534 Z-2.500 F500
G1 X-1.020 Y1.694 Z-2.500 F500
G1 X-1.081 Y1.860 Z-2.500 F500
G1 X-1.129 Y2.030 Z-2.500 F500
G1 X-1.164 Y2.203 Z-2.500 F500
G1 X-1.184 Y2.378 Z-2.500 F500
G1 X-1.191 Y2.555 Z-2.500 F500
G1 X-1.191 Y13.954 Z-2.500 F500
G1 X-1.184 Y14.130 Z-2.500 F500
G1 X-1.164 Y14.305 Z-2.500 F500
G1 X-1.129 Y14.479 Z-2.500 F500
G1 X-1.081 Y14.649 Z-2.500 F500
G1 X-1.020 Y14.814 Z-2.500 F500
G1 X-0.946 Y14.975 Z-2.500 F500
G1 X-0.860 Y15.129 Z-2.500 F500
G1 X-0.762 Y15.276 Z-2.500 F500
G1 X-0.652 Y15.414 Z-2.500 F500
G1 X-0.532 Y15.544 Z-2.500 F500
G1 X0.964 Y17.041 Z-2.500 F500
G1 X1.094 Y17.161 Z-2.500 F500
G1 X1.233 Y17.270 Z-2.500 F500
G1 X1.379 Y17.368 Z-2.500 F500
G1 X1.534 Y17.454 Z-2.500 F500
G1 X1.694 Y17.528 Z-2.500 F500
G1 X1.860 Y17.589 Z-2.500 F500
G1 X2.030 Y17.637 Z-2.500 F500
G1 X2.203 Y17.672 Z-2.500 F500
G1 X2.378 Y17.693 Z-2.500 F500
G1 X2.555 Y17.700 Z-2.500 F500
G1 X39.774 Y17.700 Z-2.500 F500
G1 X39.951 Y17.693 Z-2.500 F500
G1 X40.126 Y17.672 Z-2.500 F500
G1 X40.299 Y17.637 Z-2.500 F500
G1 X40.469 Y17.589 Z-2.500 F500
G1 X40.635 Y17.528 Z-2.500 F500
G1 X40.796 Y17.454 Z-2.500 F500
G1 X40.950 Y17.368 Z-2.500 F500
G1 X41.096 Y17.270 Z-2.500 F500
G1 X41.235 Y17.161 Z-2.500 F500
G1 X41.365 Y17.041 Z-2.500 F500
G1 X42.862 Y15.544 Z-2.500 F500
G1 X42.981 Y15.414 Z-2.500 F500
G1 X43.091 Y15.276 Z-2.500 F500
G1 X43.189 Y15.129 Z-2.500 F500
G1 X43.275 Y14.975 Z-2.500 F500
G1 X43.349 Y14.814 Z-2.500 F500
G1 X43.410 Y14.649 Z-2.500 F500
G1 X43.458 Y14.479 Z-2.500 F500
G1 X43.493 Y14.305 Z-2.500 F500
G1 X43.513 Y14.130 Z-2.500 F500
G1 X43.520 Y13.954 Z-2.500 F500
G1 X43.520 Y8.254 Z-2.500 F500
G1 X43.526 Y8.201 Z-2.500 F200
G1 X43.544 Y8.151 Z-2.500 F200
G1 X43.572 Y8.106 Z-2.500 F200
G1 X43.610 Y8.068 Z-2.500 F200
G1 X43.655 Y8.039 Z-2.500 F200
G1 X43.706 Y8.022 Z-2.500 F200
G1 X43.759 Y8.016 Z-2.500 F200
G1 X43.997 Y8.016 Z-2.500 F200
G1 X44.050 Y8.016 Z-2.494 F200
G1 X44.100 Y8.016 Z-2.476 F200
G1 X44.145 Y8.016 Z-2.448 F200
G1 X44.183 Y8.016 Z-2.410 F200
G1 X44.212 Y8.016 Z-2.365 F200
G1 X44.229 Y8.016 Z-2.315 F200
G1 X44.235 Y8.016 Z-2.262 F200
G1 X44.235 Y8.016 Z5.000 F500
G1 X44.235 Y8.492 Z5.000 F500
G1 X44.235 Y8.492 Z-2.023 F100
G1 X44.235 Y8.492 Z-2.762 F100
G1 X44.229 Y8.492 Z-2.815 F200
G1 X44.212 Y8.492 Z-2.865 F200
G1 X44.183 Y8.492 Z-2.910 F200
G1 X44.145 Y8.492 Z-2.948 F200
G1 X44.100 Y8.492 Z-2.976 F200
G1 X44.050 Y8.492 Z-2.994 F200
G1 X43.997 Y8.492 Z-3.000 F200
G1 X43.759 Y8.492 Z-3.000 F200
G1 X43.706 Y8.486 Z-3.000 F200
G1 X43.655 Y8.469 Z-3.000 F200
G1 X43.610 Y8.440 Z-3.000 F200
G1 X43.572 Y8.403 Z-3.000 F200
G1 X43.544 Y8.358 Z-3.000 F200
G1 X43.526 Y8.307 Z-3.000 F200
G1 X43.520 Y8.254 Z-3.000 F200
G1 X43.520 Y2.555 Z-3.000 F500
G1 X43.513 Y2.378 Z-3.000 F500
G1 X43.493 Y2.203 Z-3.000 F500
G1 X43.458 Y2.030 Z-3.000 F500
G1 X43.410 Y1.860 Z-3.000 F500
G1 X43.349 Y1.694 Z-3.000 F500
G1 X43.275 Y1.534 Z-3.000 F500
G1 X43.189 Y1.379 Z-3.000 F500
G1 X43.091 Y1.233 Z-3.000 F500
G1 X42.981 Y1.094 Z-3.000 F500
G1 X42.862 Y0.964 Z-3.000 F500
G1 X41.365 Y-0.532 Z-3.000 F500
G1 X41.235 Y-0.652 Z-3.000 F500
G1 X41.097 Y-0.762 Z-3.000 F500
G1 X40.950 Y-0.860 Z-3.000 F500
G1 X40.796 Y-0.946 Z-3.000 F500
G1 X40.635 Y-1.020 Z-3.000 F500
G1 X40.469 Y-1.081 Z-3.000 F500
G1 X40.299 Y-1.129 Z-3.000 F500
G1 X40.126 Y-1.164 Z-3.000 F500
G1 X39.951 Y-1.184 Z-3.000 F500
G1 X39.774 Y-1.191 Z-3.000 F500
G1 X2.555 Y-1.191 Z-3.000 F500
G1 X2.378 Y-1.184 Z-3.000 F500
G1 X2.203 Y-1.164 Z-3.000 F500
G1 X2.030 Y-1.129 Z-3.000 F500
G1 X1.860 Y-1.081 Z-3.000 F500
G1 X1.694 Y-1.020 Z-3.000 F500
G1 X1.534 Y-0.946 Z-3.000 F500
G1 X1.379 Y-0.860 Z-3.000 F500
G1 X1.233 Y-0.762 Z-3.000 F500
G1 X1.094 Y-0.652 Z-3.000 F500
G1 X0.964 Y-0.532 Z-3.000 F500
G1 X-0.532 Y0.964 Z-3.000 F500
G1 X-0.652 Y1.094 Z-3.000 F500
G1 X-0.762 Y1.233 Z-3.000 F500
G1 X-0.860 Y1.379 Z-3.000 F500
G1 X-0.946 Y1.534 Z-3.000 F500
G1 X-1.020 Y1.694 Z-3.000 F500
G1 X-1.081 Y1.860 Z-3.000 F500
G1 X-1.129 Y2.030 Z-3.000 F500
G1 X-1.164 Y2.203 Z-3.000 F500
G1 X-1.184 Y2.378 Z-3.000 F500
G1 X-1.191 Y2.555 Z-3.000 F500
G1 X-1.191 Y13.954 Z-3.000 F500
G1 X-1.184 Y14.130 Z-3.000 F500
G1 X-1.164 Y14.305 Z-3.000 F500
G1 X-1.129 Y14.479 Z-3.000 F500
G1 X-1.081 Y14.649 Z-3.000 F500
G1 X-1.020 Y14.814 Z-3.000 F500
G1 X-0.946 Y14.975 Z-3.000 F500
G1 X-0.860 Y15.129 Z-3.000 F500
G1 X-0.762 Y15.276 Z-3.000 F500
G1 X-0.652 Y15.414 Z-3.000 F500
G1 X-0.532 Y15.544 Z-3.000 F500
G1 X0.964 Y17.041 Z-3.000 F500
G1 X1.094 Y17.161 Z-3.000 F500
G1 X1.233 Y17.270 Z-3.000 F500
G1 X1.379 Y17.368 Z-3.000 F500
G1 X1.534 Y17.454 Z-3.000 F500
G1 X1.694 Y17.528 Z-3.000 F500
G1 X1.860 Y17.589 Z-3.000 F500
G1 X2.030 Y17.637 Z-3.000 F500
G1 X2.203 Y17.672 Z-3.000 F500
G1 X2.378 Y17.693 Z-3.000 F500
G1 X2.555 Y17.700 Z-3.000 F500
G1 X39.774 Y17.700 Z-3.000 F500
G1 X39.951 Y17.693 Z-3.000 F500
G1 X40.126 Y17.672 Z-3.000 F500
G1 X40.299 Y17.637 Z-3.000 F500
G1 X40.469 Y17.589 Z-3.000 F500
G1 X40.635 Y17.528 Z-3.000 F500
G1 X40.796 Y17.454 Z-3.000 F500
G1 X40.950 Y17.368 Z-3.000 F500
G1 X41.096 Y17.270 Z-3.000 F500
G1 X41.235 Y17.161 Z-3.000 F500
G1 X41.365 Y17.041 Z-3.000 F500
G1 X42.862 Y15.544 Z-3.000 F500
G1 X42.981 Y15.414 Z-3.000 F500
G1 X43.091 Y15.276 Z-3.000 F500
G1 X43.189 Y15.129 Z-3.000 F500
G1 X43.275 Y14.975 Z-3.000 F500
G1 X43.349 Y14.814 Z-3.000 F500
G1 X43.410 Y14.649 Z-3.000 F500
G1 X43.458 Y14.479 Z-3.000 F500
G1 X43.493 Y14.305 Z-3.000 F500
G1 X43.513 Y14.130 Z-3.000 F500
G1 X43.520 Y13.954 Z-3.000 F500
G1 X43.520 Y8.254 Z-3.000 F500
G1 X43.526 Y8.201 Z-3.000 F200
G1 X43.544 Y8.151 Z-3.000 F200
G1 X43.572 Y8.106 Z-3.000 F200
G1 X43.610 Y8.068 Z-3.000 F200
G1 X43.655 Y8.039 Z-3.000 F200
G1 X43.706 Y8.022 Z-3.000 F200
G1 X43.759 Y8.016 Z-3.000 F200
G1 X43.997 Y8.016 Z-3.000 F200
G1 X44.050 Y8.016 Z-2.994 F200
G1 X44.100 Y8.016 Z-2.976 F200
G1 X44.145 Y8.016 Z-2.948 F200
G1 X44.183 Y8.016 Z-2.910 F200
G1 X44.212 Y8.016 Z-2.865 F200
G1 X44.229 Y8.016 Z-2.815 F200
G1 X44.235 Y8.016 Z-2.762 F200
G1 X44.235 Y8.016 Z5.000 F500
G1 X44.235 Y8.492 Z5.000 F500
G1 X44.235 Y8.492 Z-2.523 F100
G1 X44.235 Y8.492 Z-3.262 F100
G1 X44.229 Y8.492 Z-3.315 F200
G1 X44.212 Y8.492 Z-3.365 F200
G1 X44.183 Y8.492 Z-3.410 F200
G1 X44.145 Y8.492 Z-3.448 F200
G1 X44.100 Y8.492 Z-3.476 F200
G1 X44.050 Y8.492 Z-3.494 F200
G1 X43.997 Y8.492 Z-3.500 F200
G1 X43.759 Y8.492 Z-3.500 F200
G1 X43.706 Y8.486 Z-3.500 F200
G1 X43.655 Y8.469 Z-3.500 F200
G1 X43.610 Y8.440 Z-3.500 F200
G1 X43.572 Y8.403 Z-3.500 F200
G1 X43.544 Y8.358 Z-3.500 F200
G1 X43.526 Y8.307 Z-3.500 F200
G1 X43.520 Y8.254 Z-3.500 F200
G1 X43.520 Y2.555 Z-3.500 F500
G1 X43.513 Y2.378 Z-3.500 F500
G1 X43.493 Y2.203 Z-3.500 F500
G1 X43.458 Y2.030 Z-3.500 F500
G1 X43.410 Y1.860 Z-3.500 F500
G1 X43.349 Y1.694 Z-3.500 F500
G1 X43.275 Y1.534 Z-3.500 F500
G1 X43.189 Y1.379 Z-3.500 F500
G1 X43.091 Y1.233 Z-3.500 F500
G1 X42.981 Y1.094 Z-3.500 F500
G1 X42.862 Y0.964 Z-3.500 F500
G1 X41.365 Y-0.532 Z-3.500 F500
G1 X41.235 Y-0.652 Z-3.500 F500
G1 X41.097 Y-0.762 Z-3.500 F500
G1 X40.950 Y-0.860 Z-3.500 F500
G1 X40.796 Y-0.946 Z-3.500 F500
G1 X40.635 Y-1.020 Z-3.500 F500
G1 X40.469 Y-1.081 Z-3.500 F500
G1 X40.299 Y-1.129 Z-3.500 F500
G1 X40.126 Y-1.164 Z-3.500 F500
G1 X39.951 Y-1.184 Z-3.500 F500
G1 X39.774 Y-1.191 Z-3.500 F500
G1 X2.555 Y-1.191 Z-3.500 F500
G1 X2.378 Y-1.184 Z-3.500 F500
G1 X2.203 Y-1.164 Z-3.500 F500
G1 X2.030 Y-1.129 Z-3.500 F500
G1 X1.860 Y-1.081 Z-3.500 F500
G1 X1.694 Y-1.020 Z-3.500 F500
G1 X1.534 Y-0.946 Z-3.500 F500
G1 X1.379 Y-0.860 Z-3.500 F500
G1 X1.233 Y-0.762 Z-3.500 F500
G1 X1.094 Y-0.652 Z-3.500 F500
G1 X0.964 Y-0.532 Z-3.500 F500
G1 X-0.532 Y0.964 Z-3.500 F500
G1 X-0.652 Y1.094 Z-3.500 F500
G1 X-0.762 Y1.233 Z-3.500 F500
G1 X-0.860 Y1.379 Z-3.500 F500
G1 X-0.946 Y1.534 Z-3.500 F500
G1 X-1.020 Y1.694 Z-3.500 F500
G1 X-1.081 Y1.860 Z-3.500 F500
G1 X-1.129 Y2.030 Z-3.500 F500
G1 X-1.164 Y2.203 Z-3.500 F500
G1 X-1.184 Y2.378 Z-3.500 F500
G1 X-1.191 Y2.555 Z-3.500 F500
G1 X-1.191 Y13.954 Z-3.500 F500
G1 X-1.184 Y14.130 Z-3.500 F500
G1 X-1.164 Y14.305 Z-3.500 F500
G1 X-1.129 Y14.479 Z-3.500 F500
G1 X-1.081 Y14.649 Z-3.500 F500
G1 X-1.020 Y14.814 Z-3.500 F500
G1 X-0.946 Y14.975 Z-3.500 F500
G1 X-0.860 Y15.129 Z-3.500 F500
G1 X-0.762 Y15.276 Z-3.500 F500
G1 X-0.652 Y15.414 Z-3.500 F500
G1 X-0.532 Y15.544 Z-3.500 F500
G1 X0.964 Y17.041 Z-3.500 F500
G1 X1.094 Y17.161 Z-3.500 F500
G1 X1.233 Y17.270 Z-3.500 F500
G1 X1.379 Y17.368 Z-3.500 F500
G1 X1.534 Y17.454 Z-3.500 F500
G1 X1.694 Y17.528 Z-3.500 F500
G1 X1.860 Y17.589 Z-3.500 F500
G1 X2.030 Y17.637 Z-3.500 F500
G1 X2.203 Y17.672 Z-3.500 F500
G1 X2.378 Y17.693 Z-3.500 F500
G1 X2.555 Y17.700 Z-3.500 F500
G1 X39.774 Y17.700 Z-3.500 F500
G1 X39.951 Y17.693 Z-3.500 F500
G1 X40.126 Y17.672 Z-3.500 F500
G1 X40.299 Y17.637 Z-3.500 F500
G1 X40.469 Y17.589 Z-3.500 F500
G1 X40.635 Y17.528 Z-3.500 F500
G1 X40.796 Y17.454 Z-3.500 F500
G1 X40.950 Y17.368 Z-3.500 F500
G1 X41.096 Y17.270 Z-3.500 F500
G1 X41.235 Y17.161 Z-3.500 F500
G1 X41.365 Y17.041 Z-3.500 F500
G1 X42.862 Y15.544 Z-3.500 F500
G1 X42.981 Y15.414 Z-3.500 F500
G1 X43.091 Y15.276 Z-3.500 F500
G1 X43.189 Y15.129 Z-3.500 F500
G1 X43.275 Y14.975 Z-3.500 F500
G1 X43.349 Y14.814 Z-3.500 F500
G1 X43.410 Y14.649 Z-3.500 F500
G1 X43.458 Y14.479 Z-3.500 F500
G1 X43.493 Y14.305 Z-3.500 F500
G1 X43.513 Y14.130 Z-3.500 F500
G1 X43.520 Y13.954 Z-3.500 F500
G1 X43.520 Y8.254 Z-3.500 F500
G1 X43.526 Y8.201 Z-3.500 F200
G1 X43.544 Y8.151 Z-3.500 F200
G1 X43.572 Y8.106 Z-3.500 F200
G1 X43.610 Y8.068 Z-3.500 F200
G1 X43.655 Y8.039 Z-3.500 F200
G1 X43.706 Y8.022 Z-3.500 F200
G1 X43.759 Y8.016 Z-3.500 F200
G1 X43.997 Y8.016 Z-3.500 F200
G1 X44.050 Y8.016 Z-3.494 F200
G1 X44.100 Y8.016 Z-3.476 F200
G1 X44.145 Y8.016 Z-3.448 F200
G1 X44.183 Y8.016 Z-3.410 F200
G1 X44.212 Y8.016 Z-3.365 F200
G1 X44.229 Y8.016 Z-3.315 F200
G1 X44.235 Y8.016 Z-3.262 F200
G1 X44.235 Y8.016 Z5.000 F500
G1 X44.235 Y8.492 Z5.000 F500
G1 X44.235 Y8.492 Z-3.023 F100
G1 X44.235 Y8.492 Z-3.762 F100
G1 X44.229 Y8.492 Z-3.815 F200
G1 X44.212 Y8.492 Z-3.865 F200
G1 X44.183 Y8.492 Z-3.910 F200
G1 X44.145 Y8.492 Z-3.948 F200
G1 X44.100 Y8.492 Z-3.976 F200
G1 X44.050 Y8.492 Z-3.994 F200
G1 X43.997 Y8.492 Z-4.000 F200
G1 X43.759 Y8.492 Z-4.000 F200
G1 X43.706 Y8.486 Z-4.000 F200
G1 X43.655 Y8.469 Z-4.000 F200
G1 X43.610 Y8.440 Z-4.000 F200
G1 X43.572 Y8.403 Z-4.000 F200
G1 X43.544 Y8.358 Z-4.000 F200
G1 X43.526 Y8.307 Z-4.000 F200
G1 X43.520 Y8.254 Z-4.000 F200
G1 X43.520 Y2.555 Z-4.000 F500
G1 X43.513 Y2.378 Z-4.000 F500
G1 X43.493 Y2.203 Z-4.000 F500
G1 X43.458 Y2.030 Z-4.000 F500
G1 X43.410 Y1.860 Z-4.000 F500
G1 X43.349 Y1.694 Z-4.000 F500
G1 X43.275 Y1.534 Z-4.000 F500
G1 X43.189 Y1.379 Z-4.000 F500
G1 X43.091 Y1.233 Z-4.000 F500
G1 X42.981 Y1.094 Z-4.000 F500
G1 X42.862 Y0.964 Z-4.000 F500
G1 X41.365 Y-0.532 Z-4.000 F500
G1 X41.235 Y-0.652 Z-4.000 F500
G1 X41.097 Y-0.762 Z-4.000 F500
G1 X40.950 Y-0.860 Z-4.000 F500
G1 X40.796 Y-0.946 Z-4.000 F500
G1 X40.635 Y-1.020 Z-4.000 F500
G1 X40.469 Y-1.081 Z-4.000 F500
G1 X40.299 Y-1.129 Z-4.000 F500
G1 X40.126 Y-1.164 Z-4.000 F500
G1 X39.951 Y-1.184 Z-4.000 F500
G1 X39.774 Y-1.191 Z-4.000 F500
G1 X2.555 Y-1.191 Z-4.000 F500
G1 X2.378 Y-1.184 Z-4.000 F500
G1 X2.203 Y-1.164 Z-4.000 F500
G1 X2.030 Y-1.129 Z-4.000 F500
G1 X1.860 Y-1.081 Z-4.000 F500
G1 X1.694 Y-1.020 Z-4.000 F500
G1 X1.534 Y-0.946 Z-4.000 F500
G1 X1.379 Y-0.860 Z-4.000 F500
G1 X1.233 Y-0.762 Z-4.000 F500
G1 X1.094 Y-0.652 Z-4.000 F500
G1 X0.964 Y-0.532 Z-4.000 F500
G1 X-0.532 Y0.964 Z-4.000 F500
G1 X-0.652 Y1.094 Z-4.000 F500
G1 X-0.762 Y1.233 Z-4.000 F500
G1 X-0.860 Y1.379 Z-4.000 F500
G1 X-0.946 Y1.534 Z-4.000 F500
G1 X-1.020 Y1.694 Z-4.000 F500
G1 X-1.081 Y1.860 Z-4.000 F500
G1 X-1.129 Y2.030 Z-4.000 F500
G1 X-1.164 Y2.203 Z-4.000 F500
G1 X-1.184 Y2.378 Z-4.000 F500
G1 X-1.191 Y2.555 Z-4.000 F500
G1 X-1.191 Y13.954 Z-4.000 F500
G1 X-1.184 Y14.130 Z-4.000 F500
G1 X-1.164 Y14.305 Z-4.000 F500
G1 X-1.129 Y14.479 Z-4.000 F500
G1 X-1.081 Y14.649 Z-4.000 F500
G1 X-1.020 Y14.814 Z-4.000 F500
G1 X-0.946 Y14.975 Z-4.000 F500
G1 X-0.860 Y15.129 Z-4.000 F500
G1 X-0.762 Y15.276 Z-4.000 F500
G1 X-0.652 Y15.414 Z-4.000 F500
G1 X-0.532 Y15.544 Z-4.000 F500
G1 X0.964 Y17.041 Z-4.000 F500
G1 X1.094 Y17.161 Z-4.000 F500
G1 X1.233 Y17.270 Z-4.000 F500
G1 X1.379 Y17.368 Z-4.000 F500
G1 X1.534 Y17.454 Z-4.000 F500
G1 X1.694 Y17.528 Z-4.000 F500
G1 X1.860 Y17.589 Z-4.000 F500
G1 X2.030 Y17.637 Z-4.000 F500
G1 X2.203 Y17.672 Z-4.000 F500
G1 X2.378 Y17.693 Z-4.000 F500
G1 X2.555 Y17.700 Z-4.000 F500
G1 X39.774 Y17.700 Z-4.000 F500
G1 X39.951 Y17.693 Z-4.000 F500
G1 X40.126 Y17.672 Z-4.000 F500
G1 X40.299 Y17.637 Z-4.000 F500
G1 X40.469 Y17.589 Z-4.000 F500
G1 X40.635 Y17.528 Z-4.000 F500
G1 X40.796 Y17.454 Z-4.000 F500
G1 X40.950 Y17.368 Z-4.000 F500
G1 X41.096 Y17.270 Z-4.000 F500
G1 X41.235 Y17.161 Z-4.000 F500
G1 X41.365 Y17.041 Z-4.000 F500
G1 X42.862 Y15.544 Z-4.000 F500
G1 X42.981 Y15.414 Z-4.000 F500
G1 X43.091 Y15.276 Z-4.000 F500
G1 X43.189 Y15.129 Z-4.000 F500
G1 X43.275 Y14.975 Z-4.000 F500
G1 X43.349 Y14.814 Z-4.000 F500
G1 X43.410 Y14.649 Z-4.000 F500
G1 X43.458 Y14.479 Z-4.000 F500
G1 X43.493 Y14.305 Z-4.000 F500
G1 X43.513 Y14.130 Z-4.000 F500
G1 X43.520 Y13.954 Z-4.000 F500
G1 X43.520 Y8.254 Z-4.000 F500
G1 X43.526 Y8.201 Z-4.000 F200
G1 X43.544 Y8.151 Z-4.000 F200
G1 X43.572 Y8.106 Z-4.000 F200
G1 X43.610 Y8.068 Z-4.000 F200
G1 X43.655 Y8.039 Z-4.000 F200
G1 X43.706 Y8.022 Z-4.000 F200
G1 X43.759 Y8.016 Z-4.000 F200
G1 X43.997 Y8.016 Z-4.000 F200
G1 X44.050 Y8.016 Z-3.994 F200
G1 X44.100 Y8.016 Z-3.976 F200
G1 X44.145 Y8.016 Z-3.948 F200
G1 X44.183 Y8.016 Z-3.910 F200
G1 X44.212 Y8.016 Z-3.865 F200
G1 X44.229 Y8.016 Z-3.815 F200
G1 X44.235 Y8.016 Z-3.762 F200
G1 X44.235 Y8.016 Z5.000 F500
G1 X44.235 Y8.492 Z5.000 F500
G1 X44.235 Y8.492 Z-3.523 F100
G1 X44.235 Y8.492 Z-4.262 F100
G1 X44.229 Y8.492 Z-4.315 F200
G1 X44.212 Y8.492 Z-4.365 F200
G1 X44.183 Y8.492 Z-4.410 F200
G1 X44.145 Y8.492 Z-4.448 F200
G1 X44.100 Y8.492 Z-4.476 F200
G1 X44.050 Y8.492 Z-4.494 F200
G1 X43.997 Y8.492 Z-4.500 F200
G1 X43.759 Y8.492 Z-4.500 F200
G1 X43.706 Y8.486 Z-4.500 F200
G1 X43.655 Y8.469 Z-4.500 F200
G1 X43.610 Y8.440 Z-4.500 F200
G1 X43.572 Y8.403 Z-4.500 F200
G1 X43.544 Y8.358 Z-4.500 F200
G1 X43.526 Y8.307 Z-4.500 F200
G1 X43.520 Y8.254 Z-4.500 F200
G1 X43.520 Y2.555 Z-4.500 F500
G1 X43.513 Y2.378 Z-4.500 F500
G1 X43.493 Y2.203 Z-4.500 F500
G1 X43.458 Y2.030 Z-4.500 F500
G1 X43.410 Y1.860 Z-4.500 F500
G1 X43.349 Y1.694 Z-4.500 F500
G1 X43.275 Y1.534 Z-4.500 F500
G1 X43.189 Y1.379 Z-4.500 F500
G1 X43.091 Y1.233 Z-4.500 F500
G1 X42.981 Y1.094 Z-4.500 F500
G1 X42.862 Y0.964 Z-4.500 F500
G1 X41.365 Y-0.532 Z-4.500 F500
G1 X41.235 Y-0.652 Z-4.500 F500
G1 X41.097 Y-0.762 Z-4.500 F500
G1 X40.950 Y-0.860 Z-4.500 F500
G1 X40.796 Y-0.946 Z-4.500 F500
G1 X40.635 Y-1.020 Z-4.500 F500
G1 X40.469 Y-1.081 Z-4.500 F500
G1 X40.299 Y-1.129 Z-4.500 F500
G1 X40.126 Y-1.164 Z-4.500 F500
G1 X39.951 Y-1.184 Z-4.500 F500
G1 X39.774 Y-1.191 Z-4.500 F500
G1 X2.555 Y-1.191 Z-4.500 F500
G1 X2.378 Y-1.184 Z-4.500 F500
G1 X2.203 Y-1.164 Z-4.500 F500
G1 X2.030 Y-1.129 Z-4.500 F500
G1 X1.860 Y-1.081 Z-4.500 F500
G1 X1.694 Y-1.020 Z-4.500 F500
G1 X1.534 Y-0.946 Z-4.500 F500
G1 X1.379 Y-0.860 Z-4.500 F500
G1 X1.233 Y-0.762 Z-4.500 F500
G1 X1.094 Y-0.652 Z-4.500 F500
G1 X0.964 Y-0.532 Z-4.500 F500
G1 X-0.532 Y0.964 Z-4.500 F500
G1 X-0.652 Y1.094 Z-4.500 F500
G1 X-0.762 Y1.233 Z-4.500 F500
G1 X-0.860 Y1.379 Z-4.500 F500
G1 X-0.946 Y1.534 Z-4.500 F500
G1 X-1.020 Y1.694 Z-4.500 F500
G1 X-1.081 Y1.860 Z-4.500 F500
G1 X-1.129 Y2.030 Z-4.500 F500
G1 X-1.164 Y2.203 Z-4.500 F500
G1 X-1.184 Y2.378 Z-4.500 F500
G1 X-1.191 Y2.555 Z-4.500 F500
G1 X-1.191 Y13.954 Z-4.500 F500
G1 X-1.184 Y14.130 Z-4.500 F500
G1 X-1.164 Y14.305 Z-4.500 F500
G1 X-1.129 Y14.479 Z-4.500 F500
G1 X-1.081 Y14.649 Z-4.500 F500
G1 X-1.020 Y14.814 Z-4.500 F500
G1 X-0.946 Y14.975 Z-4.500 F500
G1 X-0.860 Y15.129 Z-4.500 F500
G1 X-0.762 Y15.276 Z-4.500 F500
G1 X-0.652 Y15.414 Z-4.500 F500
G1 X-0.532 Y15.544 Z-4.500 F500
G1 X0.964 Y17.041 Z-4.500 F500
G1 X1.094 Y17.161 Z-4.500 F500
G1 X1.233 Y17.270 Z-4.500 F500
G1 X1.379 Y17.368 Z-4.500 F500
G1 X1.534 Y17.454 Z-4.500 F500
G1 X1.694 Y17.528 Z-4.500 F500
G1 X1.860 Y17.589 Z-4.500 F500
G1 X2.030 Y17.637 Z-4.500 F500
G1 X2.203 Y17.672 Z-4.500 F500
G1 X2.378 Y17.693 Z-4.500 F500
G1 X2.555 Y17.700 Z-4.500 F500
G1 X39.774 Y17.700 Z-4.500 F500
G1 X39.951 Y17.693 Z-4.500 F500
G1 X40.126 Y17.672 Z-4.500 F500
G1 X40.299 Y17.637 Z-4.500 F500
G1 X40.469 Y17.589 Z-4.500 F500
G1 X40.635 Y17.528 Z-4.500 F500
G1 X40.796 Y17.454 Z-4.500 F500
G1 X40.950 Y17.368 Z-4.500 F500
G1 X41.096 Y17.270 Z-4.500 F500
G1 X41.235 Y17.161 Z-4.500 F500
G1 X41.365 Y17.041 Z-4.500 F500
G1 X42.862 Y15.544 Z-4.500 F500
G1 X42.981 Y15.414 Z-4.500 F500
G1 X43.091 Y15.276 Z-4.500 F500
G1 X43.189 Y15.129 Z-4.500 F500
G1 X43.275 Y14.975 Z-4.500 F500
G1 X43.349 Y14.814 Z-4.500 F500
G1 X43.410 Y14.649 Z-4.500 F500
G1 X43.458 Y14.479 Z-4.500 F500
G1 X43.493 Y14.305 Z-4.500 F500
G1 X43.513 Y14.130 Z-4.500 F500
G1 X43.520 Y13.954 Z-4.500 F500
G1 X43.520 Y8.254 Z-4.500 F500
G1 X43.526 Y8.201 Z-4.500 F200
G1 X43.544 Y8.151 Z-4.500 F200
G1 X43.572 Y8.106 Z-4.500 F200
G1 X43.610 Y8.068 Z-4.500 F200
G1 X43.655 Y8.039 Z-4.500 F200
G1 X43.706 Y8.022 Z-4.500 F200
G1 X43.759 Y8.016 Z-4.500 F200
G1 X43.997 Y8.016 Z-4.500 F200
G1 X44.050 Y8.016 Z-4.494 F200
G1 X44.100 Y8.016 Z-4.476 F200
G1 X44.145 Y8.016 Z-4.448 F200
G1 X44.183 Y8.016 Z-4.410 F200
G1 X44.212 Y8.016 Z-4.365 F200
G1 X44.229 Y8.016 Z-4.315 F200
G1 X44.235 Y8.016 Z-4.262 F200
G1 X44.235 Y8.016 Z5.000 F500
G1 X44.235 Y8.492 Z5.000 F500
G1 X44.235 Y8.492 Z-4.023 F100
G1 X44.235 Y8.492 Z-4.762 F100
G1 X44.229 Y8.492 Z-4.815 F200
G1 X44.212 Y8.492 Z-4.865 F200
G1 X44.183 Y8.492 Z-4.910 F200
G1 X44.145 Y8.492 Z-4.948 F200
G1 X44.100 Y8.492 Z-4.976 F200
G1 X44.050 Y8.492 Z-4.994 F200
G1 X43.997 Y8.492 Z-5.000 F200
G1 X43.759 Y8.492 Z-5.000 F200
G1 X43.706 Y8.486 Z-5.000 F200
G1 X43.655 Y8.469 Z-5.000 F200
G1 X43.610 Y8.440 Z-5.000 F200
G1 X43.572 Y8.403 Z-5.000 F200
G1 X43.544 Y8.358 Z-5.000 F200
G1 X43.526 Y8.307 Z-5.000 F200
G1 X43.520 Y8.254 Z-5.000 F200
G1 X43.520 Y2.555 Z-5.000 F500
G1 X43.513 Y2.378 Z-5.000 F500
G1 X43.493 Y2.203 Z-5.000 F500
G1 X43.458 Y2.030 Z-5.000 F500
G1 X43.410 Y1.860 Z-5.000 F500
G1 X43.349 Y1.694 Z-5.000 F500
G1 X43.275 Y1.534 Z-5.000 F500
G1 X43.189 Y1.379 Z-5.000 F500
G1 X43.091 Y1.233 Z-5.000 F500
G1 X42.981 Y1.094 Z-5.000 F500
G1 X42.862 Y0.964 Z-5.000 F500
G1 X41.365 Y-0.532 Z-5.000 F500
G1 X41.235 Y-0.652 Z-5.000 F500
G1 X41.097 Y-0.762 Z-5.000 F500
G1 X40.950 Y-0.860 Z-5.000 F500
G1 X40.796 Y-0.946 Z-5.000 F500
G1 X40.635 Y-1.020 Z-5.000 F500
G1 X40.469 Y-1.081 Z-5.000 F500
G1 X40.299 Y-1.129 Z-5.000 F500
G1 X40.126 Y-1.164 Z-5.000 F500
G1 X39.951 Y-1.184 Z-5.000 F500
G1 X39.774 Y-1.191 Z-5.000 F500
G1 X2.555 Y-1.191 Z-5.000 F500
G1 X2.378 Y-1.184 Z-5.000 F500
G1 X2.203 Y-1.164 Z-5.000 F500
G1 X2.030 Y-1.129 Z-5.000 F500
G1 X1.860 Y-1.081 Z-5.000 F500
G1 X1.694 Y-1.020 Z-5.000 F500
G1 X1.534 Y-0.946 Z-5.000 F500
G1 X1.379 Y-0.860 Z-5.000 F500
G1 X1.233 Y-0.762 Z-5.000 F500
G1 X1.094 Y-0.652 Z-5.000 F500
G1 X0.964 Y-0.532 Z-5.000 F500
G1 X-0.532 Y0.964 Z-5.000 F500
G1 X-0.652 Y1.094 Z-5.000 F500
G1 X-0.762 Y1.233 Z-5.000 F500
G1 X-0.860 Y1.379 Z-5.000 F500
G1 X-0.946 Y1.534 Z-5.000 F500
G1 X-1.020 Y1.694 Z-5.000 F500
G1 X-1.081 Y1.860 Z-5.000 F500
G1 X-1.129 Y2.030 Z-5.000 F500
G1 X-1.164 Y2.203 Z-5.000 F500
G1 X-1.184 Y2.378 Z-5.000 F500
G1 X-1.191 Y2.555 Z-5.000 F500
G1 X-1.191 Y13.954 Z-5.000 F500
G1 X-1.184 Y14.130 Z-5.000 F500
G1 X-1.164 Y14.305 Z-5.000 F500
G1 X-1.129 Y14.479 Z-5.000 F500
G1 X-1.081 Y14.649 Z-5.000 F500
G1 X-1.020 Y14.814 Z-5.000 F500
G1 X-0.946 Y14.975 Z-5.000 F500
G1 X-0.860 Y15.129 Z-5.000 F500
G1 X-0.762 Y15.276 Z-5.000 F500
G1 X-0.652 Y15.414 Z-5.000 F500
G1 X-0.532 Y15.544 Z-5.000 F500
G1 X0.964 Y17.041 Z-5.000 F500
G1 X1.094 Y17.161 Z-5.000 F500
G1 X1.233 Y17.270 Z-5.000 F500
G1 X1.379 Y17.368 Z-5.000 F500
G1 X1.534 Y17.454 Z-5.000 F500
G1 X1.694 Y17.528 Z-5.000 F500
G1 X1.860 Y17.589 Z-5.000 F500
G1 X2.030 Y17.637 Z-5.000 F500
G1 X2.203 Y17.672 Z-5.000 F500
G1 X2.378 Y17.693 Z-5.000 F500
G1 X2.555 Y17.700 Z-5.000 F500
G1 X39.774 Y17.700 Z-5.000 F500
G1 X39.951 Y17.693 Z-5.000 F500
G1 X40.126 Y17.672 Z-5.000 F500
G1 X40.299 Y17.637 Z-5.000 F500
G1 X40.469 Y17.589 Z-5.000 F500
G1 X40.635 Y17.528 Z-5.000 F500
G1 X40.796 Y17.454 Z-5.000 F500
G1 X40.950 Y17.368 Z-5.000 F500
G1 X41.096 Y17.270 Z-5.000 F500
G1 X41.235 Y17.161 Z-5.000 F500
G1 X41.365 Y17.041 Z-5.000 F500
G1 X42.862 Y15.544 Z-5.000 F500
G1 X42.981 Y15.414 Z-5.000 F500
G1 X43.091 Y15.276 Z-5.000 F500
G1 X43.189 Y15.129 Z-5.000 F500
G1 X43.275 Y14.975 Z-5.000 F500
G1 X43.349 Y14.814 Z-5.000 F500
G1 X43.410 Y14.649 Z-5.000 F500
G1 X43.458 Y14.479 Z-5.000 F500
G1 X43.493 Y14.305 Z-5.000 F500
G1 X43.513 Y14.130 Z-5.000 F500
G1 X43.520 Y13.954 Z-5.000 F500
G1 X43.520 Y8.254 Z-5.000 F500
G1 X43.526 Y8.201 Z-5.000 F200
G1 X43.544 Y8.151 Z-5.000 F200
G1 X43.572 Y8.106 Z-5.000 F200
G1 X43.610 Y8.068 Z-5.000 F200
G1 X43.655 Y8.039 Z-5.000 F200
G1 X43.706 Y8.022 Z-5.000 F200
G1 X43.759 Y8.016 Z-5.000 F200
G1 X43.997 Y8.016 Z-5.000 F200
G1 X44.050 Y8.016 Z-4.994 F200
G1 X44.100 Y8.016 Z-4.976 F200
G1 X44.145 Y8.016 Z-4.948 F200
G1 X44.183 Y8.016 Z-4.910 F200
G1 X44.212 Y8.016 Z-4.865 F200
G1 X44.229 Y8.016 Z-4.815 F200
G1 X44.235 Y8.016 Z-4.762 F200
G1 X44.235 Y8.016 Z5.000 F500
G1 X44.235 Y8.492 Z5.000 F500
G1 X44.235 Y8.492 Z-4.523 F100
G1 X44.235 Y8.492 Z-5.262 F100
G1 X44.229 Y8.492 Z-5.315 F200
G1 X44.212 Y8.492 Z-5.365 F200
G1 X44.183 Y8.492 Z-5.410 F200
G1 X44.145 Y8.492 Z-5.448 F200
G1 X44.100 Y8.492 Z-5.476 F200
G1 X44.050 Y8.492 Z-5.494 F200
G1 X43.997 Y8.492 Z-5.500 F200
G1 X43.759 Y8.492 Z-5.500 F200
G1 X43.706 Y8.486 Z-5.500 F200
G1 X43.655 Y8.469 Z-5.500 F200
G1 X43.610 Y8.440 Z-5.500 F200
G1 X43.572 Y8.403 Z-5.500 F200
G1 X43.544 Y8.358 Z-5.500 F200
G1 X43.526 Y8.307 Z-5.500 F200
G1 X43.520 Y8.254 Z-5.500 F200
G1 X43.520 Y2.555 Z-5.500 F500
G1 X43.513 Y2.378 Z-5.500 F500
G1 X43.493 Y2.203 Z-5.500 F500
G1 X43.458 Y2.030 Z-5.500 F500
G1 X43.410 Y1.860 Z-5.500 F500
G1 X43.349 Y1.694 Z-5.500 F500
G1 X43.275 Y1.534 Z-5.500 F500
G1 X43.189 Y1.379 Z-5.500 F500
G1 X43.091 Y1.233 Z-5.500 F500
G1 X42.981 Y1.094 Z-5.500 F500
G1 X42.862 Y0.964 Z-5.500 F500
G1 X41.365 Y-0.532 Z-5.500 F500
G1 X41.235 Y-0.652 Z-5.500 F500
G1 X41.097 Y-0.762 Z-5.500 F500
G1 X40.950 Y-0.860 Z-5.500 F500
G1 X40.796 Y-0.946 Z-5.500 F500
G1 X40.635 Y-1.020 Z-5.500 F500
G1 X40.469 Y-1.081 Z-5.500 F500
G1 X40.299 Y-1.129 Z-5.500 F500
G1 X40.126 Y-1.164 Z-5.500 F500
G1 X39.951 Y-1.184 Z-5.500 F500
G1 X39.774 Y-1.191 Z-5.500 F500
G1 X2.555 Y-1.191 Z-5.500 F500
G1 X2.378 Y-1.184 Z-5.500 F500
G1 X2.203 Y-1.164 Z-5.500 F500
G1 X2.030 Y-1.129 Z-5.500 F500
G1 X1.860 Y-1.081 Z-5.500 F500
G1 X1.694 Y-1.020 Z-5.500 F500
G1 X1.534 Y-0.946 Z-5.500 F500
G1 X1.379 Y-0.860 Z-5.500 F500
G1 X1.233 Y-0.762 Z-5.500 F500
G1 X1.094 Y-0.652 Z-5.500 F500
G1 X0.964 Y-0.532 Z-5.500 F500
G1 X-0.532 Y0.964 Z-5.500 F500
G1 X-0.652 Y1.094 Z-5.500 F500
G1 X-0.762 Y1.233 Z-5.500 F500
G1 X-0.860 Y1.379 Z-5.500 F500
G1 X-0.946 Y1.534 Z-5.500 F500
G1 X-1.020 Y1.694 Z-5.500 F500
G1 X-1.081 Y1.860 Z-5.500 F500
G1 X-1.129 Y2.030 Z-5.500 F500
G1 X-1.164 Y2.203 Z-5.500 F500
G1 X-1.184 Y2.378 Z-5.500 F500
G1 X-1.191 Y2.555 Z-5.500 F500
G1 X-1.191 Y13.954 Z-5.500 F500
G1 X-1.184 Y14.130 Z-5.500 F500
G1 X-1.164 Y14.305 Z-5.500 F500
G1 X-1.129 Y14.479 Z-5.500 F500
G1 X-1.081 Y14.649 Z-5.500 F500
G1 X-1.020 Y14.814 Z-5.500 F500
G1 X-0.946 Y14.975 Z-5.500 F500
G1 X-0.860 Y15.129 Z-5.500 F500
G1 X-0.762 Y15.276 Z-5.500 F500
G1 X-0.652 Y15.414 Z-5.500 F500
G1 X-0.532 Y15.544 Z-5.500 F500
G1 X0.964 Y17.041 Z-5.500 F500
G1 X1.094 Y17.161 Z-5.500 F500
G1 X1.233 Y17.270 Z-5.500 F500
G1 X1.379 Y17.368 Z-5.500 F500
G1 X1.534 Y17.454 Z-5.500 F500
G1 X1.694 Y17.528 Z-5.500 F500
G1 X1.860 Y17.589 Z-5.500 F500
G1 X2.030 Y17.637 Z-5.500 F500
G1 X2.203 Y17.672 Z-5.500 F500
G1 X2.378 Y17.693 Z-5.500 F500
G1 X2.555 Y17.700 Z-5.500 F500
G1 X39.774 Y17.700 Z-5.500 F500
G1 X39.951 Y17.693 Z-5.500 F500
G1 X40.126 Y17.672 Z-5.500 F500
G1 X40.299 Y17.637 Z-5.500 F500
G1 X40.469 Y17.589 Z-5.500 F500
G1 X40.635 Y17.528 Z-5.500 F500
G1 X40.796 Y17.454 Z-5.500 F500
G1 X40.950 Y17.368 Z-5.500 F500
G1 X41.096 Y17.270 Z-5.500 F500
G1 X41.235 Y17.161 Z-5.500 F500
G1 X41.365 Y17.041 Z-5.500 F500
G1 X42.862 Y15.544 Z-5.500 F500
G1 X42.981 Y15.414 Z-5.500 F500
G1 X43.091 Y15.276 Z-5.500 F500
G1 X43.189 Y15.129 Z-5.500 F500
G1 X43.275 Y14.975 Z-5.500 F500
G1 X43.349 Y14.814 Z-5.500 F500
G1 X43.410 Y14.649 Z-5.500 F500
G1 X43.458 Y14.479 Z-5.500 F500
G1 X43.493 Y14.305 Z-5.500 F500
G1 X43.513 Y14.130 Z-5.500 F500
G1 X43.520 Y13.954 Z-5.500 F500
G1 X43.520 Y8.254 Z-5.500 F500
G1 X43.526 Y8.201 Z-5.500 F200
G1 X43.544 Y8.151 Z-5.500 F200
G1 X43.572 Y8.106 Z-5.500 F200
G1 X43.610 Y8.068 Z-5.500 F200
G1 X43.655 Y8.039 Z-5.500 F200
G1 X43.706 Y8.022 Z-5.500 F200
G1 X43.759 Y8.016 Z-5.500 F200
G1 X43.997 Y8.016 Z-5.500 F200
G1 X44.050 Y8.016 Z-5.494 F200
G1 X44.100 Y8.016 Z-5.476 F200
G1 X44.145 Y8.016 Z-5.448 F200
G1 X44.183 Y8.016 Z-5.410 F200
G1 X44.212 Y8.016 Z-5.365 F200
G1 X44.229 Y8.016 Z-5.315 F200
G1 X44.235 Y8.016 Z-5.262 F200
G1 X44.235 Y8.016 Z5.000 F500
G1 X44.235 Y8.492 Z5.000 F500
G1 X44.235 Y8.492 Z-5.023 F100
G1 X44.235 Y8.492 Z-5.754 F100
G1 X43.997 Y8.492 Z-5.754 F200
G1 X43.759 Y8.492 Z-5.754 F200
G1 X43.706 Y8.486 Z-5.754 F200
G1 X43.655 Y8.469 Z-5.754 F200
G1 X43.610 Y8.440 Z-5.754 F200
G1 X43.572 Y8.403 Z-5.754 F200
G1 X43.544 Y8.358 Z-5.754 F200
G1 X43.526 Y8.307 Z-5.754 F200
G1 X43.520 Y8.254 Z-5.754 F200
G1 X43.520 Y7.629 Z-5.754 F500
G1 X43.520 Y7.629 Z-6.000 F100
G1 X43.520 Y2.555 Z-6.000 F500
G1 X43.513 Y2.378 Z-6.000 F500
G1 X43.493 Y2.203 Z-6.000 F500
G1 X43.458 Y2.030 Z-6.000 F500
G1 X43.410 Y1.860 Z-6.000 F500
G1 X43.349 Y1.694 Z-6.000 F500
G1 X43.275 Y1.534 Z-6.000 F500
G1 X43.189 Y1.379 Z-6.000 F500
G1 X43.091 Y1.233 Z-6.000 F500
G1 X42.981 Y1.094 Z-6.000 F500
G1 X42.862 Y0.964 Z-6.000 F500
G1 X41.365 Y-0.532 Z-6.000 F500
G1 X41.235 Y-0.652 Z-6.000 F500
G1 X41.097 Y-0.762 Z-6.000 F500
G1 X40.950 Y-0.860 Z-6.000 F500
G1 X40.796 Y-0.946 Z-6.000 F500
G1 X40.635 Y-1.020 Z-6.000 F500
G1 X40.469 Y-1.081 Z-6.000 F500
G1 X40.299 Y-1.129 Z-6.000 F500
G1 X40.126 Y-1.164 Z-6.000 F500
G1 X39.951 Y-1.184 Z-6.000 F500
G1 X39.774 Y-1.191 Z-6.000 F500
G1 X30.922 Y-1.191 Z-6.000 F500
G1 X30.922 Y-1.191 Z-5.754 F500
G1 X26.157 Y-1.191 Z-5.754 F500
G1 X26.157 Y-1.191 Z-6.000 F100
G1 X8.451 Y-1.191 Z-6.000 F500
G1 X8.451 Y-1.191 Z-5.754 F500
G1 X3.686 Y-1.191 Z-5.754 F500
G1 X3.686 Y-1.191 Z-6.000 F100
G1 X2.555 Y-1.191 Z-6.000 F500
G1 X2.378 Y-1.184 Z-6.000 F500
G1 X2.203 Y-1.164 Z-6.000 F500
G1 X2.030 Y-1.129 Z-6.000 F500
G1 X1.860 Y-1.081 Z-6.000 F500
G1 X1.694 Y-1.020 Z-6.000 F500
G1 X1.534 Y-0.946 Z-6.000 F500
G1 X1.379 Y-0.860 Z-6.000 F500
G1 X1.233 Y-0.762 Z-6.000 F500
G1 X1.094 Y-0.652 Z-6.000 F500
G1 X0.964 Y-0.532 Z-6.000 F500
G1 X-0.532 Y0.964 Z-6.000 F500
G1 X-0.652 Y1.094 Z-6.000 F500
G1 X-0.762 Y1.233 Z-6.000 F500
G1 X-0.860 Y1.379 Z-6.000 F500
G1 X-0.946 Y1.534 Z-6.000 F500
G1 X-1.020 Y1.694 Z-6.000 F500
G1 X-1.081 Y1.860 Z-6.000 F500
G1 X-1.129 Y2.030 Z-6.000 F500
G1 X-1.164 Y2.203 Z-6.000 F500
G1 X-1.184 Y2.378 Z-6.000 F500
G1 X-1.191 Y2.555 Z-6.000 F500
G1 X-1.191 Y13.954 Z-6.000 F500
G1 X-1.184 Y14.130 Z-6.000 F500
G1 X-1.164 Y14.305 Z-6.000 F500
G1 X-1.129 Y14.479 Z-6.000 F500
G1 X-1.081 Y14.649 Z-6.000 F500
G1 X-1.020 Y14.814 Z-6.000 F500
G1 X-0.946 Y14.975 Z-6.000 F500
G1 X-0.860 Y15.129 Z-6.000 F500
G1 X-0.762 Y15.276 Z-6.000 F500
G1 X-0.652 Y15.414 Z-6.000 F500
G1 X-0.532 Y15.544 Z-6.000 F500
G1 X0.172 Y16.249 Z-6.000 F500
G1 X0.172 Y16.249 Z-5.754 F500
G1 X0.964 Y17.041 Z-5.754 F500
G1 X1.094 Y17.161 Z-5.754 F500
G1 X1.233 Y17.270 Z-5.754 F500
G1 X1.379 Y17.368 Z-5.754 F500
G1 X1.534 Y17.454 Z-5.754 F500
G1 X1.694 Y17.528 Z-5.754 F500
G1 X1.860 Y17.589 Z-5.754 F500
G1 X2.030 Y17.637 Z-5.754 F500
G1 X2.203 Y17.672 Z-5.754 F500
G1 X2.378 Y17.693 Z-5.754 F500
G1 X2.555 Y17.700 Z-5.754 F500
G1 X4.937 Y17.700 Z-5.754 F500
G1 X4.937 Y17.700 Z-6.000 F100
G1 X22.643 Y17.700 Z-6.000 F500
G1 X22.643 Y17.700 Z-5.754 F500
G1 X27.408 Y17.700 Z-5.754 F500
G1 X27.408 Y17.700 Z-6.000 F100
G1 X39.774 Y17.700 Z-6.000 F500
G1 X39.951 Y17.693 Z-6.000 F500
G1 X40.126 Y17.672 Z-6.000 F500
G1 X40.299 Y17.637 Z-6.000 F500
G1 X40.469 Y17.589 Z-6.000 F500
G1 X40.635 Y17.528 Z-6.000 F500
G1 X40.796 Y17.454 Z-6.000 F500
G1 X40.950 Y17.368 Z-6.000 F500
G1 X41.096 Y17.270 Z-6.000 F500
G1 X41.235 Y17.161 Z-6.000 F500
G1 X41.365 Y17.041 Z-6.000 F500
G1 X42.862 Y15.544 Z-6.000 F500
G1 X42.981 Y15.414 Z-6.000 F500
G1 X43.091 Y15.276 Z-6.000 F500
G1 X43.189 Y15.129 Z-6.000 F500
G1 X43.275 Y14.975 Z-6.000 F500
G1 X43.349 Y14.814 Z-6.000 F500
G1 X43.410 Y14.649 Z-6.000 F500
G1 X43.458 Y14.479 Z-6.000 F500
G1 X43.493 Y14.305 Z-6.000 F500
G1 X43.513 Y14.130 Z-6.000 F500
G1 X43.520 Y13.954 Z-6.000 F500
G1 X43.520 Y12.394 Z-6.000 F500
G1 X43.520 Y12.394 Z-5.754 F500
G1 X43.520 Y8.254 Z-5.754 F500
G1 X43.526 Y8.201 Z-5.754 F200
G1 X43.544 Y8.151 Z-5.754 F200
G1 X43.572 Y8.106 Z-5.754 F200
G1 X43.610 Y8.068 Z-5.754 F200
G1 X43.655 Y8.039 Z-5.754 F200
G1 X43.706 Y8.022 Z-5.754 F200
G1 X43.759 Y8.016 Z-5.754 F200
G1 X44.235 Y8.016 Z-5.754 F200
G1 X44.235 Y8.016 Z5.000 F500
G1 X44.235 Y8.492 Z5.000 F500
G1 X44.235 Y8.492 Z-5.523 F100
G1 X44.235 Y8.492 Z-5.754 F100
G1 X43.997 Y8.492 Z-5.754 F200
G1 X43.759 Y8.492 Z-5.754 F200
G1 X43.706 Y8.486 Z-5.754 F200
G1 X43.655 Y8.469 Z-5.754 F200
G1 X43.610 Y8.440 Z-5.754 F200
G1 X43.572 Y8.403 Z-5.754 F200
G1 X43.544 Y8.358 Z-5.754 F200
G1 X43.526 Y8.307 Z-5.754 F200
G1 X43.520 Y8.254 Z-5.754 F200
G1 X43.520 Y7.629 Z-5.754 F500
G1 X43.520 Y7.629 Z-6.349 F100
G1 X43.520 Y2.555 Z-6.349 F500
G1 X43.513 Y2.378 Z-6.349 F500
G1 X43.493 Y2.203 Z-6.349 F500
G1 X43.458 Y2.030 Z-6.349 F500
G1 X43.410 Y1.860 Z-6.349 F500
G1 X43.349 Y1.694 Z-6.349 F500
G1 X43.275 Y1.534 Z-6.349 F500
G1 X43.189 Y1.379 Z-6.349 F500
G1 X43.091 Y1.233 Z-6.349 F500
G1 X42.981 Y1.094 Z-6.349 F500
G1 X42.862 Y0.964 Z-6.349 F500
G1 X41.365 Y-0.532 Z-6.349 F500
G1 X41.235 Y-0.652 Z-6.349 F500
G1 X41.097 Y-0.762 Z-6.349 F500
G1 X40.950 Y-0.860 Z-6.349 F500
G1 X40.796 Y-0.946 Z-6.349 F500
G1 X40.635 Y-1.020 Z-6.349 F500
G1 X40.469 Y-1.081 Z-6.349 F500
G1 X40.299 Y-1.129 Z-6.349 F500
G1 X40.126 Y-1.164 Z-6.349 F500
G1 X39.951 Y-1.184 Z-6.349 F500
G1 X39.774 Y-1.191 Z-6.349 F500
G1 X30.922 Y-1.191 Z-6.349 F500
G1 X30.922 Y-1.191 Z-5.754 F500
G1 X26.157 Y-1.191 Z-5.754 F500
G1 X26.157 Y-1.191 Z-6.349 F100
G1 X8.451 Y-1.191 Z-6.349 F500
G1 X8.451 Y-1.191 Z-5.754 F500
G1 X3.686 Y-1.191 Z-5.754 F500
G1 X3.686 Y-1.191 Z-6.349 F100
G1 X2.555 Y-1.191 Z-6.349 F500
G1 X2.378 Y-1.184 Z-6.349 F500
G1 X2.203 Y-1.164 Z-6.349 F500
G1 X2.030 Y-1.129 Z-6.349 F500
G1 X1.860 Y-1.081 Z-6.349 F500
G1 X1.694 Y-1.020 Z-6.349 F500
G1 X1.534 Y-0.946 Z-6.349 F500
G1 X1.379 Y-0.860 Z-6.349 F500
G1 X1.233 Y-0.762 Z-6.349 F500
G1 X1.094 Y-0.652 Z-6.349 F500
G1 X0.964 Y-0.532 Z-6.349 F500
G1 X-0.532 Y0.964 Z-6.349 F500
G1 X-0.652 Y1.094 Z-6.349 F500
G1 X-0.762 Y1.233 Z-6.349 F500
G1 X-0.860 Y1.379 Z-6.349 F500
G1 X-0.946 Y1.534 Z-6.349 F500
G1 X-1.020 Y1.694 Z-6.349 F500
G1 X-1.081 Y1.860 Z-6.349 F500
G1 X-1.129 Y2.030 Z-6.349 F500
G1 X-1.164 Y2.203 Z-6.349 F500
G1 X-1.184 Y2.378 Z-6.349 F500
G1 X-1.191 Y2.555 Z-6.349 F500
G1 X-1.191 Y13.954 Z-6.349 F500
G1 X-1.184 Y14.130 Z-6.349 F500
G1 X-1.164 Y14.305 Z-6.349 F500
G1 X-1.129 Y14.479 Z-6.349 F500
G1 X-1.081 Y14.649 Z-6.349 F500
G1 X-1.020 Y14.814 Z-6.349 F500
G1 X-0.946 Y14.975 Z-6.349 F500
G1 X-0.860 Y15.129 Z-6.349 F500
G1 X-0.762 Y15.276 Z-6.349 F500
G1 X-0.652 Y15.414 Z-6.349 F500
G1 X-0.532 Y15.544 Z-6.349 F500
G1 X0.172 Y16.249 Z-6.349 F500
G1 X0.172 Y16.249 Z-5.754 F500
G1 X0.964 Y17.041 Z-5.754 F500
G1 X1.094 Y17.161 Z-5.754 F500
G1 X1.233 Y17.270 Z-5.754 F500
G1 X1.379 Y17.368 Z-5.754 F500
G1 X1.534 Y17.454 Z-5.754 F500
G1 X1.694 Y17.528 Z-5.754 F500
G1 X1.860 Y17.589 Z-5.754 F500
G1 X2.030 Y17.637 Z-5.754 F500
G1 X2.203 Y17.672 Z-5.754 F500
G1 X2.378 Y17.693 Z-5.754 F500
G1 X2.555 Y17.700 Z-5.754 F500
G1 X4.937 Y17.700 Z-5.754 F500
G1 X4.937 Y17.700 Z-6.349 F100
G1 X22.643 Y17.700 Z-6.349 F500
G1 X22.643 Y17.700 Z-5.754 F500
G1 X27.408 Y17.700 Z-5.754 F500
G1 X27.408 Y17.700 Z-6.349 F100
G1 X39.774 Y17.700 Z-6.349 F500
G1 X39.951 Y17.693 Z-6.349 F500
G1 X40.126 Y17.672 Z-6.349 F500
G1 X40.299 Y17.637 Z-6.349 F500
G1 X40.469 Y17.589 Z-6.349 F500
G1 X40.635 Y17.528 Z-6.349 F500
G1 X40.796 Y17.454 Z-6.349 F500
G1 X40.950 Y17.368 Z-6.349 F500
G1 X41.096 Y17.270 Z-6.349 F500
G1 X41.235 Y17.161 Z-6.349 F500
G1 X41.365 Y17.041 Z-6.349 F500
G1 X42.862 Y15.544 Z-6.349 F500
G1 X42.981 Y15.414 Z-6.349 F500
G1 X43.091 Y15.276 Z-6.349 F500
G1 X43.189 Y15.129 Z-6.349 F500
G1 X43.275 Y14.975 Z-6.349 F500
G1 X43.349 Y14.814 Z-6.349 F500
G1 X43.410 Y14.649 Z-6.349 F500
G1 X43.458 Y14.479 Z-6.349 F500
G1 X43.493 Y14.305 Z-6.349 F500
G1 X43.513 Y14.130 Z-6.349 F500
G1 X43.520 Y13.954 Z-6.349 F500
G1 X43.520 Y12.394 Z-6.349 F500
G1 X43.520 Y12.394 Z-5.754 F500
G1 X43.520 Y8.254 Z-5.754 F500
G1 X43.526 Y8.201 Z-5.754 F200
G1 X43.544 Y8.151 Z-5.754 F200
G1 X43.572 Y8.106 Z-5.754 F200
G1 X43.610 Y8.068 Z-5.754 F200
G1 X43.655 Y8.039 Z-5.754 F200
G1 X43.706 Y8.022 Z-5.754 F200
G1 X43.759 Y8.016 Z-5.754 F200
G1 X44.235 Y8.016 Z-5.754 F200
G1 X44.235 Y8.016 Z55.000 F500
G0 X0.000 Y0.000
M5
