;Titan-2-3-Drills
;Machine
;vendor: Snapmaker
;model: Desktop CNC
;description: Generic Snapmaker Marlin v20180725
;tool: 1.8mm twist Drill

M3 P100
G4 S2
G21
G90

;Titan-2-Drill
G0 X24.339 Y2.960 Z55.000
G0 X24.339 Y2.960 Z55.000
G0 X24.339 Y2.960 Z55.000
G0 X24.339 Y2.960 Z5.000
G0 X24.339 Y2.960 Z4.687
G0 X24.339 Y2.960 Z1.687
G1 X24.339 Y2.960 Z-0.813 F200
G0 X24.339 Y2.960 Z4.687
G0 X24.339 Y2.960 Z1.187
G1 X24.339 Y2.960 Z-1.313 F200
G0 X24.339 Y2.960 Z4.687
G0 X24.339 Y2.960 Z0.687
G1 X24.339 Y2.960 Z-1.813 F200
G0 X24.339 Y2.960 Z4.687
G0 X24.339 Y2.960 Z0.187
G1 X24.339 Y2.960 Z-2.313 F200
G0 X24.339 Y2.960 Z4.687
G0 X24.339 Y2.960 Z-0.313
G1 X24.339 Y2.960 Z-2.813 F200
G0 X24.339 Y2.960 Z4.687
G0 X24.339 Y2.960 Z-0.813
G1 X24.339 Y2.960 Z-3.313 F200
G0 X24.339 Y2.960 Z4.687
G0 X24.339 Y2.960 Z-1.313
G1 X24.339 Y2.960 Z-3.675 F200
G0 X24.339 Y2.960 Z5.000
G0 X25.397 Y8.254 Z5.000
G0 X25.397 Y8.254 Z5.000
G0 X25.397 Y8.254 Z4.687
G0 X25.397 Y8.254 Z1.687
G1 X25.397 Y8.254 Z-0.813 F200
G0 X25.397 Y8.254 Z4.687
G0 X25.397 Y8.254 Z1.187
G1 X25.397 Y8.254 Z-1.313 F200
G0 X25.397 Y8.254 Z4.687
G0 X25.397 Y8.254 Z0.687
G1 X25.397 Y8.254 Z-1.813 F200
G0 X25.397 Y8.254 Z4.687
G0 X25.397 Y8.254 Z0.187
G1 X25.397 Y8.254 Z-2.313 F200
G0 X25.397 Y8.254 Z4.687
G0 X25.397 Y8.254 Z-0.313
G1 X25.397 Y8.254 Z-2.813 F200
G0 X25.397 Y8.254 Z4.687
G0 X25.397 Y8.254 Z-0.813
G1 X25.397 Y8.254 Z-3.313 F200
G0 X25.397 Y8.254 Z4.687
G0 X25.397 Y8.254 Z-1.313
G1 X25.397 Y8.254 Z-3.675 F200
G0 X25.397 Y8.254 Z5.000
G0 X24.339 Y13.545 Z5.000
G0 X24.339 Y13.545 Z5.000
G0 X24.339 Y13.545 Z4.687
G0 X24.339 Y13.545 Z1.687
G1 X24.339 Y13.545 Z-0.813 F200
G0 X24.339 Y13.545 Z4.687
G0 X24.339 Y13.545 Z1.187
G1 X24.339 Y13.545 Z-1.313 F200
G0 X24.339 Y13.545 Z4.687
G0 X24.339 Y13.545 Z0.687
G1 X24.339 Y13.545 Z-1.813 F200
G0 X24.339 Y13.545 Z4.687
G0 X24.339 Y13.545 Z0.187
G1 X24.339 Y13.545 Z-2.313 F200
G0 X24.339 Y13.545 Z4.687
G0 X24.339 Y13.545 Z-0.313
G1 X24.339 Y13.545 Z-2.813 F200
G0 X24.339 Y13.545 Z4.687
G0 X24.339 Y13.545 Z-0.813
G1 X24.339 Y13.545 Z-3.313 F200
G0 X24.339 Y13.545 Z4.687
G0 X24.339 Y13.545 Z-1.313
G1 X24.339 Y13.545 Z-3.675 F200
G0 X24.339 Y13.545 Z5.000
G0 X17.990 Y13.545 Z5.000
G0 X17.990 Y13.545 Z5.000
G0 X17.990 Y13.545 Z4.687
G0 X17.990 Y13.545 Z1.687
G1 X17.990 Y13.545 Z-0.813 F200
G0 X17.990 Y13.545 Z4.687
G0 X17.990 Y13.545 Z1.187
G1 X17.990 Y13.545 Z-1.313 F200
G0 X17.990 Y13.545 Z4.687
G0 X17.990 Y13.545 Z0.687
G1 X17.990 Y13.545 Z-1.813 F200
G0 X17.990 Y13.545 Z4.687
G0 X17.990 Y13.545 Z0.187
G1 X17.990 Y13.545 Z-2.313 F200
G0 X17.990 Y13.545 Z4.687
G0 X17.990 Y13.545 Z-0.313
G1 X17.990 Y13.545 Z-2.813 F200
G0 X17.990 Y13.545 Z4.687
G0 X17.990 Y13.545 Z-0.813
G1 X17.990 Y13.545 Z-3.313 F200
G0 X17.990 Y13.545 Z4.687
G0 X17.990 Y13.545 Z-1.313
G1 X17.990 Y13.545 Z-3.675 F200
G0 X17.990 Y13.545 Z5.000
G0 X16.932 Y8.254 Z5.000
G0 X16.932 Y8.254 Z5.000
G0 X16.932 Y8.254 Z4.687
G0 X16.932 Y8.254 Z1.687
G1 X16.932 Y8.254 Z-0.813 F200
G0 X16.932 Y8.254 Z4.687
G0 X16.932 Y8.254 Z1.187
G1 X16.932 Y8.254 Z-1.313 F200
G0 X16.932 Y8.254 Z4.687
G0 X16.932 Y8.254 Z0.687
G1 X16.932 Y8.254 Z-1.813 F200
G0 X16.932 Y8.254 Z4.687
G0 X16.932 Y8.254 Z0.187
G1 X16.932 Y8.254 Z-2.313 F200
G0 X16.932 Y8.254 Z4.687
G0 X16.932 Y8.254 Z-0.313
G1 X16.932 Y8.254 Z-2.813 F200
G0 X16.932 Y8.254 Z4.687
G0 X16.932 Y8.254 Z-0.813
G1 X16.932 Y8.254 Z-3.313 F200
G0 X16.932 Y8.254 Z4.687
G0 X16.932 Y8.254 Z-1.313
G1 X16.932 Y8.254 Z-3.675 F200
G0 X16.932 Y8.254 Z5.000
G0 X17.990 Y2.963 Z5.000
G0 X17.990 Y2.963 Z5.000
G0 X17.990 Y2.963 Z4.687
G0 X17.990 Y2.963 Z1.687
G1 X17.990 Y2.963 Z-0.813 F200
G0 X17.990 Y2.963 Z4.687
G0 X17.990 Y2.963 Z1.187
G1 X17.990 Y2.963 Z-1.313 F200
G0 X17.990 Y2.963 Z4.687
G0 X17.990 Y2.963 Z0.687
G1 X17.990 Y2.963 Z-1.813 F200
G0 X17.990 Y2.963 Z4.687
G0 X17.990 Y2.963 Z0.187
G1 X17.990 Y2.963 Z-2.313 F200
G0 X17.990 Y2.963 Z4.687
G0 X17.990 Y2.963 Z-0.313
G1 X17.990 Y2.963 Z-2.813 F200
G0 X17.990 Y2.963 Z4.687
G0 X17.990 Y2.963 Z-0.813
G1 X17.990 Y2.963 Z-3.313 F200
G0 X17.990 Y2.963 Z4.687
G0 X17.990 Y2.963 Z-1.313
G1 X17.990 Y2.963 Z-3.675 F200
G0 X17.990 Y2.963 Z5.000
G0 X17.990 Y2.963 Z55.000
G0 X0.000 Y0.000
M5
