;Titan-1-Drill
;Machine
;vendor: Snapmaker
;model: Desktop CNC
;description: Generic Snapmaker Marlin v20180725
;tool: 1.2mm twist Drill

M3 P100
G4 S2
G21
G90

;Drill
G0 X1.270 Y1.270 Z46.588
G0 X1.270 Y1.270 Z46.588
G0 X1.270 Y1.270 Z46.588
G0 X1.270 Y1.270 Z6.588
G0 X1.270 Y1.270 Z4.780
G0 X1.270 Y1.270 Z1.780
G1 X1.270 Y1.270 Z-1.220 F100
G0 X1.270 Y1.270 Z-1.120
G1 X1.270 Y1.270 Z-2.220 F100
G0 X1.270 Y1.270 Z-2.120
G1 X1.270 Y1.270 Z-3.217 F100
G0 X1.270 Y1.270 Z6.588
G0 X1.270 Y14.815 Z6.588
G0 X1.270 Y14.815 Z6.588
G0 X1.270 Y14.815 Z4.780
G0 X1.270 Y14.815 Z1.780
G1 X1.270 Y14.815 Z-1.220 F100
G0 X1.270 Y14.815 Z-1.120
G1 X1.270 Y14.815 Z-2.220 F100
G0 X1.270 Y14.815 Z-2.120
G1 X1.270 Y14.815 Z-3.217 F100
G0 X1.270 Y14.815 Z6.588
G0 X9.736 Y13.545 Z6.588
G0 X9.736 Y13.545 Z6.588
G0 X9.736 Y13.545 Z4.780
G0 X9.736 Y13.545 Z1.780
G1 X9.736 Y13.545 Z-1.220 F100
G0 X9.736 Y13.545 Z-1.120
G1 X9.736 Y13.545 Z-2.220 F100
G0 X9.736 Y13.545 Z-2.120
G1 X9.736 Y13.545 Z-3.217 F100
G0 X9.736 Y13.545 Z6.588
G0 X16.932 Y5.791 Z6.588
G0 X16.932 Y5.791 Z6.588
G0 X16.932 Y5.791 Z4.780
G0 X16.932 Y5.791 Z1.780
G1 X16.932 Y5.791 Z-1.220 F100
G0 X16.932 Y5.791 Z-1.120
G1 X16.932 Y5.791 Z-2.220 F100
G0 X16.932 Y5.791 Z-2.120
G1 X16.932 Y5.791 Z-3.217 F100
G0 X16.932 Y5.791 Z6.588
G0 X24.128 Y13.545 Z6.588
G0 X24.128 Y13.545 Z6.588
G0 X24.128 Y13.545 Z4.780
G0 X24.128 Y13.545 Z1.780
G1 X24.128 Y13.545 Z-1.220 F100
G0 X24.128 Y13.545 Z-1.120
G1 X24.128 Y13.545 Z-2.220 F100
G0 X24.128 Y13.545 Z-2.120
G1 X24.128 Y13.545 Z-3.217 F100
G0 X24.128 Y13.545 Z6.588
G0 X32.593 Y14.815 Z6.588
G0 X32.593 Y14.815 Z6.588
G0 X32.593 Y14.815 Z4.780
G0 X32.593 Y14.815 Z1.780
G1 X32.593 Y14.815 Z-1.220 F100
G0 X32.593 Y14.815 Z-1.120
G1 X32.593 Y14.815 Z-2.220 F100
G0 X32.593 Y14.815 Z-2.120
G1 X32.593 Y14.815 Z-3.217 F100
G0 X32.593 Y14.815 Z6.588
G0 X32.593 Y1.270 Z6.588
G0 X32.593 Y1.270 Z6.588
G0 X32.593 Y1.270 Z4.780
G0 X32.593 Y1.270 Z1.780
G1 X32.593 Y1.270 Z-1.220 F100
G0 X32.593 Y1.270 Z-1.120
G1 X32.593 Y1.270 Z-2.220 F100
G0 X32.593 Y1.270 Z-2.120
G1 X32.593 Y1.270 Z-3.217 F100
G0 X32.593 Y1.270 Z6.588
G0 X32.593 Y1.270 Z46.588
G0 X0.000 Y0.000
M5
