;Titan-1-Face
;Machine
;vendor: Snapmaker
;model: Desktop CNC
;description: Generic Snapmaker Marlin v20180725
;tool: 6mm 3 flute endmill

M3 P100
G4 S2
G21
G90
;When using Fusion for Personal Use, the feedrate of rapid
;moves is reduced to match the feedrate of cutting moves,
;which can increase machining time. Unrestricted rapid moves
;are available with a Fusion Subscription.

;Face
G0 X37.759 Y-1.088 Z56.588
G1 X37.759 Y-1.088 Z56.588 F400
G1 X37.759 Y-1.088 Z6.588 F400
G1 X37.759 Y-1.088 Z2.100 F150
G1 X37.751 Y-1.088 Z2.006 F400
G1 X37.729 Y-1.088 Z1.915 F400
G1 X37.693 Y-1.088 Z1.828 F400
G1 X37.644 Y-1.088 Z1.747 F400
G1 X37.583 Y-1.088 Z1.676 F400
G1 X37.511 Y-1.088 Z1.615 F400
G1 X37.431 Y-1.088 Z1.565 F400
G1 X37.344 Y-1.088 Z1.529 F400
G1 X37.253 Y-1.088 Z1.507 F400
G1 X37.159 Y-1.088 Z1.500 F400
G1 X36.873 Y-1.088 Z1.500 F400
G1 X-3.010 Y-1.088 Z1.500 F400
G1 X-3.161 Y-1.080 Z1.500 F400
G1 X-3.310 Y-1.056 Z1.500 F400
G1 X-3.455 Y-1.017 Z1.500 F400
G1 X-3.596 Y-0.963 Z1.500 F400
G1 X-3.731 Y-0.895 Z1.500 F400
G1 X-3.857 Y-0.813 Z1.500 F400
G1 X-3.974 Y-0.718 Z1.500 F400
G1 X-4.081 Y-0.611 Z1.500 F400
G1 X-4.176 Y-0.494 Z1.500 F400
G1 X-4.258 Y-0.367 Z1.500 F400
G1 X-4.326 Y-0.233 Z1.500 F400
G1 X-4.381 Y-0.092 Z1.500 F400
G1 X-4.420 Y0.054 Z1.500 F400
G1 X-4.443 Y0.203 Z1.500 F400
G1 X-4.451 Y0.353 Z1.500 F400
G1 X-4.443 Y0.504 Z1.500 F400
G1 X-4.420 Y0.653 Z1.500 F400
G1 X-4.381 Y0.799 Z1.500 F400
G1 X-4.326 Y0.939 Z1.500 F400
G1 X-4.258 Y1.074 Z1.500 F400
G1 X-4.176 Y1.200 Z1.500 F400
G1 X-4.081 Y1.317 Z1.500 F400
G1 X-3.974 Y1.424 Z1.500 F400
G1 X-3.857 Y1.519 Z1.500 F400
G1 X-3.731 Y1.601 Z1.500 F400
G1 X-3.596 Y1.670 Z1.500 F400
G1 X-3.455 Y1.724 Z1.500 F400
G1 X-3.310 Y1.763 Z1.500 F400
G1 X-3.161 Y1.786 Z1.500 F400
G1 X-3.010 Y1.794 Z1.500 F400
G1 X36.873 Y1.794 Z1.500 F400
G1 X37.024 Y1.802 Z1.500 F400
G1 X37.173 Y1.826 Z1.500 F400
G1 X37.319 Y1.865 Z1.500 F400
G1 X37.459 Y1.919 Z1.500 F400
G1 X37.594 Y1.987 Z1.500 F400
G1 X37.720 Y2.070 Z1.500 F400
G1 X37.838 Y2.164 Z1.500 F400
G1 X37.944 Y2.271 Z1.500 F400
G1 X38.039 Y2.388 Z1.500 F400
G1 X38.121 Y2.515 Z1.500 F400
G1 X38.190 Y2.649 Z1.500 F400
G1 X38.244 Y2.790 Z1.500 F400
G1 X38.283 Y2.936 Z1.500 F400
G1 X38.306 Y3.085 Z1.500 F400
G1 X38.314 Y3.235 Z1.500 F400
G1 X38.306 Y3.386 Z1.500 F400
G1 X38.283 Y3.535 Z1.500 F400
G1 X38.244 Y3.681 Z1.500 F400
G1 X38.190 Y3.822 Z1.500 F400
G1 X38.121 Y3.956 Z1.500 F400
G1 X38.039 Y4.082 Z1.500 F400
G1 X37.944 Y4.200 Z1.500 F400
G1 X37.838 Y4.306 Z1.500 F400
G1 X37.720 Y4.401 Z1.500 F400
G1 X37.594 Y4.483 Z1.500 F400
G1 X37.459 Y4.552 Z1.500 F400
G1 X37.319 Y4.606 Z1.500 F400
G1 X37.173 Y4.645 Z1.500 F400
G1 X37.024 Y4.669 Z1.500 F400
G1 X36.873 Y4.676 Z1.500 F400
G1 X-3.010 Y4.676 Z1.500 F400
G1 X-3.161 Y4.684 Z1.500 F400
G1 X-3.310 Y4.708 Z1.500 F400
G1 X-3.455 Y4.747 Z1.500 F400
G1 X-3.596 Y4.801 Z1.500 F400
G1 X-3.731 Y4.870 Z1.500 F400
G1 X-3.857 Y4.952 Z1.500 F400
G1 X-3.974 Y5.047 Z1.500 F400
G1 X-4.081 Y5.153 Z1.500 F400
G1 X-4.176 Y5.270 Z1.500 F400
G1 X-4.258 Y5.397 Z1.500 F400
G1 X-4.326 Y5.531 Z1.500 F400
G1 X-4.381 Y5.672 Z1.500 F400
G1 X-4.420 Y5.818 Z1.500 F400
G1 X-4.443 Y5.967 Z1.500 F400
G1 X-4.451 Y6.118 Z1.500 F400
G1 X-4.443 Y6.268 Z1.500 F400
G1 X-4.420 Y6.417 Z1.500 F400
G1 X-4.381 Y6.563 Z1.500 F400
G1 X-4.326 Y6.704 Z1.500 F400
G1 X-4.258 Y6.838 Z1.500 F400
G1 X-4.176 Y6.965 Z1.500 F400
G1 X-4.081 Y7.082 Z1.500 F400
G1 X-3.974 Y7.188 Z1.500 F400
G1 X-3.857 Y7.283 Z1.500 F400
G1 X-3.731 Y7.366 Z1.500 F400
G1 X-3.596 Y7.434 Z1.500 F400
G1 X-3.455 Y7.488 Z1.500 F400
G1 X-3.310 Y7.527 Z1.500 F400
G1 X-3.161 Y7.551 Z1.500 F400
G1 X-3.010 Y7.559 Z1.500 F400
G1 X36.873 Y7.559 Z1.500 F400
G1 X37.024 Y7.566 Z1.500 F400
G1 X37.173 Y7.590 Z1.500 F400
G1 X37.319 Y7.629 Z1.500 F400
G1 X37.459 Y7.683 Z1.500 F400
G1 X37.594 Y7.752 Z1.500 F400
G1 X37.720 Y7.834 Z1.500 F400
G1 X37.838 Y7.929 Z1.500 F400
G1 X37.944 Y8.035 Z1.500 F400
G1 X38.039 Y8.153 Z1.500 F400
G1 X38.121 Y8.279 Z1.500 F400
G1 X38.190 Y8.414 Z1.500 F400
G1 X38.244 Y8.554 Z1.500 F400
G1 X38.283 Y8.700 Z1.500 F400
G1 X38.306 Y8.849 Z1.500 F400
G1 X38.314 Y9.000 Z1.500 F400
G1 X38.306 Y9.150 Z1.500 F400
G1 X38.283 Y9.299 Z1.500 F400
G1 X38.244 Y9.445 Z1.500 F400
G1 X38.190 Y9.586 Z1.500 F400
G1 X38.121 Y9.720 Z1.500 F400
G1 X38.039 Y9.847 Z1.500 F400
G1 X37.944 Y9.964 Z1.500 F400
G1 X37.838 Y10.071 Z1.500 F400
G1 X37.720 Y10.166 Z1.500 F400
G1 X37.594 Y10.248 Z1.500 F400
G1 X37.459 Y10.316 Z1.500 F400
G1 X37.319 Y10.370 Z1.500 F400
G1 X37.173 Y10.409 Z1.500 F400
G1 X37.024 Y10.433 Z1.500 F400
G1 X36.873 Y10.441 Z1.500 F400
G1 X-3.010 Y10.441 Z1.500 F400
G1 X-3.161 Y10.449 Z1.500 F400
G1 X-3.310 Y10.472 Z1.500 F400
G1 X-3.455 Y10.511 Z1.500 F400
G1 X-3.596 Y10.565 Z1.500 F400
G1 X-3.731 Y10.634 Z1.500 F400
G1 X-3.857 Y10.716 Z1.500 F400
G1 X-3.974 Y10.811 Z1.500 F400
G1 X-4.081 Y10.918 Z1.500 F400
G1 X-4.176 Y11.035 Z1.500 F400
G1 X-4.258 Y11.161 Z1.500 F400
G1 X-4.326 Y11.296 Z1.500 F400
G1 X-4.381 Y11.437 Z1.500 F400
G1 X-4.420 Y11.582 Z1.500 F400
G1 X-4.443 Y11.731 Z1.500 F400
G1 X-4.451 Y11.882 Z1.500 F400
G1 X-4.443 Y12.032 Z1.500 F400
G1 X-4.420 Y12.181 Z1.500 F400
G1 X-4.381 Y12.327 Z1.500 F400
G1 X-4.326 Y12.468 Z1.500 F400
G1 X-4.258 Y12.602 Z1.500 F400
G1 X-4.176 Y12.729 Z1.500 F400
G1 X-4.081 Y12.846 Z1.500 F400
G1 X-3.974 Y12.953 Z1.500 F400
G1 X-3.857 Y13.048 Z1.500 F400
G1 X-3.731 Y13.130 Z1.500 F400
G1 X-3.596 Y13.198 Z1.500 F400
G1 X-3.455 Y13.252 Z1.500 F400
G1 X-3.310 Y13.291 Z1.500 F400
G1 X-3.161 Y13.315 Z1.500 F400
G1 X-3.010 Y13.323 Z1.500 F400
G1 X36.873 Y13.323 Z1.500 F400
G1 X37.024 Y13.331 Z1.500 F400
G1 X37.173 Y13.354 Z1.500 F400
G1 X37.319 Y13.393 Z1.500 F400
G1 X37.459 Y13.447 Z1.500 F400
G1 X37.594 Y13.516 Z1.500 F400
G1 X37.720 Y13.598 Z1.500 F400
G1 X37.838 Y13.693 Z1.500 F400
G1 X37.944 Y13.800 Z1.500 F400
G1 X38.039 Y13.917 Z1.500 F400
G1 X38.121 Y14.043 Z1.500 F400
G1 X38.190 Y14.178 Z1.500 F400
G1 X38.244 Y14.319 Z1.500 F400
G1 X38.283 Y14.464 Z1.500 F400
G1 X38.306 Y14.613 Z1.500 F400
G1 X38.314 Y14.764 Z1.500 F400
G1 X38.306 Y14.915 Z1.500 F400
G1 X38.283 Y15.064 Z1.500 F400
G1 X38.244 Y15.209 Z1.500 F400
G1 X38.190 Y15.350 Z1.500 F400
G1 X38.121 Y15.485 Z1.500 F400
G1 X38.039 Y15.611 Z1.500 F400
G1 X37.944 Y15.728 Z1.500 F400
G1 X37.838 Y15.835 Z1.500 F400
G1 X37.720 Y15.930 Z1.500 F400
G1 X37.594 Y16.012 Z1.500 F400
G1 X37.459 Y16.080 Z1.500 F400
G1 X37.319 Y16.135 Z1.500 F400
G1 X37.173 Y16.174 Z1.500 F400
G1 X37.024 Y16.197 Z1.500 F400
G1 X36.873 Y16.205 Z1.500 F400
G1 X-3.010 Y16.205 Z1.500 F400
G1 X-3.104 Y16.205 Z1.507 F3000
G1 X-3.195 Y16.205 Z1.529 F3000
G1 X-3.282 Y16.205 Z1.565 F3000
G1 X-3.363 Y16.205 Z1.615 F3000
G1 X-3.434 Y16.205 Z1.676 F3000
G1 X-3.495 Y16.205 Z1.747 F3000
G1 X-3.545 Y16.205 Z1.828 F3000
G1 X-3.581 Y16.205 Z1.915 F3000
G1 X-3.603 Y16.205 Z2.006 F3000
G1 X-3.610 Y16.205 Z2.100 F3000
G1 X-3.610 Y16.205 Z6.588 F400
G1 X-3.895 Y-1.088 Z6.588 F400
G1 X-3.895 Y-1.088 Z1.600 F150
G1 X-3.888 Y-1.088 Z1.506 F400
G1 X-3.866 Y-1.088 Z1.415 F400
G1 X-3.830 Y-1.088 Z1.328 F400
G1 X-3.781 Y-1.088 Z1.247 F400
G1 X-3.720 Y-1.088 Z1.176 F400
G1 X-3.648 Y-1.088 Z1.115 F400
G1 X-3.568 Y-1.088 Z1.065 F400
G1 X-3.481 Y-1.088 Z1.029 F400
G1 X-3.389 Y-1.088 Z1.007 F400
G1 X-3.295 Y-1.088 Z1.000 F400
G1 X-3.010 Y-1.088 Z1.000 F400
G1 X36.873 Y-1.088 Z1.000 F400
G1 X37.024 Y-1.080 Z1.000 F400
G1 X37.173 Y-1.056 Z1.000 F400
G1 X37.319 Y-1.017 Z1.000 F400
G1 X37.459 Y-0.963 Z1.000 F400
G1 X37.594 Y-0.895 Z1.000 F400
G1 X37.720 Y-0.813 Z1.000 F400
G1 X37.838 Y-0.718 Z1.000 F400
G1 X37.944 Y-0.611 Z1.000 F400
G1 X38.039 Y-0.494 Z1.000 F400
G1 X38.121 Y-0.367 Z1.000 F400
G1 X38.190 Y-0.233 Z1.000 F400
G1 X38.244 Y-0.092 Z1.000 F400
G1 X38.283 Y0.054 Z1.000 F400
G1 X38.306 Y0.203 Z1.000 F400
G1 X38.314 Y0.353 Z1.000 F400
G1 X38.306 Y0.504 Z1.000 F400
G1 X38.283 Y0.653 Z1.000 F400
G1 X38.244 Y0.799 Z1.000 F400
G1 X38.190 Y0.939 Z1.000 F400
G1 X38.121 Y1.074 Z1.000 F400
G1 X38.039 Y1.200 Z1.000 F400
G1 X37.944 Y1.317 Z1.000 F400
G1 X37.838 Y1.424 Z1.000 F400
G1 X37.720 Y1.519 Z1.000 F400
G1 X37.594 Y1.601 Z1.000 F400
G1 X37.459 Y1.670 Z1.000 F400
G1 X37.319 Y1.724 Z1.000 F400
G1 X37.173 Y1.763 Z1.000 F400
G1 X37.024 Y1.786 Z1.000 F400
G1 X36.873 Y1.794 Z1.000 F400
G1 X-3.010 Y1.794 Z1.000 F400
G1 X-3.161 Y1.802 Z1.000 F400
G1 X-3.310 Y1.826 Z1.000 F400
G1 X-3.455 Y1.865 Z1.000 F400
G1 X-3.596 Y1.919 Z1.000 F400
G1 X-3.731 Y1.987 Z1.000 F400
G1 X-3.857 Y2.070 Z1.000 F400
G1 X-3.974 Y2.164 Z1.000 F400
G1 X-4.081 Y2.271 Z1.000 F400
G1 X-4.176 Y2.388 Z1.000 F400
G1 X-4.258 Y2.515 Z1.000 F400
G1 X-4.326 Y2.649 Z1.000 F400
G1 X-4.381 Y2.790 Z1.000 F400
G1 X-4.420 Y2.936 Z1.000 F400
G1 X-4.443 Y3.085 Z1.000 F400
G1 X-4.451 Y3.235 Z1.000 F400
G1 X-4.443 Y3.386 Z1.000 F400
G1 X-4.420 Y3.535 Z1.000 F400
G1 X-4.381 Y3.681 Z1.000 F400
G1 X-4.326 Y3.822 Z1.000 F400
G1 X-4.258 Y3.956 Z1.000 F400
G1 X-4.176 Y4.082 Z1.000 F400
G1 X-4.081 Y4.200 Z1.000 F400
G1 X-3.974 Y4.306 Z1.000 F400
G1 X-3.857 Y4.401 Z1.000 F400
G1 X-3.731 Y4.483 Z1.000 F400
G1 X-3.596 Y4.552 Z1.000 F400
G1 X-3.455 Y4.606 Z1.000 F400
G1 X-3.310 Y4.645 Z1.000 F400
G1 X-3.161 Y4.669 Z1.000 F400
G1 X-3.010 Y4.676 Z1.000 F400
G1 X36.873 Y4.676 Z1.000 F400
G1 X37.024 Y4.684 Z1.000 F400
G1 X37.173 Y4.708 Z1.000 F400
G1 X37.319 Y4.747 Z1.000 F400
G1 X37.459 Y4.801 Z1.000 F400
G1 X37.594 Y4.870 Z1.000 F400
G1 X37.720 Y4.952 Z1.000 F400
G1 X37.838 Y5.047 Z1.000 F400
G1 X37.944 Y5.153 Z1.000 F400
G1 X38.039 Y5.270 Z1.000 F400
G1 X38.121 Y5.397 Z1.000 F400
G1 X38.190 Y5.531 Z1.000 F400
G1 X38.244 Y5.672 Z1.000 F400
G1 X38.283 Y5.818 Z1.000 F400
G1 X38.306 Y5.967 Z1.000 F400
G1 X38.314 Y6.118 Z1.000 F400
G1 X38.306 Y6.268 Z1.000 F400
G1 X38.283 Y6.417 Z1.000 F400
G1 X38.244 Y6.563 Z1.000 F400
G1 X38.190 Y6.704 Z1.000 F400
G1 X38.121 Y6.838 Z1.000 F400
G1 X38.039 Y6.965 Z1.000 F400
G1 X37.944 Y7.082 Z1.000 F400
G1 X37.838 Y7.188 Z1.000 F400
G1 X37.720 Y7.283 Z1.000 F400
G1 X37.594 Y7.366 Z1.000 F400
G1 X37.459 Y7.434 Z1.000 F400
G1 X37.319 Y7.488 Z1.000 F400
G1 X37.173 Y7.527 Z1.000 F400
G1 X37.024 Y7.551 Z1.000 F400
G1 X36.873 Y7.559 Z1.000 F400
G1 X-3.010 Y7.559 Z1.000 F400
G1 X-3.161 Y7.566 Z1.000 F400
G1 X-3.310 Y7.590 Z1.000 F400
G1 X-3.455 Y7.629 Z1.000 F400
G1 X-3.596 Y7.683 Z1.000 F400
G1 X-3.731 Y7.752 Z1.000 F400
G1 X-3.857 Y7.834 Z1.000 F400
G1 X-3.974 Y7.929 Z1.000 F400
G1 X-4.081 Y8.035 Z1.000 F400
G1 X-4.176 Y8.153 Z1.000 F400
G1 X-4.258 Y8.279 Z1.000 F400
G1 X-4.326 Y8.414 Z1.000 F400
G1 X-4.381 Y8.554 Z1.000 F400
G1 X-4.420 Y8.700 Z1.000 F400
G1 X-4.443 Y8.849 Z1.000 F400
G1 X-4.451 Y9.000 Z1.000 F400
G1 X-4.443 Y9.150 Z1.000 F400
G1 X-4.420 Y9.299 Z1.000 F400
G1 X-4.381 Y9.445 Z1.000 F400
G1 X-4.326 Y9.586 Z1.000 F400
G1 X-4.258 Y9.720 Z1.000 F400
G1 X-4.176 Y9.847 Z1.000 F400
G1 X-4.081 Y9.964 Z1.000 F400
G1 X-3.974 Y10.071 Z1.000 F400
G1 X-3.857 Y10.166 Z1.000 F400
G1 X-3.731 Y10.248 Z1.000 F400
G1 X-3.596 Y10.316 Z1.000 F400
G1 X-3.455 Y10.370 Z1.000 F400
G1 X-3.310 Y10.409 Z1.000 F400
G1 X-3.161 Y10.433 Z1.000 F400
G1 X-3.010 Y10.441 Z1.000 F400
G1 X36.873 Y10.441 Z1.000 F400
G1 X37.024 Y10.449 Z1.000 F400
G1 X37.173 Y10.472 Z1.000 F400
G1 X37.319 Y10.511 Z1.000 F400
G1 X37.459 Y10.565 Z1.000 F400
G1 X37.594 Y10.634 Z1.000 F400
G1 X37.720 Y10.716 Z1.000 F400
G1 X37.838 Y10.811 Z1.000 F400
G1 X37.944 Y10.918 Z1.000 F400
G1 X38.039 Y11.035 Z1.000 F400
G1 X38.121 Y11.161 Z1.000 F400
G1 X38.190 Y11.296 Z1.000 F400
G1 X38.244 Y11.437 Z1.000 F400
G1 X38.283 Y11.582 Z1.000 F400
G1 X38.306 Y11.731 Z1.000 F400
G1 X38.314 Y11.882 Z1.000 F400
G1 X38.306 Y12.032 Z1.000 F400
G1 X38.283 Y12.181 Z1.000 F400
G1 X38.244 Y12.327 Z1.000 F400
G1 X38.190 Y12.468 Z1.000 F400
G1 X38.121 Y12.602 Z1.000 F400
G1 X38.039 Y12.729 Z1.000 F400
G1 X37.944 Y12.846 Z1.000 F400
G1 X37.838 Y12.953 Z1.000 F400
G1 X37.720 Y13.048 Z1.000 F400
G1 X37.594 Y13.130 Z1.000 F400
G1 X37.459 Y13.198 Z1.000 F400
G1 X37.319 Y13.252 Z1.000 F400
G1 X37.173 Y13.291 Z1.000 F400
G1 X37.024 Y13.315 Z1.000 F400
G1 X36.873 Y13.323 Z1.000 F400
G1 X-3.010 Y13.323 Z1.000 F400
G1 X-3.161 Y13.331 Z1.000 F400
G1 X-3.310 Y13.354 Z1.000 F400
G1 X-3.455 Y13.393 Z1.000 F400
G1 X-3.596 Y13.447 Z1.000 F400
G1 X-3.731 Y13.516 Z1.000 F400
G1 X-3.857 Y13.598 Z1.000 F400
G1 X-3.974 Y13.693 Z1.000 F400
G1 X-4.081 Y13.800 Z1.000 F400
G1 X-4.176 Y13.917 Z1.000 F400
G1 X-4.258 Y14.043 Z1.000 F400
G1 X-4.326 Y14.178 Z1.000 F400
G1 X-4.381 Y14.319 Z1.000 F400
G1 X-4.420 Y14.464 Z1.000 F400
G1 X-4.443 Y14.613 Z1.000 F400
G1 X-4.451 Y14.764 Z1.000 F400
G1 X-4.443 Y14.915 Z1.000 F400
G1 X-4.420 Y15.064 Z1.000 F400
G1 X-4.381 Y15.209 Z1.000 F400
G1 X-4.326 Y15.350 Z1.000 F400
G1 X-4.258 Y15.485 Z1.000 F400
G1 X-4.176 Y15.611 Z1.000 F400
G1 X-4.081 Y15.728 Z1.000 F400
G1 X-3.974 Y15.835 Z1.000 F400
G1 X-3.857 Y15.930 Z1.000 F400
G1 X-3.731 Y16.012 Z1.000 F400
G1 X-3.596 Y16.080 Z1.000 F400
G1 X-3.455 Y16.135 Z1.000 F400
G1 X-3.310 Y16.174 Z1.000 F400
G1 X-3.161 Y16.197 Z1.000 F400
G1 X-3.010 Y16.205 Z1.000 F400
G1 X36.873 Y16.205 Z1.000 F400
G1 X36.967 Y16.205 Z1.007 F3000
G1 X37.059 Y16.205 Z1.029 F3000
G1 X37.146 Y16.205 Z1.065 F3000
G1 X37.226 Y16.205 Z1.115 F3000
G1 X37.298 Y16.205 Z1.176 F3000
G1 X37.359 Y16.205 Z1.247 F3000
G1 X37.408 Y16.205 Z1.328 F3000
G1 X37.444 Y16.205 Z1.415 F3000
G1 X37.466 Y16.205 Z1.506 F3000
G1 X37.473 Y16.205 Z1.600 F3000
G1 X37.473 Y16.205 Z6.588 F400
G1 X37.759 Y-1.088 Z6.588 F400
G1 X37.759 Y-1.088 Z1.100 F150
G1 X37.751 Y-1.088 Z1.006 F400
G1 X37.729 Y-1.088 Z0.915 F400
G1 X37.693 Y-1.088 Z0.828 F400
G1 X37.644 Y-1.088 Z0.747 F400
G1 X37.583 Y-1.088 Z0.676 F400
G1 X37.511 Y-1.088 Z0.615 F400
G1 X37.431 Y-1.088 Z0.565 F400
G1 X37.344 Y-1.088 Z0.529 F400
G1 X37.253 Y-1.088 Z0.507 F400
G1 X37.159 Y-1.088 Z0.500 F400
G1 X36.873 Y-1.088 Z0.500 F400
G1 X-3.010 Y-1.088 Z0.500 F400
G1 X-3.161 Y-1.080 Z0.500 F400
G1 X-3.310 Y-1.056 Z0.500 F400
G1 X-3.455 Y-1.017 Z0.500 F400
G1 X-3.596 Y-0.963 Z0.500 F400
G1 X-3.731 Y-0.895 Z0.500 F400
G1 X-3.857 Y-0.813 Z0.500 F400
G1 X-3.974 Y-0.718 Z0.500 F400
G1 X-4.081 Y-0.611 Z0.500 F400
G1 X-4.176 Y-0.494 Z0.500 F400
G1 X-4.258 Y-0.367 Z0.500 F400
G1 X-4.326 Y-0.233 Z0.500 F400
G1 X-4.381 Y-0.092 Z0.500 F400
G1 X-4.420 Y0.054 Z0.500 F400
G1 X-4.443 Y0.203 Z0.500 F400
G1 X-4.451 Y0.353 Z0.500 F400
G1 X-4.443 Y0.504 Z0.500 F400
G1 X-4.420 Y0.653 Z0.500 F400
G1 X-4.381 Y0.799 Z0.500 F400
G1 X-4.326 Y0.939 Z0.500 F400
G1 X-4.258 Y1.074 Z0.500 F400
G1 X-4.176 Y1.200 Z0.500 F400
G1 X-4.081 Y1.317 Z0.500 F400
G1 X-3.974 Y1.424 Z0.500 F400
G1 X-3.857 Y1.519 Z0.500 F400
G1 X-3.731 Y1.601 Z0.500 F400
G1 X-3.596 Y1.670 Z0.500 F400
G1 X-3.455 Y1.724 Z0.500 F400
G1 X-3.310 Y1.763 Z0.500 F400
G1 X-3.161 Y1.786 Z0.500 F400
G1 X-3.010 Y1.794 Z0.500 F400
G1 X36.873 Y1.794 Z0.500 F400
G1 X37.024 Y1.802 Z0.500 F400
G1 X37.173 Y1.826 Z0.500 F400
G1 X37.319 Y1.865 Z0.500 F400
G1 X37.459 Y1.919 Z0.500 F400
G1 X37.594 Y1.987 Z0.500 F400
G1 X37.720 Y2.070 Z0.500 F400
G1 X37.838 Y2.164 Z0.500 F400
G1 X37.944 Y2.271 Z0.500 F400
G1 X38.039 Y2.388 Z0.500 F400
G1 X38.121 Y2.515 Z0.500 F400
G1 X38.190 Y2.649 Z0.500 F400
G1 X38.244 Y2.790 Z0.500 F400
G1 X38.283 Y2.936 Z0.500 F400
G1 X38.306 Y3.085 Z0.500 F400
G1 X38.314 Y3.235 Z0.500 F400
G1 X38.306 Y3.386 Z0.500 F400
G1 X38.283 Y3.535 Z0.500 F400
G1 X38.244 Y3.681 Z0.500 F400
G1 X38.190 Y3.822 Z0.500 F400
G1 X38.121 Y3.956 Z0.500 F400
G1 X38.039 Y4.082 Z0.500 F400
G1 X37.944 Y4.200 Z0.500 F400
G1 X37.838 Y4.306 Z0.500 F400
G1 X37.720 Y4.401 Z0.500 F400
G1 X37.594 Y4.483 Z0.500 F400
G1 X37.459 Y4.552 Z0.500 F400
G1 X37.319 Y4.606 Z0.500 F400
G1 X37.173 Y4.645 Z0.500 F400
G1 X37.024 Y4.669 Z0.500 F400
G1 X36.873 Y4.676 Z0.500 F400
G1 X-3.010 Y4.676 Z0.500 F400
G1 X-3.161 Y4.684 Z0.500 F400
G1 X-3.310 Y4.708 Z0.500 F400
G1 X-3.455 Y4.747 Z0.500 F400
G1 X-3.596 Y4.801 Z0.500 F400
G1 X-3.731 Y4.870 Z0.500 F400
G1 X-3.857 Y4.952 Z0.500 F400
G1 X-3.974 Y5.047 Z0.500 F400
G1 X-4.081 Y5.153 Z0.500 F400
G1 X-4.176 Y5.270 Z0.500 F400
G1 X-4.258 Y5.397 Z0.500 F400
G1 X-4.326 Y5.531 Z0.500 F400
G1 X-4.381 Y5.672 Z0.500 F400
G1 X-4.420 Y5.818 Z0.500 F400
G1 X-4.443 Y5.967 Z0.500 F400
G1 X-4.451 Y6.118 Z0.500 F400
G1 X-4.443 Y6.268 Z0.500 F400
G1 X-4.420 Y6.417 Z0.500 F400
G1 X-4.381 Y6.563 Z0.500 F400
G1 X-4.326 Y6.704 Z0.500 F400
G1 X-4.258 Y6.838 Z0.500 F400
G1 X-4.176 Y6.965 Z0.500 F400
G1 X-4.081 Y7.082 Z0.500 F400
G1 X-3.974 Y7.188 Z0.500 F400
G1 X-3.857 Y7.283 Z0.500 F400
G1 X-3.731 Y7.366 Z0.500 F400
G1 X-3.596 Y7.434 Z0.500 F400
G1 X-3.455 Y7.488 Z0.500 F400
G1 X-3.310 Y7.527 Z0.500 F400
G1 X-3.161 Y7.551 Z0.500 F400
G1 X-3.010 Y7.559 Z0.500 F400
G1 X36.873 Y7.559 Z0.500 F400
G1 X37.024 Y7.566 Z0.500 F400
G1 X37.173 Y7.590 Z0.500 F400
G1 X37.319 Y7.629 Z0.500 F400
G1 X37.459 Y7.683 Z0.500 F400
G1 X37.594 Y7.752 Z0.500 F400
G1 X37.720 Y7.834 Z0.500 F400
G1 X37.838 Y7.929 Z0.500 F400
G1 X37.944 Y8.035 Z0.500 F400
G1 X38.039 Y8.153 Z0.500 F400
G1 X38.121 Y8.279 Z0.500 F400
G1 X38.190 Y8.414 Z0.500 F400
G1 X38.244 Y8.554 Z0.500 F400
G1 X38.283 Y8.700 Z0.500 F400
G1 X38.306 Y8.849 Z0.500 F400
G1 X38.314 Y9.000 Z0.500 F400
G1 X38.306 Y9.150 Z0.500 F400
G1 X38.283 Y9.299 Z0.500 F400
G1 X38.244 Y9.445 Z0.500 F400
G1 X38.190 Y9.586 Z0.500 F400
G1 X38.121 Y9.720 Z0.500 F400
G1 X38.039 Y9.847 Z0.500 F400
G1 X37.944 Y9.964 Z0.500 F400
G1 X37.838 Y10.071 Z0.500 F400
G1 X37.720 Y10.166 Z0.500 F400
G1 X37.594 Y10.248 Z0.500 F400
G1 X37.459 Y10.316 Z0.500 F400
G1 X37.319 Y10.370 Z0.500 F400
G1 X37.173 Y10.409 Z0.500 F400
G1 X37.024 Y10.433 Z0.500 F400
G1 X36.873 Y10.441 Z0.500 F400
G1 X-3.010 Y10.441 Z0.500 F400
G1 X-3.161 Y10.449 Z0.500 F400
G1 X-3.310 Y10.472 Z0.500 F400
G1 X-3.455 Y10.511 Z0.500 F400
G1 X-3.596 Y10.565 Z0.500 F400
G1 X-3.731 Y10.634 Z0.500 F400
G1 X-3.857 Y10.716 Z0.500 F400
G1 X-3.974 Y10.811 Z0.500 F400
G1 X-4.081 Y10.918 Z0.500 F400
G1 X-4.176 Y11.035 Z0.500 F400
G1 X-4.258 Y11.161 Z0.500 F400
G1 X-4.326 Y11.296 Z0.500 F400
G1 X-4.381 Y11.437 Z0.500 F400
G1 X-4.420 Y11.582 Z0.500 F400
G1 X-4.443 Y11.731 Z0.500 F400
G1 X-4.451 Y11.882 Z0.500 F400
G1 X-4.443 Y12.032 Z0.500 F400
G1 X-4.420 Y12.181 Z0.500 F400
G1 X-4.381 Y12.327 Z0.500 F400
G1 X-4.326 Y12.468 Z0.500 F400
G1 X-4.258 Y12.602 Z0.500 F400
G1 X-4.176 Y12.729 Z0.500 F400
G1 X-4.081 Y12.846 Z0.500 F400
G1 X-3.974 Y12.953 Z0.500 F400
G1 X-3.857 Y13.048 Z0.500 F400
G1 X-3.731 Y13.130 Z0.500 F400
G1 X-3.596 Y13.198 Z0.500 F400
G1 X-3.455 Y13.252 Z0.500 F400
G1 X-3.310 Y13.291 Z0.500 F400
G1 X-3.161 Y13.315 Z0.500 F400
G1 X-3.010 Y13.323 Z0.500 F400
G1 X36.873 Y13.323 Z0.500 F400
G1 X37.024 Y13.331 Z0.500 F400
G1 X37.173 Y13.354 Z0.500 F400
G1 X37.319 Y13.393 Z0.500 F400
G1 X37.459 Y13.447 Z0.500 F400
G1 X37.594 Y13.516 Z0.500 F400
G1 X37.720 Y13.598 Z0.500 F400
G1 X37.838 Y13.693 Z0.500 F400
G1 X37.944 Y13.800 Z0.500 F400
G1 X38.039 Y13.917 Z0.500 F400
G1 X38.121 Y14.043 Z0.500 F400
G1 X38.190 Y14.178 Z0.500 F400
G1 X38.244 Y14.319 Z0.500 F400
G1 X38.283 Y14.464 Z0.500 F400
G1 X38.306 Y14.613 Z0.500 F400
G1 X38.314 Y14.764 Z0.500 F400
G1 X38.306 Y14.915 Z0.500 F400
G1 X38.283 Y15.064 Z0.500 F400
G1 X38.244 Y15.209 Z0.500 F400
G1 X38.190 Y15.350 Z0.500 F400
G1 X38.121 Y15.485 Z0.500 F400
G1 X38.039 Y15.611 Z0.500 F400
G1 X37.944 Y15.728 Z0.500 F400
G1 X37.838 Y15.835 Z0.500 F400
G1 X37.720 Y15.930 Z0.500 F400
G1 X37.594 Y16.012 Z0.500 F400
G1 X37.459 Y16.080 Z0.500 F400
G1 X37.319 Y16.135 Z0.500 F400
G1 X37.173 Y16.174 Z0.500 F400
G1 X37.024 Y16.197 Z0.500 F400
G1 X36.873 Y16.205 Z0.500 F400
G1 X-3.010 Y16.205 Z0.500 F400
G1 X-3.104 Y16.205 Z0.507 F3000
G1 X-3.195 Y16.205 Z0.529 F3000
G1 X-3.282 Y16.205 Z0.565 F3000
G1 X-3.363 Y16.205 Z0.615 F3000
G1 X-3.434 Y16.205 Z0.676 F3000
G1 X-3.495 Y16.205 Z0.747 F3000
G1 X-3.545 Y16.205 Z0.828 F3000
G1 X-3.581 Y16.205 Z0.915 F3000
G1 X-3.603 Y16.205 Z1.006 F3000
G1 X-3.610 Y16.205 Z1.100 F3000
G1 X-3.610 Y16.205 Z6.588 F400
G1 X-3.895 Y-1.088 Z6.588 F400
G1 X-3.895 Y-1.088 Z0.600 F150
G1 X-3.888 Y-1.088 Z0.506 F400
G1 X-3.866 Y-1.088 Z0.415 F400
G1 X-3.830 Y-1.088 Z0.328 F400
G1 X-3.781 Y-1.088 Z0.247 F400
G1 X-3.720 Y-1.088 Z0.176 F400
G1 X-3.648 Y-1.088 Z0.115 F400
G1 X-3.568 Y-1.088 Z0.065 F400
G1 X-3.481 Y-1.088 Z0.029 F400
G1 X-3.389 Y-1.088 Z0.007 F400
G1 X-3.295 Y-1.088 Z0.000 F400
G1 X-3.010 Y-1.088 Z0.000 F400
G1 X36.873 Y-1.088 Z0.000 F400
G1 X37.024 Y-1.080 Z0.000 F400
G1 X37.173 Y-1.056 Z0.000 F400
G1 X37.319 Y-1.017 Z0.000 F400
G1 X37.459 Y-0.963 Z0.000 F400
G1 X37.594 Y-0.895 Z0.000 F400
G1 X37.720 Y-0.813 Z0.000 F400
G1 X37.838 Y-0.718 Z0.000 F400
G1 X37.944 Y-0.611 Z0.000 F400
G1 X38.039 Y-0.494 Z0.000 F400
G1 X38.121 Y-0.367 Z0.000 F400
G1 X38.190 Y-0.233 Z0.000 F400
G1 X38.244 Y-0.092 Z0.000 F400
G1 X38.283 Y0.054 Z0.000 F400
G1 X38.306 Y0.203 Z0.000 F400
G1 X38.314 Y0.353 Z0.000 F400
G1 X38.306 Y0.504 Z0.000 F400
G1 X38.283 Y0.653 Z0.000 F400
G1 X38.244 Y0.799 Z0.000 F400
G1 X38.190 Y0.939 Z0.000 F400
G1 X38.121 Y1.074 Z0.000 F400
G1 X38.039 Y1.200 Z0.000 F400
G1 X37.944 Y1.317 Z0.000 F400
G1 X37.838 Y1.424 Z0.000 F400
G1 X37.720 Y1.519 Z0.000 F400
G1 X37.594 Y1.601 Z0.000 F400
G1 X37.459 Y1.670 Z0.000 F400
G1 X37.319 Y1.724 Z0.000 F400
G1 X37.173 Y1.763 Z0.000 F400
G1 X37.024 Y1.786 Z0.000 F400
G1 X36.873 Y1.794 Z0.000 F400
G1 X-3.010 Y1.794 Z0.000 F400
G1 X-3.161 Y1.802 Z0.000 F400
G1 X-3.310 Y1.826 Z0.000 F400
G1 X-3.455 Y1.865 Z0.000 F400
G1 X-3.596 Y1.919 Z0.000 F400
G1 X-3.731 Y1.987 Z0.000 F400
G1 X-3.857 Y2.070 Z0.000 F400
G1 X-3.974 Y2.164 Z0.000 F400
G1 X-4.081 Y2.271 Z0.000 F400
G1 X-4.176 Y2.388 Z0.000 F400
G1 X-4.258 Y2.515 Z0.000 F400
G1 X-4.326 Y2.649 Z0.000 F400
G1 X-4.381 Y2.790 Z0.000 F400
G1 X-4.420 Y2.936 Z0.000 F400
G1 X-4.443 Y3.085 Z0.000 F400
G1 X-4.451 Y3.235 Z0.000 F400
G1 X-4.443 Y3.386 Z0.000 F400
G1 X-4.420 Y3.535 Z0.000 F400
G1 X-4.381 Y3.681 Z0.000 F400
G1 X-4.326 Y3.822 Z0.000 F400
G1 X-4.258 Y3.956 Z0.000 F400
G1 X-4.176 Y4.082 Z0.000 F400
G1 X-4.081 Y4.200 Z0.000 F400
G1 X-3.974 Y4.306 Z0.000 F400
G1 X-3.857 Y4.401 Z0.000 F400
G1 X-3.731 Y4.483 Z0.000 F400
G1 X-3.596 Y4.552 Z0.000 F400
G1 X-3.455 Y4.606 Z0.000 F400
G1 X-3.310 Y4.645 Z0.000 F400
G1 X-3.161 Y4.669 Z0.000 F400
G1 X-3.010 Y4.676 Z0.000 F400
G1 X36.873 Y4.676 Z0.000 F400
G1 X37.024 Y4.684 Z0.000 F400
G1 X37.173 Y4.708 Z0.000 F400
G1 X37.319 Y4.747 Z0.000 F400
G1 X37.459 Y4.801 Z0.000 F400
G1 X37.594 Y4.870 Z0.000 F400
G1 X37.720 Y4.952 Z0.000 F400
G1 X37.838 Y5.047 Z0.000 F400
G1 X37.944 Y5.153 Z0.000 F400
G1 X38.039 Y5.270 Z0.000 F400
G1 X38.121 Y5.397 Z0.000 F400
G1 X38.190 Y5.531 Z0.000 F400
G1 X38.244 Y5.672 Z0.000 F400
G1 X38.283 Y5.818 Z0.000 F400
G1 X38.306 Y5.967 Z0.000 F400
G1 X38.314 Y6.118 Z0.000 F400
G1 X38.306 Y6.268 Z0.000 F400
G1 X38.283 Y6.417 Z0.000 F400
G1 X38.244 Y6.563 Z0.000 F400
G1 X38.190 Y6.704 Z0.000 F400
G1 X38.121 Y6.838 Z0.000 F400
G1 X38.039 Y6.965 Z0.000 F400
G1 X37.944 Y7.082 Z0.000 F400
G1 X37.838 Y7.188 Z0.000 F400
G1 X37.720 Y7.283 Z0.000 F400
G1 X37.594 Y7.366 Z0.000 F400
G1 X37.459 Y7.434 Z0.000 F400
G1 X37.319 Y7.488 Z0.000 F400
G1 X37.173 Y7.527 Z0.000 F400
G1 X37.024 Y7.551 Z0.000 F400
G1 X36.873 Y7.559 Z0.000 F400
G1 X-3.010 Y7.559 Z0.000 F400
G1 X-3.161 Y7.566 Z0.000 F400
G1 X-3.310 Y7.590 Z0.000 F400
G1 X-3.455 Y7.629 Z0.000 F400
G1 X-3.596 Y7.683 Z0.000 F400
G1 X-3.731 Y7.752 Z0.000 F400
G1 X-3.857 Y7.834 Z0.000 F400
G1 X-3.974 Y7.929 Z0.000 F400
G1 X-4.081 Y8.035 Z0.000 F400
G1 X-4.176 Y8.153 Z0.000 F400
G1 X-4.258 Y8.279 Z0.000 F400
G1 X-4.326 Y8.414 Z0.000 F400
G1 X-4.381 Y8.554 Z0.000 F400
G1 X-4.420 Y8.700 Z0.000 F400
G1 X-4.443 Y8.849 Z0.000 F400
G1 X-4.451 Y9.000 Z0.000 F400
G1 X-4.443 Y9.150 Z0.000 F400
G1 X-4.420 Y9.299 Z0.000 F400
G1 X-4.381 Y9.445 Z0.000 F400
G1 X-4.326 Y9.586 Z0.000 F400
G1 X-4.258 Y9.720 Z0.000 F400
G1 X-4.176 Y9.847 Z0.000 F400
G1 X-4.081 Y9.964 Z0.000 F400
G1 X-3.974 Y10.071 Z0.000 F400
G1 X-3.857 Y10.166 Z0.000 F400
G1 X-3.731 Y10.248 Z0.000 F400
G1 X-3.596 Y10.316 Z0.000 F400
G1 X-3.455 Y10.370 Z0.000 F400
G1 X-3.310 Y10.409 Z0.000 F400
G1 X-3.161 Y10.433 Z0.000 F400
G1 X-3.010 Y10.441 Z0.000 F400
G1 X36.873 Y10.441 Z0.000 F400
G1 X37.024 Y10.449 Z0.000 F400
G1 X37.173 Y10.472 Z0.000 F400
G1 X37.319 Y10.511 Z0.000 F400
G1 X37.459 Y10.565 Z0.000 F400
G1 X37.594 Y10.634 Z0.000 F400
G1 X37.720 Y10.716 Z0.000 F400
G1 X37.838 Y10.811 Z0.000 F400
G1 X37.944 Y10.918 Z0.000 F400
G1 X38.039 Y11.035 Z0.000 F400
G1 X38.121 Y11.161 Z0.000 F400
G1 X38.190 Y11.296 Z0.000 F400
G1 X38.244 Y11.437 Z0.000 F400
G1 X38.283 Y11.582 Z0.000 F400
G1 X38.306 Y11.731 Z0.000 F400
G1 X38.314 Y11.882 Z0.000 F400
G1 X38.306 Y12.032 Z0.000 F400
G1 X38.283 Y12.181 Z0.000 F400
G1 X38.244 Y12.327 Z0.000 F400
G1 X38.190 Y12.468 Z0.000 F400
G1 X38.121 Y12.602 Z0.000 F400
G1 X38.039 Y12.729 Z0.000 F400
G1 X37.944 Y12.846 Z0.000 F400
G1 X37.838 Y12.953 Z0.000 F400
G1 X37.720 Y13.048 Z0.000 F400
G1 X37.594 Y13.130 Z0.000 F400
G1 X37.459 Y13.198 Z0.000 F400
G1 X37.319 Y13.252 Z0.000 F400
G1 X37.173 Y13.291 Z0.000 F400
G1 X37.024 Y13.315 Z0.000 F400
G1 X36.873 Y13.323 Z0.000 F400
G1 X-3.010 Y13.323 Z0.000 F400
G1 X-3.161 Y13.331 Z0.000 F400
G1 X-3.310 Y13.354 Z0.000 F400
G1 X-3.455 Y13.393 Z0.000 F400
G1 X-3.596 Y13.447 Z0.000 F400
G1 X-3.731 Y13.516 Z0.000 F400
G1 X-3.857 Y13.598 Z0.000 F400
G1 X-3.974 Y13.693 Z0.000 F400
G1 X-4.081 Y13.800 Z0.000 F400
G1 X-4.176 Y13.917 Z0.000 F400
G1 X-4.258 Y14.043 Z0.000 F400
G1 X-4.326 Y14.178 Z0.000 F400
G1 X-4.381 Y14.319 Z0.000 F400
G1 X-4.420 Y14.464 Z0.000 F400
G1 X-4.443 Y14.613 Z0.000 F400
G1 X-4.451 Y14.764 Z0.000 F400
G1 X-4.443 Y14.915 Z0.000 F400
G1 X-4.420 Y15.064 Z0.000 F400
G1 X-4.381 Y15.209 Z0.000 F400
G1 X-4.326 Y15.350 Z0.000 F400
G1 X-4.258 Y15.485 Z0.000 F400
G1 X-4.176 Y15.611 Z0.000 F400
G1 X-4.081 Y15.728 Z0.000 F400
G1 X-3.974 Y15.835 Z0.000 F400
G1 X-3.857 Y15.930 Z0.000 F400
G1 X-3.731 Y16.012 Z0.000 F400
G1 X-3.596 Y16.080 Z0.000 F400
G1 X-3.455 Y16.135 Z0.000 F400
G1 X-3.310 Y16.174 Z0.000 F400
G1 X-3.161 Y16.197 Z0.000 F400
G1 X-3.010 Y16.205 Z0.000 F400
G1 X36.873 Y16.205 Z0.000 F400
G1 X36.967 Y16.205 Z0.007 F3000
G1 X37.059 Y16.205 Z0.029 F3000
G1 X37.146 Y16.205 Z0.065 F3000
G1 X37.226 Y16.205 Z0.115 F3000
G1 X37.298 Y16.205 Z0.176 F3000
G1 X37.359 Y16.205 Z0.247 F3000
G1 X37.408 Y16.205 Z0.328 F3000
G1 X37.444 Y16.205 Z0.415 F3000
G1 X37.466 Y16.205 Z0.506 F3000
G1 X37.473 Y16.205 Z0.600 F3000
G1 X37.473 Y16.205 Z56.588 F400
G0 X0.000 Y0.000
M5
