;Titan-1-Countersink-Holes
;Machine
;vendor: Snapmaker
;model: Desktop CNC
;description: Generic Snapmaker Marlin v20180725
;tool: 1/8 chamfer mill

M3 P100
G4 S2
G21
G90

;Ch. Drill Holes
G0 X1.270 Y1.270 Z15.000
G0 X1.270 Y1.270 Z15.000
G0 X1.270 Y1.270 Z15.000
G0 X1.270 Y1.270 Z5.000
G0 X1.270 Y1.270 Z4.780
G1 X1.270 Y1.270 Z-0.470 F100
G0 X1.270 Y1.270 Z5.000
G0 X1.270 Y14.815 Z5.000
G0 X1.270 Y14.815 Z5.000
G0 X1.270 Y14.815 Z4.780
G1 X1.270 Y14.815 Z-0.470 F100
G0 X1.270 Y14.815 Z5.000
G0 X9.736 Y13.545 Z5.000
G0 X9.736 Y13.545 Z5.000
G0 X9.736 Y13.545 Z4.780
G1 X9.736 Y13.545 Z-0.470 F100
G0 X9.736 Y13.545 Z5.000
G0 X16.932 Y5.791 Z5.000
G0 X16.932 Y5.791 Z5.000
G0 X16.932 Y5.791 Z4.780
G1 X16.932 Y5.791 Z-0.470 F100
G0 X16.932 Y5.791 Z5.000
G0 X24.128 Y13.545 Z5.000
G0 X24.128 Y13.545 Z5.000
G0 X24.128 Y13.545 Z4.780
G1 X24.128 Y13.545 Z-0.470 F100
G0 X24.128 Y13.545 Z5.000
G0 X32.593 Y14.815 Z5.000
G0 X32.593 Y14.815 Z5.000
G0 X32.593 Y14.815 Z4.780
G1 X32.593 Y14.815 Z-0.470 F100
G0 X32.593 Y14.815 Z5.000
G0 X32.593 Y1.270 Z5.000
G0 X32.593 Y1.270 Z5.000
G0 X32.593 Y1.270 Z4.780
G1 X32.593 Y1.270 Z-0.470 F100
G0 X32.593 Y1.270 Z5.000
G0 X32.593 Y1.270 Z15.000
G0 X0.000 Y0.000
M5
