;Titan-3-Facing
;Machine
;vendor: Snapmaker
;model: Desktop CNC
;description: Generic Snapmaker Marlin v20180725
M3 P100
G4 S2
G21
G90
;When using Fusion for Personal Use, the feedrate of rapid
;moves is reduced to match the feedrate of cutting moves,
;which can increase machining time. Unrestricted rapid moves
;are available with a Fusion Subscription.

;Titan-3-Facing
G0 X19.347 Y-3.145 Z56.588
G1 X19.347 Y-3.145 Z56.588 F500
G1 X19.347 Y-3.145 Z6.588 F500
G1 X19.347 Y-3.145 Z2.100 F100
G1 X19.340 Y-3.145 Z2.006 F500
G1 X19.318 Y-3.145 Z1.915 F500
G1 X19.282 Y-3.145 Z1.828 F500
G1 X19.233 Y-3.145 Z1.747 F500
G1 X19.172 Y-3.145 Z1.676 F500
G1 X19.100 Y-3.145 Z1.615 F500
G1 X19.020 Y-3.145 Z1.565 F500
G1 X18.933 Y-3.145 Z1.529 F500
G1 X18.841 Y-3.145 Z1.507 F500
G1 X18.747 Y-3.145 Z1.500 F500
G1 X-2.239 Y-3.145 Z1.500 F500
G1 X-4.531 Y-3.145 Z1.500 F200
G1 X-4.678 Y-3.137 Z1.500 F200
G1 X-4.824 Y-3.114 Z1.500 F200
G1 X-4.967 Y-3.076 Z1.500 F200
G1 X-5.105 Y-3.023 Z1.500 F200
G1 X-5.237 Y-2.956 Z1.500 F200
G1 X-5.361 Y-2.875 Z1.500 F200
G1 X-5.476 Y-2.782 Z1.500 F200
G1 X-5.580 Y-2.678 Z1.500 F200
G1 X-5.673 Y-2.563 Z1.500 F200
G1 X-5.754 Y-2.439 Z1.500 F200
G1 X-5.821 Y-2.307 Z1.500 F200
G1 X-5.874 Y-2.169 Z1.500 F200
G1 X-5.912 Y-2.026 Z1.500 F200
G1 X-5.935 Y-1.880 Z1.500 F200
G1 X-5.943 Y-1.733 Z1.500 F200
G1 X-5.935 Y-1.585 Z1.500 F200
G1 X-5.912 Y-1.439 Z1.500 F200
G1 X-5.874 Y-1.296 Z1.500 F200
G1 X-5.821 Y-1.158 Z1.500 F200
G1 X-5.754 Y-1.027 Z1.500 F200
G1 X-5.673 Y-0.903 Z1.500 F200
G1 X-5.580 Y-0.788 Z1.500 F200
G1 X-5.476 Y-0.683 Z1.500 F200
G1 X-5.361 Y-0.590 Z1.500 F200
G1 X-5.237 Y-0.510 Z1.500 F200
G1 X-5.105 Y-0.443 Z1.500 F200
G1 X-4.967 Y-0.390 Z1.500 F200
G1 X-4.824 Y-0.351 Z1.500 F200
G1 X-4.678 Y-0.328 Z1.500 F200
G1 X-4.531 Y-0.320 Z1.500 F200
G1 X21.039 Y-0.320 Z1.500 F500
G1 X22.174 Y-0.320 Z1.500 F200
G1 X22.321 Y-0.313 Z1.500 F200
G1 X22.467 Y-0.290 Z1.500 F200
G1 X22.610 Y-0.251 Z1.500 F200
G1 X22.748 Y-0.198 Z1.500 F200
G1 X22.880 Y-0.131 Z1.500 F200
G1 X23.004 Y-0.051 Z1.500 F200
G1 X23.119 Y0.042 Z1.500 F200
G1 X23.223 Y0.147 Z1.500 F200
G1 X23.316 Y0.262 Z1.500 F200
G1 X23.397 Y0.386 Z1.500 F200
G1 X23.464 Y0.518 Z1.500 F200
G1 X23.517 Y0.656 Z1.500 F200
G1 X23.555 Y0.798 Z1.500 F200
G1 X23.578 Y0.944 Z1.500 F200
G1 X23.586 Y1.092 Z1.500 F200
G1 X23.578 Y1.240 Z1.500 F200
G1 X23.555 Y1.386 Z1.500 F200
G1 X23.517 Y1.528 Z1.500 F200
G1 X23.464 Y1.666 Z1.500 F200
G1 X23.397 Y1.798 Z1.500 F200
G1 X23.316 Y1.922 Z1.500 F200
G1 X23.223 Y2.037 Z1.500 F200
G1 X23.119 Y2.142 Z1.500 F200
G1 X23.004 Y2.235 Z1.500 F200
G1 X22.880 Y2.315 Z1.500 F200
G1 X22.748 Y2.382 Z1.500 F200
G1 X22.610 Y2.435 Z1.500 F200
G1 X22.467 Y2.474 Z1.500 F200
G1 X22.321 Y2.497 Z1.500 F200
G1 X22.174 Y2.504 Z1.500 F200
G1 X-5.665 Y2.504 Z1.500 F500
G1 X-6.010 Y2.504 Z1.500 F200
G1 X-6.158 Y2.512 Z1.500 F200
G1 X-6.304 Y2.535 Z1.500 F200
G1 X-6.446 Y2.574 Z1.500 F200
G1 X-6.584 Y2.626 Z1.500 F200
G1 X-6.716 Y2.694 Z1.500 F200
G1 X-6.840 Y2.774 Z1.500 F200
G1 X-6.955 Y2.867 Z1.500 F200
G1 X-7.060 Y2.972 Z1.500 F200
G1 X-7.153 Y3.087 Z1.500 F200
G1 X-7.233 Y3.211 Z1.500 F200
G1 X-7.300 Y3.342 Z1.500 F200
G1 X-7.353 Y3.480 Z1.500 F200
G1 X-7.392 Y3.623 Z1.500 F200
G1 X-7.415 Y3.769 Z1.500 F200
G1 X-7.422 Y3.917 Z1.500 F200
G1 X-7.415 Y4.064 Z1.500 F200
G1 X-7.392 Y4.210 Z1.500 F200
G1 X-7.353 Y4.353 Z1.500 F200
G1 X-7.300 Y4.491 Z1.500 F200
G1 X-7.233 Y4.623 Z1.500 F200
G1 X-7.153 Y4.747 Z1.500 F200
G1 X-7.060 Y4.862 Z1.500 F200
G1 X-6.955 Y4.966 Z1.500 F200
G1 X-6.840 Y5.059 Z1.500 F200
G1 X-6.716 Y5.140 Z1.500 F200
G1 X-6.584 Y5.207 Z1.500 F200
G1 X-6.446 Y5.260 Z1.500 F200
G1 X-6.304 Y5.298 Z1.500 F200
G1 X-6.158 Y5.321 Z1.500 F200
G1 X-6.010 Y5.329 Z1.500 F200
G1 X22.518 Y5.329 Z1.500 F500
G1 X22.666 Y5.337 Z1.500 F200
G1 X22.812 Y5.360 Z1.500 F200
G1 X22.955 Y5.398 Z1.500 F200
G1 X23.093 Y5.451 Z1.500 F200
G1 X23.225 Y5.518 Z1.500 F200
G1 X23.349 Y5.599 Z1.500 F200
G1 X23.463 Y5.692 Z1.500 F200
G1 X23.568 Y5.796 Z1.500 F200
G1 X23.661 Y5.911 Z1.500 F200
G1 X23.742 Y6.035 Z1.500 F200
G1 X23.809 Y6.167 Z1.500 F200
G1 X23.862 Y6.305 Z1.500 F200
G1 X23.900 Y6.448 Z1.500 F200
G1 X23.923 Y6.594 Z1.500 F200
G1 X23.931 Y6.742 Z1.500 F200
G1 X23.923 Y6.889 Z1.500 F200
G1 X23.900 Y7.035 Z1.500 F200
G1 X23.862 Y7.178 Z1.500 F200
G1 X23.809 Y7.316 Z1.500 F200
G1 X23.742 Y7.448 Z1.500 F200
G1 X23.661 Y7.572 Z1.500 F200
G1 X23.568 Y7.687 Z1.500 F200
G1 X23.463 Y7.791 Z1.500 F200
G1 X23.349 Y7.884 Z1.500 F200
G1 X23.225 Y7.965 Z1.500 F200
G1 X23.093 Y8.032 Z1.500 F200
G1 X22.955 Y8.085 Z1.500 F200
G1 X22.812 Y8.123 Z1.500 F200
G1 X22.666 Y8.146 Z1.500 F200
G1 X22.518 Y8.154 Z1.500 F200
G1 X-6.010 Y8.154 Z1.500 F500
G1 X-6.158 Y8.162 Z1.500 F200
G1 X-6.304 Y8.185 Z1.500 F200
G1 X-6.446 Y8.223 Z1.500 F200
G1 X-6.584 Y8.276 Z1.500 F200
G1 X-6.716 Y8.343 Z1.500 F200
G1 X-6.840 Y8.424 Z1.500 F200
G1 X-6.955 Y8.517 Z1.500 F200
G1 X-7.060 Y8.621 Z1.500 F200
G1 X-7.153 Y8.736 Z1.500 F200
G1 X-7.233 Y8.860 Z1.500 F200
G1 X-7.300 Y8.992 Z1.500 F200
G1 X-7.353 Y9.130 Z1.500 F200
G1 X-7.392 Y9.273 Z1.500 F200
G1 X-7.415 Y9.419 Z1.500 F200
G1 X-7.422 Y9.566 Z1.500 F200
G1 X-7.415 Y9.714 Z1.500 F200
G1 X-7.392 Y9.860 Z1.500 F200
G1 X-7.353 Y10.003 Z1.500 F200
G1 X-7.300 Y10.141 Z1.500 F200
G1 X-7.233 Y10.273 Z1.500 F200
G1 X-7.153 Y10.397 Z1.500 F200
G1 X-7.060 Y10.511 Z1.500 F200
G1 X-6.955 Y10.616 Z1.500 F200
G1 X-6.840 Y10.709 Z1.500 F200
G1 X-6.716 Y10.790 Z1.500 F200
G1 X-6.584 Y10.857 Z1.500 F200
G1 X-6.446 Y10.910 Z1.500 F200
G1 X-6.304 Y10.948 Z1.500 F200
G1 X-6.158 Y10.971 Z1.500 F200
G1 X-6.010 Y10.979 Z1.500 F200
G1 X22.518 Y10.979 Z1.500 F500
G1 X22.666 Y10.986 Z1.500 F200
G1 X22.812 Y11.010 Z1.500 F200
G1 X22.955 Y11.048 Z1.500 F200
G1 X23.093 Y11.101 Z1.500 F200
G1 X23.225 Y11.168 Z1.500 F200
G1 X23.349 Y11.249 Z1.500 F200
G1 X23.463 Y11.342 Z1.500 F200
G1 X23.568 Y11.446 Z1.500 F200
G1 X23.661 Y11.561 Z1.500 F200
G1 X23.742 Y11.685 Z1.500 F200
G1 X23.809 Y11.817 Z1.500 F200
G1 X23.862 Y11.955 Z1.500 F200
G1 X23.900 Y12.098 Z1.500 F200
G1 X23.923 Y12.244 Z1.500 F200
G1 X23.931 Y12.391 Z1.500 F200
G1 X23.923 Y12.539 Z1.500 F200
G1 X23.900 Y12.685 Z1.500 F200
G1 X23.862 Y12.828 Z1.500 F200
G1 X23.809 Y12.966 Z1.500 F200
G1 X23.742 Y13.097 Z1.500 F200
G1 X23.661 Y13.221 Z1.500 F200
G1 X23.568 Y13.336 Z1.500 F200
G1 X23.463 Y13.441 Z1.500 F200
G1 X23.349 Y13.534 Z1.500 F200
G1 X23.225 Y13.614 Z1.500 F200
G1 X23.093 Y13.681 Z1.500 F200
G1 X22.955 Y13.734 Z1.500 F200
G1 X22.812 Y13.773 Z1.500 F200
G1 X22.666 Y13.796 Z1.500 F200
G1 X22.518 Y13.804 Z1.500 F200
G1 X22.224 Y13.804 Z1.500 F200
G1 X-5.716 Y13.804 Z1.500 F500
G1 X-5.864 Y13.811 Z1.500 F200
G1 X-6.010 Y13.834 Z1.500 F200
G1 X-6.153 Y13.873 Z1.500 F200
G1 X-6.291 Y13.926 Z1.500 F200
G1 X-6.422 Y13.993 Z1.500 F200
G1 X-6.546 Y14.073 Z1.500 F200
G1 X-6.661 Y14.166 Z1.500 F200
G1 X-6.766 Y14.271 Z1.500 F200
G1 X-6.859 Y14.386 Z1.500 F200
G1 X-6.939 Y14.510 Z1.500 F200
G1 X-7.006 Y14.641 Z1.500 F200
G1 X-7.059 Y14.779 Z1.500 F200
G1 X-7.098 Y14.922 Z1.500 F200
G1 X-7.121 Y15.068 Z1.500 F200
G1 X-7.129 Y15.216 Z1.500 F200
G1 X-7.121 Y15.364 Z1.500 F200
G1 X-7.098 Y15.510 Z1.500 F200
G1 X-7.059 Y15.652 Z1.500 F200
G1 X-7.006 Y15.790 Z1.500 F200
G1 X-6.939 Y15.922 Z1.500 F200
G1 X-6.859 Y16.046 Z1.500 F200
G1 X-6.766 Y16.161 Z1.500 F200
G1 X-6.661 Y16.266 Z1.500 F200
G1 X-6.546 Y16.359 Z1.500 F200
G1 X-6.422 Y16.439 Z1.500 F200
G1 X-6.291 Y16.506 Z1.500 F200
G1 X-6.153 Y16.559 Z1.500 F200
G1 X-6.010 Y16.597 Z1.500 F200
G1 X-5.864 Y16.621 Z1.500 F200
G1 X-5.716 Y16.628 Z1.500 F200
G1 X-4.639 Y16.628 Z1.500 F200
G1 X21.147 Y16.628 Z1.500 F500
G1 X21.241 Y16.628 Z1.507 F200
G1 X21.332 Y16.628 Z1.529 F200
G1 X21.419 Y16.628 Z1.565 F200
G1 X21.500 Y16.628 Z1.615 F200
G1 X21.571 Y16.628 Z1.676 F200
G1 X21.632 Y16.628 Z1.747 F200
G1 X21.682 Y16.628 Z1.828 F200
G1 X21.718 Y16.628 Z1.915 F200
G1 X21.740 Y16.628 Z2.006 F200
G1 X21.747 Y16.628 Z2.100 F200
G1 X21.747 Y16.628 Z6.588 F500
G1 X19.347 Y-3.145 Z6.588 F500
G1 X19.347 Y-3.145 Z1.600 F100
G1 X19.340 Y-3.145 Z1.506 F500
G1 X19.318 Y-3.145 Z1.415 F500
G1 X19.282 Y-3.145 Z1.328 F500
G1 X19.233 Y-3.145 Z1.247 F500
G1 X19.172 Y-3.145 Z1.176 F500
G1 X19.100 Y-3.145 Z1.115 F500
G1 X19.020 Y-3.145 Z1.065 F500
G1 X18.933 Y-3.145 Z1.029 F500
G1 X18.841 Y-3.145 Z1.007 F500
G1 X18.747 Y-3.145 Z1.000 F500
G1 X-2.239 Y-3.145 Z1.000 F500
G1 X-4.531 Y-3.145 Z1.000 F200
G1 X-4.678 Y-3.137 Z1.000 F200
G1 X-4.824 Y-3.114 Z1.000 F200
G1 X-4.967 Y-3.076 Z1.000 F200
G1 X-5.105 Y-3.023 Z1.000 F200
G1 X-5.237 Y-2.956 Z1.000 F200
G1 X-5.361 Y-2.875 Z1.000 F200
G1 X-5.476 Y-2.782 Z1.000 F200
G1 X-5.580 Y-2.678 Z1.000 F200
G1 X-5.673 Y-2.563 Z1.000 F200
G1 X-5.754 Y-2.439 Z1.000 F200
G1 X-5.821 Y-2.307 Z1.000 F200
G1 X-5.874 Y-2.169 Z1.000 F200
G1 X-5.912 Y-2.026 Z1.000 F200
G1 X-5.935 Y-1.880 Z1.000 F200
G1 X-5.943 Y-1.733 Z1.000 F200
G1 X-5.935 Y-1.585 Z1.000 F200
G1 X-5.912 Y-1.439 Z1.000 F200
G1 X-5.874 Y-1.296 Z1.000 F200
G1 X-5.821 Y-1.158 Z1.000 F200
G1 X-5.754 Y-1.027 Z1.000 F200
G1 X-5.673 Y-0.903 Z1.000 F200
G1 X-5.580 Y-0.788 Z1.000 F200
G1 X-5.476 Y-0.683 Z1.000 F200
G1 X-5.361 Y-0.590 Z1.000 F200
G1 X-5.237 Y-0.510 Z1.000 F200
G1 X-5.105 Y-0.443 Z1.000 F200
G1 X-4.967 Y-0.390 Z1.000 F200
G1 X-4.824 Y-0.351 Z1.000 F200
G1 X-4.678 Y-0.328 Z1.000 F200
G1 X-4.531 Y-0.320 Z1.000 F200
G1 X21.039 Y-0.320 Z1.000 F500
G1 X22.174 Y-0.320 Z1.000 F200
G1 X22.321 Y-0.313 Z1.000 F200
G1 X22.467 Y-0.290 Z1.000 F200
G1 X22.610 Y-0.251 Z1.000 F200
G1 X22.748 Y-0.198 Z1.000 F200
G1 X22.880 Y-0.131 Z1.000 F200
G1 X23.004 Y-0.051 Z1.000 F200
G1 X23.119 Y0.042 Z1.000 F200
G1 X23.223 Y0.147 Z1.000 F200
G1 X23.316 Y0.262 Z1.000 F200
G1 X23.397 Y0.386 Z1.000 F200
G1 X23.464 Y0.518 Z1.000 F200
G1 X23.517 Y0.656 Z1.000 F200
G1 X23.555 Y0.798 Z1.000 F200
G1 X23.578 Y0.944 Z1.000 F200
G1 X23.586 Y1.092 Z1.000 F200
G1 X23.578 Y1.240 Z1.000 F200
G1 X23.555 Y1.386 Z1.000 F200
G1 X23.517 Y1.528 Z1.000 F200
G1 X23.464 Y1.666 Z1.000 F200
G1 X23.397 Y1.798 Z1.000 F200
G1 X23.316 Y1.922 Z1.000 F200
G1 X23.223 Y2.037 Z1.000 F200
G1 X23.119 Y2.142 Z1.000 F200
G1 X23.004 Y2.235 Z1.000 F200
G1 X22.880 Y2.315 Z1.000 F200
G1 X22.748 Y2.382 Z1.000 F200
G1 X22.610 Y2.435 Z1.000 F200
G1 X22.467 Y2.474 Z1.000 F200
G1 X22.321 Y2.497 Z1.000 F200
G1 X22.174 Y2.504 Z1.000 F200
G1 X-5.665 Y2.504 Z1.000 F500
G1 X-6.010 Y2.504 Z1.000 F200
G1 X-6.158 Y2.512 Z1.000 F200
G1 X-6.304 Y2.535 Z1.000 F200
G1 X-6.446 Y2.574 Z1.000 F200
G1 X-6.584 Y2.626 Z1.000 F200
G1 X-6.716 Y2.694 Z1.000 F200
G1 X-6.840 Y2.774 Z1.000 F200
G1 X-6.955 Y2.867 Z1.000 F200
G1 X-7.060 Y2.972 Z1.000 F200
G1 X-7.153 Y3.087 Z1.000 F200
G1 X-7.233 Y3.211 Z1.000 F200
G1 X-7.300 Y3.342 Z1.000 F200
G1 X-7.353 Y3.480 Z1.000 F200
G1 X-7.392 Y3.623 Z1.000 F200
G1 X-7.415 Y3.769 Z1.000 F200
G1 X-7.422 Y3.917 Z1.000 F200
G1 X-7.415 Y4.064 Z1.000 F200
G1 X-7.392 Y4.210 Z1.000 F200
G1 X-7.353 Y4.353 Z1.000 F200
G1 X-7.300 Y4.491 Z1.000 F200
G1 X-7.233 Y4.623 Z1.000 F200
G1 X-7.153 Y4.747 Z1.000 F200
G1 X-7.060 Y4.862 Z1.000 F200
G1 X-6.955 Y4.966 Z1.000 F200
G1 X-6.840 Y5.059 Z1.000 F200
G1 X-6.716 Y5.140 Z1.000 F200
G1 X-6.584 Y5.207 Z1.000 F200
G1 X-6.446 Y5.260 Z1.000 F200
G1 X-6.304 Y5.298 Z1.000 F200
G1 X-6.158 Y5.321 Z1.000 F200
G1 X-6.010 Y5.329 Z1.000 F200
G1 X22.518 Y5.329 Z1.000 F500
G1 X22.666 Y5.337 Z1.000 F200
G1 X22.812 Y5.360 Z1.000 F200
G1 X22.955 Y5.398 Z1.000 F200
G1 X23.093 Y5.451 Z1.000 F200
G1 X23.225 Y5.518 Z1.000 F200
G1 X23.349 Y5.599 Z1.000 F200
G1 X23.463 Y5.692 Z1.000 F200
G1 X23.568 Y5.796 Z1.000 F200
G1 X23.661 Y5.911 Z1.000 F200
G1 X23.742 Y6.035 Z1.000 F200
G1 X23.809 Y6.167 Z1.000 F200
G1 X23.862 Y6.305 Z1.000 F200
G1 X23.900 Y6.448 Z1.000 F200
G1 X23.923 Y6.594 Z1.000 F200
G1 X23.931 Y6.742 Z1.000 F200
G1 X23.923 Y6.889 Z1.000 F200
G1 X23.900 Y7.035 Z1.000 F200
G1 X23.862 Y7.178 Z1.000 F200
G1 X23.809 Y7.316 Z1.000 F200
G1 X23.742 Y7.448 Z1.000 F200
G1 X23.661 Y7.572 Z1.000 F200
G1 X23.568 Y7.687 Z1.000 F200
G1 X23.463 Y7.791 Z1.000 F200
G1 X23.349 Y7.884 Z1.000 F200
G1 X23.225 Y7.965 Z1.000 F200
G1 X23.093 Y8.032 Z1.000 F200
G1 X22.955 Y8.085 Z1.000 F200
G1 X22.812 Y8.123 Z1.000 F200
G1 X22.666 Y8.146 Z1.000 F200
G1 X22.518 Y8.154 Z1.000 F200
G1 X-6.010 Y8.154 Z1.000 F500
G1 X-6.158 Y8.162 Z1.000 F200
G1 X-6.304 Y8.185 Z1.000 F200
G1 X-6.446 Y8.223 Z1.000 F200
G1 X-6.584 Y8.276 Z1.000 F200
G1 X-6.716 Y8.343 Z1.000 F200
G1 X-6.840 Y8.424 Z1.000 F200
G1 X-6.955 Y8.517 Z1.000 F200
G1 X-7.060 Y8.621 Z1.000 F200
G1 X-7.153 Y8.736 Z1.000 F200
G1 X-7.233 Y8.860 Z1.000 F200
G1 X-7.300 Y8.992 Z1.000 F200
G1 X-7.353 Y9.130 Z1.000 F200
G1 X-7.392 Y9.273 Z1.000 F200
G1 X-7.415 Y9.419 Z1.000 F200
G1 X-7.422 Y9.566 Z1.000 F200
G1 X-7.415 Y9.714 Z1.000 F200
G1 X-7.392 Y9.860 Z1.000 F200
G1 X-7.353 Y10.003 Z1.000 F200
G1 X-7.300 Y10.141 Z1.000 F200
G1 X-7.233 Y10.273 Z1.000 F200
G1 X-7.153 Y10.397 Z1.000 F200
G1 X-7.060 Y10.511 Z1.000 F200
G1 X-6.955 Y10.616 Z1.000 F200
G1 X-6.840 Y10.709 Z1.000 F200
G1 X-6.716 Y10.790 Z1.000 F200
G1 X-6.584 Y10.857 Z1.000 F200
G1 X-6.446 Y10.910 Z1.000 F200
G1 X-6.304 Y10.948 Z1.000 F200
G1 X-6.158 Y10.971 Z1.000 F200
G1 X-6.010 Y10.979 Z1.000 F200
G1 X22.518 Y10.979 Z1.000 F500
G1 X22.666 Y10.986 Z1.000 F200
G1 X22.812 Y11.010 Z1.000 F200
G1 X22.955 Y11.048 Z1.000 F200
G1 X23.093 Y11.101 Z1.000 F200
G1 X23.225 Y11.168 Z1.000 F200
G1 X23.349 Y11.249 Z1.000 F200
G1 X23.463 Y11.342 Z1.000 F200
G1 X23.568 Y11.446 Z1.000 F200
G1 X23.661 Y11.561 Z1.000 F200
G1 X23.742 Y11.685 Z1.000 F200
G1 X23.809 Y11.817 Z1.000 F200
G1 X23.862 Y11.955 Z1.000 F200
G1 X23.900 Y12.098 Z1.000 F200
G1 X23.923 Y12.244 Z1.000 F200
G1 X23.931 Y12.391 Z1.000 F200
G1 X23.923 Y12.539 Z1.000 F200
G1 X23.900 Y12.685 Z1.000 F200
G1 X23.862 Y12.828 Z1.000 F200
G1 X23.809 Y12.966 Z1.000 F200
G1 X23.742 Y13.097 Z1.000 F200
G1 X23.661 Y13.221 Z1.000 F200
G1 X23.568 Y13.336 Z1.000 F200
G1 X23.463 Y13.441 Z1.000 F200
G1 X23.349 Y13.534 Z1.000 F200
G1 X23.225 Y13.614 Z1.000 F200
G1 X23.093 Y13.681 Z1.000 F200
G1 X22.955 Y13.734 Z1.000 F200
G1 X22.812 Y13.773 Z1.000 F200
G1 X22.666 Y13.796 Z1.000 F200
G1 X22.518 Y13.804 Z1.000 F200
G1 X22.224 Y13.804 Z1.000 F200
G1 X-5.716 Y13.804 Z1.000 F500
G1 X-5.864 Y13.811 Z1.000 F200
G1 X-6.010 Y13.834 Z1.000 F200
G1 X-6.153 Y13.873 Z1.000 F200
G1 X-6.291 Y13.926 Z1.000 F200
G1 X-6.422 Y13.993 Z1.000 F200
G1 X-6.546 Y14.073 Z1.000 F200
G1 X-6.661 Y14.166 Z1.000 F200
G1 X-6.766 Y14.271 Z1.000 F200
G1 X-6.859 Y14.386 Z1.000 F200
G1 X-6.939 Y14.510 Z1.000 F200
G1 X-7.006 Y14.641 Z1.000 F200
G1 X-7.059 Y14.779 Z1.000 F200
G1 X-7.098 Y14.922 Z1.000 F200
G1 X-7.121 Y15.068 Z1.000 F200
G1 X-7.129 Y15.216 Z1.000 F200
G1 X-7.121 Y15.364 Z1.000 F200
G1 X-7.098 Y15.510 Z1.000 F200
G1 X-7.059 Y15.652 Z1.000 F200
G1 X-7.006 Y15.790 Z1.000 F200
G1 X-6.939 Y15.922 Z1.000 F200
G1 X-6.859 Y16.046 Z1.000 F200
G1 X-6.766 Y16.161 Z1.000 F200
G1 X-6.661 Y16.266 Z1.000 F200
G1 X-6.546 Y16.359 Z1.000 F200
G1 X-6.422 Y16.439 Z1.000 F200
G1 X-6.291 Y16.506 Z1.000 F200
G1 X-6.153 Y16.559 Z1.000 F200
G1 X-6.010 Y16.597 Z1.000 F200
G1 X-5.864 Y16.621 Z1.000 F200
G1 X-5.716 Y16.628 Z1.000 F200
G1 X-4.639 Y16.628 Z1.000 F200
G1 X21.147 Y16.628 Z1.000 F500
G1 X21.241 Y16.628 Z1.007 F200
G1 X21.332 Y16.628 Z1.029 F200
G1 X21.419 Y16.628 Z1.065 F200
G1 X21.500 Y16.628 Z1.115 F200
G1 X21.571 Y16.628 Z1.176 F200
G1 X21.632 Y16.628 Z1.247 F200
G1 X21.682 Y16.628 Z1.328 F200
G1 X21.718 Y16.628 Z1.415 F200
G1 X21.740 Y16.628 Z1.506 F200
G1 X21.747 Y16.628 Z1.600 F200
G1 X21.747 Y16.628 Z6.588 F500
G1 X19.347 Y-3.145 Z6.588 F500
G1 X19.347 Y-3.145 Z1.100 F100
G1 X19.340 Y-3.145 Z1.006 F500
G1 X19.318 Y-3.145 Z0.915 F500
G1 X19.282 Y-3.145 Z0.828 F500
G1 X19.233 Y-3.145 Z0.747 F500
G1 X19.172 Y-3.145 Z0.676 F500
G1 X19.100 Y-3.145 Z0.615 F500
G1 X19.020 Y-3.145 Z0.565 F500
G1 X18.933 Y-3.145 Z0.529 F500
G1 X18.841 Y-3.145 Z0.507 F500
G1 X18.747 Y-3.145 Z0.500 F500
G1 X-2.239 Y-3.145 Z0.500 F500
G1 X-4.531 Y-3.145 Z0.500 F200
G1 X-4.678 Y-3.137 Z0.500 F200
G1 X-4.824 Y-3.114 Z0.500 F200
G1 X-4.967 Y-3.076 Z0.500 F200
G1 X-5.105 Y-3.023 Z0.500 F200
G1 X-5.237 Y-2.956 Z0.500 F200
G1 X-5.361 Y-2.875 Z0.500 F200
G1 X-5.476 Y-2.782 Z0.500 F200
G1 X-5.580 Y-2.678 Z0.500 F200
G1 X-5.673 Y-2.563 Z0.500 F200
G1 X-5.754 Y-2.439 Z0.500 F200
G1 X-5.821 Y-2.307 Z0.500 F200
G1 X-5.874 Y-2.169 Z0.500 F200
G1 X-5.912 Y-2.026 Z0.500 F200
G1 X-5.935 Y-1.880 Z0.500 F200
G1 X-5.943 Y-1.733 Z0.500 F200
G1 X-5.935 Y-1.585 Z0.500 F200
G1 X-5.912 Y-1.439 Z0.500 F200
G1 X-5.874 Y-1.296 Z0.500 F200
G1 X-5.821 Y-1.158 Z0.500 F200
G1 X-5.754 Y-1.027 Z0.500 F200
G1 X-5.673 Y-0.903 Z0.500 F200
G1 X-5.580 Y-0.788 Z0.500 F200
G1 X-5.476 Y-0.683 Z0.500 F200
G1 X-5.361 Y-0.590 Z0.500 F200
G1 X-5.237 Y-0.510 Z0.500 F200
G1 X-5.105 Y-0.443 Z0.500 F200
G1 X-4.967 Y-0.390 Z0.500 F200
G1 X-4.824 Y-0.351 Z0.500 F200
G1 X-4.678 Y-0.328 Z0.500 F200
G1 X-4.531 Y-0.320 Z0.500 F200
G1 X21.039 Y-0.320 Z0.500 F500
G1 X22.174 Y-0.320 Z0.500 F200
G1 X22.321 Y-0.313 Z0.500 F200
G1 X22.467 Y-0.290 Z0.500 F200
G1 X22.610 Y-0.251 Z0.500 F200
G1 X22.748 Y-0.198 Z0.500 F200
G1 X22.880 Y-0.131 Z0.500 F200
G1 X23.004 Y-0.051 Z0.500 F200
G1 X23.119 Y0.042 Z0.500 F200
G1 X23.223 Y0.147 Z0.500 F200
G1 X23.316 Y0.262 Z0.500 F200
G1 X23.397 Y0.386 Z0.500 F200
G1 X23.464 Y0.518 Z0.500 F200
G1 X23.517 Y0.656 Z0.500 F200
G1 X23.555 Y0.798 Z0.500 F200
G1 X23.578 Y0.944 Z0.500 F200
G1 X23.586 Y1.092 Z0.500 F200
G1 X23.578 Y1.240 Z0.500 F200
G1 X23.555 Y1.386 Z0.500 F200
G1 X23.517 Y1.528 Z0.500 F200
G1 X23.464 Y1.666 Z0.500 F200
G1 X23.397 Y1.798 Z0.500 F200
G1 X23.316 Y1.922 Z0.500 F200
G1 X23.223 Y2.037 Z0.500 F200
G1 X23.119 Y2.142 Z0.500 F200
G1 X23.004 Y2.235 Z0.500 F200
G1 X22.880 Y2.315 Z0.500 F200
G1 X22.748 Y2.382 Z0.500 F200
G1 X22.610 Y2.435 Z0.500 F200
G1 X22.467 Y2.474 Z0.500 F200
G1 X22.321 Y2.497 Z0.500 F200
G1 X22.174 Y2.504 Z0.500 F200
G1 X-5.665 Y2.504 Z0.500 F500
G1 X-6.010 Y2.504 Z0.500 F200
G1 X-6.158 Y2.512 Z0.500 F200
G1 X-6.304 Y2.535 Z0.500 F200
G1 X-6.446 Y2.574 Z0.500 F200
G1 X-6.584 Y2.626 Z0.500 F200
G1 X-6.716 Y2.694 Z0.500 F200
G1 X-6.840 Y2.774 Z0.500 F200
G1 X-6.955 Y2.867 Z0.500 F200
G1 X-7.060 Y2.972 Z0.500 F200
G1 X-7.153 Y3.087 Z0.500 F200
G1 X-7.233 Y3.211 Z0.500 F200
G1 X-7.300 Y3.342 Z0.500 F200
G1 X-7.353 Y3.480 Z0.500 F200
G1 X-7.392 Y3.623 Z0.500 F200
G1 X-7.415 Y3.769 Z0.500 F200
G1 X-7.422 Y3.917 Z0.500 F200
G1 X-7.415 Y4.064 Z0.500 F200
G1 X-7.392 Y4.210 Z0.500 F200
G1 X-7.353 Y4.353 Z0.500 F200
G1 X-7.300 Y4.491 Z0.500 F200
G1 X-7.233 Y4.623 Z0.500 F200
G1 X-7.153 Y4.747 Z0.500 F200
G1 X-7.060 Y4.862 Z0.500 F200
G1 X-6.955 Y4.966 Z0.500 F200
G1 X-6.840 Y5.059 Z0.500 F200
G1 X-6.716 Y5.140 Z0.500 F200
G1 X-6.584 Y5.207 Z0.500 F200
G1 X-6.446 Y5.260 Z0.500 F200
G1 X-6.304 Y5.298 Z0.500 F200
G1 X-6.158 Y5.321 Z0.500 F200
G1 X-6.010 Y5.329 Z0.500 F200
G1 X22.518 Y5.329 Z0.500 F500
G1 X22.666 Y5.337 Z0.500 F200
G1 X22.812 Y5.360 Z0.500 F200
G1 X22.955 Y5.398 Z0.500 F200
G1 X23.093 Y5.451 Z0.500 F200
G1 X23.225 Y5.518 Z0.500 F200
G1 X23.349 Y5.599 Z0.500 F200
G1 X23.463 Y5.692 Z0.500 F200
G1 X23.568 Y5.796 Z0.500 F200
G1 X23.661 Y5.911 Z0.500 F200
G1 X23.742 Y6.035 Z0.500 F200
G1 X23.809 Y6.167 Z0.500 F200
G1 X23.862 Y6.305 Z0.500 F200
G1 X23.900 Y6.448 Z0.500 F200
G1 X23.923 Y6.594 Z0.500 F200
G1 X23.931 Y6.742 Z0.500 F200
G1 X23.923 Y6.889 Z0.500 F200
G1 X23.900 Y7.035 Z0.500 F200
G1 X23.862 Y7.178 Z0.500 F200
G1 X23.809 Y7.316 Z0.500 F200
G1 X23.742 Y7.448 Z0.500 F200
G1 X23.661 Y7.572 Z0.500 F200
G1 X23.568 Y7.687 Z0.500 F200
G1 X23.463 Y7.791 Z0.500 F200
G1 X23.349 Y7.884 Z0.500 F200
G1 X23.225 Y7.965 Z0.500 F200
G1 X23.093 Y8.032 Z0.500 F200
G1 X22.955 Y8.085 Z0.500 F200
G1 X22.812 Y8.123 Z0.500 F200
G1 X22.666 Y8.146 Z0.500 F200
G1 X22.518 Y8.154 Z0.500 F200
G1 X-6.010 Y8.154 Z0.500 F500
G1 X-6.158 Y8.162 Z0.500 F200
G1 X-6.304 Y8.185 Z0.500 F200
G1 X-6.446 Y8.223 Z0.500 F200
G1 X-6.584 Y8.276 Z0.500 F200
G1 X-6.716 Y8.343 Z0.500 F200
G1 X-6.840 Y8.424 Z0.500 F200
G1 X-6.955 Y8.517 Z0.500 F200
G1 X-7.060 Y8.621 Z0.500 F200
G1 X-7.153 Y8.736 Z0.500 F200
G1 X-7.233 Y8.860 Z0.500 F200
G1 X-7.300 Y8.992 Z0.500 F200
G1 X-7.353 Y9.130 Z0.500 F200
G1 X-7.392 Y9.273 Z0.500 F200
G1 X-7.415 Y9.419 Z0.500 F200
G1 X-7.422 Y9.566 Z0.500 F200
G1 X-7.415 Y9.714 Z0.500 F200
G1 X-7.392 Y9.860 Z0.500 F200
G1 X-7.353 Y10.003 Z0.500 F200
G1 X-7.300 Y10.141 Z0.500 F200
G1 X-7.233 Y10.273 Z0.500 F200
G1 X-7.153 Y10.397 Z0.500 F200
G1 X-7.060 Y10.511 Z0.500 F200
G1 X-6.955 Y10.616 Z0.500 F200
G1 X-6.840 Y10.709 Z0.500 F200
G1 X-6.716 Y10.790 Z0.500 F200
G1 X-6.584 Y10.857 Z0.500 F200
G1 X-6.446 Y10.910 Z0.500 F200
G1 X-6.304 Y10.948 Z0.500 F200
G1 X-6.158 Y10.971 Z0.500 F200
G1 X-6.010 Y10.979 Z0.500 F200
G1 X22.518 Y10.979 Z0.500 F500
G1 X22.666 Y10.986 Z0.500 F200
G1 X22.812 Y11.010 Z0.500 F200
G1 X22.955 Y11.048 Z0.500 F200
G1 X23.093 Y11.101 Z0.500 F200
G1 X23.225 Y11.168 Z0.500 F200
G1 X23.349 Y11.249 Z0.500 F200
G1 X23.463 Y11.342 Z0.500 F200
G1 X23.568 Y11.446 Z0.500 F200
G1 X23.661 Y11.561 Z0.500 F200
G1 X23.742 Y11.685 Z0.500 F200
G1 X23.809 Y11.817 Z0.500 F200
G1 X23.862 Y11.955 Z0.500 F200
G1 X23.900 Y12.098 Z0.500 F200
G1 X23.923 Y12.244 Z0.500 F200
G1 X23.931 Y12.391 Z0.500 F200
G1 X23.923 Y12.539 Z0.500 F200
G1 X23.900 Y12.685 Z0.500 F200
G1 X23.862 Y12.828 Z0.500 F200
G1 X23.809 Y12.966 Z0.500 F200
G1 X23.742 Y13.097 Z0.500 F200
G1 X23.661 Y13.221 Z0.500 F200
G1 X23.568 Y13.336 Z0.500 F200
G1 X23.463 Y13.441 Z0.500 F200
G1 X23.349 Y13.534 Z0.500 F200
G1 X23.225 Y13.614 Z0.500 F200
G1 X23.093 Y13.681 Z0.500 F200
G1 X22.955 Y13.734 Z0.500 F200
G1 X22.812 Y13.773 Z0.500 F200
G1 X22.666 Y13.796 Z0.500 F200
G1 X22.518 Y13.804 Z0.500 F200
G1 X22.224 Y13.804 Z0.500 F200
G1 X-5.716 Y13.804 Z0.500 F500
G1 X-5.864 Y13.811 Z0.500 F200
G1 X-6.010 Y13.834 Z0.500 F200
G1 X-6.153 Y13.873 Z0.500 F200
G1 X-6.291 Y13.926 Z0.500 F200
G1 X-6.422 Y13.993 Z0.500 F200
G1 X-6.546 Y14.073 Z0.500 F200
G1 X-6.661 Y14.166 Z0.500 F200
G1 X-6.766 Y14.271 Z0.500 F200
G1 X-6.859 Y14.386 Z0.500 F200
G1 X-6.939 Y14.510 Z0.500 F200
G1 X-7.006 Y14.641 Z0.500 F200
G1 X-7.059 Y14.779 Z0.500 F200
G1 X-7.098 Y14.922 Z0.500 F200
G1 X-7.121 Y15.068 Z0.500 F200
G1 X-7.129 Y15.216 Z0.500 F200
G1 X-7.121 Y15.364 Z0.500 F200
G1 X-7.098 Y15.510 Z0.500 F200
G1 X-7.059 Y15.652 Z0.500 F200
G1 X-7.006 Y15.790 Z0.500 F200
G1 X-6.939 Y15.922 Z0.500 F200
G1 X-6.859 Y16.046 Z0.500 F200
G1 X-6.766 Y16.161 Z0.500 F200
G1 X-6.661 Y16.266 Z0.500 F200
G1 X-6.546 Y16.359 Z0.500 F200
G1 X-6.422 Y16.439 Z0.500 F200
G1 X-6.291 Y16.506 Z0.500 F200
G1 X-6.153 Y16.559 Z0.500 F200
G1 X-6.010 Y16.597 Z0.500 F200
G1 X-5.864 Y16.621 Z0.500 F200
G1 X-5.716 Y16.628 Z0.500 F200
G1 X-4.639 Y16.628 Z0.500 F200
G1 X21.147 Y16.628 Z0.500 F500
G1 X21.241 Y16.628 Z0.507 F200
G1 X21.332 Y16.628 Z0.529 F200
G1 X21.419 Y16.628 Z0.565 F200
G1 X21.500 Y16.628 Z0.615 F200
G1 X21.571 Y16.628 Z0.676 F200
G1 X21.632 Y16.628 Z0.747 F200
G1 X21.682 Y16.628 Z0.828 F200
G1 X21.718 Y16.628 Z0.915 F200
G1 X21.740 Y16.628 Z1.006 F200
G1 X21.747 Y16.628 Z1.100 F200
G1 X21.747 Y16.628 Z6.588 F500
G1 X19.347 Y-3.145 Z6.588 F500
G1 X19.347 Y-3.145 Z0.600 F100
G1 X19.340 Y-3.145 Z0.506 F500
G1 X19.318 Y-3.145 Z0.415 F500
G1 X19.282 Y-3.145 Z0.328 F500
G1 X19.233 Y-3.145 Z0.247 F500
G1 X19.172 Y-3.145 Z0.176 F500
G1 X19.100 Y-3.145 Z0.115 F500
G1 X19.020 Y-3.145 Z0.065 F500
G1 X18.933 Y-3.145 Z0.029 F500
G1 X18.841 Y-3.145 Z0.007 F500
G1 X18.747 Y-3.145 Z0.000 F500
G1 X-2.239 Y-3.145 Z0.000 F500
G1 X-4.531 Y-3.145 Z0.000 F200
G1 X-4.678 Y-3.137 Z0.000 F200
G1 X-4.824 Y-3.114 Z0.000 F200
G1 X-4.967 Y-3.076 Z0.000 F200
G1 X-5.105 Y-3.023 Z0.000 F200
G1 X-5.237 Y-2.956 Z0.000 F200
G1 X-5.361 Y-2.875 Z0.000 F200
G1 X-5.476 Y-2.782 Z0.000 F200
G1 X-5.580 Y-2.678 Z0.000 F200
G1 X-5.673 Y-2.563 Z0.000 F200
G1 X-5.754 Y-2.439 Z0.000 F200
G1 X-5.821 Y-2.307 Z0.000 F200
G1 X-5.874 Y-2.169 Z0.000 F200
G1 X-5.912 Y-2.026 Z0.000 F200
G1 X-5.935 Y-1.880 Z0.000 F200
G1 X-5.943 Y-1.733 Z0.000 F200
G1 X-5.935 Y-1.585 Z0.000 F200
G1 X-5.912 Y-1.439 Z0.000 F200
G1 X-5.874 Y-1.296 Z0.000 F200
G1 X-5.821 Y-1.158 Z0.000 F200
G1 X-5.754 Y-1.027 Z0.000 F200
G1 X-5.673 Y-0.903 Z0.000 F200
G1 X-5.580 Y-0.788 Z0.000 F200
G1 X-5.476 Y-0.683 Z0.000 F200
G1 X-5.361 Y-0.590 Z0.000 F200
G1 X-5.237 Y-0.510 Z0.000 F200
G1 X-5.105 Y-0.443 Z0.000 F200
G1 X-4.967 Y-0.390 Z0.000 F200
G1 X-4.824 Y-0.351 Z0.000 F200
G1 X-4.678 Y-0.328 Z0.000 F200
G1 X-4.531 Y-0.320 Z0.000 F200
G1 X21.039 Y-0.320 Z0.000 F500
G1 X22.174 Y-0.320 Z0.000 F200
G1 X22.321 Y-0.313 Z0.000 F200
G1 X22.467 Y-0.290 Z0.000 F200
G1 X22.610 Y-0.251 Z0.000 F200
G1 X22.748 Y-0.198 Z0.000 F200
G1 X22.880 Y-0.131 Z0.000 F200
G1 X23.004 Y-0.051 Z0.000 F200
G1 X23.119 Y0.042 Z0.000 F200
G1 X23.223 Y0.147 Z0.000 F200
G1 X23.316 Y0.262 Z0.000 F200
G1 X23.397 Y0.386 Z0.000 F200
G1 X23.464 Y0.518 Z0.000 F200
G1 X23.517 Y0.656 Z0.000 F200
G1 X23.555 Y0.798 Z0.000 F200
G1 X23.578 Y0.944 Z0.000 F200
G1 X23.586 Y1.092 Z0.000 F200
G1 X23.578 Y1.240 Z0.000 F200
G1 X23.555 Y1.386 Z0.000 F200
G1 X23.517 Y1.528 Z0.000 F200
G1 X23.464 Y1.666 Z0.000 F200
G1 X23.397 Y1.798 Z0.000 F200
G1 X23.316 Y1.922 Z0.000 F200
G1 X23.223 Y2.037 Z0.000 F200
G1 X23.119 Y2.142 Z0.000 F200
G1 X23.004 Y2.235 Z0.000 F200
G1 X22.880 Y2.315 Z0.000 F200
G1 X22.748 Y2.382 Z0.000 F200
G1 X22.610 Y2.435 Z0.000 F200
G1 X22.467 Y2.474 Z0.000 F200
G1 X22.321 Y2.497 Z0.000 F200
G1 X22.174 Y2.504 Z0.000 F200
G1 X-5.665 Y2.504 Z0.000 F500
G1 X-6.010 Y2.504 Z0.000 F200
G1 X-6.158 Y2.512 Z0.000 F200
G1 X-6.304 Y2.535 Z0.000 F200
G1 X-6.446 Y2.574 Z0.000 F200
G1 X-6.584 Y2.626 Z0.000 F200
G1 X-6.716 Y2.694 Z0.000 F200
G1 X-6.840 Y2.774 Z0.000 F200
G1 X-6.955 Y2.867 Z0.000 F200
G1 X-7.060 Y2.972 Z0.000 F200
G1 X-7.153 Y3.087 Z0.000 F200
G1 X-7.233 Y3.211 Z0.000 F200
G1 X-7.300 Y3.342 Z0.000 F200
G1 X-7.353 Y3.480 Z0.000 F200
G1 X-7.392 Y3.623 Z0.000 F200
G1 X-7.415 Y3.769 Z0.000 F200
G1 X-7.422 Y3.917 Z0.000 F200
G1 X-7.415 Y4.064 Z0.000 F200
G1 X-7.392 Y4.210 Z0.000 F200
G1 X-7.353 Y4.353 Z0.000 F200
G1 X-7.300 Y4.491 Z0.000 F200
G1 X-7.233 Y4.623 Z0.000 F200
G1 X-7.153 Y4.747 Z0.000 F200
G1 X-7.060 Y4.862 Z0.000 F200
G1 X-6.955 Y4.966 Z0.000 F200
G1 X-6.840 Y5.059 Z0.000 F200
G1 X-6.716 Y5.140 Z0.000 F200
G1 X-6.584 Y5.207 Z0.000 F200
G1 X-6.446 Y5.260 Z0.000 F200
G1 X-6.304 Y5.298 Z0.000 F200
G1 X-6.158 Y5.321 Z0.000 F200
G1 X-6.010 Y5.329 Z0.000 F200
G1 X22.518 Y5.329 Z0.000 F500
G1 X22.666 Y5.337 Z0.000 F200
G1 X22.812 Y5.360 Z0.000 F200
G1 X22.955 Y5.398 Z0.000 F200
G1 X23.093 Y5.451 Z0.000 F200
G1 X23.225 Y5.518 Z0.000 F200
G1 X23.349 Y5.599 Z0.000 F200
G1 X23.463 Y5.692 Z0.000 F200
G1 X23.568 Y5.796 Z0.000 F200
G1 X23.661 Y5.911 Z0.000 F200
G1 X23.742 Y6.035 Z0.000 F200
G1 X23.809 Y6.167 Z0.000 F200
G1 X23.862 Y6.305 Z0.000 F200
G1 X23.900 Y6.448 Z0.000 F200
G1 X23.923 Y6.594 Z0.000 F200
G1 X23.931 Y6.742 Z0.000 F200
G1 X23.923 Y6.889 Z0.000 F200
G1 X23.900 Y7.035 Z0.000 F200
G1 X23.862 Y7.178 Z0.000 F200
G1 X23.809 Y7.316 Z0.000 F200
G1 X23.742 Y7.448 Z0.000 F200
G1 X23.661 Y7.572 Z0.000 F200
G1 X23.568 Y7.687 Z0.000 F200
G1 X23.463 Y7.791 Z0.000 F200
G1 X23.349 Y7.884 Z0.000 F200
G1 X23.225 Y7.965 Z0.000 F200
G1 X23.093 Y8.032 Z0.000 F200
G1 X22.955 Y8.085 Z0.000 F200
G1 X22.812 Y8.123 Z0.000 F200
G1 X22.666 Y8.146 Z0.000 F200
G1 X22.518 Y8.154 Z0.000 F200
G1 X-6.010 Y8.154 Z0.000 F500
G1 X-6.158 Y8.162 Z0.000 F200
G1 X-6.304 Y8.185 Z0.000 F200
G1 X-6.446 Y8.223 Z0.000 F200
G1 X-6.584 Y8.276 Z0.000 F200
G1 X-6.716 Y8.343 Z0.000 F200
G1 X-6.840 Y8.424 Z0.000 F200
G1 X-6.955 Y8.517 Z0.000 F200
G1 X-7.060 Y8.621 Z0.000 F200
G1 X-7.153 Y8.736 Z0.000 F200
G1 X-7.233 Y8.860 Z0.000 F200
G1 X-7.300 Y8.992 Z0.000 F200
G1 X-7.353 Y9.130 Z0.000 F200
G1 X-7.392 Y9.273 Z0.000 F200
G1 X-7.415 Y9.419 Z0.000 F200
G1 X-7.422 Y9.566 Z0.000 F200
G1 X-7.415 Y9.714 Z0.000 F200
G1 X-7.392 Y9.860 Z0.000 F200
G1 X-7.353 Y10.003 Z0.000 F200
G1 X-7.300 Y10.141 Z0.000 F200
G1 X-7.233 Y10.273 Z0.000 F200
G1 X-7.153 Y10.397 Z0.000 F200
G1 X-7.060 Y10.511 Z0.000 F200
G1 X-6.955 Y10.616 Z0.000 F200
G1 X-6.840 Y10.709 Z0.000 F200
G1 X-6.716 Y10.790 Z0.000 F200
G1 X-6.584 Y10.857 Z0.000 F200
G1 X-6.446 Y10.910 Z0.000 F200
G1 X-6.304 Y10.948 Z0.000 F200
G1 X-6.158 Y10.971 Z0.000 F200
G1 X-6.010 Y10.979 Z0.000 F200
G1 X22.518 Y10.979 Z0.000 F500
G1 X22.666 Y10.986 Z0.000 F200
G1 X22.812 Y11.010 Z0.000 F200
G1 X22.955 Y11.048 Z0.000 F200
G1 X23.093 Y11.101 Z0.000 F200
G1 X23.225 Y11.168 Z0.000 F200
G1 X23.349 Y11.249 Z0.000 F200
G1 X23.463 Y11.342 Z0.000 F200
G1 X23.568 Y11.446 Z0.000 F200
G1 X23.661 Y11.561 Z0.000 F200
G1 X23.742 Y11.685 Z0.000 F200
G1 X23.809 Y11.817 Z0.000 F200
G1 X23.862 Y11.955 Z0.000 F200
G1 X23.900 Y12.098 Z0.000 F200
G1 X23.923 Y12.244 Z0.000 F200
G1 X23.931 Y12.391 Z0.000 F200
G1 X23.923 Y12.539 Z0.000 F200
G1 X23.900 Y12.685 Z0.000 F200
G1 X23.862 Y12.828 Z0.000 F200
G1 X23.809 Y12.966 Z0.000 F200
G1 X23.742 Y13.097 Z0.000 F200
G1 X23.661 Y13.221 Z0.000 F200
G1 X23.568 Y13.336 Z0.000 F200
G1 X23.463 Y13.441 Z0.000 F200
G1 X23.349 Y13.534 Z0.000 F200
G1 X23.225 Y13.614 Z0.000 F200
G1 X23.093 Y13.681 Z0.000 F200
G1 X22.955 Y13.734 Z0.000 F200
G1 X22.812 Y13.773 Z0.000 F200
G1 X22.666 Y13.796 Z0.000 F200
G1 X22.518 Y13.804 Z0.000 F200
G1 X22.224 Y13.804 Z0.000 F200
G1 X-5.716 Y13.804 Z0.000 F500
G1 X-5.864 Y13.811 Z0.000 F200
G1 X-6.010 Y13.834 Z0.000 F200
G1 X-6.153 Y13.873 Z0.000 F200
G1 X-6.291 Y13.926 Z0.000 F200
G1 X-6.422 Y13.993 Z0.000 F200
G1 X-6.546 Y14.073 Z0.000 F200
G1 X-6.661 Y14.166 Z0.000 F200
G1 X-6.766 Y14.271 Z0.000 F200
G1 X-6.859 Y14.386 Z0.000 F200
G1 X-6.939 Y14.510 Z0.000 F200
G1 X-7.006 Y14.641 Z0.000 F200
G1 X-7.059 Y14.779 Z0.000 F200
G1 X-7.098 Y14.922 Z0.000 F200
G1 X-7.121 Y15.068 Z0.000 F200
G1 X-7.129 Y15.216 Z0.000 F200
G1 X-7.121 Y15.364 Z0.000 F200
G1 X-7.098 Y15.510 Z0.000 F200
G1 X-7.059 Y15.652 Z0.000 F200
G1 X-7.006 Y15.790 Z0.000 F200
G1 X-6.939 Y15.922 Z0.000 F200
G1 X-6.859 Y16.046 Z0.000 F200
G1 X-6.766 Y16.161 Z0.000 F200
G1 X-6.661 Y16.266 Z0.000 F200
G1 X-6.546 Y16.359 Z0.000 F200
G1 X-6.422 Y16.439 Z0.000 F200
G1 X-6.291 Y16.506 Z0.000 F200
G1 X-6.153 Y16.559 Z0.000 F200
G1 X-6.010 Y16.597 Z0.000 F200
G1 X-5.864 Y16.621 Z0.000 F200
G1 X-5.716 Y16.628 Z0.000 F200
G1 X-4.639 Y16.628 Z0.000 F200
G1 X21.147 Y16.628 Z0.000 F500
G1 X21.241 Y16.628 Z0.007 F200
G1 X21.332 Y16.628 Z0.029 F200
G1 X21.419 Y16.628 Z0.065 F200
G1 X21.500 Y16.628 Z0.115 F200
G1 X21.571 Y16.628 Z0.176 F200
G1 X21.632 Y16.628 Z0.247 F200
G1 X21.682 Y16.628 Z0.328 F200
G1 X21.718 Y16.628 Z0.415 F200
G1 X21.740 Y16.628 Z0.506 F200
G1 X21.747 Y16.628 Z0.600 F200
G1 X21.747 Y16.628 Z56.588 F500
G0 X0.000 Y0.000
M5
