;Titan-3-Profile
;Machine
;vendor: Snapmaker
;model: Desktop CNC
;description: Generic Snapmaker Marlin v20180725
M3 P100
G4 S2
G21
G90
;When using Fusion for Personal Use, the feedrate of rapid
;moves is reduced to match the feedrate of cutting moves,
;which can increase machining time. Unrestricted rapid moves
;are available with a Fusion Subscription.

;2D Contour12
G0 X18.417 Y8.162 Z55.000
G1 X18.417 Y8.162 Z55.000 F500
G1 X18.417 Y8.162 Z5.000 F500
G1 X18.417 Y8.162 Z0.477 F100
G1 X18.417 Y8.162 Z-0.262 F100
G1 X18.411 Y8.162 Z-0.315 F500
G1 X18.393 Y8.162 Z-0.365 F500
G1 X18.365 Y8.163 Z-0.410 F500
G1 X18.327 Y8.165 Z-0.448 F500
G1 X18.282 Y8.166 Z-0.476 F500
G1 X18.232 Y8.168 Z-0.494 F500
G1 X18.179 Y8.169 Z-0.500 F500
G1 X17.940 Y8.177 Z-0.500 F500
G1 X17.887 Y8.173 Z-0.500 F500
G1 X17.836 Y8.157 Z-0.500 F500
G1 X17.790 Y8.130 Z-0.500 F500
G1 X17.751 Y8.094 Z-0.500 F500
G1 X17.722 Y8.049 Z-0.500 F500
G1 X17.702 Y8.000 Z-0.500 F500
G1 X17.695 Y7.947 Z-0.500 F500
G1 X17.674 Y7.561 Z-0.500 F500
G1 X17.638 Y7.176 Z-0.500 F500
G1 X17.586 Y6.793 Z-0.500 F500
G1 X17.518 Y6.413 Z-0.500 F500
G1 X17.435 Y6.036 Z-0.500 F500
G1 X17.337 Y5.662 Z-0.500 F500
G1 X17.223 Y5.293 Z-0.500 F500
G1 X17.095 Y4.928 Z-0.500 F500
G1 X16.951 Y4.570 Z-0.500 F500
G1 X16.793 Y4.217 Z-0.500 F500
G1 X16.621 Y3.871 Z-0.500 F500
G1 X16.435 Y3.533 Z-0.500 F500
G1 X16.235 Y3.202 Z-0.500 F500
G1 X16.022 Y2.880 Z-0.500 F500
G1 X15.795 Y2.567 Z-0.500 F500
G1 X15.556 Y2.263 Z-0.500 F500
G1 X15.305 Y1.969 Z-0.500 F500
G1 X15.042 Y1.686 Z-0.500 F500
G1 X14.768 Y1.414 Z-0.500 F500
G1 X14.483 Y1.153 Z-0.500 F500
G1 X14.187 Y0.905 Z-0.500 F500
G1 X13.882 Y0.668 Z-0.500 F500
G1 X13.567 Y0.444 Z-0.500 F500
G1 X13.243 Y0.234 Z-0.500 F500
G1 X12.911 Y0.036 Z-0.500 F500
G1 X12.571 Y-0.147 Z-0.500 F500
G1 X12.224 Y-0.317 Z-0.500 F500
G1 X11.870 Y-0.472 Z-0.500 F500
G1 X11.510 Y-0.612 Z-0.500 F500
G1 X11.144 Y-0.738 Z-0.500 F500
G1 X10.774 Y-0.849 Z-0.500 F500
G1 X10.400 Y-0.944 Z-0.500 F500
G1 X10.022 Y-1.024 Z-0.500 F500
G1 X9.641 Y-1.089 Z-0.500 F500
G1 X9.258 Y-1.138 Z-0.500 F500
G1 X8.873 Y-1.171 Z-0.500 F500
G1 X8.487 Y-1.188 Z-0.500 F500
G1 X8.100 Y-1.190 Z-0.500 F500
G1 X7.714 Y-1.176 Z-0.500 F500
G1 X7.329 Y-1.146 Z-0.500 F500
G1 X6.945 Y-1.100 Z-0.500 F500
G1 X6.564 Y-1.039 Z-0.500 F500
G1 X6.185 Y-0.962 Z-0.500 F500
G1 X5.810 Y-0.870 Z-0.500 F500
G1 X5.439 Y-0.762 Z-0.500 F500
G1 X5.073 Y-0.639 Z-0.500 F500
G1 X4.712 Y-0.502 Z-0.500 F500
G1 X4.356 Y-0.350 Z-0.500 F500
G1 X4.008 Y-0.183 Z-0.500 F500
G1 X3.666 Y-0.002 Z-0.500 F500
G1 X3.333 Y0.192 Z-0.500 F500
G1 X3.007 Y0.400 Z-0.500 F500
G1 X2.690 Y0.621 Z-0.500 F500
G1 X2.383 Y0.855 Z-0.500 F500
G1 X2.085 Y1.102 Z-0.500 F500
G1 X1.798 Y1.360 Z-0.500 F500
G1 X1.521 Y1.630 Z-0.500 F500
G1 X1.256 Y1.911 Z-0.500 F500
G1 X1.002 Y2.202 Z-0.500 F500
G1 X0.761 Y2.504 Z-0.500 F500
G1 X0.532 Y2.815 Z-0.500 F500
G1 X0.316 Y3.136 Z-0.500 F500
G1 X0.113 Y3.464 Z-0.500 F500
G1 X-0.076 Y3.801 Z-0.500 F500
G1 X-0.251 Y4.146 Z-0.500 F500
G1 X-0.412 Y4.497 Z-0.500 F500
G1 X-0.558 Y4.855 Z-0.500 F500
G1 X-0.690 Y5.218 Z-0.500 F500
G1 X-0.807 Y5.586 Z-0.500 F500
G1 X-0.908 Y5.959 Z-0.500 F500
G1 X-0.994 Y6.336 Z-0.500 F500
G1 X-1.065 Y6.715 Z-0.500 F500
G1 X-1.120 Y7.098 Z-0.500 F500
G1 X-1.160 Y7.482 Z-0.500 F500
G1 X-1.183 Y7.868 Z-0.500 F500
G1 X-1.191 Y8.254 Z-0.500 F500
G1 X-1.183 Y8.639 Z-0.500 F500
G1 X-1.160 Y9.024 Z-0.500 F500
G1 X-1.121 Y9.407 Z-0.500 F500
G1 X-1.066 Y9.789 Z-0.500 F500
G1 X-0.995 Y10.168 Z-0.500 F500
G1 X-0.910 Y10.543 Z-0.500 F500
G1 X-0.809 Y10.915 Z-0.500 F500
G1 X-0.693 Y11.283 Z-0.500 F500
G1 X-0.562 Y11.645 Z-0.500 F500
G1 X-0.416 Y12.002 Z-0.500 F500
G1 X-0.256 Y12.352 Z-0.500 F500
G1 X-0.082 Y12.696 Z-0.500 F500
G1 X0.106 Y13.032 Z-0.500 F500
G1 X0.308 Y13.361 Z-0.500 F500
G1 X0.523 Y13.681 Z-0.500 F500
G1 X0.751 Y13.991 Z-0.500 F500
G1 X0.991 Y14.293 Z-0.500 F500
G1 X1.243 Y14.584 Z-0.500 F500
G1 X1.507 Y14.865 Z-0.500 F500
G1 X1.783 Y15.134 Z-0.500 F500
G1 X2.069 Y15.393 Z-0.500 F500
G1 X2.365 Y15.639 Z-0.500 F500
G1 X2.671 Y15.873 Z-0.500 F500
G1 X2.987 Y16.094 Z-0.500 F500
G1 X3.311 Y16.303 Z-0.500 F500
G1 X3.643 Y16.498 Z-0.500 F500
G1 X3.983 Y16.679 Z-0.500 F500
G1 X4.330 Y16.846 Z-0.500 F500
G1 X4.684 Y16.999 Z-0.500 F500
G1 X5.044 Y17.137 Z-0.500 F500
G1 X5.409 Y17.261 Z-0.500 F500
G1 X5.778 Y17.369 Z-0.500 F500
G1 X6.152 Y17.463 Z-0.500 F500
G1 X6.530 Y17.541 Z-0.500 F500
G1 X6.910 Y17.603 Z-0.500 F500
G1 X7.292 Y17.651 Z-0.500 F500
G1 X7.676 Y17.682 Z-0.500 F500
G1 X8.061 Y17.698 Z-0.500 F500
G1 X8.447 Y17.698 Z-0.500 F500
G1 X8.832 Y17.682 Z-0.500 F500
G1 X9.216 Y17.651 Z-0.500 F500
G1 X9.598 Y17.603 Z-0.500 F500
G1 X9.979 Y17.541 Z-0.500 F500
G1 X10.356 Y17.463 Z-0.500 F500
G1 X10.730 Y17.369 Z-0.500 F500
G1 X11.100 Y17.261 Z-0.500 F500
G1 X11.465 Y17.137 Z-0.500 F500
G1 X11.824 Y16.999 Z-0.500 F500
G1 X12.178 Y16.846 Z-0.500 F500
G1 X12.525 Y16.679 Z-0.500 F500
G1 X12.865 Y16.498 Z-0.500 F500
G1 X13.198 Y16.303 Z-0.500 F500
G1 X13.522 Y16.094 Z-0.500 F500
G1 X13.837 Y15.873 Z-0.500 F500
G1 X14.143 Y15.639 Z-0.500 F500
G1 X14.440 Y15.393 Z-0.500 F500
G1 X14.726 Y15.134 Z-0.500 F500
G1 X15.001 Y14.865 Z-0.500 F500
G1 X15.265 Y14.584 Z-0.500 F500
G1 X15.517 Y14.293 Z-0.500 F500
G1 X15.757 Y13.991 Z-0.500 F500
G1 X15.985 Y13.681 Z-0.500 F500
G1 X16.200 Y13.361 Z-0.500 F500
G1 X16.402 Y13.032 Z-0.500 F500
G1 X16.590 Y12.696 Z-0.500 F500
G1 X16.764 Y12.352 Z-0.500 F500
G1 X16.924 Y12.002 Z-0.500 F500
G1 X17.070 Y11.645 Z-0.500 F500
G1 X17.201 Y11.283 Z-0.500 F500
G1 X17.317 Y10.915 Z-0.500 F500
G1 X17.418 Y10.543 Z-0.500 F500
G1 X17.504 Y10.168 Z-0.500 F500
G1 X17.574 Y9.789 Z-0.500 F500
G1 X17.629 Y9.407 Z-0.500 F500
G1 X17.668 Y9.024 Z-0.500 F500
G1 X17.692 Y8.639 Z-0.500 F500
G1 X17.700 Y8.254 Z-0.500 F500
G1 X17.695 Y7.947 Z-0.500 F500
G1 X17.699 Y7.894 Z-0.500 F500
G1 X17.715 Y7.843 Z-0.500 F500
G1 X17.742 Y7.797 Z-0.500 F500
G1 X17.778 Y7.758 Z-0.500 F500
G1 X17.822 Y7.728 Z-0.500 F500
G1 X17.872 Y7.709 Z-0.500 F500
G1 X17.925 Y7.701 Z-0.500 F500
G1 X18.163 Y7.693 Z-0.500 F500
G1 X18.216 Y7.691 Z-0.494 F500
G1 X18.266 Y7.690 Z-0.476 F500
G1 X18.312 Y7.688 Z-0.448 F500
G1 X18.349 Y7.687 Z-0.410 F500
G1 X18.378 Y7.686 Z-0.365 F500
G1 X18.395 Y7.686 Z-0.315 F500
G1 X18.401 Y7.685 Z-0.262 F500
G1 X18.401 Y7.685 Z5.000 F500
G1 X18.417 Y8.162 Z5.000 F500
G1 X18.417 Y8.162 Z-0.023 F100
G1 X18.417 Y8.162 Z-0.762 F100
G1 X18.411 Y8.162 Z-0.815 F500
G1 X18.393 Y8.162 Z-0.865 F500
G1 X18.365 Y8.163 Z-0.910 F500
G1 X18.327 Y8.165 Z-0.948 F500
G1 X18.282 Y8.166 Z-0.976 F500
G1 X18.232 Y8.168 Z-0.994 F500
G1 X18.179 Y8.169 Z-1.000 F500
G1 X17.940 Y8.177 Z-1.000 F500
G1 X17.887 Y8.173 Z-1.000 F500
G1 X17.836 Y8.157 Z-1.000 F500
G1 X17.790 Y8.130 Z-1.000 F500
G1 X17.751 Y8.094 Z-1.000 F500
G1 X17.722 Y8.049 Z-1.000 F500
G1 X17.702 Y8.000 Z-1.000 F500
G1 X17.695 Y7.947 Z-1.000 F500
G1 X17.674 Y7.561 Z-1.000 F500
G1 X17.638 Y7.176 Z-1.000 F500
G1 X17.586 Y6.793 Z-1.000 F500
G1 X17.518 Y6.413 Z-1.000 F500
G1 X17.435 Y6.036 Z-1.000 F500
G1 X17.337 Y5.662 Z-1.000 F500
G1 X17.223 Y5.293 Z-1.000 F500
G1 X17.095 Y4.928 Z-1.000 F500
G1 X16.951 Y4.570 Z-1.000 F500
G1 X16.793 Y4.217 Z-1.000 F500
G1 X16.621 Y3.871 Z-1.000 F500
G1 X16.435 Y3.533 Z-1.000 F500
G1 X16.235 Y3.202 Z-1.000 F500
G1 X16.022 Y2.880 Z-1.000 F500
G1 X15.795 Y2.567 Z-1.000 F500
G1 X15.556 Y2.263 Z-1.000 F500
G1 X15.305 Y1.969 Z-1.000 F500
G1 X15.042 Y1.686 Z-1.000 F500
G1 X14.768 Y1.414 Z-1.000 F500
G1 X14.483 Y1.153 Z-1.000 F500
G1 X14.187 Y0.905 Z-1.000 F500
G1 X13.882 Y0.668 Z-1.000 F500
G1 X13.567 Y0.444 Z-1.000 F500
G1 X13.243 Y0.234 Z-1.000 F500
G1 X12.911 Y0.036 Z-1.000 F500
G1 X12.571 Y-0.147 Z-1.000 F500
G1 X12.224 Y-0.317 Z-1.000 F500
G1 X11.870 Y-0.472 Z-1.000 F500
G1 X11.510 Y-0.612 Z-1.000 F500
G1 X11.144 Y-0.738 Z-1.000 F500
G1 X10.774 Y-0.849 Z-1.000 F500
G1 X10.400 Y-0.944 Z-1.000 F500
G1 X10.022 Y-1.024 Z-1.000 F500
G1 X9.641 Y-1.089 Z-1.000 F500
G1 X9.258 Y-1.138 Z-1.000 F500
G1 X8.873 Y-1.171 Z-1.000 F500
G1 X8.487 Y-1.188 Z-1.000 F500
G1 X8.100 Y-1.190 Z-1.000 F500
G1 X7.714 Y-1.176 Z-1.000 F500
G1 X7.329 Y-1.146 Z-1.000 F500
G1 X6.945 Y-1.100 Z-1.000 F500
G1 X6.564 Y-1.039 Z-1.000 F500
G1 X6.185 Y-0.962 Z-1.000 F500
G1 X5.810 Y-0.870 Z-1.000 F500
G1 X5.439 Y-0.762 Z-1.000 F500
G1 X5.073 Y-0.639 Z-1.000 F500
G1 X4.712 Y-0.502 Z-1.000 F500
G1 X4.356 Y-0.350 Z-1.000 F500
G1 X4.008 Y-0.183 Z-1.000 F500
G1 X3.666 Y-0.002 Z-1.000 F500
G1 X3.333 Y0.192 Z-1.000 F500
G1 X3.007 Y0.400 Z-1.000 F500
G1 X2.690 Y0.621 Z-1.000 F500
G1 X2.383 Y0.855 Z-1.000 F500
G1 X2.085 Y1.102 Z-1.000 F500
G1 X1.798 Y1.360 Z-1.000 F500
G1 X1.521 Y1.630 Z-1.000 F500
G1 X1.256 Y1.911 Z-1.000 F500
G1 X1.002 Y2.202 Z-1.000 F500
G1 X0.761 Y2.504 Z-1.000 F500
G1 X0.532 Y2.815 Z-1.000 F500
G1 X0.316 Y3.136 Z-1.000 F500
G1 X0.113 Y3.464 Z-1.000 F500
G1 X-0.076 Y3.801 Z-1.000 F500
G1 X-0.251 Y4.146 Z-1.000 F500
G1 X-0.412 Y4.497 Z-1.000 F500
G1 X-0.558 Y4.855 Z-1.000 F500
G1 X-0.690 Y5.218 Z-1.000 F500
G1 X-0.807 Y5.586 Z-1.000 F500
G1 X-0.908 Y5.959 Z-1.000 F500
G1 X-0.994 Y6.336 Z-1.000 F500
G1 X-1.065 Y6.715 Z-1.000 F500
G1 X-1.120 Y7.098 Z-1.000 F500
G1 X-1.160 Y7.482 Z-1.000 F500
G1 X-1.183 Y7.868 Z-1.000 F500
G1 X-1.191 Y8.254 Z-1.000 F500
G1 X-1.183 Y8.639 Z-1.000 F500
G1 X-1.160 Y9.024 Z-1.000 F500
G1 X-1.121 Y9.407 Z-1.000 F500
G1 X-1.066 Y9.789 Z-1.000 F500
G1 X-0.995 Y10.168 Z-1.000 F500
G1 X-0.910 Y10.543 Z-1.000 F500
G1 X-0.809 Y10.915 Z-1.000 F500
G1 X-0.693 Y11.283 Z-1.000 F500
G1 X-0.562 Y11.645 Z-1.000 F500
G1 X-0.416 Y12.002 Z-1.000 F500
G1 X-0.256 Y12.352 Z-1.000 F500
G1 X-0.082 Y12.696 Z-1.000 F500
G1 X0.106 Y13.032 Z-1.000 F500
G1 X0.308 Y13.361 Z-1.000 F500
G1 X0.523 Y13.681 Z-1.000 F500
G1 X0.751 Y13.991 Z-1.000 F500
G1 X0.991 Y14.293 Z-1.000 F500
G1 X1.243 Y14.584 Z-1.000 F500
G1 X1.507 Y14.865 Z-1.000 F500
G1 X1.783 Y15.134 Z-1.000 F500
G1 X2.069 Y15.393 Z-1.000 F500
G1 X2.365 Y15.639 Z-1.000 F500
G1 X2.671 Y15.873 Z-1.000 F500
G1 X2.987 Y16.094 Z-1.000 F500
G1 X3.311 Y16.303 Z-1.000 F500
G1 X3.643 Y16.498 Z-1.000 F500
G1 X3.983 Y16.679 Z-1.000 F500
G1 X4.330 Y16.846 Z-1.000 F500
G1 X4.684 Y16.999 Z-1.000 F500
G1 X5.044 Y17.137 Z-1.000 F500
G1 X5.409 Y17.261 Z-1.000 F500
G1 X5.778 Y17.369 Z-1.000 F500
G1 X6.152 Y17.463 Z-1.000 F500
G1 X6.530 Y17.541 Z-1.000 F500
G1 X6.910 Y17.603 Z-1.000 F500
G1 X7.292 Y17.651 Z-1.000 F500
G1 X7.676 Y17.682 Z-1.000 F500
G1 X8.061 Y17.698 Z-1.000 F500
G1 X8.447 Y17.698 Z-1.000 F500
G1 X8.832 Y17.682 Z-1.000 F500
G1 X9.216 Y17.651 Z-1.000 F500
G1 X9.598 Y17.603 Z-1.000 F500
G1 X9.979 Y17.541 Z-1.000 F500
G1 X10.356 Y17.463 Z-1.000 F500
G1 X10.730 Y17.369 Z-1.000 F500
G1 X11.100 Y17.261 Z-1.000 F500
G1 X11.465 Y17.137 Z-1.000 F500
G1 X11.824 Y16.999 Z-1.000 F500
G1 X12.178 Y16.846 Z-1.000 F500
G1 X12.525 Y16.679 Z-1.000 F500
G1 X12.865 Y16.498 Z-1.000 F500
G1 X13.198 Y16.303 Z-1.000 F500
G1 X13.522 Y16.094 Z-1.000 F500
G1 X13.837 Y15.873 Z-1.000 F500
G1 X14.143 Y15.639 Z-1.000 F500
G1 X14.440 Y15.393 Z-1.000 F500
G1 X14.726 Y15.134 Z-1.000 F500
G1 X15.001 Y14.865 Z-1.000 F500
G1 X15.265 Y14.584 Z-1.000 F500
G1 X15.517 Y14.293 Z-1.000 F500
G1 X15.757 Y13.991 Z-1.000 F500
G1 X15.985 Y13.681 Z-1.000 F500
G1 X16.200 Y13.361 Z-1.000 F500
G1 X16.402 Y13.032 Z-1.000 F500
G1 X16.590 Y12.696 Z-1.000 F500
G1 X16.764 Y12.352 Z-1.000 F500
G1 X16.924 Y12.002 Z-1.000 F500
G1 X17.070 Y11.645 Z-1.000 F500
G1 X17.201 Y11.283 Z-1.000 F500
G1 X17.317 Y10.915 Z-1.000 F500
G1 X17.418 Y10.543 Z-1.000 F500
G1 X17.504 Y10.168 Z-1.000 F500
G1 X17.574 Y9.789 Z-1.000 F500
G1 X17.629 Y9.407 Z-1.000 F500
G1 X17.668 Y9.024 Z-1.000 F500
G1 X17.692 Y8.639 Z-1.000 F500
G1 X17.700 Y8.254 Z-1.000 F500
G1 X17.695 Y7.947 Z-1.000 F500
G1 X17.699 Y7.894 Z-1.000 F500
G1 X17.715 Y7.843 Z-1.000 F500
G1 X17.742 Y7.797 Z-1.000 F500
G1 X17.778 Y7.758 Z-1.000 F500
G1 X17.822 Y7.728 Z-1.000 F500
G1 X17.872 Y7.709 Z-1.000 F500
G1 X17.925 Y7.701 Z-1.000 F500
G1 X18.163 Y7.693 Z-1.000 F500
G1 X18.216 Y7.691 Z-0.994 F500
G1 X18.266 Y7.690 Z-0.976 F500
G1 X18.312 Y7.688 Z-0.948 F500
G1 X18.349 Y7.687 Z-0.910 F500
G1 X18.378 Y7.686 Z-0.865 F500
G1 X18.395 Y7.686 Z-0.815 F500
G1 X18.401 Y7.685 Z-0.762 F500
G1 X18.401 Y7.685 Z5.000 F500
G1 X18.417 Y8.162 Z5.000 F500
G1 X18.417 Y8.162 Z-0.523 F100
G1 X18.417 Y8.162 Z-1.262 F100
G1 X18.411 Y8.162 Z-1.315 F500
G1 X18.393 Y8.162 Z-1.365 F500
G1 X18.365 Y8.163 Z-1.410 F500
G1 X18.327 Y8.165 Z-1.448 F500
G1 X18.282 Y8.166 Z-1.476 F500
G1 X18.232 Y8.168 Z-1.494 F500
G1 X18.179 Y8.169 Z-1.500 F500
G1 X17.940 Y8.177 Z-1.500 F500
G1 X17.887 Y8.173 Z-1.500 F500
G1 X17.836 Y8.157 Z-1.500 F500
G1 X17.790 Y8.130 Z-1.500 F500
G1 X17.751 Y8.094 Z-1.500 F500
G1 X17.722 Y8.049 Z-1.500 F500
G1 X17.702 Y8.000 Z-1.500 F500
G1 X17.695 Y7.947 Z-1.500 F500
G1 X17.674 Y7.561 Z-1.500 F500
G1 X17.638 Y7.176 Z-1.500 F500
G1 X17.586 Y6.793 Z-1.500 F500
G1 X17.518 Y6.413 Z-1.500 F500
G1 X17.435 Y6.036 Z-1.500 F500
G1 X17.337 Y5.662 Z-1.500 F500
G1 X17.223 Y5.293 Z-1.500 F500
G1 X17.095 Y4.928 Z-1.500 F500
G1 X16.951 Y4.570 Z-1.500 F500
G1 X16.793 Y4.217 Z-1.500 F500
G1 X16.621 Y3.871 Z-1.500 F500
G1 X16.435 Y3.533 Z-1.500 F500
G1 X16.235 Y3.202 Z-1.500 F500
G1 X16.022 Y2.880 Z-1.500 F500
G1 X15.795 Y2.567 Z-1.500 F500
G1 X15.556 Y2.263 Z-1.500 F500
G1 X15.305 Y1.969 Z-1.500 F500
G1 X15.042 Y1.686 Z-1.500 F500
G1 X14.768 Y1.414 Z-1.500 F500
G1 X14.483 Y1.153 Z-1.500 F500
G1 X14.187 Y0.905 Z-1.500 F500
G1 X13.882 Y0.668 Z-1.500 F500
G1 X13.567 Y0.444 Z-1.500 F500
G1 X13.243 Y0.234 Z-1.500 F500
G1 X12.911 Y0.036 Z-1.500 F500
G1 X12.571 Y-0.147 Z-1.500 F500
G1 X12.224 Y-0.317 Z-1.500 F500
G1 X11.870 Y-0.472 Z-1.500 F500
G1 X11.510 Y-0.612 Z-1.500 F500
G1 X11.144 Y-0.738 Z-1.500 F500
G1 X10.774 Y-0.849 Z-1.500 F500
G1 X10.400 Y-0.944 Z-1.500 F500
G1 X10.022 Y-1.024 Z-1.500 F500
G1 X9.641 Y-1.089 Z-1.500 F500
G1 X9.258 Y-1.138 Z-1.500 F500
G1 X8.873 Y-1.171 Z-1.500 F500
G1 X8.487 Y-1.188 Z-1.500 F500
G1 X8.100 Y-1.190 Z-1.500 F500
G1 X7.714 Y-1.176 Z-1.500 F500
G1 X7.329 Y-1.146 Z-1.500 F500
G1 X6.945 Y-1.100 Z-1.500 F500
G1 X6.564 Y-1.039 Z-1.500 F500
G1 X6.185 Y-0.962 Z-1.500 F500
G1 X5.810 Y-0.870 Z-1.500 F500
G1 X5.439 Y-0.762 Z-1.500 F500
G1 X5.073 Y-0.639 Z-1.500 F500
G1 X4.712 Y-0.502 Z-1.500 F500
G1 X4.356 Y-0.350 Z-1.500 F500
G1 X4.008 Y-0.183 Z-1.500 F500
G1 X3.666 Y-0.002 Z-1.500 F500
G1 X3.333 Y0.192 Z-1.500 F500
G1 X3.007 Y0.400 Z-1.500 F500
G1 X2.690 Y0.621 Z-1.500 F500
G1 X2.383 Y0.855 Z-1.500 F500
G1 X2.085 Y1.102 Z-1.500 F500
G1 X1.798 Y1.360 Z-1.500 F500
G1 X1.521 Y1.630 Z-1.500 F500
G1 X1.256 Y1.911 Z-1.500 F500
G1 X1.002 Y2.202 Z-1.500 F500
G1 X0.761 Y2.504 Z-1.500 F500
G1 X0.532 Y2.815 Z-1.500 F500
G1 X0.316 Y3.136 Z-1.500 F500
G1 X0.113 Y3.464 Z-1.500 F500
G1 X-0.076 Y3.801 Z-1.500 F500
G1 X-0.251 Y4.146 Z-1.500 F500
G1 X-0.412 Y4.497 Z-1.500 F500
G1 X-0.558 Y4.855 Z-1.500 F500
G1 X-0.690 Y5.218 Z-1.500 F500
G1 X-0.807 Y5.586 Z-1.500 F500
G1 X-0.908 Y5.959 Z-1.500 F500
G1 X-0.994 Y6.336 Z-1.500 F500
G1 X-1.065 Y6.715 Z-1.500 F500
G1 X-1.120 Y7.098 Z-1.500 F500
G1 X-1.160 Y7.482 Z-1.500 F500
G1 X-1.183 Y7.868 Z-1.500 F500
G1 X-1.191 Y8.254 Z-1.500 F500
G1 X-1.183 Y8.639 Z-1.500 F500
G1 X-1.160 Y9.024 Z-1.500 F500
G1 X-1.121 Y9.407 Z-1.500 F500
G1 X-1.066 Y9.789 Z-1.500 F500
G1 X-0.995 Y10.168 Z-1.500 F500
G1 X-0.910 Y10.543 Z-1.500 F500
G1 X-0.809 Y10.915 Z-1.500 F500
G1 X-0.693 Y11.283 Z-1.500 F500
G1 X-0.562 Y11.645 Z-1.500 F500
G1 X-0.416 Y12.002 Z-1.500 F500
G1 X-0.256 Y12.352 Z-1.500 F500
G1 X-0.082 Y12.696 Z-1.500 F500
G1 X0.106 Y13.032 Z-1.500 F500
G1 X0.308 Y13.361 Z-1.500 F500
G1 X0.523 Y13.681 Z-1.500 F500
G1 X0.751 Y13.991 Z-1.500 F500
G1 X0.991 Y14.293 Z-1.500 F500
G1 X1.243 Y14.584 Z-1.500 F500
G1 X1.507 Y14.865 Z-1.500 F500
G1 X1.783 Y15.134 Z-1.500 F500
G1 X2.069 Y15.393 Z-1.500 F500
G1 X2.365 Y15.639 Z-1.500 F500
G1 X2.671 Y15.873 Z-1.500 F500
G1 X2.987 Y16.094 Z-1.500 F500
G1 X3.311 Y16.303 Z-1.500 F500
G1 X3.643 Y16.498 Z-1.500 F500
G1 X3.983 Y16.679 Z-1.500 F500
G1 X4.330 Y16.846 Z-1.500 F500
G1 X4.684 Y16.999 Z-1.500 F500
G1 X5.044 Y17.137 Z-1.500 F500
G1 X5.409 Y17.261 Z-1.500 F500
G1 X5.778 Y17.369 Z-1.500 F500
G1 X6.152 Y17.463 Z-1.500 F500
G1 X6.530 Y17.541 Z-1.500 F500
G1 X6.910 Y17.603 Z-1.500 F500
G1 X7.292 Y17.651 Z-1.500 F500
G1 X7.676 Y17.682 Z-1.500 F500
G1 X8.061 Y17.698 Z-1.500 F500
G1 X8.447 Y17.698 Z-1.500 F500
G1 X8.832 Y17.682 Z-1.500 F500
G1 X9.216 Y17.651 Z-1.500 F500
G1 X9.598 Y17.603 Z-1.500 F500
G1 X9.979 Y17.541 Z-1.500 F500
G1 X10.356 Y17.463 Z-1.500 F500
G1 X10.730 Y17.369 Z-1.500 F500
G1 X11.100 Y17.261 Z-1.500 F500
G1 X11.465 Y17.137 Z-1.500 F500
G1 X11.824 Y16.999 Z-1.500 F500
G1 X12.178 Y16.846 Z-1.500 F500
G1 X12.525 Y16.679 Z-1.500 F500
G1 X12.865 Y16.498 Z-1.500 F500
G1 X13.198 Y16.303 Z-1.500 F500
G1 X13.522 Y16.094 Z-1.500 F500
G1 X13.837 Y15.873 Z-1.500 F500
G1 X14.143 Y15.639 Z-1.500 F500
G1 X14.440 Y15.393 Z-1.500 F500
G1 X14.726 Y15.134 Z-1.500 F500
G1 X15.001 Y14.865 Z-1.500 F500
G1 X15.265 Y14.584 Z-1.500 F500
G1 X15.517 Y14.293 Z-1.500 F500
G1 X15.757 Y13.991 Z-1.500 F500
G1 X15.985 Y13.681 Z-1.500 F500
G1 X16.200 Y13.361 Z-1.500 F500
G1 X16.402 Y13.032 Z-1.500 F500
G1 X16.590 Y12.696 Z-1.500 F500
G1 X16.764 Y12.352 Z-1.500 F500
G1 X16.924 Y12.002 Z-1.500 F500
G1 X17.070 Y11.645 Z-1.500 F500
G1 X17.201 Y11.283 Z-1.500 F500
G1 X17.317 Y10.915 Z-1.500 F500
G1 X17.418 Y10.543 Z-1.500 F500
G1 X17.504 Y10.168 Z-1.500 F500
G1 X17.574 Y9.789 Z-1.500 F500
G1 X17.629 Y9.407 Z-1.500 F500
G1 X17.668 Y9.024 Z-1.500 F500
G1 X17.692 Y8.639 Z-1.500 F500
G1 X17.700 Y8.254 Z-1.500 F500
G1 X17.695 Y7.947 Z-1.500 F500
G1 X17.699 Y7.894 Z-1.500 F500
G1 X17.715 Y7.843 Z-1.500 F500
G1 X17.742 Y7.797 Z-1.500 F500
G1 X17.778 Y7.758 Z-1.500 F500
G1 X17.822 Y7.728 Z-1.500 F500
G1 X17.872 Y7.709 Z-1.500 F500
G1 X17.925 Y7.701 Z-1.500 F500
G1 X18.163 Y7.693 Z-1.500 F500
G1 X18.216 Y7.691 Z-1.494 F500
G1 X18.266 Y7.690 Z-1.476 F500
G1 X18.312 Y7.688 Z-1.448 F500
G1 X18.349 Y7.687 Z-1.410 F500
G1 X18.378 Y7.686 Z-1.365 F500
G1 X18.395 Y7.686 Z-1.315 F500
G1 X18.401 Y7.685 Z-1.262 F500
G1 X18.401 Y7.685 Z5.000 F500
G1 X18.417 Y8.162 Z5.000 F500
G1 X18.417 Y8.162 Z-1.023 F100
G1 X18.417 Y8.162 Z-1.762 F100
G1 X18.411 Y8.162 Z-1.815 F500
G1 X18.393 Y8.162 Z-1.865 F500
G1 X18.365 Y8.163 Z-1.910 F500
G1 X18.327 Y8.165 Z-1.948 F500
G1 X18.282 Y8.166 Z-1.976 F500
G1 X18.232 Y8.168 Z-1.994 F500
G1 X18.179 Y8.169 Z-2.000 F500
G1 X17.940 Y8.177 Z-2.000 F500
G1 X17.887 Y8.173 Z-2.000 F500
G1 X17.836 Y8.157 Z-2.000 F500
G1 X17.790 Y8.130 Z-2.000 F500
G1 X17.751 Y8.094 Z-2.000 F500
G1 X17.722 Y8.049 Z-2.000 F500
G1 X17.702 Y8.000 Z-2.000 F500
G1 X17.695 Y7.947 Z-2.000 F500
G1 X17.674 Y7.561 Z-2.000 F500
G1 X17.638 Y7.176 Z-2.000 F500
G1 X17.586 Y6.793 Z-2.000 F500
G1 X17.518 Y6.413 Z-2.000 F500
G1 X17.435 Y6.036 Z-2.000 F500
G1 X17.337 Y5.662 Z-2.000 F500
G1 X17.223 Y5.293 Z-2.000 F500
G1 X17.095 Y4.928 Z-2.000 F500
G1 X16.951 Y4.570 Z-2.000 F500
G1 X16.793 Y4.217 Z-2.000 F500
G1 X16.621 Y3.871 Z-2.000 F500
G1 X16.435 Y3.533 Z-2.000 F500
G1 X16.235 Y3.202 Z-2.000 F500
G1 X16.022 Y2.880 Z-2.000 F500
G1 X15.795 Y2.567 Z-2.000 F500
G1 X15.556 Y2.263 Z-2.000 F500
G1 X15.305 Y1.969 Z-2.000 F500
G1 X15.042 Y1.686 Z-2.000 F500
G1 X14.768 Y1.414 Z-2.000 F500
G1 X14.483 Y1.153 Z-2.000 F500
G1 X14.187 Y0.905 Z-2.000 F500
G1 X13.882 Y0.668 Z-2.000 F500
G1 X13.567 Y0.444 Z-2.000 F500
G1 X13.243 Y0.234 Z-2.000 F500
G1 X12.911 Y0.036 Z-2.000 F500
G1 X12.571 Y-0.147 Z-2.000 F500
G1 X12.224 Y-0.317 Z-2.000 F500
G1 X11.870 Y-0.472 Z-2.000 F500
G1 X11.510 Y-0.612 Z-2.000 F500
G1 X11.144 Y-0.738 Z-2.000 F500
G1 X10.774 Y-0.849 Z-2.000 F500
G1 X10.400 Y-0.944 Z-2.000 F500
G1 X10.022 Y-1.024 Z-2.000 F500
G1 X9.641 Y-1.089 Z-2.000 F500
G1 X9.258 Y-1.138 Z-2.000 F500
G1 X8.873 Y-1.171 Z-2.000 F500
G1 X8.487 Y-1.188 Z-2.000 F500
G1 X8.100 Y-1.190 Z-2.000 F500
G1 X7.714 Y-1.176 Z-2.000 F500
G1 X7.329 Y-1.146 Z-2.000 F500
G1 X6.945 Y-1.100 Z-2.000 F500
G1 X6.564 Y-1.039 Z-2.000 F500
G1 X6.185 Y-0.962 Z-2.000 F500
G1 X5.810 Y-0.870 Z-2.000 F500
G1 X5.439 Y-0.762 Z-2.000 F500
G1 X5.073 Y-0.639 Z-2.000 F500
G1 X4.712 Y-0.502 Z-2.000 F500
G1 X4.356 Y-0.350 Z-2.000 F500
G1 X4.008 Y-0.183 Z-2.000 F500
G1 X3.666 Y-0.002 Z-2.000 F500
G1 X3.333 Y0.192 Z-2.000 F500
G1 X3.007 Y0.400 Z-2.000 F500
G1 X2.690 Y0.621 Z-2.000 F500
G1 X2.383 Y0.855 Z-2.000 F500
G1 X2.085 Y1.102 Z-2.000 F500
G1 X1.798 Y1.360 Z-2.000 F500
G1 X1.521 Y1.630 Z-2.000 F500
G1 X1.256 Y1.911 Z-2.000 F500
G1 X1.002 Y2.202 Z-2.000 F500
G1 X0.761 Y2.504 Z-2.000 F500
G1 X0.532 Y2.815 Z-2.000 F500
G1 X0.316 Y3.136 Z-2.000 F500
G1 X0.113 Y3.464 Z-2.000 F500
G1 X-0.076 Y3.801 Z-2.000 F500
G1 X-0.251 Y4.146 Z-2.000 F500
G1 X-0.412 Y4.497 Z-2.000 F500
G1 X-0.558 Y4.855 Z-2.000 F500
G1 X-0.690 Y5.218 Z-2.000 F500
G1 X-0.807 Y5.586 Z-2.000 F500
G1 X-0.908 Y5.959 Z-2.000 F500
G1 X-0.994 Y6.336 Z-2.000 F500
G1 X-1.065 Y6.715 Z-2.000 F500
G1 X-1.120 Y7.098 Z-2.000 F500
G1 X-1.160 Y7.482 Z-2.000 F500
G1 X-1.183 Y7.868 Z-2.000 F500
G1 X-1.191 Y8.254 Z-2.000 F500
G1 X-1.183 Y8.639 Z-2.000 F500
G1 X-1.160 Y9.024 Z-2.000 F500
G1 X-1.121 Y9.407 Z-2.000 F500
G1 X-1.066 Y9.789 Z-2.000 F500
G1 X-0.995 Y10.168 Z-2.000 F500
G1 X-0.910 Y10.543 Z-2.000 F500
G1 X-0.809 Y10.915 Z-2.000 F500
G1 X-0.693 Y11.283 Z-2.000 F500
G1 X-0.562 Y11.645 Z-2.000 F500
G1 X-0.416 Y12.002 Z-2.000 F500
G1 X-0.256 Y12.352 Z-2.000 F500
G1 X-0.082 Y12.696 Z-2.000 F500
G1 X0.106 Y13.032 Z-2.000 F500
G1 X0.308 Y13.361 Z-2.000 F500
G1 X0.523 Y13.681 Z-2.000 F500
G1 X0.751 Y13.991 Z-2.000 F500
G1 X0.991 Y14.293 Z-2.000 F500
G1 X1.243 Y14.584 Z-2.000 F500
G1 X1.507 Y14.865 Z-2.000 F500
G1 X1.783 Y15.134 Z-2.000 F500
G1 X2.069 Y15.393 Z-2.000 F500
G1 X2.365 Y15.639 Z-2.000 F500
G1 X2.671 Y15.873 Z-2.000 F500
G1 X2.987 Y16.094 Z-2.000 F500
G1 X3.311 Y16.303 Z-2.000 F500
G1 X3.643 Y16.498 Z-2.000 F500
G1 X3.983 Y16.679 Z-2.000 F500
G1 X4.330 Y16.846 Z-2.000 F500
G1 X4.684 Y16.999 Z-2.000 F500
G1 X5.044 Y17.137 Z-2.000 F500
G1 X5.409 Y17.261 Z-2.000 F500
G1 X5.778 Y17.369 Z-2.000 F500
G1 X6.152 Y17.463 Z-2.000 F500
G1 X6.530 Y17.541 Z-2.000 F500
G1 X6.910 Y17.603 Z-2.000 F500
G1 X7.292 Y17.651 Z-2.000 F500
G1 X7.676 Y17.682 Z-2.000 F500
G1 X8.061 Y17.698 Z-2.000 F500
G1 X8.447 Y17.698 Z-2.000 F500
G1 X8.832 Y17.682 Z-2.000 F500
G1 X9.216 Y17.651 Z-2.000 F500
G1 X9.598 Y17.603 Z-2.000 F500
G1 X9.979 Y17.541 Z-2.000 F500
G1 X10.356 Y17.463 Z-2.000 F500
G1 X10.730 Y17.369 Z-2.000 F500
G1 X11.100 Y17.261 Z-2.000 F500
G1 X11.465 Y17.137 Z-2.000 F500
G1 X11.824 Y16.999 Z-2.000 F500
G1 X12.178 Y16.846 Z-2.000 F500
G1 X12.525 Y16.679 Z-2.000 F500
G1 X12.865 Y16.498 Z-2.000 F500
G1 X13.198 Y16.303 Z-2.000 F500
G1 X13.522 Y16.094 Z-2.000 F500
G1 X13.837 Y15.873 Z-2.000 F500
G1 X14.143 Y15.639 Z-2.000 F500
G1 X14.440 Y15.393 Z-2.000 F500
G1 X14.726 Y15.134 Z-2.000 F500
G1 X15.001 Y14.865 Z-2.000 F500
G1 X15.265 Y14.584 Z-2.000 F500
G1 X15.517 Y14.293 Z-2.000 F500
G1 X15.757 Y13.991 Z-2.000 F500
G1 X15.985 Y13.681 Z-2.000 F500
G1 X16.200 Y13.361 Z-2.000 F500
G1 X16.402 Y13.032 Z-2.000 F500
G1 X16.590 Y12.696 Z-2.000 F500
G1 X16.764 Y12.352 Z-2.000 F500
G1 X16.924 Y12.002 Z-2.000 F500
G1 X17.070 Y11.645 Z-2.000 F500
G1 X17.201 Y11.283 Z-2.000 F500
G1 X17.317 Y10.915 Z-2.000 F500
G1 X17.418 Y10.543 Z-2.000 F500
G1 X17.504 Y10.168 Z-2.000 F500
G1 X17.574 Y9.789 Z-2.000 F500
G1 X17.629 Y9.407 Z-2.000 F500
G1 X17.668 Y9.024 Z-2.000 F500
G1 X17.692 Y8.639 Z-2.000 F500
G1 X17.700 Y8.254 Z-2.000 F500
G1 X17.695 Y7.947 Z-2.000 F500
G1 X17.699 Y7.894 Z-2.000 F500
G1 X17.715 Y7.843 Z-2.000 F500
G1 X17.742 Y7.797 Z-2.000 F500
G1 X17.778 Y7.758 Z-2.000 F500
G1 X17.822 Y7.728 Z-2.000 F500
G1 X17.872 Y7.709 Z-2.000 F500
G1 X17.925 Y7.701 Z-2.000 F500
G1 X18.163 Y7.693 Z-2.000 F500
G1 X18.216 Y7.691 Z-1.994 F500
G1 X18.266 Y7.690 Z-1.976 F500
G1 X18.312 Y7.688 Z-1.948 F500
G1 X18.349 Y7.687 Z-1.910 F500
G1 X18.378 Y7.686 Z-1.865 F500
G1 X18.395 Y7.686 Z-1.815 F500
G1 X18.401 Y7.685 Z-1.762 F500
G1 X18.401 Y7.685 Z5.000 F500
G1 X18.417 Y8.162 Z5.000 F500
G1 X18.417 Y8.162 Z-1.523 F100
G1 X18.417 Y8.162 Z-2.262 F100
G1 X18.411 Y8.162 Z-2.315 F500
G1 X18.393 Y8.162 Z-2.365 F500
G1 X18.365 Y8.163 Z-2.410 F500
G1 X18.327 Y8.165 Z-2.448 F500
G1 X18.282 Y8.166 Z-2.476 F500
G1 X18.232 Y8.168 Z-2.494 F500
G1 X18.179 Y8.169 Z-2.500 F500
G1 X17.940 Y8.177 Z-2.500 F500
G1 X17.887 Y8.173 Z-2.500 F500
G1 X17.836 Y8.157 Z-2.500 F500
G1 X17.790 Y8.130 Z-2.500 F500
G1 X17.751 Y8.094 Z-2.500 F500
G1 X17.722 Y8.049 Z-2.500 F500
G1 X17.702 Y8.000 Z-2.500 F500
G1 X17.695 Y7.947 Z-2.500 F500
G1 X17.674 Y7.561 Z-2.500 F500
G1 X17.638 Y7.176 Z-2.500 F500
G1 X17.586 Y6.793 Z-2.500 F500
G1 X17.518 Y6.413 Z-2.500 F500
G1 X17.435 Y6.036 Z-2.500 F500
G1 X17.337 Y5.662 Z-2.500 F500
G1 X17.223 Y5.293 Z-2.500 F500
G1 X17.095 Y4.928 Z-2.500 F500
G1 X16.951 Y4.570 Z-2.500 F500
G1 X16.793 Y4.217 Z-2.500 F500
G1 X16.621 Y3.871 Z-2.500 F500
G1 X16.435 Y3.533 Z-2.500 F500
G1 X16.235 Y3.202 Z-2.500 F500
G1 X16.022 Y2.880 Z-2.500 F500
G1 X15.795 Y2.567 Z-2.500 F500
G1 X15.556 Y2.263 Z-2.500 F500
G1 X15.305 Y1.969 Z-2.500 F500
G1 X15.042 Y1.686 Z-2.500 F500
G1 X14.768 Y1.414 Z-2.500 F500
G1 X14.483 Y1.153 Z-2.500 F500
G1 X14.187 Y0.905 Z-2.500 F500
G1 X13.882 Y0.668 Z-2.500 F500
G1 X13.567 Y0.444 Z-2.500 F500
G1 X13.243 Y0.234 Z-2.500 F500
G1 X12.911 Y0.036 Z-2.500 F500
G1 X12.571 Y-0.147 Z-2.500 F500
G1 X12.224 Y-0.317 Z-2.500 F500
G1 X11.870 Y-0.472 Z-2.500 F500
G1 X11.510 Y-0.612 Z-2.500 F500
G1 X11.144 Y-0.738 Z-2.500 F500
G1 X10.774 Y-0.849 Z-2.500 F500
G1 X10.400 Y-0.944 Z-2.500 F500
G1 X10.022 Y-1.024 Z-2.500 F500
G1 X9.641 Y-1.089 Z-2.500 F500
G1 X9.258 Y-1.138 Z-2.500 F500
G1 X8.873 Y-1.171 Z-2.500 F500
G1 X8.487 Y-1.188 Z-2.500 F500
G1 X8.100 Y-1.190 Z-2.500 F500
G1 X7.714 Y-1.176 Z-2.500 F500
G1 X7.329 Y-1.146 Z-2.500 F500
G1 X6.945 Y-1.100 Z-2.500 F500
G1 X6.564 Y-1.039 Z-2.500 F500
G1 X6.185 Y-0.962 Z-2.500 F500
G1 X5.810 Y-0.870 Z-2.500 F500
G1 X5.439 Y-0.762 Z-2.500 F500
G1 X5.073 Y-0.639 Z-2.500 F500
G1 X4.712 Y-0.502 Z-2.500 F500
G1 X4.356 Y-0.350 Z-2.500 F500
G1 X4.008 Y-0.183 Z-2.500 F500
G1 X3.666 Y-0.002 Z-2.500 F500
G1 X3.333 Y0.192 Z-2.500 F500
G1 X3.007 Y0.400 Z-2.500 F500
G1 X2.690 Y0.621 Z-2.500 F500
G1 X2.383 Y0.855 Z-2.500 F500
G1 X2.085 Y1.102 Z-2.500 F500
G1 X1.798 Y1.360 Z-2.500 F500
G1 X1.521 Y1.630 Z-2.500 F500
G1 X1.256 Y1.911 Z-2.500 F500
G1 X1.002 Y2.202 Z-2.500 F500
G1 X0.761 Y2.504 Z-2.500 F500
G1 X0.532 Y2.815 Z-2.500 F500
G1 X0.316 Y3.136 Z-2.500 F500
G1 X0.113 Y3.464 Z-2.500 F500
G1 X-0.076 Y3.801 Z-2.500 F500
G1 X-0.251 Y4.146 Z-2.500 F500
G1 X-0.412 Y4.497 Z-2.500 F500
G1 X-0.558 Y4.855 Z-2.500 F500
G1 X-0.690 Y5.218 Z-2.500 F500
G1 X-0.807 Y5.586 Z-2.500 F500
G1 X-0.908 Y5.959 Z-2.500 F500
G1 X-0.994 Y6.336 Z-2.500 F500
G1 X-1.065 Y6.715 Z-2.500 F500
G1 X-1.120 Y7.098 Z-2.500 F500
G1 X-1.160 Y7.482 Z-2.500 F500
G1 X-1.183 Y7.868 Z-2.500 F500
G1 X-1.191 Y8.254 Z-2.500 F500
G1 X-1.183 Y8.639 Z-2.500 F500
G1 X-1.160 Y9.024 Z-2.500 F500
G1 X-1.121 Y9.407 Z-2.500 F500
G1 X-1.066 Y9.789 Z-2.500 F500
G1 X-0.995 Y10.168 Z-2.500 F500
G1 X-0.910 Y10.543 Z-2.500 F500
G1 X-0.809 Y10.915 Z-2.500 F500
G1 X-0.693 Y11.283 Z-2.500 F500
G1 X-0.562 Y11.645 Z-2.500 F500
G1 X-0.416 Y12.002 Z-2.500 F500
G1 X-0.256 Y12.352 Z-2.500 F500
G1 X-0.082 Y12.696 Z-2.500 F500
G1 X0.106 Y13.032 Z-2.500 F500
G1 X0.308 Y13.361 Z-2.500 F500
G1 X0.523 Y13.681 Z-2.500 F500
G1 X0.751 Y13.991 Z-2.500 F500
G1 X0.991 Y14.293 Z-2.500 F500
G1 X1.243 Y14.584 Z-2.500 F500
G1 X1.507 Y14.865 Z-2.500 F500
G1 X1.783 Y15.134 Z-2.500 F500
G1 X2.069 Y15.393 Z-2.500 F500
G1 X2.365 Y15.639 Z-2.500 F500
G1 X2.671 Y15.873 Z-2.500 F500
G1 X2.987 Y16.094 Z-2.500 F500
G1 X3.311 Y16.303 Z-2.500 F500
G1 X3.643 Y16.498 Z-2.500 F500
G1 X3.983 Y16.679 Z-2.500 F500
G1 X4.330 Y16.846 Z-2.500 F500
G1 X4.684 Y16.999 Z-2.500 F500
G1 X5.044 Y17.137 Z-2.500 F500
G1 X5.409 Y17.261 Z-2.500 F500
G1 X5.778 Y17.369 Z-2.500 F500
G1 X6.152 Y17.463 Z-2.500 F500
G1 X6.530 Y17.541 Z-2.500 F500
G1 X6.910 Y17.603 Z-2.500 F500
G1 X7.292 Y17.651 Z-2.500 F500
G1 X7.676 Y17.682 Z-2.500 F500
G1 X8.061 Y17.698 Z-2.500 F500
G1 X8.447 Y17.698 Z-2.500 F500
G1 X8.832 Y17.682 Z-2.500 F500
G1 X9.216 Y17.651 Z-2.500 F500
G1 X9.598 Y17.603 Z-2.500 F500
G1 X9.979 Y17.541 Z-2.500 F500
G1 X10.356 Y17.463 Z-2.500 F500
G1 X10.730 Y17.369 Z-2.500 F500
G1 X11.100 Y17.261 Z-2.500 F500
G1 X11.465 Y17.137 Z-2.500 F500
G1 X11.824 Y16.999 Z-2.500 F500
G1 X12.178 Y16.846 Z-2.500 F500
G1 X12.525 Y16.679 Z-2.500 F500
G1 X12.865 Y16.498 Z-2.500 F500
G1 X13.198 Y16.303 Z-2.500 F500
G1 X13.522 Y16.094 Z-2.500 F500
G1 X13.837 Y15.873 Z-2.500 F500
G1 X14.143 Y15.639 Z-2.500 F500
G1 X14.440 Y15.393 Z-2.500 F500
G1 X14.726 Y15.134 Z-2.500 F500
G1 X15.001 Y14.865 Z-2.500 F500
G1 X15.265 Y14.584 Z-2.500 F500
G1 X15.517 Y14.293 Z-2.500 F500
G1 X15.757 Y13.991 Z-2.500 F500
G1 X15.985 Y13.681 Z-2.500 F500
G1 X16.200 Y13.361 Z-2.500 F500
G1 X16.402 Y13.032 Z-2.500 F500
G1 X16.590 Y12.696 Z-2.500 F500
G1 X16.764 Y12.352 Z-2.500 F500
G1 X16.924 Y12.002 Z-2.500 F500
G1 X17.070 Y11.645 Z-2.500 F500
G1 X17.201 Y11.283 Z-2.500 F500
G1 X17.317 Y10.915 Z-2.500 F500
G1 X17.418 Y10.543 Z-2.500 F500
G1 X17.504 Y10.168 Z-2.500 F500
G1 X17.574 Y9.789 Z-2.500 F500
G1 X17.629 Y9.407 Z-2.500 F500
G1 X17.668 Y9.024 Z-2.500 F500
G1 X17.692 Y8.639 Z-2.500 F500
G1 X17.700 Y8.254 Z-2.500 F500
G1 X17.695 Y7.947 Z-2.500 F500
G1 X17.699 Y7.894 Z-2.500 F500
G1 X17.715 Y7.843 Z-2.500 F500
G1 X17.742 Y7.797 Z-2.500 F500
G1 X17.778 Y7.758 Z-2.500 F500
G1 X17.822 Y7.728 Z-2.500 F500
G1 X17.872 Y7.709 Z-2.500 F500
G1 X17.925 Y7.701 Z-2.500 F500
G1 X18.163 Y7.693 Z-2.500 F500
G1 X18.216 Y7.691 Z-2.494 F500
G1 X18.266 Y7.690 Z-2.476 F500
G1 X18.312 Y7.688 Z-2.448 F500
G1 X18.349 Y7.687 Z-2.410 F500
G1 X18.378 Y7.686 Z-2.365 F500
G1 X18.395 Y7.686 Z-2.315 F500
G1 X18.401 Y7.685 Z-2.262 F500
G1 X18.401 Y7.685 Z5.000 F500
G1 X18.417 Y8.162 Z5.000 F500
G1 X18.417 Y8.162 Z-2.023 F100
G1 X18.417 Y8.162 Z-2.762 F100
G1 X18.411 Y8.162 Z-2.815 F500
G1 X18.393 Y8.162 Z-2.865 F500
G1 X18.365 Y8.163 Z-2.910 F500
G1 X18.327 Y8.165 Z-2.948 F500
G1 X18.282 Y8.166 Z-2.976 F500
G1 X18.232 Y8.168 Z-2.994 F500
G1 X18.179 Y8.169 Z-3.000 F500
G1 X17.940 Y8.177 Z-3.000 F500
G1 X17.887 Y8.173 Z-3.000 F500
G1 X17.836 Y8.157 Z-3.000 F500
G1 X17.790 Y8.130 Z-3.000 F500
G1 X17.751 Y8.094 Z-3.000 F500
G1 X17.722 Y8.049 Z-3.000 F500
G1 X17.702 Y8.000 Z-3.000 F500
G1 X17.695 Y7.947 Z-3.000 F500
G1 X17.674 Y7.561 Z-3.000 F500
G1 X17.638 Y7.176 Z-3.000 F500
G1 X17.586 Y6.793 Z-3.000 F500
G1 X17.518 Y6.413 Z-3.000 F500
G1 X17.435 Y6.036 Z-3.000 F500
G1 X17.337 Y5.662 Z-3.000 F500
G1 X17.223 Y5.293 Z-3.000 F500
G1 X17.095 Y4.928 Z-3.000 F500
G1 X16.951 Y4.570 Z-3.000 F500
G1 X16.793 Y4.217 Z-3.000 F500
G1 X16.621 Y3.871 Z-3.000 F500
G1 X16.435 Y3.533 Z-3.000 F500
G1 X16.235 Y3.202 Z-3.000 F500
G1 X16.022 Y2.880 Z-3.000 F500
G1 X15.795 Y2.567 Z-3.000 F500
G1 X15.556 Y2.263 Z-3.000 F500
G1 X15.305 Y1.969 Z-3.000 F500
G1 X15.042 Y1.686 Z-3.000 F500
G1 X14.768 Y1.414 Z-3.000 F500
G1 X14.483 Y1.153 Z-3.000 F500
G1 X14.187 Y0.905 Z-3.000 F500
G1 X13.882 Y0.668 Z-3.000 F500
G1 X13.567 Y0.444 Z-3.000 F500
G1 X13.243 Y0.234 Z-3.000 F500
G1 X12.911 Y0.036 Z-3.000 F500
G1 X12.571 Y-0.147 Z-3.000 F500
G1 X12.224 Y-0.317 Z-3.000 F500
G1 X11.870 Y-0.472 Z-3.000 F500
G1 X11.510 Y-0.612 Z-3.000 F500
G1 X11.144 Y-0.738 Z-3.000 F500
G1 X10.774 Y-0.849 Z-3.000 F500
G1 X10.400 Y-0.944 Z-3.000 F500
G1 X10.022 Y-1.024 Z-3.000 F500
G1 X9.641 Y-1.089 Z-3.000 F500
G1 X9.258 Y-1.138 Z-3.000 F500
G1 X8.873 Y-1.171 Z-3.000 F500
G1 X8.487 Y-1.188 Z-3.000 F500
G1 X8.100 Y-1.190 Z-3.000 F500
G1 X7.714 Y-1.176 Z-3.000 F500
G1 X7.329 Y-1.146 Z-3.000 F500
G1 X6.945 Y-1.100 Z-3.000 F500
G1 X6.564 Y-1.039 Z-3.000 F500
G1 X6.185 Y-0.962 Z-3.000 F500
G1 X5.810 Y-0.870 Z-3.000 F500
G1 X5.439 Y-0.762 Z-3.000 F500
G1 X5.073 Y-0.639 Z-3.000 F500
G1 X4.712 Y-0.502 Z-3.000 F500
G1 X4.356 Y-0.350 Z-3.000 F500
G1 X4.008 Y-0.183 Z-3.000 F500
G1 X3.666 Y-0.002 Z-3.000 F500
G1 X3.333 Y0.192 Z-3.000 F500
G1 X3.007 Y0.400 Z-3.000 F500
G1 X2.690 Y0.621 Z-3.000 F500
G1 X2.383 Y0.855 Z-3.000 F500
G1 X2.085 Y1.102 Z-3.000 F500
G1 X1.798 Y1.360 Z-3.000 F500
G1 X1.521 Y1.630 Z-3.000 F500
G1 X1.256 Y1.911 Z-3.000 F500
G1 X1.002 Y2.202 Z-3.000 F500
G1 X0.761 Y2.504 Z-3.000 F500
G1 X0.532 Y2.815 Z-3.000 F500
G1 X0.316 Y3.136 Z-3.000 F500
G1 X0.113 Y3.464 Z-3.000 F500
G1 X-0.076 Y3.801 Z-3.000 F500
G1 X-0.251 Y4.146 Z-3.000 F500
G1 X-0.412 Y4.497 Z-3.000 F500
G1 X-0.558 Y4.855 Z-3.000 F500
G1 X-0.690 Y5.218 Z-3.000 F500
G1 X-0.807 Y5.586 Z-3.000 F500
G1 X-0.908 Y5.959 Z-3.000 F500
G1 X-0.994 Y6.336 Z-3.000 F500
G1 X-1.065 Y6.715 Z-3.000 F500
G1 X-1.120 Y7.098 Z-3.000 F500
G1 X-1.160 Y7.482 Z-3.000 F500
G1 X-1.183 Y7.868 Z-3.000 F500
G1 X-1.191 Y8.254 Z-3.000 F500
G1 X-1.183 Y8.639 Z-3.000 F500
G1 X-1.160 Y9.024 Z-3.000 F500
G1 X-1.121 Y9.407 Z-3.000 F500
G1 X-1.066 Y9.789 Z-3.000 F500
G1 X-0.995 Y10.168 Z-3.000 F500
G1 X-0.910 Y10.543 Z-3.000 F500
G1 X-0.809 Y10.915 Z-3.000 F500
G1 X-0.693 Y11.283 Z-3.000 F500
G1 X-0.562 Y11.645 Z-3.000 F500
G1 X-0.416 Y12.002 Z-3.000 F500
G1 X-0.256 Y12.352 Z-3.000 F500
G1 X-0.082 Y12.696 Z-3.000 F500
G1 X0.106 Y13.032 Z-3.000 F500
G1 X0.308 Y13.361 Z-3.000 F500
G1 X0.523 Y13.681 Z-3.000 F500
G1 X0.751 Y13.991 Z-3.000 F500
G1 X0.991 Y14.293 Z-3.000 F500
G1 X1.243 Y14.584 Z-3.000 F500
G1 X1.507 Y14.865 Z-3.000 F500
G1 X1.783 Y15.134 Z-3.000 F500
G1 X2.069 Y15.393 Z-3.000 F500
G1 X2.365 Y15.639 Z-3.000 F500
G1 X2.671 Y15.873 Z-3.000 F500
G1 X2.987 Y16.094 Z-3.000 F500
G1 X3.311 Y16.303 Z-3.000 F500
G1 X3.643 Y16.498 Z-3.000 F500
G1 X3.983 Y16.679 Z-3.000 F500
G1 X4.330 Y16.846 Z-3.000 F500
G1 X4.684 Y16.999 Z-3.000 F500
G1 X5.044 Y17.137 Z-3.000 F500
G1 X5.409 Y17.261 Z-3.000 F500
G1 X5.778 Y17.369 Z-3.000 F500
G1 X6.152 Y17.463 Z-3.000 F500
G1 X6.530 Y17.541 Z-3.000 F500
G1 X6.910 Y17.603 Z-3.000 F500
G1 X7.292 Y17.651 Z-3.000 F500
G1 X7.676 Y17.682 Z-3.000 F500
G1 X8.061 Y17.698 Z-3.000 F500
G1 X8.447 Y17.698 Z-3.000 F500
G1 X8.832 Y17.682 Z-3.000 F500
G1 X9.216 Y17.651 Z-3.000 F500
G1 X9.598 Y17.603 Z-3.000 F500
G1 X9.979 Y17.541 Z-3.000 F500
G1 X10.356 Y17.463 Z-3.000 F500
G1 X10.730 Y17.369 Z-3.000 F500
G1 X11.100 Y17.261 Z-3.000 F500
G1 X11.465 Y17.137 Z-3.000 F500
G1 X11.824 Y16.999 Z-3.000 F500
G1 X12.178 Y16.846 Z-3.000 F500
G1 X12.525 Y16.679 Z-3.000 F500
G1 X12.865 Y16.498 Z-3.000 F500
G1 X13.198 Y16.303 Z-3.000 F500
G1 X13.522 Y16.094 Z-3.000 F500
G1 X13.837 Y15.873 Z-3.000 F500
G1 X14.143 Y15.639 Z-3.000 F500
G1 X14.440 Y15.393 Z-3.000 F500
G1 X14.726 Y15.134 Z-3.000 F500
G1 X15.001 Y14.865 Z-3.000 F500
G1 X15.265 Y14.584 Z-3.000 F500
G1 X15.517 Y14.293 Z-3.000 F500
G1 X15.757 Y13.991 Z-3.000 F500
G1 X15.985 Y13.681 Z-3.000 F500
G1 X16.200 Y13.361 Z-3.000 F500
G1 X16.402 Y13.032 Z-3.000 F500
G1 X16.590 Y12.696 Z-3.000 F500
G1 X16.764 Y12.352 Z-3.000 F500
G1 X16.924 Y12.002 Z-3.000 F500
G1 X17.070 Y11.645 Z-3.000 F500
G1 X17.201 Y11.283 Z-3.000 F500
G1 X17.317 Y10.915 Z-3.000 F500
G1 X17.418 Y10.543 Z-3.000 F500
G1 X17.504 Y10.168 Z-3.000 F500
G1 X17.574 Y9.789 Z-3.000 F500
G1 X17.629 Y9.407 Z-3.000 F500
G1 X17.668 Y9.024 Z-3.000 F500
G1 X17.692 Y8.639 Z-3.000 F500
G1 X17.700 Y8.254 Z-3.000 F500
G1 X17.695 Y7.947 Z-3.000 F500
G1 X17.699 Y7.894 Z-3.000 F500
G1 X17.715 Y7.843 Z-3.000 F500
G1 X17.742 Y7.797 Z-3.000 F500
G1 X17.778 Y7.758 Z-3.000 F500
G1 X17.822 Y7.728 Z-3.000 F500
G1 X17.872 Y7.709 Z-3.000 F500
G1 X17.925 Y7.701 Z-3.000 F500
G1 X18.163 Y7.693 Z-3.000 F500
G1 X18.216 Y7.691 Z-2.994 F500
G1 X18.266 Y7.690 Z-2.976 F500
G1 X18.312 Y7.688 Z-2.948 F500
G1 X18.349 Y7.687 Z-2.910 F500
G1 X18.378 Y7.686 Z-2.865 F500
G1 X18.395 Y7.686 Z-2.815 F500
G1 X18.401 Y7.685 Z-2.762 F500
G1 X18.401 Y7.685 Z5.000 F500
G1 X18.417 Y8.162 Z5.000 F500
G1 X18.417 Y8.162 Z-2.523 F100
G1 X18.417 Y8.162 Z-3.262 F100
G1 X18.411 Y8.162 Z-3.315 F500
G1 X18.393 Y8.162 Z-3.365 F500
G1 X18.365 Y8.163 Z-3.410 F500
G1 X18.327 Y8.165 Z-3.448 F500
G1 X18.282 Y8.166 Z-3.476 F500
G1 X18.232 Y8.168 Z-3.494 F500
G1 X18.179 Y8.169 Z-3.500 F500
G1 X17.940 Y8.177 Z-3.500 F500
G1 X17.887 Y8.173 Z-3.500 F500
G1 X17.836 Y8.157 Z-3.500 F500
G1 X17.790 Y8.130 Z-3.500 F500
G1 X17.751 Y8.094 Z-3.500 F500
G1 X17.722 Y8.049 Z-3.500 F500
G1 X17.702 Y8.000 Z-3.500 F500
G1 X17.695 Y7.947 Z-3.500 F500
G1 X17.674 Y7.561 Z-3.500 F500
G1 X17.638 Y7.176 Z-3.500 F500
G1 X17.586 Y6.793 Z-3.500 F500
G1 X17.518 Y6.413 Z-3.500 F500
G1 X17.435 Y6.036 Z-3.500 F500
G1 X17.337 Y5.662 Z-3.500 F500
G1 X17.223 Y5.293 Z-3.500 F500
G1 X17.095 Y4.928 Z-3.500 F500
G1 X16.951 Y4.570 Z-3.500 F500
G1 X16.793 Y4.217 Z-3.500 F500
G1 X16.621 Y3.871 Z-3.500 F500
G1 X16.435 Y3.533 Z-3.500 F500
G1 X16.235 Y3.202 Z-3.500 F500
G1 X16.022 Y2.880 Z-3.500 F500
G1 X15.795 Y2.567 Z-3.500 F500
G1 X15.556 Y2.263 Z-3.500 F500
G1 X15.305 Y1.969 Z-3.500 F500
G1 X15.042 Y1.686 Z-3.500 F500
G1 X14.768 Y1.414 Z-3.500 F500
G1 X14.483 Y1.153 Z-3.500 F500
G1 X14.187 Y0.905 Z-3.500 F500
G1 X13.882 Y0.668 Z-3.500 F500
G1 X13.567 Y0.444 Z-3.500 F500
G1 X13.243 Y0.234 Z-3.500 F500
G1 X12.911 Y0.036 Z-3.500 F500
G1 X12.571 Y-0.147 Z-3.500 F500
G1 X12.224 Y-0.317 Z-3.500 F500
G1 X11.870 Y-0.472 Z-3.500 F500
G1 X11.510 Y-0.612 Z-3.500 F500
G1 X11.144 Y-0.738 Z-3.500 F500
G1 X10.774 Y-0.849 Z-3.500 F500
G1 X10.400 Y-0.944 Z-3.500 F500
G1 X10.022 Y-1.024 Z-3.500 F500
G1 X9.641 Y-1.089 Z-3.500 F500
G1 X9.258 Y-1.138 Z-3.500 F500
G1 X8.873 Y-1.171 Z-3.500 F500
G1 X8.487 Y-1.188 Z-3.500 F500
G1 X8.100 Y-1.190 Z-3.500 F500
G1 X7.714 Y-1.176 Z-3.500 F500
G1 X7.329 Y-1.146 Z-3.500 F500
G1 X6.945 Y-1.100 Z-3.500 F500
G1 X6.564 Y-1.039 Z-3.500 F500
G1 X6.185 Y-0.962 Z-3.500 F500
G1 X5.810 Y-0.870 Z-3.500 F500
G1 X5.439 Y-0.762 Z-3.500 F500
G1 X5.073 Y-0.639 Z-3.500 F500
G1 X4.712 Y-0.502 Z-3.500 F500
G1 X4.356 Y-0.350 Z-3.500 F500
G1 X4.008 Y-0.183 Z-3.500 F500
G1 X3.666 Y-0.002 Z-3.500 F500
G1 X3.333 Y0.192 Z-3.500 F500
G1 X3.007 Y0.400 Z-3.500 F500
G1 X2.690 Y0.621 Z-3.500 F500
G1 X2.383 Y0.855 Z-3.500 F500
G1 X2.085 Y1.102 Z-3.500 F500
G1 X1.798 Y1.360 Z-3.500 F500
G1 X1.521 Y1.630 Z-3.500 F500
G1 X1.256 Y1.911 Z-3.500 F500
G1 X1.002 Y2.202 Z-3.500 F500
G1 X0.761 Y2.504 Z-3.500 F500
G1 X0.532 Y2.815 Z-3.500 F500
G1 X0.316 Y3.136 Z-3.500 F500
G1 X0.113 Y3.464 Z-3.500 F500
G1 X-0.076 Y3.801 Z-3.500 F500
G1 X-0.251 Y4.146 Z-3.500 F500
G1 X-0.412 Y4.497 Z-3.500 F500
G1 X-0.558 Y4.855 Z-3.500 F500
G1 X-0.690 Y5.218 Z-3.500 F500
G1 X-0.807 Y5.586 Z-3.500 F500
G1 X-0.908 Y5.959 Z-3.500 F500
G1 X-0.994 Y6.336 Z-3.500 F500
G1 X-1.065 Y6.715 Z-3.500 F500
G1 X-1.120 Y7.098 Z-3.500 F500
G1 X-1.160 Y7.482 Z-3.500 F500
G1 X-1.183 Y7.868 Z-3.500 F500
G1 X-1.191 Y8.254 Z-3.500 F500
G1 X-1.183 Y8.639 Z-3.500 F500
G1 X-1.160 Y9.024 Z-3.500 F500
G1 X-1.121 Y9.407 Z-3.500 F500
G1 X-1.066 Y9.789 Z-3.500 F500
G1 X-0.995 Y10.168 Z-3.500 F500
G1 X-0.910 Y10.543 Z-3.500 F500
G1 X-0.809 Y10.915 Z-3.500 F500
G1 X-0.693 Y11.283 Z-3.500 F500
G1 X-0.562 Y11.645 Z-3.500 F500
G1 X-0.416 Y12.002 Z-3.500 F500
G1 X-0.256 Y12.352 Z-3.500 F500
G1 X-0.082 Y12.696 Z-3.500 F500
G1 X0.106 Y13.032 Z-3.500 F500
G1 X0.308 Y13.361 Z-3.500 F500
G1 X0.523 Y13.681 Z-3.500 F500
G1 X0.751 Y13.991 Z-3.500 F500
G1 X0.991 Y14.293 Z-3.500 F500
G1 X1.243 Y14.584 Z-3.500 F500
G1 X1.507 Y14.865 Z-3.500 F500
G1 X1.783 Y15.134 Z-3.500 F500
G1 X2.069 Y15.393 Z-3.500 F500
G1 X2.365 Y15.639 Z-3.500 F500
G1 X2.671 Y15.873 Z-3.500 F500
G1 X2.987 Y16.094 Z-3.500 F500
G1 X3.311 Y16.303 Z-3.500 F500
G1 X3.643 Y16.498 Z-3.500 F500
G1 X3.983 Y16.679 Z-3.500 F500
G1 X4.330 Y16.846 Z-3.500 F500
G1 X4.684 Y16.999 Z-3.500 F500
G1 X5.044 Y17.137 Z-3.500 F500
G1 X5.409 Y17.261 Z-3.500 F500
G1 X5.778 Y17.369 Z-3.500 F500
G1 X6.152 Y17.463 Z-3.500 F500
G1 X6.530 Y17.541 Z-3.500 F500
G1 X6.910 Y17.603 Z-3.500 F500
G1 X7.292 Y17.651 Z-3.500 F500
G1 X7.676 Y17.682 Z-3.500 F500
G1 X8.061 Y17.698 Z-3.500 F500
G1 X8.447 Y17.698 Z-3.500 F500
G1 X8.832 Y17.682 Z-3.500 F500
G1 X9.216 Y17.651 Z-3.500 F500
G1 X9.598 Y17.603 Z-3.500 F500
G1 X9.979 Y17.541 Z-3.500 F500
G1 X10.356 Y17.463 Z-3.500 F500
G1 X10.730 Y17.369 Z-3.500 F500
G1 X11.100 Y17.261 Z-3.500 F500
G1 X11.465 Y17.137 Z-3.500 F500
G1 X11.824 Y16.999 Z-3.500 F500
G1 X12.178 Y16.846 Z-3.500 F500
G1 X12.525 Y16.679 Z-3.500 F500
G1 X12.865 Y16.498 Z-3.500 F500
G1 X13.198 Y16.303 Z-3.500 F500
G1 X13.522 Y16.094 Z-3.500 F500
G1 X13.837 Y15.873 Z-3.500 F500
G1 X14.143 Y15.639 Z-3.500 F500
G1 X14.440 Y15.393 Z-3.500 F500
G1 X14.726 Y15.134 Z-3.500 F500
G1 X15.001 Y14.865 Z-3.500 F500
G1 X15.265 Y14.584 Z-3.500 F500
G1 X15.517 Y14.293 Z-3.500 F500
G1 X15.757 Y13.991 Z-3.500 F500
G1 X15.985 Y13.681 Z-3.500 F500
G1 X16.200 Y13.361 Z-3.500 F500
G1 X16.402 Y13.032 Z-3.500 F500
G1 X16.590 Y12.696 Z-3.500 F500
G1 X16.764 Y12.352 Z-3.500 F500
G1 X16.924 Y12.002 Z-3.500 F500
G1 X17.070 Y11.645 Z-3.500 F500
G1 X17.201 Y11.283 Z-3.500 F500
G1 X17.317 Y10.915 Z-3.500 F500
G1 X17.418 Y10.543 Z-3.500 F500
G1 X17.504 Y10.168 Z-3.500 F500
G1 X17.574 Y9.789 Z-3.500 F500
G1 X17.629 Y9.407 Z-3.500 F500
G1 X17.668 Y9.024 Z-3.500 F500
G1 X17.692 Y8.639 Z-3.500 F500
G1 X17.700 Y8.254 Z-3.500 F500
G1 X17.695 Y7.947 Z-3.500 F500
G1 X17.699 Y7.894 Z-3.500 F500
G1 X17.715 Y7.843 Z-3.500 F500
G1 X17.742 Y7.797 Z-3.500 F500
G1 X17.778 Y7.758 Z-3.500 F500
G1 X17.822 Y7.728 Z-3.500 F500
G1 X17.872 Y7.709 Z-3.500 F500
G1 X17.925 Y7.701 Z-3.500 F500
G1 X18.163 Y7.693 Z-3.500 F500
G1 X18.216 Y7.691 Z-3.494 F500
G1 X18.266 Y7.690 Z-3.476 F500
G1 X18.312 Y7.688 Z-3.448 F500
G1 X18.349 Y7.687 Z-3.410 F500
G1 X18.378 Y7.686 Z-3.365 F500
G1 X18.395 Y7.686 Z-3.315 F500
G1 X18.401 Y7.685 Z-3.262 F500
G1 X18.401 Y7.685 Z5.000 F500
G1 X18.417 Y8.162 Z5.000 F500
G1 X18.417 Y8.162 Z-3.023 F100
G1 X18.417 Y8.162 Z-3.762 F100
G1 X18.411 Y8.162 Z-3.815 F500
G1 X18.393 Y8.162 Z-3.865 F500
G1 X18.365 Y8.163 Z-3.910 F500
G1 X18.327 Y8.165 Z-3.948 F500
G1 X18.282 Y8.166 Z-3.976 F500
G1 X18.232 Y8.168 Z-3.994 F500
G1 X18.179 Y8.169 Z-4.000 F500
G1 X17.940 Y8.177 Z-4.000 F500
G1 X17.887 Y8.173 Z-4.000 F500
G1 X17.836 Y8.157 Z-4.000 F500
G1 X17.790 Y8.130 Z-4.000 F500
G1 X17.751 Y8.094 Z-4.000 F500
G1 X17.722 Y8.049 Z-4.000 F500
G1 X17.702 Y8.000 Z-4.000 F500
G1 X17.695 Y7.947 Z-4.000 F500
G1 X17.674 Y7.561 Z-4.000 F500
G1 X17.638 Y7.176 Z-4.000 F500
G1 X17.586 Y6.793 Z-4.000 F500
G1 X17.518 Y6.413 Z-4.000 F500
G1 X17.435 Y6.036 Z-4.000 F500
G1 X17.337 Y5.662 Z-4.000 F500
G1 X17.223 Y5.293 Z-4.000 F500
G1 X17.095 Y4.928 Z-4.000 F500
G1 X16.951 Y4.570 Z-4.000 F500
G1 X16.793 Y4.217 Z-4.000 F500
G1 X16.621 Y3.871 Z-4.000 F500
G1 X16.435 Y3.533 Z-4.000 F500
G1 X16.235 Y3.202 Z-4.000 F500
G1 X16.022 Y2.880 Z-4.000 F500
G1 X15.795 Y2.567 Z-4.000 F500
G1 X15.556 Y2.263 Z-4.000 F500
G1 X15.305 Y1.969 Z-4.000 F500
G1 X15.042 Y1.686 Z-4.000 F500
G1 X14.768 Y1.414 Z-4.000 F500
G1 X14.483 Y1.153 Z-4.000 F500
G1 X14.187 Y0.905 Z-4.000 F500
G1 X13.882 Y0.668 Z-4.000 F500
G1 X13.567 Y0.444 Z-4.000 F500
G1 X13.243 Y0.234 Z-4.000 F500
G1 X12.911 Y0.036 Z-4.000 F500
G1 X12.571 Y-0.147 Z-4.000 F500
G1 X12.224 Y-0.317 Z-4.000 F500
G1 X11.870 Y-0.472 Z-4.000 F500
G1 X11.510 Y-0.612 Z-4.000 F500
G1 X11.144 Y-0.738 Z-4.000 F500
G1 X10.774 Y-0.849 Z-4.000 F500
G1 X10.400 Y-0.944 Z-4.000 F500
G1 X10.022 Y-1.024 Z-4.000 F500
G1 X9.641 Y-1.089 Z-4.000 F500
G1 X9.258 Y-1.138 Z-4.000 F500
G1 X8.873 Y-1.171 Z-4.000 F500
G1 X8.487 Y-1.188 Z-4.000 F500
G1 X8.100 Y-1.190 Z-4.000 F500
G1 X7.714 Y-1.176 Z-4.000 F500
G1 X7.329 Y-1.146 Z-4.000 F500
G1 X6.945 Y-1.100 Z-4.000 F500
G1 X6.564 Y-1.039 Z-4.000 F500
G1 X6.185 Y-0.962 Z-4.000 F500
G1 X5.810 Y-0.870 Z-4.000 F500
G1 X5.439 Y-0.762 Z-4.000 F500
G1 X5.073 Y-0.639 Z-4.000 F500
G1 X4.712 Y-0.502 Z-4.000 F500
G1 X4.356 Y-0.350 Z-4.000 F500
G1 X4.008 Y-0.183 Z-4.000 F500
G1 X3.666 Y-0.002 Z-4.000 F500
G1 X3.333 Y0.192 Z-4.000 F500
G1 X3.007 Y0.400 Z-4.000 F500
G1 X2.690 Y0.621 Z-4.000 F500
G1 X2.383 Y0.855 Z-4.000 F500
G1 X2.085 Y1.102 Z-4.000 F500
G1 X1.798 Y1.360 Z-4.000 F500
G1 X1.521 Y1.630 Z-4.000 F500
G1 X1.256 Y1.911 Z-4.000 F500
G1 X1.002 Y2.202 Z-4.000 F500
G1 X0.761 Y2.504 Z-4.000 F500
G1 X0.532 Y2.815 Z-4.000 F500
G1 X0.316 Y3.136 Z-4.000 F500
G1 X0.113 Y3.464 Z-4.000 F500
G1 X-0.076 Y3.801 Z-4.000 F500
G1 X-0.251 Y4.146 Z-4.000 F500
G1 X-0.412 Y4.497 Z-4.000 F500
G1 X-0.558 Y4.855 Z-4.000 F500
G1 X-0.690 Y5.218 Z-4.000 F500
G1 X-0.807 Y5.586 Z-4.000 F500
G1 X-0.908 Y5.959 Z-4.000 F500
G1 X-0.994 Y6.336 Z-4.000 F500
G1 X-1.065 Y6.715 Z-4.000 F500
G1 X-1.120 Y7.098 Z-4.000 F500
G1 X-1.160 Y7.482 Z-4.000 F500
G1 X-1.183 Y7.868 Z-4.000 F500
G1 X-1.191 Y8.254 Z-4.000 F500
G1 X-1.183 Y8.639 Z-4.000 F500
G1 X-1.160 Y9.024 Z-4.000 F500
G1 X-1.121 Y9.407 Z-4.000 F500
G1 X-1.066 Y9.789 Z-4.000 F500
G1 X-0.995 Y10.168 Z-4.000 F500
G1 X-0.910 Y10.543 Z-4.000 F500
G1 X-0.809 Y10.915 Z-4.000 F500
G1 X-0.693 Y11.283 Z-4.000 F500
G1 X-0.562 Y11.645 Z-4.000 F500
G1 X-0.416 Y12.002 Z-4.000 F500
G1 X-0.256 Y12.352 Z-4.000 F500
G1 X-0.082 Y12.696 Z-4.000 F500
G1 X0.106 Y13.032 Z-4.000 F500
G1 X0.308 Y13.361 Z-4.000 F500
G1 X0.523 Y13.681 Z-4.000 F500
G1 X0.751 Y13.991 Z-4.000 F500
G1 X0.991 Y14.293 Z-4.000 F500
G1 X1.243 Y14.584 Z-4.000 F500
G1 X1.507 Y14.865 Z-4.000 F500
G1 X1.783 Y15.134 Z-4.000 F500
G1 X2.069 Y15.393 Z-4.000 F500
G1 X2.365 Y15.639 Z-4.000 F500
G1 X2.671 Y15.873 Z-4.000 F500
G1 X2.987 Y16.094 Z-4.000 F500
G1 X3.311 Y16.303 Z-4.000 F500
G1 X3.643 Y16.498 Z-4.000 F500
G1 X3.983 Y16.679 Z-4.000 F500
G1 X4.330 Y16.846 Z-4.000 F500
G1 X4.684 Y16.999 Z-4.000 F500
G1 X5.044 Y17.137 Z-4.000 F500
G1 X5.409 Y17.261 Z-4.000 F500
G1 X5.778 Y17.369 Z-4.000 F500
G1 X6.152 Y17.463 Z-4.000 F500
G1 X6.530 Y17.541 Z-4.000 F500
G1 X6.910 Y17.603 Z-4.000 F500
G1 X7.292 Y17.651 Z-4.000 F500
G1 X7.676 Y17.682 Z-4.000 F500
G1 X8.061 Y17.698 Z-4.000 F500
G1 X8.447 Y17.698 Z-4.000 F500
G1 X8.832 Y17.682 Z-4.000 F500
G1 X9.216 Y17.651 Z-4.000 F500
G1 X9.598 Y17.603 Z-4.000 F500
G1 X9.979 Y17.541 Z-4.000 F500
G1 X10.356 Y17.463 Z-4.000 F500
G1 X10.730 Y17.369 Z-4.000 F500
G1 X11.100 Y17.261 Z-4.000 F500
G1 X11.465 Y17.137 Z-4.000 F500
G1 X11.824 Y16.999 Z-4.000 F500
G1 X12.178 Y16.846 Z-4.000 F500
G1 X12.525 Y16.679 Z-4.000 F500
G1 X12.865 Y16.498 Z-4.000 F500
G1 X13.198 Y16.303 Z-4.000 F500
G1 X13.522 Y16.094 Z-4.000 F500
G1 X13.837 Y15.873 Z-4.000 F500
G1 X14.143 Y15.639 Z-4.000 F500
G1 X14.440 Y15.393 Z-4.000 F500
G1 X14.726 Y15.134 Z-4.000 F500
G1 X15.001 Y14.865 Z-4.000 F500
G1 X15.265 Y14.584 Z-4.000 F500
G1 X15.517 Y14.293 Z-4.000 F500
G1 X15.757 Y13.991 Z-4.000 F500
G1 X15.985 Y13.681 Z-4.000 F500
G1 X16.200 Y13.361 Z-4.000 F500
G1 X16.402 Y13.032 Z-4.000 F500
G1 X16.590 Y12.696 Z-4.000 F500
G1 X16.764 Y12.352 Z-4.000 F500
G1 X16.924 Y12.002 Z-4.000 F500
G1 X17.070 Y11.645 Z-4.000 F500
G1 X17.201 Y11.283 Z-4.000 F500
G1 X17.317 Y10.915 Z-4.000 F500
G1 X17.418 Y10.543 Z-4.000 F500
G1 X17.504 Y10.168 Z-4.000 F500
G1 X17.574 Y9.789 Z-4.000 F500
G1 X17.629 Y9.407 Z-4.000 F500
G1 X17.668 Y9.024 Z-4.000 F500
G1 X17.692 Y8.639 Z-4.000 F500
G1 X17.700 Y8.254 Z-4.000 F500
G1 X17.695 Y7.947 Z-4.000 F500
G1 X17.699 Y7.894 Z-4.000 F500
G1 X17.715 Y7.843 Z-4.000 F500
G1 X17.742 Y7.797 Z-4.000 F500
G1 X17.778 Y7.758 Z-4.000 F500
G1 X17.822 Y7.728 Z-4.000 F500
G1 X17.872 Y7.709 Z-4.000 F500
G1 X17.925 Y7.701 Z-4.000 F500
G1 X18.163 Y7.693 Z-4.000 F500
G1 X18.216 Y7.691 Z-3.994 F500
G1 X18.266 Y7.690 Z-3.976 F500
G1 X18.312 Y7.688 Z-3.948 F500
G1 X18.349 Y7.687 Z-3.910 F500
G1 X18.378 Y7.686 Z-3.865 F500
G1 X18.395 Y7.686 Z-3.815 F500
G1 X18.401 Y7.685 Z-3.762 F500
G1 X18.401 Y7.685 Z5.000 F500
G1 X18.417 Y8.162 Z5.000 F500
G1 X18.417 Y8.162 Z-3.523 F100
G1 X18.417 Y8.162 Z-4.262 F100
G1 X18.411 Y8.162 Z-4.315 F500
G1 X18.393 Y8.162 Z-4.365 F500
G1 X18.365 Y8.163 Z-4.410 F500
G1 X18.327 Y8.165 Z-4.448 F500
G1 X18.282 Y8.166 Z-4.476 F500
G1 X18.232 Y8.168 Z-4.494 F500
G1 X18.179 Y8.169 Z-4.500 F500
G1 X17.940 Y8.177 Z-4.500 F500
G1 X17.887 Y8.173 Z-4.500 F500
G1 X17.836 Y8.157 Z-4.500 F500
G1 X17.790 Y8.130 Z-4.500 F500
G1 X17.751 Y8.094 Z-4.500 F500
G1 X17.722 Y8.049 Z-4.500 F500
G1 X17.702 Y8.000 Z-4.500 F500
G1 X17.695 Y7.947 Z-4.500 F500
G1 X17.674 Y7.561 Z-4.500 F500
G1 X17.638 Y7.176 Z-4.500 F500
G1 X17.586 Y6.793 Z-4.500 F500
G1 X17.518 Y6.413 Z-4.500 F500
G1 X17.435 Y6.036 Z-4.500 F500
G1 X17.337 Y5.662 Z-4.500 F500
G1 X17.223 Y5.293 Z-4.500 F500
G1 X17.095 Y4.928 Z-4.500 F500
G1 X16.951 Y4.570 Z-4.500 F500
G1 X16.793 Y4.217 Z-4.500 F500
G1 X16.621 Y3.871 Z-4.500 F500
G1 X16.435 Y3.533 Z-4.500 F500
G1 X16.235 Y3.202 Z-4.500 F500
G1 X16.022 Y2.880 Z-4.500 F500
G1 X15.795 Y2.567 Z-4.500 F500
G1 X15.556 Y2.263 Z-4.500 F500
G1 X15.305 Y1.969 Z-4.500 F500
G1 X15.042 Y1.686 Z-4.500 F500
G1 X14.768 Y1.414 Z-4.500 F500
G1 X14.483 Y1.153 Z-4.500 F500
G1 X14.187 Y0.905 Z-4.500 F500
G1 X13.882 Y0.668 Z-4.500 F500
G1 X13.567 Y0.444 Z-4.500 F500
G1 X13.243 Y0.234 Z-4.500 F500
G1 X12.911 Y0.036 Z-4.500 F500
G1 X12.571 Y-0.147 Z-4.500 F500
G1 X12.224 Y-0.317 Z-4.500 F500
G1 X11.870 Y-0.472 Z-4.500 F500
G1 X11.510 Y-0.612 Z-4.500 F500
G1 X11.144 Y-0.738 Z-4.500 F500
G1 X10.774 Y-0.849 Z-4.500 F500
G1 X10.400 Y-0.944 Z-4.500 F500
G1 X10.022 Y-1.024 Z-4.500 F500
G1 X9.641 Y-1.089 Z-4.500 F500
G1 X9.258 Y-1.138 Z-4.500 F500
G1 X8.873 Y-1.171 Z-4.500 F500
G1 X8.487 Y-1.188 Z-4.500 F500
G1 X8.100 Y-1.190 Z-4.500 F500
G1 X7.714 Y-1.176 Z-4.500 F500
G1 X7.329 Y-1.146 Z-4.500 F500
G1 X6.945 Y-1.100 Z-4.500 F500
G1 X6.564 Y-1.039 Z-4.500 F500
G1 X6.185 Y-0.962 Z-4.500 F500
G1 X5.810 Y-0.870 Z-4.500 F500
G1 X5.439 Y-0.762 Z-4.500 F500
G1 X5.073 Y-0.639 Z-4.500 F500
G1 X4.712 Y-0.502 Z-4.500 F500
G1 X4.356 Y-0.350 Z-4.500 F500
G1 X4.008 Y-0.183 Z-4.500 F500
G1 X3.666 Y-0.002 Z-4.500 F500
G1 X3.333 Y0.192 Z-4.500 F500
G1 X3.007 Y0.400 Z-4.500 F500
G1 X2.690 Y0.621 Z-4.500 F500
G1 X2.383 Y0.855 Z-4.500 F500
G1 X2.085 Y1.102 Z-4.500 F500
G1 X1.798 Y1.360 Z-4.500 F500
G1 X1.521 Y1.630 Z-4.500 F500
G1 X1.256 Y1.911 Z-4.500 F500
G1 X1.002 Y2.202 Z-4.500 F500
G1 X0.761 Y2.504 Z-4.500 F500
G1 X0.532 Y2.815 Z-4.500 F500
G1 X0.316 Y3.136 Z-4.500 F500
G1 X0.113 Y3.464 Z-4.500 F500
G1 X-0.076 Y3.801 Z-4.500 F500
G1 X-0.251 Y4.146 Z-4.500 F500
G1 X-0.412 Y4.497 Z-4.500 F500
G1 X-0.558 Y4.855 Z-4.500 F500
G1 X-0.690 Y5.218 Z-4.500 F500
G1 X-0.807 Y5.586 Z-4.500 F500
G1 X-0.908 Y5.959 Z-4.500 F500
G1 X-0.994 Y6.336 Z-4.500 F500
G1 X-1.065 Y6.715 Z-4.500 F500
G1 X-1.120 Y7.098 Z-4.500 F500
G1 X-1.160 Y7.482 Z-4.500 F500
G1 X-1.183 Y7.868 Z-4.500 F500
G1 X-1.191 Y8.254 Z-4.500 F500
G1 X-1.183 Y8.639 Z-4.500 F500
G1 X-1.160 Y9.024 Z-4.500 F500
G1 X-1.121 Y9.407 Z-4.500 F500
G1 X-1.066 Y9.789 Z-4.500 F500
G1 X-0.995 Y10.168 Z-4.500 F500
G1 X-0.910 Y10.543 Z-4.500 F500
G1 X-0.809 Y10.915 Z-4.500 F500
G1 X-0.693 Y11.283 Z-4.500 F500
G1 X-0.562 Y11.645 Z-4.500 F500
G1 X-0.416 Y12.002 Z-4.500 F500
G1 X-0.256 Y12.352 Z-4.500 F500
G1 X-0.082 Y12.696 Z-4.500 F500
G1 X0.106 Y13.032 Z-4.500 F500
G1 X0.308 Y13.361 Z-4.500 F500
G1 X0.523 Y13.681 Z-4.500 F500
G1 X0.751 Y13.991 Z-4.500 F500
G1 X0.991 Y14.293 Z-4.500 F500
G1 X1.243 Y14.584 Z-4.500 F500
G1 X1.507 Y14.865 Z-4.500 F500
G1 X1.783 Y15.134 Z-4.500 F500
G1 X2.069 Y15.393 Z-4.500 F500
G1 X2.365 Y15.639 Z-4.500 F500
G1 X2.671 Y15.873 Z-4.500 F500
G1 X2.987 Y16.094 Z-4.500 F500
G1 X3.311 Y16.303 Z-4.500 F500
G1 X3.643 Y16.498 Z-4.500 F500
G1 X3.983 Y16.679 Z-4.500 F500
G1 X4.330 Y16.846 Z-4.500 F500
G1 X4.684 Y16.999 Z-4.500 F500
G1 X5.044 Y17.137 Z-4.500 F500
G1 X5.409 Y17.261 Z-4.500 F500
G1 X5.778 Y17.369 Z-4.500 F500
G1 X6.152 Y17.463 Z-4.500 F500
G1 X6.530 Y17.541 Z-4.500 F500
G1 X6.910 Y17.603 Z-4.500 F500
G1 X7.292 Y17.651 Z-4.500 F500
G1 X7.676 Y17.682 Z-4.500 F500
G1 X8.061 Y17.698 Z-4.500 F500
G1 X8.447 Y17.698 Z-4.500 F500
G1 X8.832 Y17.682 Z-4.500 F500
G1 X9.216 Y17.651 Z-4.500 F500
G1 X9.598 Y17.603 Z-4.500 F500
G1 X9.979 Y17.541 Z-4.500 F500
G1 X10.356 Y17.463 Z-4.500 F500
G1 X10.730 Y17.369 Z-4.500 F500
G1 X11.100 Y17.261 Z-4.500 F500
G1 X11.465 Y17.137 Z-4.500 F500
G1 X11.824 Y16.999 Z-4.500 F500
G1 X12.178 Y16.846 Z-4.500 F500
G1 X12.525 Y16.679 Z-4.500 F500
G1 X12.865 Y16.498 Z-4.500 F500
G1 X13.198 Y16.303 Z-4.500 F500
G1 X13.522 Y16.094 Z-4.500 F500
G1 X13.837 Y15.873 Z-4.500 F500
G1 X14.143 Y15.639 Z-4.500 F500
G1 X14.440 Y15.393 Z-4.500 F500
G1 X14.726 Y15.134 Z-4.500 F500
G1 X15.001 Y14.865 Z-4.500 F500
G1 X15.265 Y14.584 Z-4.500 F500
G1 X15.517 Y14.293 Z-4.500 F500
G1 X15.757 Y13.991 Z-4.500 F500
G1 X15.985 Y13.681 Z-4.500 F500
G1 X16.200 Y13.361 Z-4.500 F500
G1 X16.402 Y13.032 Z-4.500 F500
G1 X16.590 Y12.696 Z-4.500 F500
G1 X16.764 Y12.352 Z-4.500 F500
G1 X16.924 Y12.002 Z-4.500 F500
G1 X17.070 Y11.645 Z-4.500 F500
G1 X17.201 Y11.283 Z-4.500 F500
G1 X17.317 Y10.915 Z-4.500 F500
G1 X17.418 Y10.543 Z-4.500 F500
G1 X17.504 Y10.168 Z-4.500 F500
G1 X17.574 Y9.789 Z-4.500 F500
G1 X17.629 Y9.407 Z-4.500 F500
G1 X17.668 Y9.024 Z-4.500 F500
G1 X17.692 Y8.639 Z-4.500 F500
G1 X17.700 Y8.254 Z-4.500 F500
G1 X17.695 Y7.947 Z-4.500 F500
G1 X17.699 Y7.894 Z-4.500 F500
G1 X17.715 Y7.843 Z-4.500 F500
G1 X17.742 Y7.797 Z-4.500 F500
G1 X17.778 Y7.758 Z-4.500 F500
G1 X17.822 Y7.728 Z-4.500 F500
G1 X17.872 Y7.709 Z-4.500 F500
G1 X17.925 Y7.701 Z-4.500 F500
G1 X18.163 Y7.693 Z-4.500 F500
G1 X18.216 Y7.691 Z-4.494 F500
G1 X18.266 Y7.690 Z-4.476 F500
G1 X18.312 Y7.688 Z-4.448 F500
G1 X18.349 Y7.687 Z-4.410 F500
G1 X18.378 Y7.686 Z-4.365 F500
G1 X18.395 Y7.686 Z-4.315 F500
G1 X18.401 Y7.685 Z-4.262 F500
G1 X18.401 Y7.685 Z5.000 F500
G1 X18.417 Y8.162 Z5.000 F500
G1 X18.417 Y8.162 Z-4.023 F100
G1 X18.417 Y8.162 Z-4.762 F100
G1 X18.411 Y8.162 Z-4.815 F500
G1 X18.393 Y8.162 Z-4.865 F500
G1 X18.365 Y8.163 Z-4.910 F500
G1 X18.327 Y8.165 Z-4.948 F500
G1 X18.282 Y8.166 Z-4.976 F500
G1 X18.232 Y8.168 Z-4.994 F500
G1 X18.179 Y8.169 Z-5.000 F500
G1 X17.940 Y8.177 Z-5.000 F500
G1 X17.887 Y8.173 Z-5.000 F500
G1 X17.836 Y8.157 Z-5.000 F500
G1 X17.790 Y8.130 Z-5.000 F500
G1 X17.751 Y8.094 Z-5.000 F500
G1 X17.722 Y8.049 Z-5.000 F500
G1 X17.702 Y8.000 Z-5.000 F500
G1 X17.695 Y7.947 Z-5.000 F500
G1 X17.674 Y7.561 Z-5.000 F500
G1 X17.638 Y7.176 Z-5.000 F500
G1 X17.586 Y6.793 Z-5.000 F500
G1 X17.518 Y6.413 Z-5.000 F500
G1 X17.435 Y6.036 Z-5.000 F500
G1 X17.337 Y5.662 Z-5.000 F500
G1 X17.223 Y5.293 Z-5.000 F500
G1 X17.095 Y4.928 Z-5.000 F500
G1 X16.951 Y4.570 Z-5.000 F500
G1 X16.793 Y4.217 Z-5.000 F500
G1 X16.621 Y3.871 Z-5.000 F500
G1 X16.435 Y3.533 Z-5.000 F500
G1 X16.235 Y3.202 Z-5.000 F500
G1 X16.022 Y2.880 Z-5.000 F500
G1 X15.795 Y2.567 Z-5.000 F500
G1 X15.556 Y2.263 Z-5.000 F500
G1 X15.305 Y1.969 Z-5.000 F500
G1 X15.042 Y1.686 Z-5.000 F500
G1 X14.768 Y1.414 Z-5.000 F500
G1 X14.483 Y1.153 Z-5.000 F500
G1 X14.187 Y0.905 Z-5.000 F500
G1 X13.882 Y0.668 Z-5.000 F500
G1 X13.567 Y0.444 Z-5.000 F500
G1 X13.243 Y0.234 Z-5.000 F500
G1 X12.911 Y0.036 Z-5.000 F500
G1 X12.571 Y-0.147 Z-5.000 F500
G1 X12.224 Y-0.317 Z-5.000 F500
G1 X11.870 Y-0.472 Z-5.000 F500
G1 X11.510 Y-0.612 Z-5.000 F500
G1 X11.144 Y-0.738 Z-5.000 F500
G1 X10.774 Y-0.849 Z-5.000 F500
G1 X10.400 Y-0.944 Z-5.000 F500
G1 X10.022 Y-1.024 Z-5.000 F500
G1 X9.641 Y-1.089 Z-5.000 F500
G1 X9.258 Y-1.138 Z-5.000 F500
G1 X8.873 Y-1.171 Z-5.000 F500
G1 X8.487 Y-1.188 Z-5.000 F500
G1 X8.100 Y-1.190 Z-5.000 F500
G1 X7.714 Y-1.176 Z-5.000 F500
G1 X7.329 Y-1.146 Z-5.000 F500
G1 X6.945 Y-1.100 Z-5.000 F500
G1 X6.564 Y-1.039 Z-5.000 F500
G1 X6.185 Y-0.962 Z-5.000 F500
G1 X5.810 Y-0.870 Z-5.000 F500
G1 X5.439 Y-0.762 Z-5.000 F500
G1 X5.073 Y-0.639 Z-5.000 F500
G1 X4.712 Y-0.502 Z-5.000 F500
G1 X4.356 Y-0.350 Z-5.000 F500
G1 X4.008 Y-0.183 Z-5.000 F500
G1 X3.666 Y-0.002 Z-5.000 F500
G1 X3.333 Y0.192 Z-5.000 F500
G1 X3.007 Y0.400 Z-5.000 F500
G1 X2.690 Y0.621 Z-5.000 F500
G1 X2.383 Y0.855 Z-5.000 F500
G1 X2.085 Y1.102 Z-5.000 F500
G1 X1.798 Y1.360 Z-5.000 F500
G1 X1.521 Y1.630 Z-5.000 F500
G1 X1.256 Y1.911 Z-5.000 F500
G1 X1.002 Y2.202 Z-5.000 F500
G1 X0.761 Y2.504 Z-5.000 F500
G1 X0.532 Y2.815 Z-5.000 F500
G1 X0.316 Y3.136 Z-5.000 F500
G1 X0.113 Y3.464 Z-5.000 F500
G1 X-0.076 Y3.801 Z-5.000 F500
G1 X-0.251 Y4.146 Z-5.000 F500
G1 X-0.412 Y4.497 Z-5.000 F500
G1 X-0.558 Y4.855 Z-5.000 F500
G1 X-0.690 Y5.218 Z-5.000 F500
G1 X-0.807 Y5.586 Z-5.000 F500
G1 X-0.908 Y5.959 Z-5.000 F500
G1 X-0.994 Y6.336 Z-5.000 F500
G1 X-1.065 Y6.715 Z-5.000 F500
G1 X-1.120 Y7.098 Z-5.000 F500
G1 X-1.160 Y7.482 Z-5.000 F500
G1 X-1.183 Y7.868 Z-5.000 F500
G1 X-1.191 Y8.254 Z-5.000 F500
G1 X-1.183 Y8.639 Z-5.000 F500
G1 X-1.160 Y9.024 Z-5.000 F500
G1 X-1.121 Y9.407 Z-5.000 F500
G1 X-1.066 Y9.789 Z-5.000 F500
G1 X-0.995 Y10.168 Z-5.000 F500
G1 X-0.910 Y10.543 Z-5.000 F500
G1 X-0.809 Y10.915 Z-5.000 F500
G1 X-0.693 Y11.283 Z-5.000 F500
G1 X-0.562 Y11.645 Z-5.000 F500
G1 X-0.416 Y12.002 Z-5.000 F500
G1 X-0.256 Y12.352 Z-5.000 F500
G1 X-0.082 Y12.696 Z-5.000 F500
G1 X0.106 Y13.032 Z-5.000 F500
G1 X0.308 Y13.361 Z-5.000 F500
G1 X0.523 Y13.681 Z-5.000 F500
G1 X0.751 Y13.991 Z-5.000 F500
G1 X0.991 Y14.293 Z-5.000 F500
G1 X1.243 Y14.584 Z-5.000 F500
G1 X1.507 Y14.865 Z-5.000 F500
G1 X1.783 Y15.134 Z-5.000 F500
G1 X2.069 Y15.393 Z-5.000 F500
G1 X2.365 Y15.639 Z-5.000 F500
G1 X2.671 Y15.873 Z-5.000 F500
G1 X2.987 Y16.094 Z-5.000 F500
G1 X3.311 Y16.303 Z-5.000 F500
G1 X3.643 Y16.498 Z-5.000 F500
G1 X3.983 Y16.679 Z-5.000 F500
G1 X4.330 Y16.846 Z-5.000 F500
G1 X4.684 Y16.999 Z-5.000 F500
G1 X5.044 Y17.137 Z-5.000 F500
G1 X5.409 Y17.261 Z-5.000 F500
G1 X5.778 Y17.369 Z-5.000 F500
G1 X6.152 Y17.463 Z-5.000 F500
G1 X6.530 Y17.541 Z-5.000 F500
G1 X6.910 Y17.603 Z-5.000 F500
G1 X7.292 Y17.651 Z-5.000 F500
G1 X7.676 Y17.682 Z-5.000 F500
G1 X8.061 Y17.698 Z-5.000 F500
G1 X8.447 Y17.698 Z-5.000 F500
G1 X8.832 Y17.682 Z-5.000 F500
G1 X9.216 Y17.651 Z-5.000 F500
G1 X9.598 Y17.603 Z-5.000 F500
G1 X9.979 Y17.541 Z-5.000 F500
G1 X10.356 Y17.463 Z-5.000 F500
G1 X10.730 Y17.369 Z-5.000 F500
G1 X11.100 Y17.261 Z-5.000 F500
G1 X11.465 Y17.137 Z-5.000 F500
G1 X11.824 Y16.999 Z-5.000 F500
G1 X12.178 Y16.846 Z-5.000 F500
G1 X12.525 Y16.679 Z-5.000 F500
G1 X12.865 Y16.498 Z-5.000 F500
G1 X13.198 Y16.303 Z-5.000 F500
G1 X13.522 Y16.094 Z-5.000 F500
G1 X13.837 Y15.873 Z-5.000 F500
G1 X14.143 Y15.639 Z-5.000 F500
G1 X14.440 Y15.393 Z-5.000 F500
G1 X14.726 Y15.134 Z-5.000 F500
G1 X15.001 Y14.865 Z-5.000 F500
G1 X15.265 Y14.584 Z-5.000 F500
G1 X15.517 Y14.293 Z-5.000 F500
G1 X15.757 Y13.991 Z-5.000 F500
G1 X15.985 Y13.681 Z-5.000 F500
G1 X16.200 Y13.361 Z-5.000 F500
G1 X16.402 Y13.032 Z-5.000 F500
G1 X16.590 Y12.696 Z-5.000 F500
G1 X16.764 Y12.352 Z-5.000 F500
G1 X16.924 Y12.002 Z-5.000 F500
G1 X17.070 Y11.645 Z-5.000 F500
G1 X17.201 Y11.283 Z-5.000 F500
G1 X17.317 Y10.915 Z-5.000 F500
G1 X17.418 Y10.543 Z-5.000 F500
G1 X17.504 Y10.168 Z-5.000 F500
G1 X17.574 Y9.789 Z-5.000 F500
G1 X17.629 Y9.407 Z-5.000 F500
G1 X17.668 Y9.024 Z-5.000 F500
G1 X17.692 Y8.639 Z-5.000 F500
G1 X17.700 Y8.254 Z-5.000 F500
G1 X17.695 Y7.947 Z-5.000 F500
G1 X17.699 Y7.894 Z-5.000 F500
G1 X17.715 Y7.843 Z-5.000 F500
G1 X17.742 Y7.797 Z-5.000 F500
G1 X17.778 Y7.758 Z-5.000 F500
G1 X17.822 Y7.728 Z-5.000 F500
G1 X17.872 Y7.709 Z-5.000 F500
G1 X17.925 Y7.701 Z-5.000 F500
G1 X18.163 Y7.693 Z-5.000 F500
G1 X18.216 Y7.691 Z-4.994 F500
G1 X18.266 Y7.690 Z-4.976 F500
G1 X18.312 Y7.688 Z-4.948 F500
G1 X18.349 Y7.687 Z-4.910 F500
G1 X18.378 Y7.686 Z-4.865 F500
G1 X18.395 Y7.686 Z-4.815 F500
G1 X18.401 Y7.685 Z-4.762 F500
G1 X18.401 Y7.685 Z5.000 F500
G1 X18.417 Y8.162 Z5.000 F500
G1 X18.417 Y8.162 Z-4.523 F100
G1 X18.417 Y8.162 Z-5.262 F100
G1 X18.411 Y8.162 Z-5.315 F500
G1 X18.393 Y8.162 Z-5.365 F500
G1 X18.365 Y8.163 Z-5.410 F500
G1 X18.327 Y8.165 Z-5.448 F500
G1 X18.282 Y8.166 Z-5.476 F500
G1 X18.232 Y8.168 Z-5.494 F500
G1 X18.179 Y8.169 Z-5.500 F500
G1 X17.940 Y8.177 Z-5.500 F500
G1 X17.887 Y8.173 Z-5.500 F500
G1 X17.836 Y8.157 Z-5.500 F500
G1 X17.790 Y8.130 Z-5.500 F500
G1 X17.751 Y8.094 Z-5.500 F500
G1 X17.722 Y8.049 Z-5.500 F500
G1 X17.702 Y8.000 Z-5.500 F500
G1 X17.695 Y7.947 Z-5.500 F500
G1 X17.674 Y7.561 Z-5.500 F500
G1 X17.638 Y7.176 Z-5.500 F500
G1 X17.586 Y6.793 Z-5.500 F500
G1 X17.518 Y6.413 Z-5.500 F500
G1 X17.435 Y6.036 Z-5.500 F500
G1 X17.337 Y5.662 Z-5.500 F500
G1 X17.223 Y5.293 Z-5.500 F500
G1 X17.095 Y4.928 Z-5.500 F500
G1 X16.951 Y4.570 Z-5.500 F500
G1 X16.793 Y4.217 Z-5.500 F500
G1 X16.621 Y3.871 Z-5.500 F500
G1 X16.435 Y3.533 Z-5.500 F500
G1 X16.235 Y3.202 Z-5.500 F500
G1 X16.022 Y2.880 Z-5.500 F500
G1 X15.795 Y2.567 Z-5.500 F500
G1 X15.556 Y2.263 Z-5.500 F500
G1 X15.305 Y1.969 Z-5.500 F500
G1 X15.042 Y1.686 Z-5.500 F500
G1 X14.768 Y1.414 Z-5.500 F500
G1 X14.483 Y1.153 Z-5.500 F500
G1 X14.187 Y0.905 Z-5.500 F500
G1 X13.882 Y0.668 Z-5.500 F500
G1 X13.567 Y0.444 Z-5.500 F500
G1 X13.243 Y0.234 Z-5.500 F500
G1 X12.911 Y0.036 Z-5.500 F500
G1 X12.571 Y-0.147 Z-5.500 F500
G1 X12.224 Y-0.317 Z-5.500 F500
G1 X11.870 Y-0.472 Z-5.500 F500
G1 X11.510 Y-0.612 Z-5.500 F500
G1 X11.144 Y-0.738 Z-5.500 F500
G1 X10.774 Y-0.849 Z-5.500 F500
G1 X10.400 Y-0.944 Z-5.500 F500
G1 X10.022 Y-1.024 Z-5.500 F500
G1 X9.641 Y-1.089 Z-5.500 F500
G1 X9.258 Y-1.138 Z-5.500 F500
G1 X8.873 Y-1.171 Z-5.500 F500
G1 X8.487 Y-1.188 Z-5.500 F500
G1 X8.100 Y-1.190 Z-5.500 F500
G1 X7.714 Y-1.176 Z-5.500 F500
G1 X7.329 Y-1.146 Z-5.500 F500
G1 X6.945 Y-1.100 Z-5.500 F500
G1 X6.564 Y-1.039 Z-5.500 F500
G1 X6.185 Y-0.962 Z-5.500 F500
G1 X5.810 Y-0.870 Z-5.500 F500
G1 X5.439 Y-0.762 Z-5.500 F500
G1 X5.073 Y-0.639 Z-5.500 F500
G1 X4.712 Y-0.502 Z-5.500 F500
G1 X4.356 Y-0.350 Z-5.500 F500
G1 X4.008 Y-0.183 Z-5.500 F500
G1 X3.666 Y-0.002 Z-5.500 F500
G1 X3.333 Y0.192 Z-5.500 F500
G1 X3.007 Y0.400 Z-5.500 F500
G1 X2.690 Y0.621 Z-5.500 F500
G1 X2.383 Y0.855 Z-5.500 F500
G1 X2.085 Y1.102 Z-5.500 F500
G1 X1.798 Y1.360 Z-5.500 F500
G1 X1.521 Y1.630 Z-5.500 F500
G1 X1.256 Y1.911 Z-5.500 F500
G1 X1.002 Y2.202 Z-5.500 F500
G1 X0.761 Y2.504 Z-5.500 F500
G1 X0.532 Y2.815 Z-5.500 F500
G1 X0.316 Y3.136 Z-5.500 F500
G1 X0.113 Y3.464 Z-5.500 F500
G1 X-0.076 Y3.801 Z-5.500 F500
G1 X-0.251 Y4.146 Z-5.500 F500
G1 X-0.412 Y4.497 Z-5.500 F500
G1 X-0.558 Y4.855 Z-5.500 F500
G1 X-0.690 Y5.218 Z-5.500 F500
G1 X-0.807 Y5.586 Z-5.500 F500
G1 X-0.908 Y5.959 Z-5.500 F500
G1 X-0.994 Y6.336 Z-5.500 F500
G1 X-1.065 Y6.715 Z-5.500 F500
G1 X-1.120 Y7.098 Z-5.500 F500
G1 X-1.160 Y7.482 Z-5.500 F500
G1 X-1.183 Y7.868 Z-5.500 F500
G1 X-1.191 Y8.254 Z-5.500 F500
G1 X-1.183 Y8.639 Z-5.500 F500
G1 X-1.160 Y9.024 Z-5.500 F500
G1 X-1.121 Y9.407 Z-5.500 F500
G1 X-1.066 Y9.789 Z-5.500 F500
G1 X-0.995 Y10.168 Z-5.500 F500
G1 X-0.910 Y10.543 Z-5.500 F500
G1 X-0.809 Y10.915 Z-5.500 F500
G1 X-0.693 Y11.283 Z-5.500 F500
G1 X-0.562 Y11.645 Z-5.500 F500
G1 X-0.416 Y12.002 Z-5.500 F500
G1 X-0.256 Y12.352 Z-5.500 F500
G1 X-0.082 Y12.696 Z-5.500 F500
G1 X0.106 Y13.032 Z-5.500 F500
G1 X0.308 Y13.361 Z-5.500 F500
G1 X0.523 Y13.681 Z-5.500 F500
G1 X0.751 Y13.991 Z-5.500 F500
G1 X0.991 Y14.293 Z-5.500 F500
G1 X1.243 Y14.584 Z-5.500 F500
G1 X1.507 Y14.865 Z-5.500 F500
G1 X1.783 Y15.134 Z-5.500 F500
G1 X2.069 Y15.393 Z-5.500 F500
G1 X2.365 Y15.639 Z-5.500 F500
G1 X2.671 Y15.873 Z-5.500 F500
G1 X2.987 Y16.094 Z-5.500 F500
G1 X3.311 Y16.303 Z-5.500 F500
G1 X3.643 Y16.498 Z-5.500 F500
G1 X3.983 Y16.679 Z-5.500 F500
G1 X4.330 Y16.846 Z-5.500 F500
G1 X4.684 Y16.999 Z-5.500 F500
G1 X5.044 Y17.137 Z-5.500 F500
G1 X5.409 Y17.261 Z-5.500 F500
G1 X5.778 Y17.369 Z-5.500 F500
G1 X6.152 Y17.463 Z-5.500 F500
G1 X6.530 Y17.541 Z-5.500 F500
G1 X6.910 Y17.603 Z-5.500 F500
G1 X7.292 Y17.651 Z-5.500 F500
G1 X7.676 Y17.682 Z-5.500 F500
G1 X8.061 Y17.698 Z-5.500 F500
G1 X8.447 Y17.698 Z-5.500 F500
G1 X8.832 Y17.682 Z-5.500 F500
G1 X9.216 Y17.651 Z-5.500 F500
G1 X9.598 Y17.603 Z-5.500 F500
G1 X9.979 Y17.541 Z-5.500 F500
G1 X10.356 Y17.463 Z-5.500 F500
G1 X10.730 Y17.369 Z-5.500 F500
G1 X11.100 Y17.261 Z-5.500 F500
G1 X11.465 Y17.137 Z-5.500 F500
G1 X11.824 Y16.999 Z-5.500 F500
G1 X12.178 Y16.846 Z-5.500 F500
G1 X12.525 Y16.679 Z-5.500 F500
G1 X12.865 Y16.498 Z-5.500 F500
G1 X13.198 Y16.303 Z-5.500 F500
G1 X13.522 Y16.094 Z-5.500 F500
G1 X13.837 Y15.873 Z-5.500 F500
G1 X14.143 Y15.639 Z-5.500 F500
G1 X14.440 Y15.393 Z-5.500 F500
G1 X14.726 Y15.134 Z-5.500 F500
G1 X15.001 Y14.865 Z-5.500 F500
G1 X15.265 Y14.584 Z-5.500 F500
G1 X15.517 Y14.293 Z-5.500 F500
G1 X15.757 Y13.991 Z-5.500 F500
G1 X15.985 Y13.681 Z-5.500 F500
G1 X16.200 Y13.361 Z-5.500 F500
G1 X16.402 Y13.032 Z-5.500 F500
G1 X16.590 Y12.696 Z-5.500 F500
G1 X16.764 Y12.352 Z-5.500 F500
G1 X16.924 Y12.002 Z-5.500 F500
G1 X17.070 Y11.645 Z-5.500 F500
G1 X17.201 Y11.283 Z-5.500 F500
G1 X17.317 Y10.915 Z-5.500 F500
G1 X17.418 Y10.543 Z-5.500 F500
G1 X17.504 Y10.168 Z-5.500 F500
G1 X17.574 Y9.789 Z-5.500 F500
G1 X17.629 Y9.407 Z-5.500 F500
G1 X17.668 Y9.024 Z-5.500 F500
G1 X17.692 Y8.639 Z-5.500 F500
G1 X17.700 Y8.254 Z-5.500 F500
G1 X17.695 Y7.947 Z-5.500 F500
G1 X17.699 Y7.894 Z-5.500 F500
G1 X17.715 Y7.843 Z-5.500 F500
G1 X17.742 Y7.797 Z-5.500 F500
G1 X17.778 Y7.758 Z-5.500 F500
G1 X17.822 Y7.728 Z-5.500 F500
G1 X17.872 Y7.709 Z-5.500 F500
G1 X17.925 Y7.701 Z-5.500 F500
G1 X18.163 Y7.693 Z-5.500 F500
G1 X18.216 Y7.691 Z-5.494 F500
G1 X18.266 Y7.690 Z-5.476 F500
G1 X18.312 Y7.688 Z-5.448 F500
G1 X18.349 Y7.687 Z-5.410 F500
G1 X18.378 Y7.686 Z-5.365 F500
G1 X18.395 Y7.686 Z-5.315 F500
G1 X18.401 Y7.685 Z-5.262 F500
G1 X18.401 Y7.685 Z5.000 F500
G1 X18.417 Y8.162 Z5.000 F500
G1 X18.417 Y8.162 Z-5.023 F100
G1 X18.417 Y8.162 Z-5.754 F100
G1 X18.179 Y8.169 Z-5.754 F500
G1 X17.940 Y8.177 Z-5.754 F500
G1 X17.887 Y8.173 Z-5.754 F500
G1 X17.836 Y8.157 Z-5.754 F500
G1 X17.790 Y8.130 Z-5.754 F500
G1 X17.751 Y8.094 Z-5.754 F500
G1 X17.722 Y8.049 Z-5.754 F500
G1 X17.702 Y8.000 Z-5.754 F500
G1 X17.695 Y7.947 Z-5.754 F500
G1 X17.677 Y7.597 Z-5.754 F500
G1 X17.646 Y7.248 Z-5.754 F500
G1 X17.602 Y6.901 Z-5.754 F500
G1 X17.546 Y6.555 Z-5.754 F500
G1 X17.476 Y6.212 Z-5.754 F500
G1 X17.394 Y5.872 Z-5.754 F500
G1 X17.394 Y5.872 Z-6.000 F100
G1 X17.290 Y5.502 Z-6.000 F500
G1 X17.171 Y5.138 Z-6.000 F500
G1 X17.037 Y4.778 Z-6.000 F500
G1 X16.888 Y4.424 Z-6.000 F500
G1 X16.726 Y4.077 Z-6.000 F500
G1 X16.549 Y3.736 Z-6.000 F500
G1 X16.359 Y3.403 Z-6.000 F500
G1 X16.155 Y3.078 Z-6.000 F500
G1 X15.938 Y2.761 Z-6.000 F500
G1 X15.709 Y2.454 Z-6.000 F500
G1 X15.467 Y2.156 Z-6.000 F500
G1 X15.213 Y1.868 Z-6.000 F500
G1 X14.948 Y1.590 Z-6.000 F500
G1 X14.672 Y1.324 Z-6.000 F500
G1 X14.385 Y1.069 Z-6.000 F500
G1 X14.088 Y0.826 Z-6.000 F500
G1 X13.782 Y0.595 Z-6.000 F500
G1 X13.466 Y0.377 Z-6.000 F500
G1 X13.142 Y0.172 Z-6.000 F500
G1 X12.810 Y-0.020 Z-6.000 F500
G1 X12.470 Y-0.198 Z-6.000 F500
G1 X12.123 Y-0.363 Z-6.000 F500
G1 X11.770 Y-0.513 Z-6.000 F500
G1 X11.411 Y-0.648 Z-6.000 F500
G1 X11.047 Y-0.769 Z-6.000 F500
G1 X10.678 Y-0.875 Z-6.000 F500
G1 X10.305 Y-0.966 Z-6.000 F500
G1 X9.929 Y-1.042 Z-6.000 F500
G1 X9.550 Y-1.102 Z-6.000 F500
G1 X9.169 Y-1.147 Z-6.000 F500
G1 X8.786 Y-1.176 Z-6.000 F500
G1 X8.403 Y-1.190 Z-6.000 F500
G1 X8.019 Y-1.188 Z-6.000 F500
G1 X7.636 Y-1.171 Z-6.000 F500
G1 X7.254 Y-1.138 Z-6.000 F500
G1 X6.873 Y-1.090 Z-6.000 F500
G1 X6.495 Y-1.026 Z-6.000 F500
G1 X6.119 Y-0.947 Z-6.000 F500
G1 X5.747 Y-0.852 Z-6.000 F500
G1 X5.747 Y-0.852 Z-5.754 F500
G1 X5.392 Y-0.747 Z-5.754 F500
G1 X5.041 Y-0.628 Z-5.754 F500
G1 X4.695 Y-0.495 Z-5.754 F500
G1 X4.355 Y-0.349 Z-5.754 F500
G1 X4.020 Y-0.189 Z-5.754 F500
G1 X3.693 Y-0.017 Z-5.754 F500
G1 X3.372 Y0.169 Z-5.754 F500
G1 X3.058 Y0.366 Z-5.754 F500
G1 X2.753 Y0.576 Z-5.754 F500
G1 X2.456 Y0.798 Z-5.754 F500
G1 X2.168 Y1.031 Z-5.754 F500
G1 X1.889 Y1.275 Z-5.754 F500
G1 X1.621 Y1.530 Z-5.754 F500
G1 X1.621 Y1.530 Z-6.000 F100
G1 X1.360 Y1.798 Z-6.000 F500
G1 X1.109 Y2.076 Z-6.000 F500
G1 X0.870 Y2.364 Z-6.000 F500
G1 X0.643 Y2.661 Z-6.000 F500
G1 X0.427 Y2.967 Z-6.000 F500
G1 X0.224 Y3.281 Z-6.000 F500
G1 X0.033 Y3.603 Z-6.000 F500
G1 X-0.144 Y3.932 Z-6.000 F500
G1 X-0.309 Y4.268 Z-6.000 F500
G1 X-0.460 Y4.610 Z-6.000 F500
G1 X-0.597 Y4.958 Z-6.000 F500
G1 X-0.721 Y5.311 Z-6.000 F500
G1 X-0.831 Y5.669 Z-6.000 F500
G1 X-0.926 Y6.031 Z-6.000 F500
G1 X-1.007 Y6.396 Z-6.000 F500
G1 X-1.073 Y6.764 Z-6.000 F500
G1 X-1.125 Y7.134 Z-6.000 F500
G1 X-1.162 Y7.507 Z-6.000 F500
G1 X-1.184 Y7.880 Z-6.000 F500
G1 X-1.191 Y8.254 Z-6.000 F500
G1 X-1.184 Y8.628 Z-6.000 F500
G1 X-1.162 Y9.002 Z-6.000 F500
G1 X-1.125 Y9.374 Z-6.000 F500
G1 X-1.073 Y9.744 Z-6.000 F500
G1 X-1.007 Y10.113 Z-6.000 F500
G1 X-0.926 Y10.478 Z-6.000 F500
G1 X-0.831 Y10.840 Z-6.000 F500
G1 X-0.721 Y11.197 Z-6.000 F500
G1 X-0.597 Y11.550 Z-6.000 F500
G1 X-0.460 Y11.898 Z-6.000 F500
G1 X-0.309 Y12.241 Z-6.000 F500
G1 X-0.144 Y12.576 Z-6.000 F500
G1 X0.033 Y12.906 Z-6.000 F500
G1 X0.224 Y13.228 Z-6.000 F500
G1 X0.427 Y13.542 Z-6.000 F500
G1 X0.643 Y13.847 Z-6.000 F500
G1 X0.870 Y14.144 Z-6.000 F500
G1 X1.109 Y14.432 Z-6.000 F500
G1 X1.360 Y14.710 Z-6.000 F500
G1 X1.621 Y14.978 Z-6.000 F500
G1 X1.621 Y14.978 Z-5.754 F500
G1 X1.889 Y15.233 Z-5.754 F500
G1 X2.168 Y15.477 Z-5.754 F500
G1 X2.456 Y15.711 Z-5.754 F500
G1 X2.753 Y15.932 Z-5.754 F500
G1 X3.058 Y16.142 Z-5.754 F500
G1 X3.372 Y16.340 Z-5.754 F500
G1 X3.693 Y16.525 Z-5.754 F500
G1 X4.020 Y16.698 Z-5.754 F500
G1 X4.355 Y16.857 Z-5.754 F500
G1 X4.695 Y17.003 Z-5.754 F500
G1 X5.041 Y17.136 Z-5.754 F500
G1 X5.392 Y17.256 Z-5.754 F500
G1 X5.747 Y17.361 Z-5.754 F500
G1 X5.747 Y17.361 Z-6.000 F100
G1 X6.119 Y17.455 Z-6.000 F500
G1 X6.495 Y17.534 Z-6.000 F500
G1 X6.873 Y17.598 Z-6.000 F500
G1 X7.254 Y17.646 Z-6.000 F500
G1 X7.636 Y17.679 Z-6.000 F500
G1 X8.019 Y17.697 Z-6.000 F500
G1 X8.403 Y17.698 Z-6.000 F500
G1 X8.786 Y17.685 Z-6.000 F500
G1 X9.169 Y17.655 Z-6.000 F500
G1 X9.550 Y17.610 Z-6.000 F500
G1 X9.929 Y17.550 Z-6.000 F500
G1 X10.305 Y17.474 Z-6.000 F500
G1 X10.678 Y17.383 Z-6.000 F500
G1 X11.047 Y17.277 Z-6.000 F500
G1 X11.411 Y17.156 Z-6.000 F500
G1 X11.770 Y17.021 Z-6.000 F500
G1 X12.123 Y16.871 Z-6.000 F500
G1 X12.470 Y16.707 Z-6.000 F500
G1 X12.810 Y16.528 Z-6.000 F500
G1 X13.142 Y16.337 Z-6.000 F500
G1 X13.466 Y16.131 Z-6.000 F500
G1 X13.782 Y15.913 Z-6.000 F500
G1 X14.088 Y15.682 Z-6.000 F500
G1 X14.385 Y15.439 Z-6.000 F500
G1 X14.672 Y15.184 Z-6.000 F500
G1 X14.948 Y14.918 Z-6.000 F500
G1 X15.213 Y14.641 Z-6.000 F500
G1 X15.467 Y14.353 Z-6.000 F500
G1 X15.709 Y14.055 Z-6.000 F500
G1 X15.938 Y13.747 Z-6.000 F500
G1 X16.155 Y13.431 Z-6.000 F500
G1 X16.359 Y13.105 Z-6.000 F500
G1 X16.549 Y12.772 Z-6.000 F500
G1 X16.726 Y12.432 Z-6.000 F500
G1 X16.888 Y12.084 Z-6.000 F500
G1 X17.037 Y11.730 Z-6.000 F500
G1 X17.171 Y11.371 Z-6.000 F500
G1 X17.290 Y11.006 Z-6.000 F500
G1 X17.394 Y10.637 Z-6.000 F500
G1 X17.394 Y10.637 Z-5.754 F500
G1 X17.475 Y10.302 Z-5.754 F500
G1 X17.543 Y9.965 Z-5.754 F500
G1 X17.599 Y9.626 Z-5.754 F500
G1 X17.643 Y9.284 Z-5.754 F500
G1 X17.675 Y8.942 Z-5.754 F500
G1 X17.693 Y8.598 Z-5.754 F500
G1 X17.700 Y8.254 Z-5.754 F500
G1 X17.695 Y7.947 Z-5.754 F500
G1 X17.699 Y7.894 Z-5.754 F500
G1 X17.715 Y7.843 Z-5.754 F500
G1 X17.742 Y7.797 Z-5.754 F500
G1 X17.778 Y7.758 Z-5.754 F500
G1 X17.822 Y7.728 Z-5.754 F500
G1 X17.872 Y7.709 Z-5.754 F500
G1 X17.925 Y7.701 Z-5.754 F500
G1 X18.401 Y7.685 Z-5.754 F500
G1 X18.401 Y7.685 Z5.000 F500
G1 X18.417 Y8.162 Z5.000 F500
G1 X18.417 Y8.162 Z-5.523 F100
G1 X18.417 Y8.162 Z-5.754 F100
G1 X18.179 Y8.169 Z-5.754 F500
G1 X17.940 Y8.177 Z-5.754 F500
G1 X17.887 Y8.173 Z-5.754 F500
G1 X17.836 Y8.157 Z-5.754 F500
G1 X17.790 Y8.130 Z-5.754 F500
G1 X17.751 Y8.094 Z-5.754 F500
G1 X17.722 Y8.049 Z-5.754 F500
G1 X17.702 Y8.000 Z-5.754 F500
G1 X17.695 Y7.947 Z-5.754 F500
G1 X17.677 Y7.597 Z-5.754 F500
G1 X17.646 Y7.248 Z-5.754 F500
G1 X17.602 Y6.901 Z-5.754 F500
G1 X17.546 Y6.555 Z-5.754 F500
G1 X17.476 Y6.212 Z-5.754 F500
G1 X17.394 Y5.872 Z-5.754 F500
G1 X17.394 Y5.872 Z-6.349 F100
G1 X17.290 Y5.502 Z-6.349 F500
G1 X17.171 Y5.138 Z-6.349 F500
G1 X17.037 Y4.778 Z-6.349 F500
G1 X16.888 Y4.424 Z-6.349 F500
G1 X16.726 Y4.077 Z-6.349 F500
G1 X16.549 Y3.736 Z-6.349 F500
G1 X16.359 Y3.403 Z-6.349 F500
G1 X16.155 Y3.078 Z-6.349 F500
G1 X15.938 Y2.761 Z-6.349 F500
G1 X15.709 Y2.454 Z-6.349 F500
G1 X15.467 Y2.156 Z-6.349 F500
G1 X15.213 Y1.868 Z-6.349 F500
G1 X14.948 Y1.590 Z-6.349 F500
G1 X14.672 Y1.324 Z-6.349 F500
G1 X14.385 Y1.069 Z-6.349 F500
G1 X14.088 Y0.826 Z-6.349 F500
G1 X13.782 Y0.595 Z-6.349 F500
G1 X13.466 Y0.377 Z-6.349 F500
G1 X13.142 Y0.172 Z-6.349 F500
G1 X12.810 Y-0.020 Z-6.349 F500
G1 X12.470 Y-0.198 Z-6.349 F500
G1 X12.123 Y-0.363 Z-6.349 F500
G1 X11.770 Y-0.513 Z-6.349 F500
G1 X11.411 Y-0.648 Z-6.349 F500
G1 X11.047 Y-0.769 Z-6.349 F500
G1 X10.678 Y-0.875 Z-6.349 F500
G1 X10.305 Y-0.966 Z-6.349 F500
G1 X9.929 Y-1.042 Z-6.349 F500
G1 X9.550 Y-1.102 Z-6.349 F500
G1 X9.169 Y-1.147 Z-6.349 F500
G1 X8.786 Y-1.176 Z-6.349 F500
G1 X8.403 Y-1.190 Z-6.349 F500
G1 X8.019 Y-1.188 Z-6.349 F500
G1 X7.636 Y-1.171 Z-6.349 F500
G1 X7.254 Y-1.138 Z-6.349 F500
G1 X6.873 Y-1.090 Z-6.349 F500
G1 X6.495 Y-1.026 Z-6.349 F500
G1 X6.119 Y-0.947 Z-6.349 F500
G1 X5.747 Y-0.852 Z-6.349 F500
G1 X5.747 Y-0.852 Z-5.754 F500
G1 X5.392 Y-0.747 Z-5.754 F500
G1 X5.041 Y-0.628 Z-5.754 F500
G1 X4.695 Y-0.495 Z-5.754 F500
G1 X4.355 Y-0.349 Z-5.754 F500
G1 X4.020 Y-0.189 Z-5.754 F500
G1 X3.693 Y-0.017 Z-5.754 F500
G1 X3.372 Y0.169 Z-5.754 F500
G1 X3.058 Y0.366 Z-5.754 F500
G1 X2.753 Y0.576 Z-5.754 F500
G1 X2.456 Y0.798 Z-5.754 F500
G1 X2.168 Y1.031 Z-5.754 F500
G1 X1.889 Y1.275 Z-5.754 F500
G1 X1.621 Y1.530 Z-5.754 F500
G1 X1.621 Y1.530 Z-6.349 F100
G1 X1.360 Y1.798 Z-6.349 F500
G1 X1.109 Y2.076 Z-6.349 F500
G1 X0.870 Y2.364 Z-6.349 F500
G1 X0.643 Y2.661 Z-6.349 F500
G1 X0.427 Y2.967 Z-6.349 F500
G1 X0.224 Y3.281 Z-6.349 F500
G1 X0.033 Y3.603 Z-6.349 F500
G1 X-0.144 Y3.932 Z-6.349 F500
G1 X-0.309 Y4.268 Z-6.349 F500
G1 X-0.460 Y4.610 Z-6.349 F500
G1 X-0.597 Y4.958 Z-6.349 F500
G1 X-0.721 Y5.311 Z-6.349 F500
G1 X-0.831 Y5.669 Z-6.349 F500
G1 X-0.926 Y6.031 Z-6.349 F500
G1 X-1.007 Y6.396 Z-6.349 F500
G1 X-1.073 Y6.764 Z-6.349 F500
G1 X-1.125 Y7.134 Z-6.349 F500
G1 X-1.162 Y7.507 Z-6.349 F500
G1 X-1.184 Y7.880 Z-6.349 F500
G1 X-1.191 Y8.254 Z-6.349 F500
G1 X-1.184 Y8.628 Z-6.349 F500
G1 X-1.162 Y9.002 Z-6.349 F500
G1 X-1.125 Y9.374 Z-6.349 F500
G1 X-1.073 Y9.744 Z-6.349 F500
G1 X-1.007 Y10.113 Z-6.349 F500
G1 X-0.926 Y10.478 Z-6.349 F500
G1 X-0.831 Y10.840 Z-6.349 F500
G1 X-0.721 Y11.197 Z-6.349 F500
G1 X-0.597 Y11.550 Z-6.349 F500
G1 X-0.460 Y11.898 Z-6.349 F500
G1 X-0.309 Y12.241 Z-6.349 F500
G1 X-0.144 Y12.576 Z-6.349 F500
G1 X0.033 Y12.906 Z-6.349 F500
G1 X0.224 Y13.228 Z-6.349 F500
G1 X0.427 Y13.542 Z-6.349 F500
G1 X0.643 Y13.847 Z-6.349 F500
G1 X0.870 Y14.144 Z-6.349 F500
G1 X1.109 Y14.432 Z-6.349 F500
G1 X1.360 Y14.710 Z-6.349 F500
G1 X1.621 Y14.978 Z-6.349 F500
G1 X1.621 Y14.978 Z-5.754 F500
G1 X1.889 Y15.233 Z-5.754 F500
G1 X2.168 Y15.477 Z-5.754 F500
G1 X2.456 Y15.711 Z-5.754 F500
G1 X2.753 Y15.932 Z-5.754 F500
G1 X3.058 Y16.142 Z-5.754 F500
G1 X3.372 Y16.340 Z-5.754 F500
G1 X3.693 Y16.525 Z-5.754 F500
G1 X4.020 Y16.698 Z-5.754 F500
G1 X4.355 Y16.857 Z-5.754 F500
G1 X4.695 Y17.003 Z-5.754 F500
G1 X5.041 Y17.136 Z-5.754 F500
G1 X5.392 Y17.256 Z-5.754 F500
G1 X5.747 Y17.361 Z-5.754 F500
G1 X5.747 Y17.361 Z-6.349 F100
G1 X6.119 Y17.455 Z-6.349 F500
G1 X6.495 Y17.534 Z-6.349 F500
G1 X6.873 Y17.598 Z-6.349 F500
G1 X7.254 Y17.646 Z-6.349 F500
G1 X7.636 Y17.679 Z-6.349 F500
G1 X8.019 Y17.697 Z-6.349 F500
G1 X8.403 Y17.698 Z-6.349 F500
G1 X8.786 Y17.685 Z-6.349 F500
G1 X9.169 Y17.655 Z-6.349 F500
G1 X9.550 Y17.610 Z-6.349 F500
G1 X9.929 Y17.550 Z-6.349 F500
G1 X10.305 Y17.474 Z-6.349 F500
G1 X10.678 Y17.383 Z-6.349 F500
G1 X11.047 Y17.277 Z-6.349 F500
G1 X11.411 Y17.156 Z-6.349 F500
G1 X11.770 Y17.021 Z-6.349 F500
G1 X12.123 Y16.871 Z-6.349 F500
G1 X12.470 Y16.707 Z-6.349 F500
G1 X12.810 Y16.528 Z-6.349 F500
G1 X13.142 Y16.337 Z-6.349 F500
G1 X13.466 Y16.131 Z-6.349 F500
G1 X13.782 Y15.913 Z-6.349 F500
G1 X14.088 Y15.682 Z-6.349 F500
G1 X14.385 Y15.439 Z-6.349 F500
G1 X14.672 Y15.184 Z-6.349 F500
G1 X14.948 Y14.918 Z-6.349 F500
G1 X15.213 Y14.641 Z-6.349 F500
G1 X15.467 Y14.353 Z-6.349 F500
G1 X15.709 Y14.055 Z-6.349 F500
G1 X15.938 Y13.747 Z-6.349 F500
G1 X16.155 Y13.431 Z-6.349 F500
G1 X16.359 Y13.105 Z-6.349 F500
G1 X16.549 Y12.772 Z-6.349 F500
G1 X16.726 Y12.432 Z-6.349 F500
G1 X16.888 Y12.084 Z-6.349 F500
G1 X17.037 Y11.730 Z-6.349 F500
G1 X17.171 Y11.371 Z-6.349 F500
G1 X17.290 Y11.006 Z-6.349 F500
G1 X17.394 Y10.637 Z-6.349 F500
G1 X17.394 Y10.637 Z-5.754 F500
G1 X17.475 Y10.302 Z-5.754 F500
G1 X17.543 Y9.965 Z-5.754 F500
G1 X17.599 Y9.626 Z-5.754 F500
G1 X17.643 Y9.284 Z-5.754 F500
G1 X17.675 Y8.942 Z-5.754 F500
G1 X17.693 Y8.598 Z-5.754 F500
G1 X17.700 Y8.254 Z-5.754 F500
G1 X17.695 Y7.947 Z-5.754 F500
G1 X17.699 Y7.894 Z-5.754 F500
G1 X17.715 Y7.843 Z-5.754 F500
G1 X17.742 Y7.797 Z-5.754 F500
G1 X17.778 Y7.758 Z-5.754 F500
G1 X17.822 Y7.728 Z-5.754 F500
G1 X17.872 Y7.709 Z-5.754 F500
G1 X17.925 Y7.701 Z-5.754 F500
G1 X18.401 Y7.685 Z-5.754 F500
G1 X18.401 Y7.685 Z55.000 F500
G0 X0.000 Y0.000
M5
