;Titan-3-Countersink
;Machine
;vendor: Snapmaker
;model: Desktop CNC
;description: Generic Snapmaker Marlin v20180725
M3 P100
G4 S2
G21
G90

;Titan-3-Countersink
G0 X2.294 Y11.696 Z55.000
G0 X2.294 Y11.696 Z55.000
G0 X2.294 Y11.696 Z55.000
G0 X2.294 Y11.696 Z5.000
G0 X2.294 Y11.696 Z4.721
G1 X2.294 Y11.696 Z-0.575 F100
G0 X2.294 Y11.696 Z5.000
G0 X8.254 Y15.137 Z5.000
G0 X8.254 Y15.137 Z5.000
G0 X8.254 Y15.137 Z4.721
G1 X8.254 Y15.137 Z-0.575 F100
G0 X8.254 Y15.137 Z5.000
G0 X14.215 Y11.696 Z5.000
G0 X14.215 Y11.696 Z5.000
G0 X14.215 Y11.696 Z4.721
G1 X14.215 Y11.696 Z-0.575 F100
G0 X14.215 Y11.696 Z5.000
G0 X14.215 Y4.813 Z5.000
G0 X14.215 Y4.813 Z5.000
G0 X14.215 Y4.813 Z4.721
G1 X14.215 Y4.813 Z-0.575 F100
G0 X14.215 Y4.813 Z5.000
G0 X8.254 Y1.371 Z5.000
G0 X8.254 Y1.371 Z5.000
G0 X8.254 Y1.371 Z4.721
G1 X8.254 Y1.371 Z-0.575 F100
G0 X8.254 Y1.371 Z5.000
G0 X2.294 Y4.813 Z5.000
G0 X2.294 Y4.813 Z5.000
G0 X2.294 Y4.813 Z4.721
G1 X2.294 Y4.813 Z-0.575 F100
G0 X2.294 Y4.813 Z5.000
G0 X2.294 Y4.813 Z55.000
G0 X0.000 Y0.000
M5
