;Titan-3-Drilling
;Machine
;vendor: Snapmaker
;model: Desktop CNC
;description: Generic Snapmaker Marlin v20180725
M3 P100
G4 S2
G21
G90

;Titan-3-Drill
G0 X14.215 Y4.813 Z55.000
G0 X14.215 Y4.813 Z55.000
G0 X14.215 Y4.813 Z55.000
G0 X14.215 Y4.813 Z5.000
G0 X14.215 Y4.813 Z4.721
G0 X14.215 Y4.813 Z1.721
G1 X14.215 Y4.813 Z-0.779 F100
G0 X14.215 Y4.813 Z4.721
G0 X14.215 Y4.813 Z1.221
G1 X14.215 Y4.813 Z-1.279 F100
G0 X14.215 Y4.813 Z4.721
G0 X14.215 Y4.813 Z0.721
G1 X14.215 Y4.813 Z-1.779 F100
G0 X14.215 Y4.813 Z4.721
G0 X14.215 Y4.813 Z0.221
G1 X14.215 Y4.813 Z-2.279 F100
G0 X14.215 Y4.813 Z4.721
G0 X14.215 Y4.813 Z-0.279
G1 X14.215 Y4.813 Z-2.779 F100
G0 X14.215 Y4.813 Z4.721
G0 X14.215 Y4.813 Z-0.779
G1 X14.215 Y4.813 Z-3.279 F100
G0 X14.215 Y4.813 Z4.721
G0 X14.215 Y4.813 Z-1.279
G1 X14.215 Y4.813 Z-3.675 F100
G0 X14.215 Y4.813 Z5.000
G0 X8.254 Y1.371 Z5.000
G0 X8.254 Y1.371 Z5.000
G0 X8.254 Y1.371 Z4.721
G0 X8.254 Y1.371 Z1.721
G1 X8.254 Y1.371 Z-0.779 F100
G0 X8.254 Y1.371 Z4.721
G0 X8.254 Y1.371 Z1.221
G1 X8.254 Y1.371 Z-1.279 F100
G0 X8.254 Y1.371 Z4.721
G0 X8.254 Y1.371 Z0.721
G1 X8.254 Y1.371 Z-1.779 F100
G0 X8.254 Y1.371 Z4.721
G0 X8.254 Y1.371 Z0.221
G1 X8.254 Y1.371 Z-2.279 F100
G0 X8.254 Y1.371 Z4.721
G0 X8.254 Y1.371 Z-0.279
G1 X8.254 Y1.371 Z-2.779 F100
G0 X8.254 Y1.371 Z4.721
G0 X8.254 Y1.371 Z-0.779
G1 X8.254 Y1.371 Z-3.279 F100
G0 X8.254 Y1.371 Z4.721
G0 X8.254 Y1.371 Z-1.279
G1 X8.254 Y1.371 Z-3.675 F100
G0 X8.254 Y1.371 Z5.000
G0 X2.294 Y4.813 Z5.000
G0 X2.294 Y4.813 Z5.000
G0 X2.294 Y4.813 Z4.721
G0 X2.294 Y4.813 Z1.721
G1 X2.294 Y4.813 Z-0.779 F100
G0 X2.294 Y4.813 Z4.721
G0 X2.294 Y4.813 Z1.221
G1 X2.294 Y4.813 Z-1.279 F100
G0 X2.294 Y4.813 Z4.721
G0 X2.294 Y4.813 Z0.721
G1 X2.294 Y4.813 Z-1.779 F100
G0 X2.294 Y4.813 Z4.721
G0 X2.294 Y4.813 Z0.221
G1 X2.294 Y4.813 Z-2.279 F100
G0 X2.294 Y4.813 Z4.721
G0 X2.294 Y4.813 Z-0.279
G1 X2.294 Y4.813 Z-2.779 F100
G0 X2.294 Y4.813 Z4.721
G0 X2.294 Y4.813 Z-0.779
G1 X2.294 Y4.813 Z-3.279 F100
G0 X2.294 Y4.813 Z4.721
G0 X2.294 Y4.813 Z-1.279
G1 X2.294 Y4.813 Z-3.675 F100
G0 X2.294 Y4.813 Z5.000
G0 X2.294 Y11.696 Z5.000
G0 X2.294 Y11.696 Z5.000
G0 X2.294 Y11.696 Z4.721
G0 X2.294 Y11.696 Z1.721
G1 X2.294 Y11.696 Z-0.779 F100
G0 X2.294 Y11.696 Z4.721
G0 X2.294 Y11.696 Z1.221
G1 X2.294 Y11.696 Z-1.279 F100
G0 X2.294 Y11.696 Z4.721
G0 X2.294 Y11.696 Z0.721
G1 X2.294 Y11.696 Z-1.779 F100
G0 X2.294 Y11.696 Z4.721
G0 X2.294 Y11.696 Z0.221
G1 X2.294 Y11.696 Z-2.279 F100
G0 X2.294 Y11.696 Z4.721
G0 X2.294 Y11.696 Z-0.279
G1 X2.294 Y11.696 Z-2.779 F100
G0 X2.294 Y11.696 Z4.721
G0 X2.294 Y11.696 Z-0.779
G1 X2.294 Y11.696 Z-3.279 F100
G0 X2.294 Y11.696 Z4.721
G0 X2.294 Y11.696 Z-1.279
G1 X2.294 Y11.696 Z-3.675 F100
G0 X2.294 Y11.696 Z5.000
G0 X8.254 Y15.137 Z5.000
G0 X8.254 Y15.137 Z5.000
G0 X8.254 Y15.137 Z4.721
G0 X8.254 Y15.137 Z1.721
G1 X8.254 Y15.137 Z-0.779 F100
G0 X8.254 Y15.137 Z4.721
G0 X8.254 Y15.137 Z1.221
G1 X8.254 Y15.137 Z-1.279 F100
G0 X8.254 Y15.137 Z4.721
G0 X8.254 Y15.137 Z0.721
G1 X8.254 Y15.137 Z-1.779 F100
G0 X8.254 Y15.137 Z4.721
G0 X8.254 Y15.137 Z0.221
G1 X8.254 Y15.137 Z-2.279 F100
G0 X8.254 Y15.137 Z4.721
G0 X8.254 Y15.137 Z-0.279
G1 X8.254 Y15.137 Z-2.779 F100
G0 X8.254 Y15.137 Z4.721
G0 X8.254 Y15.137 Z-0.779
G1 X8.254 Y15.137 Z-3.279 F100
G0 X8.254 Y15.137 Z4.721
G0 X8.254 Y15.137 Z-1.279
G1 X8.254 Y15.137 Z-3.675 F100
G0 X8.254 Y15.137 Z5.000
G0 X14.215 Y11.696 Z5.000
G0 X14.215 Y11.696 Z5.000
G0 X14.215 Y11.696 Z4.721
G0 X14.215 Y11.696 Z1.721
G1 X14.215 Y11.696 Z-0.779 F100
G0 X14.215 Y11.696 Z4.721
G0 X14.215 Y11.696 Z1.221
G1 X14.215 Y11.696 Z-1.279 F100
G0 X14.215 Y11.696 Z4.721
G0 X14.215 Y11.696 Z0.721
G1 X14.215 Y11.696 Z-1.779 F100
G0 X14.215 Y11.696 Z4.721
G0 X14.215 Y11.696 Z0.221
G1 X14.215 Y11.696 Z-2.279 F100
G0 X14.215 Y11.696 Z4.721
G0 X14.215 Y11.696 Z-0.279
G1 X14.215 Y11.696 Z-2.779 F100
G0 X14.215 Y11.696 Z4.721
G0 X14.215 Y11.696 Z-0.779
G1 X14.215 Y11.696 Z-3.279 F100
G0 X14.215 Y11.696 Z4.721
G0 X14.215 Y11.696 Z-1.279
G1 X14.215 Y11.696 Z-3.675 F100
G0 X14.215 Y11.696 Z5.000
G0 X14.215 Y11.696 Z55.000
G0 X0.000 Y0.000
M5
