;Titan-3-Inner-Chamfer
;Machine
;vendor: Snapmaker
;model: Desktop CNC
;description: Generic Snapmaker Marlin v20180725
M3 P100
G4 S2
G21
G90
;When using Fusion for Personal Use, the feedrate of rapid
;moves is reduced to match the feedrate of cutting moves,
;which can increase machining time. Unrestricted rapid moves
;are available with a Fusion Subscription.

;Titan-3-Inner-Ch
G0 X11.862 Y8.254 Z55.000
G1 X11.862 Y8.254 Z55.000 F500
G1 X11.862 Y8.254 Z5.000 F500
G1 X11.862 Y8.254 Z2.000 F100
G1 X11.862 Y8.254 Z-0.600 F100
G1 X12.180 Y8.254 Z-0.600 F500
G1 X12.172 Y8.503 Z-0.600 F500
G1 X12.148 Y8.751 Z-0.600 F500
G1 X12.109 Y8.997 Z-0.600 F500
G1 X12.054 Y9.240 Z-0.600 F500
G1 X11.984 Y9.479 Z-0.600 F500
G1 X11.898 Y9.713 Z-0.600 F500
G1 X11.799 Y9.941 Z-0.600 F500
G1 X11.684 Y10.163 Z-0.600 F500
G1 X11.556 Y10.376 Z-0.600 F500
G1 X11.415 Y10.582 Z-0.600 F500
G1 X11.261 Y10.777 Z-0.600 F500
G1 X11.095 Y10.963 Z-0.600 F500
G1 X10.918 Y11.138 Z-0.600 F500
G1 X10.729 Y11.301 Z-0.600 F500
G1 X10.531 Y11.452 Z-0.600 F500
G1 X10.324 Y11.590 Z-0.600 F500
G1 X10.108 Y11.714 Z-0.600 F500
G1 X9.885 Y11.825 Z-0.600 F500
G1 X9.655 Y11.921 Z-0.600 F500
G1 X9.420 Y12.003 Z-0.600 F500
G1 X9.180 Y12.069 Z-0.600 F500
G1 X8.936 Y12.120 Z-0.600 F500
G1 X8.689 Y12.155 Z-0.600 F500
G1 X8.441 Y12.175 Z-0.600 F500
G1 X8.192 Y12.179 Z-0.600 F500
G1 X7.943 Y12.167 Z-0.600 F500
G1 X7.696 Y12.140 Z-0.600 F500
G1 X7.450 Y12.096 Z-0.600 F500
G1 X7.208 Y12.038 Z-0.600 F500
G1 X6.970 Y11.964 Z-0.600 F500
G1 X6.738 Y11.875 Z-0.600 F500
G1 X6.511 Y11.771 Z-0.600 F500
G1 X6.291 Y11.654 Z-0.600 F500
G1 X6.080 Y11.522 Z-0.600 F500
G1 X5.877 Y11.378 Z-0.600 F500
G1 X5.684 Y11.221 Z-0.600 F500
G1 X5.501 Y11.052 Z-0.600 F500
G1 X5.329 Y10.872 Z-0.600 F500
G1 X5.169 Y10.681 Z-0.600 F500
G1 X5.021 Y10.480 Z-0.600 F500
G1 X4.886 Y10.271 Z-0.600 F500
G1 X4.765 Y10.053 Z-0.600 F500
G1 X4.658 Y9.828 Z-0.600 F500
G1 X4.565 Y9.597 Z-0.600 F500
G1 X4.488 Y9.360 Z-0.600 F500
G1 X4.425 Y9.119 Z-0.600 F500
G1 X4.378 Y8.874 Z-0.600 F500
G1 X4.346 Y8.627 Z-0.600 F500
G1 X4.331 Y8.379 Z-0.600 F500
G1 X4.331 Y8.130 Z-0.600 F500
G1 X4.346 Y7.881 Z-0.600 F500
G1 X4.378 Y7.634 Z-0.600 F500
G1 X4.425 Y7.389 Z-0.600 F500
G1 X4.488 Y7.148 Z-0.600 F500
G1 X4.565 Y6.912 Z-0.600 F500
G1 X4.658 Y6.680 Z-0.600 F500
G1 X4.765 Y6.455 Z-0.600 F500
G1 X4.886 Y6.238 Z-0.600 F500
G1 X5.021 Y6.028 Z-0.600 F500
G1 X5.169 Y5.828 Z-0.600 F500
G1 X5.329 Y5.637 Z-0.600 F500
G1 X5.501 Y5.457 Z-0.600 F500
G1 X5.684 Y5.287 Z-0.600 F500
G1 X5.877 Y5.130 Z-0.600 F500
G1 X6.080 Y4.986 Z-0.600 F500
G1 X6.291 Y4.855 Z-0.600 F500
G1 X6.511 Y4.737 Z-0.600 F500
G1 X6.738 Y4.633 Z-0.600 F500
G1 X6.970 Y4.545 Z-0.600 F500
G1 X7.208 Y4.471 Z-0.600 F500
G1 X7.450 Y4.412 Z-0.600 F500
G1 X7.696 Y4.369 Z-0.600 F500
G1 X7.943 Y4.341 Z-0.600 F500
G1 X8.192 Y4.329 Z-0.600 F500
G1 X8.441 Y4.333 Z-0.600 F500
G1 X8.689 Y4.353 Z-0.600 F500
G1 X8.936 Y4.388 Z-0.600 F500
G1 X9.180 Y4.439 Z-0.600 F500
G1 X9.420 Y4.506 Z-0.600 F500
G1 X9.655 Y4.587 Z-0.600 F500
G1 X9.885 Y4.683 Z-0.600 F500
G1 X10.108 Y4.794 Z-0.600 F500
G1 X10.324 Y4.919 Z-0.600 F500
G1 X10.531 Y5.057 Z-0.600 F500
G1 X10.729 Y5.207 Z-0.600 F500
G1 X10.918 Y5.371 Z-0.600 F500
G1 X11.095 Y5.545 Z-0.600 F500
G1 X11.261 Y5.731 Z-0.600 F500
G1 X11.415 Y5.927 Z-0.600 F500
G1 X11.556 Y6.132 Z-0.600 F500
G1 X11.684 Y6.346 Z-0.600 F500
G1 X11.799 Y6.567 Z-0.600 F500
G1 X11.898 Y6.795 Z-0.600 F500
G1 X11.984 Y7.029 Z-0.600 F500
G1 X12.054 Y7.268 Z-0.600 F500
G1 X12.109 Y7.511 Z-0.600 F500
G1 X12.148 Y7.757 Z-0.600 F500
G1 X12.172 Y8.005 Z-0.600 F500
G1 X12.180 Y8.254 Z-0.600 F500
G1 X11.862 Y8.254 Z-0.600 F500
G1 X11.862 Y8.254 Z55.000 F500
G0 X0.000 Y0.000
M5
