;Titan-3-Outer-Chamfer
;Machine
;vendor: Snapmaker
;model: Desktop CNC
;description: Generic Snapmaker Marlin v20180725
M3 P100
G4 S2
G21
G90
;When using Fusion for Personal Use, the feedrate of rapid
;moves is reduced to match the feedrate of cutting moves,
;which can increase machining time. Unrestricted rapid moves
;are available with a Fusion Subscription.

;Titan-3-Outer-Ch
G0 X17.657 Y7.926 Z16.588
G1 X17.657 Y7.926 Z16.588 F500
G1 X17.657 Y7.926 Z6.588 F500
G1 X17.657 Y7.926 Z3.588 F100
G1 X17.657 Y7.926 Z-0.600 F100
G1 X17.339 Y7.937 Z-0.600 F500
G1 X17.318 Y7.561 Z-0.600 F500
G1 X17.282 Y7.186 Z-0.600 F500
G1 X17.230 Y6.813 Z-0.600 F500
G1 X17.163 Y6.443 Z-0.600 F500
G1 X17.080 Y6.075 Z-0.600 F500
G1 X16.982 Y5.712 Z-0.600 F500
G1 X16.869 Y5.353 Z-0.600 F500
G1 X16.742 Y4.998 Z-0.600 F500
G1 X16.600 Y4.650 Z-0.600 F500
G1 X16.443 Y4.307 Z-0.600 F500
G1 X16.273 Y3.971 Z-0.600 F500
G1 X16.089 Y3.643 Z-0.600 F500
G1 X15.891 Y3.323 Z-0.600 F500
G1 X15.680 Y3.011 Z-0.600 F500
G1 X15.457 Y2.708 Z-0.600 F500
G1 X15.221 Y2.414 Z-0.600 F500
G1 X14.973 Y2.131 Z-0.600 F500
G1 X14.714 Y1.858 Z-0.600 F500
G1 X14.443 Y1.596 Z-0.600 F500
G1 X14.162 Y1.345 Z-0.600 F500
G1 X13.871 Y1.106 Z-0.600 F500
G1 X13.570 Y0.880 Z-0.600 F500
G1 X13.260 Y0.666 Z-0.600 F500
G1 X12.942 Y0.465 Z-0.600 F500
G1 X12.615 Y0.278 Z-0.600 F500
G1 X12.281 Y0.104 Z-0.600 F500
G1 X11.940 Y-0.056 Z-0.600 F500
G1 X11.593 Y-0.201 Z-0.600 F500
G1 X11.240 Y-0.332 Z-0.600 F500
G1 X10.882 Y-0.449 Z-0.600 F500
G1 X10.519 Y-0.550 Z-0.600 F500
G1 X10.152 Y-0.636 Z-0.600 F500
G1 X9.783 Y-0.707 Z-0.600 F500
G1 X9.410 Y-0.763 Z-0.600 F500
G1 X9.036 Y-0.803 Z-0.600 F500
G1 X8.660 Y-0.827 Z-0.600 F500
G1 X8.284 Y-0.837 Z-0.600 F500
G1 X7.907 Y-0.830 Z-0.600 F500
G1 X7.531 Y-0.808 Z-0.600 F500
G1 X7.157 Y-0.770 Z-0.600 F500
G1 X6.784 Y-0.717 Z-0.600 F500
G1 X6.414 Y-0.648 Z-0.600 F500
G1 X6.047 Y-0.564 Z-0.600 F500
G1 X5.683 Y-0.465 Z-0.600 F500
G1 X5.325 Y-0.352 Z-0.600 F500
G1 X4.971 Y-0.223 Z-0.600 F500
G1 X4.622 Y-0.080 Z-0.600 F500
G1 X4.280 Y0.078 Z-0.600 F500
G1 X3.945 Y0.249 Z-0.600 F500
G1 X3.618 Y0.435 Z-0.600 F500
G1 X3.298 Y0.634 Z-0.600 F500
G1 X2.986 Y0.845 Z-0.600 F500
G1 X2.684 Y1.070 Z-0.600 F500
G1 X2.391 Y1.307 Z-0.600 F500
G1 X2.109 Y1.555 Z-0.600 F500
G1 X1.837 Y1.816 Z-0.600 F500
G1 X1.575 Y2.087 Z-0.600 F500
G1 X1.326 Y2.369 Z-0.600 F500
G1 X1.088 Y2.661 Z-0.600 F500
G1 X0.862 Y2.962 Z-0.600 F500
G1 X0.650 Y3.273 Z-0.600 F500
G1 X0.450 Y3.592 Z-0.600 F500
G1 X0.264 Y3.919 Z-0.600 F500
G1 X0.091 Y4.254 Z-0.600 F500
G1 X-0.068 Y4.595 Z-0.600 F500
G1 X-0.212 Y4.943 Z-0.600 F500
G1 X-0.342 Y5.297 Z-0.600 F500
G1 X-0.457 Y5.655 Z-0.600 F500
G1 X-0.557 Y6.018 Z-0.600 F500
G1 X-0.642 Y6.385 Z-0.600 F500
G1 X-0.712 Y6.755 Z-0.600 F500
G1 X-0.766 Y7.127 Z-0.600 F500
G1 X-0.805 Y7.502 Z-0.600 F500
G1 X-0.829 Y7.878 Z-0.600 F500
G1 X-0.837 Y8.254 Z-0.600 F500
G1 X-0.829 Y8.635 Z-0.600 F500
G1 X-0.805 Y9.015 Z-0.600 F500
G1 X-0.765 Y9.394 Z-0.600 F500
G1 X-0.709 Y9.770 Z-0.600 F500
G1 X-0.638 Y10.144 Z-0.600 F500
G1 X-0.551 Y10.515 Z-0.600 F500
G1 X-0.449 Y10.882 Z-0.600 F500
G1 X-0.331 Y11.244 Z-0.600 F500
G1 X-0.198 Y11.601 Z-0.600 F500
G1 X-0.051 Y11.952 Z-0.600 F500
G1 X0.111 Y12.296 Z-0.600 F500
G1 X0.288 Y12.634 Z-0.600 F500
G1 X0.478 Y12.963 Z-0.600 F500
G1 X0.682 Y13.285 Z-0.600 F500
G1 X0.900 Y13.598 Z-0.600 F500
G1 X1.130 Y13.901 Z-0.600 F500
G1 X1.373 Y14.194 Z-0.600 F500
G1 X1.627 Y14.477 Z-0.600 F500
G1 X1.894 Y14.749 Z-0.600 F500
G1 X2.171 Y15.010 Z-0.600 F500
G1 X2.460 Y15.259 Z-0.600 F500
G1 X2.758 Y15.495 Z-0.600 F500
G1 X3.066 Y15.719 Z-0.600 F500
G1 X3.383 Y15.930 Z-0.600 F500
G1 X3.709 Y16.127 Z-0.600 F500
G1 X4.042 Y16.310 Z-0.600 F500
G1 X4.384 Y16.480 Z-0.600 F500
G1 X4.731 Y16.635 Z-0.600 F500
G1 X5.085 Y16.775 Z-0.600 F500
G1 X5.445 Y16.900 Z-0.600 F500
G1 X5.809 Y17.010 Z-0.600 F500
G1 X6.178 Y17.105 Z-0.600 F500
G1 X6.551 Y17.184 Z-0.600 F500
G1 X6.926 Y17.247 Z-0.600 F500
G1 X7.304 Y17.295 Z-0.600 F500
G1 X7.683 Y17.327 Z-0.600 F500
G1 X8.064 Y17.343 Z-0.600 F500
G1 X8.445 Y17.343 Z-0.600 F500
G1 X8.825 Y17.327 Z-0.600 F500
G1 X9.204 Y17.295 Z-0.600 F500
G1 X9.582 Y17.247 Z-0.600 F500
G1 X9.958 Y17.184 Z-0.600 F500
G1 X10.330 Y17.105 Z-0.600 F500
G1 X10.699 Y17.010 Z-0.600 F500
G1 X11.063 Y16.900 Z-0.600 F500
G1 X11.423 Y16.775 Z-0.600 F500
G1 X11.777 Y16.635 Z-0.600 F500
G1 X12.125 Y16.480 Z-0.600 F500
G1 X12.466 Y16.310 Z-0.600 F500
G1 X12.800 Y16.127 Z-0.600 F500
G1 X13.125 Y15.930 Z-0.600 F500
G1 X13.442 Y15.719 Z-0.600 F500
G1 X13.750 Y15.495 Z-0.600 F500
G1 X14.049 Y15.259 Z-0.600 F500
G1 X14.337 Y15.010 Z-0.600 F500
G1 X14.615 Y14.749 Z-0.600 F500
G1 X14.881 Y14.477 Z-0.600 F500
G1 X15.136 Y14.194 Z-0.600 F500
G1 X15.378 Y13.901 Z-0.600 F500
G1 X15.609 Y13.598 Z-0.600 F500
G1 X15.826 Y13.285 Z-0.600 F500
G1 X16.030 Y12.963 Z-0.600 F500
G1 X16.220 Y12.634 Z-0.600 F500
G1 X16.397 Y12.296 Z-0.600 F500
G1 X16.559 Y11.952 Z-0.600 F500
G1 X16.706 Y11.601 Z-0.600 F500
G1 X16.839 Y11.244 Z-0.600 F500
G1 X16.957 Y10.882 Z-0.600 F500
G1 X17.059 Y10.515 Z-0.600 F500
G1 X17.146 Y10.144 Z-0.600 F500
G1 X17.218 Y9.770 Z-0.600 F500
G1 X17.273 Y9.394 Z-0.600 F500
G1 X17.313 Y9.015 Z-0.600 F500
G1 X17.337 Y8.635 Z-0.600 F500
G1 X17.345 Y8.254 Z-0.600 F500
G1 X17.339 Y7.937 Z-0.600 F500
G1 X17.657 Y7.926 Z-0.600 F500
G1 X17.657 Y7.926 Z16.588 F500
G0 X0.000 Y0.000
M5
