;Titan-3-Groove
;Machine
;vendor: Snapmaker
;model: Desktop CNC
;description: Generic Snapmaker Marlin v20180725
M3 P100
G4 S2
G21
G90
;When using Fusion for Personal Use, the feedrate of rapid
;moves is reduced to match the feedrate of cutting moves,
;which can increase machining time. Unrestricted rapid moves
;are available with a Fusion Subscription.

;Titan-3-Groove
G0 X13.550 Y8.254 Z55.000
G1 X13.550 Y8.254 Z55.000 F500
G1 X13.550 Y8.254 Z5.000 F500
G1 X13.550 Y8.254 Z0.117 F100
G1 X13.550 Y8.254 Z-0.267 F100
G1 X13.542 Y8.543 Z-0.267 F500
G1 X13.518 Y8.832 Z-0.267 F500
G1 X13.479 Y9.118 Z-0.267 F500
G1 X13.424 Y9.402 Z-0.267 F500
G1 X13.353 Y9.683 Z-0.267 F500
G1 X13.268 Y9.959 Z-0.267 F500
G1 X13.167 Y10.230 Z-0.267 F500
G1 X13.052 Y10.496 Z-0.267 F500
G1 X12.922 Y10.754 Z-0.267 F500
G1 X12.779 Y11.006 Z-0.267 F500
G1 X12.622 Y11.249 Z-0.267 F500
G1 X12.452 Y11.483 Z-0.267 F500
G1 X12.269 Y11.707 Z-0.267 F500
G1 X12.074 Y11.921 Z-0.267 F500
G1 X11.869 Y12.124 Z-0.267 F500
G1 X11.652 Y12.316 Z-0.267 F500
G1 X11.425 Y12.495 Z-0.267 F500
G1 X11.189 Y12.662 Z-0.267 F500
G1 X10.943 Y12.816 Z-0.267 F500
G1 X10.690 Y12.956 Z-0.267 F500
G1 X10.430 Y13.082 Z-0.267 F500
G1 X10.163 Y13.193 Z-0.267 F500
G1 X9.891 Y13.290 Z-0.267 F500
G1 X9.613 Y13.372 Z-0.267 F500
G1 X9.332 Y13.439 Z-0.267 F500
G1 X9.047 Y13.490 Z-0.267 F500
G1 X8.760 Y13.525 Z-0.267 F500
G1 X8.471 Y13.545 Z-0.267 F500
G1 X8.182 Y13.549 Z-0.267 F500
G1 X7.893 Y13.537 Z-0.267 F500
G1 X7.605 Y13.510 Z-0.267 F500
G1 X7.319 Y13.466 Z-0.267 F500
G1 X7.036 Y13.407 Z-0.267 F500
G1 X6.756 Y13.333 Z-0.267 F500
G1 X6.481 Y13.244 Z-0.267 F500
G1 X6.211 Y13.139 Z-0.267 F500
G1 X5.947 Y13.021 Z-0.267 F500
G1 X5.690 Y12.888 Z-0.267 F500
G1 X5.441 Y12.741 Z-0.267 F500
G1 X5.200 Y12.580 Z-0.267 F500
G1 X4.969 Y12.407 Z-0.267 F500
G1 X4.747 Y12.221 Z-0.267 F500
G1 X4.535 Y12.024 Z-0.267 F500
G1 X4.335 Y11.815 Z-0.267 F500
G1 X4.147 Y11.596 Z-0.267 F500
G1 X3.970 Y11.367 Z-0.267 F500
G1 X3.807 Y11.128 Z-0.267 F500
G1 X3.656 Y10.881 Z-0.267 F500
G1 X3.520 Y10.626 Z-0.267 F500
G1 X3.397 Y10.364 Z-0.267 F500
G1 X3.289 Y10.095 Z-0.267 F500
G1 X3.196 Y9.822 Z-0.267 F500
G1 X3.118 Y9.543 Z-0.267 F500
G1 X3.055 Y9.261 Z-0.267 F500
G1 X3.008 Y8.975 Z-0.267 F500
G1 X2.977 Y8.688 Z-0.267 F500
G1 X2.961 Y8.399 Z-0.267 F500
G1 X2.961 Y8.110 Z-0.267 F500
G1 X2.977 Y7.821 Z-0.267 F500
G1 X3.008 Y7.533 Z-0.267 F500
G1 X3.055 Y7.248 Z-0.267 F500
G1 X3.118 Y6.965 Z-0.267 F500
G1 X3.196 Y6.687 Z-0.267 F500
G1 X3.289 Y6.413 Z-0.267 F500
G1 X3.397 Y6.145 Z-0.267 F500
G1 X3.520 Y5.882 Z-0.267 F500
G1 X3.656 Y5.627 Z-0.267 F500
G1 X3.807 Y5.380 Z-0.267 F500
G1 X3.970 Y5.142 Z-0.267 F500
G1 X4.147 Y4.912 Z-0.267 F500
G1 X4.335 Y4.693 Z-0.267 F500
G1 X4.535 Y4.484 Z-0.267 F500
G1 X4.747 Y4.287 Z-0.267 F500
G1 X4.969 Y4.101 Z-0.267 F500
G1 X5.200 Y3.928 Z-0.267 F500
G1 X5.441 Y3.768 Z-0.267 F500
G1 X5.690 Y3.621 Z-0.267 F500
G1 X5.947 Y3.488 Z-0.267 F500
G1 X6.211 Y3.369 Z-0.267 F500
G1 X6.481 Y3.265 Z-0.267 F500
G1 X6.756 Y3.175 Z-0.267 F500
G1 X7.036 Y3.101 Z-0.267 F500
G1 X7.319 Y3.042 Z-0.267 F500
G1 X7.605 Y2.999 Z-0.267 F500
G1 X7.893 Y2.971 Z-0.267 F500
G1 X8.182 Y2.959 Z-0.267 F500
G1 X8.471 Y2.963 Z-0.267 F500
G1 X8.760 Y2.983 Z-0.267 F500
G1 X9.047 Y3.018 Z-0.267 F500
G1 X9.332 Y3.070 Z-0.267 F500
G1 X9.613 Y3.136 Z-0.267 F500
G1 X9.891 Y3.218 Z-0.267 F500
G1 X10.163 Y3.315 Z-0.267 F500
G1 X10.430 Y3.426 Z-0.267 F500
G1 X10.690 Y3.553 Z-0.267 F500
G1 X10.943 Y3.693 Z-0.267 F500
G1 X11.189 Y3.846 Z-0.267 F500
G1 X11.425 Y4.013 Z-0.267 F500
G1 X11.652 Y4.193 Z-0.267 F500
G1 X11.869 Y4.384 Z-0.267 F500
G1 X12.074 Y4.587 Z-0.267 F500
G1 X12.269 Y4.801 Z-0.267 F500
G1 X12.452 Y5.026 Z-0.267 F500
G1 X12.622 Y5.260 Z-0.267 F500
G1 X12.779 Y5.503 Z-0.267 F500
G1 X12.922 Y5.754 Z-0.267 F500
G1 X13.052 Y6.013 Z-0.267 F500
G1 X13.167 Y6.278 Z-0.267 F500
G1 X13.268 Y6.549 Z-0.267 F500
G1 X13.353 Y6.826 Z-0.267 F500
G1 X13.424 Y7.106 Z-0.267 F500
G1 X13.479 Y7.390 Z-0.267 F500
G1 X13.518 Y7.677 Z-0.267 F500
G1 X13.542 Y7.965 Z-0.267 F500
G1 X13.550 Y8.254 Z-0.267 F500
G1 X13.550 Y8.254 Z-0.533 F100
G1 X13.542 Y8.543 Z-0.533 F500
G1 X13.518 Y8.832 Z-0.533 F500
G1 X13.479 Y9.118 Z-0.533 F500
G1 X13.424 Y9.402 Z-0.533 F500
G1 X13.353 Y9.683 Z-0.533 F500
G1 X13.268 Y9.959 Z-0.533 F500
G1 X13.167 Y10.230 Z-0.533 F500
G1 X13.052 Y10.496 Z-0.533 F500
G1 X12.922 Y10.754 Z-0.533 F500
G1 X12.779 Y11.006 Z-0.533 F500
G1 X12.622 Y11.249 Z-0.533 F500
G1 X12.452 Y11.483 Z-0.533 F500
G1 X12.269 Y11.707 Z-0.533 F500
G1 X12.074 Y11.921 Z-0.533 F500
G1 X11.869 Y12.124 Z-0.533 F500
G1 X11.652 Y12.316 Z-0.533 F500
G1 X11.425 Y12.495 Z-0.533 F500
G1 X11.189 Y12.662 Z-0.533 F500
G1 X10.943 Y12.816 Z-0.533 F500
G1 X10.690 Y12.956 Z-0.533 F500
G1 X10.430 Y13.082 Z-0.533 F500
G1 X10.163 Y13.193 Z-0.533 F500
G1 X9.891 Y13.290 Z-0.533 F500
G1 X9.613 Y13.372 Z-0.533 F500
G1 X9.332 Y13.439 Z-0.533 F500
G1 X9.047 Y13.490 Z-0.533 F500
G1 X8.760 Y13.525 Z-0.533 F500
G1 X8.471 Y13.545 Z-0.533 F500
G1 X8.182 Y13.549 Z-0.533 F500
G1 X7.893 Y13.537 Z-0.533 F500
G1 X7.605 Y13.510 Z-0.533 F500
G1 X7.319 Y13.466 Z-0.533 F500
G1 X7.036 Y13.407 Z-0.533 F500
G1 X6.756 Y13.333 Z-0.533 F500
G1 X6.481 Y13.244 Z-0.533 F500
G1 X6.211 Y13.139 Z-0.533 F500
G1 X5.947 Y13.021 Z-0.533 F500
G1 X5.690 Y12.888 Z-0.533 F500
G1 X5.441 Y12.741 Z-0.533 F500
G1 X5.200 Y12.580 Z-0.533 F500
G1 X4.969 Y12.407 Z-0.533 F500
G1 X4.747 Y12.221 Z-0.533 F500
G1 X4.535 Y12.024 Z-0.533 F500
G1 X4.335 Y11.815 Z-0.533 F500
G1 X4.147 Y11.596 Z-0.533 F500
G1 X3.970 Y11.367 Z-0.533 F500
G1 X3.807 Y11.128 Z-0.533 F500
G1 X3.656 Y10.881 Z-0.533 F500
G1 X3.520 Y10.626 Z-0.533 F500
G1 X3.397 Y10.364 Z-0.533 F500
G1 X3.289 Y10.095 Z-0.533 F500
G1 X3.196 Y9.822 Z-0.533 F500
G1 X3.118 Y9.543 Z-0.533 F500
G1 X3.055 Y9.261 Z-0.533 F500
G1 X3.008 Y8.975 Z-0.533 F500
G1 X2.977 Y8.688 Z-0.533 F500
G1 X2.961 Y8.399 Z-0.533 F500
G1 X2.961 Y8.110 Z-0.533 F500
G1 X2.977 Y7.821 Z-0.533 F500
G1 X3.008 Y7.533 Z-0.533 F500
G1 X3.055 Y7.248 Z-0.533 F500
G1 X3.118 Y6.965 Z-0.533 F500
G1 X3.196 Y6.687 Z-0.533 F500
G1 X3.289 Y6.413 Z-0.533 F500
G1 X3.397 Y6.145 Z-0.533 F500
G1 X3.520 Y5.882 Z-0.533 F500
G1 X3.656 Y5.627 Z-0.533 F500
G1 X3.807 Y5.380 Z-0.533 F500
G1 X3.970 Y5.142 Z-0.533 F500
G1 X4.147 Y4.912 Z-0.533 F500
G1 X4.335 Y4.693 Z-0.533 F500
G1 X4.535 Y4.484 Z-0.533 F500
G1 X4.747 Y4.287 Z-0.533 F500
G1 X4.969 Y4.101 Z-0.533 F500
G1 X5.200 Y3.928 Z-0.533 F500
G1 X5.441 Y3.768 Z-0.533 F500
G1 X5.690 Y3.621 Z-0.533 F500
G1 X5.947 Y3.488 Z-0.533 F500
G1 X6.211 Y3.369 Z-0.533 F500
G1 X6.481 Y3.265 Z-0.533 F500
G1 X6.756 Y3.175 Z-0.533 F500
G1 X7.036 Y3.101 Z-0.533 F500
G1 X7.319 Y3.042 Z-0.533 F500
G1 X7.605 Y2.999 Z-0.533 F500
G1 X7.893 Y2.971 Z-0.533 F500
G1 X8.182 Y2.959 Z-0.533 F500
G1 X8.471 Y2.963 Z-0.533 F500
G1 X8.760 Y2.983 Z-0.533 F500
G1 X9.047 Y3.018 Z-0.533 F500
G1 X9.332 Y3.070 Z-0.533 F500
G1 X9.613 Y3.136 Z-0.533 F500
G1 X9.891 Y3.218 Z-0.533 F500
G1 X10.163 Y3.315 Z-0.533 F500
G1 X10.430 Y3.426 Z-0.533 F500
G1 X10.690 Y3.553 Z-0.533 F500
G1 X10.943 Y3.693 Z-0.533 F500
G1 X11.189 Y3.846 Z-0.533 F500
G1 X11.425 Y4.013 Z-0.533 F500
G1 X11.652 Y4.193 Z-0.533 F500
G1 X11.869 Y4.384 Z-0.533 F500
G1 X12.074 Y4.587 Z-0.533 F500
G1 X12.269 Y4.801 Z-0.533 F500
G1 X12.452 Y5.026 Z-0.533 F500
G1 X12.622 Y5.260 Z-0.533 F500
G1 X12.779 Y5.503 Z-0.533 F500
G1 X12.922 Y5.754 Z-0.533 F500
G1 X13.052 Y6.013 Z-0.533 F500
G1 X13.167 Y6.278 Z-0.533 F500
G1 X13.268 Y6.549 Z-0.533 F500
G1 X13.353 Y6.826 Z-0.533 F500
G1 X13.424 Y7.106 Z-0.533 F500
G1 X13.479 Y7.390 Z-0.533 F500
G1 X13.518 Y7.677 Z-0.533 F500
G1 X13.542 Y7.965 Z-0.533 F500
G1 X13.550 Y8.254 Z-0.533 F500
G1 X13.550 Y8.254 Z55.000 F500
G0 X0.000 Y0.000
M5
