;Titan-3-Pocket
;Machine
;vendor: Snapmaker
;model: Desktop CNC
;description: Generic Snapmaker Marlin v20180725
M3 P100
G4 S2
G21
G90
;When using Fusion for Personal Use, the feedrate of rapid
;moves is reduced to match the feedrate of cutting moves,
;which can increase machining time. Unrestricted rapid moves
;are available with a Fusion Subscription.

;2D Adaptive7
G0 X7.156 Y8.693 Z55.000
G1 X7.156 Y8.693 Z55.000 F500
G1 X7.156 Y8.693 Z5.000 F500
G1 X7.156 Y8.693 Z2.500 F500
G1 X7.113 Y8.564 Z2.495 F100
G1 X7.085 Y8.430 Z2.490 F100
G1 X7.072 Y8.294 Z2.486 F100
G1 X7.076 Y8.158 Z2.481 F100
G1 X7.095 Y8.023 Z2.476 F100
G1 X7.129 Y7.891 Z2.471 F100
G1 X7.178 Y7.763 Z2.467 F100
G1 X7.242 Y7.643 Z2.462 F100
G1 X7.319 Y7.530 Z2.457 F100
G1 X7.409 Y7.427 Z2.452 F100
G1 X7.510 Y7.335 Z2.448 F100
G1 X7.621 Y7.256 Z2.443 F100
G1 X7.740 Y7.189 Z2.438 F100
G1 X7.866 Y7.137 Z2.433 F100
G1 X7.998 Y7.100 Z2.428 F100
G1 X8.132 Y7.078 Z2.424 F100
G1 X8.269 Y7.072 Z2.419 F100
G1 X8.405 Y7.081 Z2.414 F100
G1 X8.539 Y7.106 Z2.409 F100
G1 X8.669 Y7.147 Z2.405 F100
G1 X8.794 Y7.202 Z2.400 F100
G1 X8.911 Y7.271 Z2.395 F100
G1 X9.020 Y7.353 Z2.390 F100
G1 X9.119 Y7.447 Z2.386 F100
G1 X9.206 Y7.552 Z2.381 F100
G1 X9.280 Y7.667 Z2.376 F100
G1 X9.341 Y7.789 Z2.371 F100
G1 X9.387 Y7.917 Z2.366 F100
G1 X9.418 Y8.050 Z2.362 F100
G1 X9.434 Y8.185 Z2.357 F100
G1 X9.434 Y8.321 Z2.352 F100
G1 X9.418 Y8.457 Z2.347 F100
G1 X9.387 Y8.590 Z2.343 F100
G1 X9.340 Y8.718 Z2.338 F100
G1 X9.280 Y8.840 Z2.333 F100
G1 X9.205 Y8.954 Z2.328 F100
G1 X9.118 Y9.059 Z2.324 F100
G1 X9.020 Y9.153 Z2.319 F100
G1 X8.911 Y9.235 Z2.314 F100
G1 X8.794 Y9.304 Z2.309 F100
G1 X8.669 Y9.359 Z2.304 F100
G1 X8.539 Y9.399 Z2.300 F100
G1 X8.405 Y9.424 Z2.295 F100
G1 X8.269 Y9.433 Z2.290 F100
G1 X8.133 Y9.427 Z2.285 F100
G1 X7.999 Y9.405 Z2.281 F100
G1 X7.868 Y9.368 Z2.276 F100
G1 X7.742 Y9.316 Z2.271 F100
G1 X7.623 Y9.249 Z2.266 F100
G1 X7.513 Y9.170 Z2.262 F100
G1 X7.412 Y9.078 Z2.257 F100
G1 X7.323 Y8.976 Z2.252 F100
G1 X7.246 Y8.863 Z2.247 F100
G1 X7.182 Y8.743 Z2.242 F100
G1 X7.133 Y8.616 Z2.238 F100
G1 X7.099 Y8.485 Z2.233 F100
G1 X7.080 Y8.350 Z2.228 F100
G1 X7.077 Y8.214 Z2.223 F100
G1 X7.089 Y8.079 Z2.219 F100
G1 X7.118 Y7.945 Z2.214 F100
G1 X7.161 Y7.816 Z2.209 F100
G1 X7.218 Y7.693 Z2.204 F100
G1 X7.290 Y7.578 Z2.200 F100
G1 X7.374 Y7.471 Z2.195 F100
G1 X7.471 Y7.375 Z2.190 F100
G1 X7.577 Y7.290 Z2.185 F100
G1 X7.693 Y7.219 Z2.180 F100
G1 X7.816 Y7.161 Z2.176 F100
G1 X7.945 Y7.118 Z2.171 F100
G1 X8.078 Y7.089 Z2.166 F100
G1 X8.213 Y7.077 Z2.161 F100
G1 X8.349 Y7.080 Z2.157 F100
G1 X8.483 Y7.099 Z2.152 F100
G1 X8.615 Y7.133 Z2.147 F100
G1 X8.741 Y7.182 Z2.142 F100
G1 X8.862 Y7.245 Z2.138 F100
G1 X8.974 Y7.322 Z2.133 F100
G1 X9.076 Y7.411 Z2.128 F100
G1 X9.168 Y7.511 Z2.123 F100
G1 X9.247 Y7.621 Z2.118 F100
G1 X9.314 Y7.740 Z2.114 F100
G1 X9.366 Y7.865 Z2.109 F100
G1 X9.403 Y7.996 Z2.104 F100
G1 X9.425 Y8.130 Z2.099 F100
G1 X9.431 Y8.266 Z2.095 F100
G1 X9.422 Y8.401 Z2.090 F100
G1 X9.397 Y8.535 Z2.085 F100
G1 X9.357 Y8.664 Z2.080 F100
G1 X9.302 Y8.788 Z2.076 F100
G1 X9.234 Y8.906 Z2.071 F100
G1 X9.152 Y9.014 Z2.066 F100
G1 X9.058 Y9.112 Z2.061 F100
G1 X8.954 Y9.199 Z2.056 F100
G1 X8.841 Y9.273 Z2.052 F100
G1 X8.719 Y9.334 Z2.047 F100
G1 X8.592 Y9.380 Z2.042 F100
G1 X8.459 Y9.411 Z2.037 F100
G1 X8.325 Y9.427 Z2.033 F100
G1 X8.189 Y9.427 Z2.028 F100
G1 X8.054 Y9.411 Z2.023 F100
G1 X7.922 Y9.381 Z2.018 F100
G1 X7.794 Y9.335 Z2.014 F100
G1 X7.673 Y9.274 Z2.009 F100
G1 X7.559 Y9.200 Z2.004 F100
G1 X7.455 Y9.114 Z1.999 F100
G1 X7.361 Y9.016 Z1.994 F100
G1 X7.280 Y8.908 Z1.990 F100
G1 X7.211 Y8.791 Z1.985 F100
G1 X7.156 Y8.667 Z1.980 F100
G1 X7.116 Y8.538 Z1.975 F100
G1 X7.091 Y8.405 Z1.971 F100
G1 X7.081 Y8.270 Z1.966 F100
G1 X7.087 Y8.134 Z1.961 F100
G1 X7.109 Y8.000 Z1.956 F100
G1 X7.146 Y7.870 Z1.952 F100
G1 X7.197 Y7.745 Z1.947 F100
G1 X7.263 Y7.626 Z1.942 F100
G1 X7.342 Y7.516 Z1.937 F100
G1 X7.433 Y7.416 Z1.932 F100
G1 X7.535 Y7.327 Z1.928 F100
G1 X7.647 Y7.250 Z1.923 F100
G1 X7.766 Y7.187 Z1.918 F100
G1 X7.893 Y7.138 Z1.913 F100
G1 X8.024 Y7.104 Z1.909 F100
G1 X8.158 Y7.085 Z1.904 F100
G1 X8.293 Y7.081 Z1.899 F100
G1 X8.428 Y7.094 Z1.894 F100
G1 X8.560 Y7.121 Z1.890 F100
G1 X8.689 Y7.164 Z1.885 F100
G1 X8.811 Y7.221 Z1.880 F100
G1 X8.926 Y7.293 Z1.875 F100
G1 X9.033 Y7.376 Z1.870 F100
G1 X9.129 Y7.472 Z1.866 F100
G1 X9.213 Y7.578 Z1.861 F100
G1 X9.284 Y7.693 Z1.856 F100
G1 X9.342 Y7.815 Z1.851 F100
G1 X9.385 Y7.943 Z1.847 F100
G1 X9.413 Y8.076 Z1.842 F100
G1 X9.426 Y8.210 Z1.837 F100
G1 X9.423 Y8.345 Z1.832 F100
G1 X9.405 Y8.479 Z1.828 F100
G1 X9.371 Y8.610 Z1.823 F100
G1 X9.322 Y8.736 Z1.818 F100
G1 X9.260 Y8.856 Z1.813 F100
G1 X9.183 Y8.968 Z1.808 F100
G1 X9.095 Y9.070 Z1.804 F100
G1 X8.995 Y9.161 Z1.799 F100
G1 X8.886 Y9.240 Z1.794 F100
G1 X8.768 Y9.306 Z1.789 F100
G1 X8.643 Y9.358 Z1.785 F100
G1 X8.513 Y9.396 Z1.780 F100
G1 X8.379 Y9.418 Z1.775 F100
G1 X8.244 Y9.424 Z1.770 F100
G1 X8.110 Y9.415 Z1.766 F100
G1 X7.977 Y9.391 Z1.761 F100
G1 X7.848 Y9.351 Z1.756 F100
G1 X7.724 Y9.297 Z1.751 F100
G1 X7.608 Y9.229 Z1.746 F100
G1 X7.500 Y9.148 Z1.742 F100
G1 X7.402 Y9.054 Z1.737 F100
G1 X7.315 Y8.951 Z1.732 F100
G1 X7.241 Y8.838 Z1.727 F100
G1 X7.181 Y8.717 Z1.723 F100
G1 X7.135 Y8.590 Z1.718 F100
G1 X7.103 Y8.459 Z1.713 F100
G1 X7.088 Y8.325 Z1.708 F100
G1 X7.087 Y8.190 Z1.703 F100
G1 X7.102 Y8.056 Z1.699 F100
G1 X7.133 Y7.924 Z1.694 F100
G1 X7.179 Y7.797 Z1.689 F100
G1 X7.238 Y7.676 Z1.684 F100
G1 X7.312 Y7.563 Z1.680 F100
G1 X7.398 Y7.459 Z1.675 F100
G1 X7.495 Y7.365 Z1.670 F100
G1 X7.602 Y7.284 Z1.665 F100
G1 X7.718 Y7.215 Z1.661 F100
G1 X7.842 Y7.160 Z1.656 F100
G1 X7.970 Y7.120 Z1.651 F100
G1 X8.103 Y7.095 Z1.646 F100
G1 X8.237 Y7.085 Z1.641 F100
G1 X8.372 Y7.091 Z1.637 F100
G1 X8.505 Y7.113 Z1.632 F100
G1 X8.635 Y7.149 Z1.627 F100
G1 X8.760 Y7.200 Z1.622 F100
G1 X8.878 Y7.266 Z1.618 F100
G1 X8.988 Y7.344 Z1.613 F100
G1 X9.088 Y7.435 Z1.608 F100
G1 X9.176 Y7.536 Z1.603 F100
G1 X9.253 Y7.647 Z1.599 F100
G1 X9.316 Y7.766 Z1.594 F100
G1 X9.365 Y7.892 Z1.589 F100
G1 X9.399 Y8.022 Z1.584 F100
G1 X9.418 Y8.155 Z1.579 F100
G1 X9.422 Y8.290 Z1.575 F100
G1 X9.410 Y8.424 Z1.570 F100
G1 X9.382 Y8.556 Z1.565 F100
G1 X9.340 Y8.684 Z1.560 F100
G1 X9.283 Y8.806 Z1.556 F100
G1 X9.212 Y8.921 Z1.551 F100
G1 X9.129 Y9.026 Z1.546 F100
G1 X9.034 Y9.122 Z1.541 F100
G1 X8.929 Y9.206 Z1.537 F100
G1 X8.814 Y9.277 Z1.532 F100
G1 X8.693 Y9.335 Z1.527 F100
G1 X8.565 Y9.378 Z1.522 F100
G1 X8.434 Y9.406 Z1.517 F100
G1 X8.300 Y9.419 Z1.513 F100
G1 X8.165 Y9.416 Z1.508 F100
G1 X8.032 Y9.398 Z1.503 F100
G1 X7.902 Y9.365 Z1.498 F100
G1 X7.776 Y9.317 Z1.494 F100
G1 X7.657 Y9.254 Z1.489 F100
G1 X7.545 Y9.179 Z1.484 F100
G1 X7.444 Y9.091 Z1.479 F100
G1 X7.353 Y8.992 Z1.475 F100
G1 X7.274 Y8.883 Z1.470 F100
G1 X7.208 Y8.765 Z1.465 F100
G1 X7.156 Y8.641 Z1.460 F100
G1 X7.119 Y8.512 Z1.455 F100
G1 X7.097 Y8.379 Z1.451 F100
G1 X7.090 Y8.245 Z1.446 F100
G1 X7.099 Y8.111 Z1.441 F100
G1 X7.123 Y7.978 Z1.436 F100
G1 X7.162 Y7.850 Z1.432 F100
G1 X7.216 Y7.727 Z1.427 F100
G1 X7.284 Y7.611 Z1.422 F100
G1 X7.364 Y7.503 Z1.417 F100
G1 X7.457 Y7.406 Z1.413 F100
G1 X7.560 Y7.319 Z1.408 F100
G1 X7.672 Y7.246 Z1.403 F100
G1 X7.792 Y7.185 Z1.398 F100
G1 X7.919 Y7.139 Z1.393 F100
G1 X8.049 Y7.108 Z1.389 F100
G1 X8.183 Y7.092 Z1.384 F100
G1 X8.317 Y7.092 Z1.379 F100
G1 X8.451 Y7.107 Z1.374 F100
G1 X8.582 Y7.137 Z1.370 F100
G1 X8.708 Y7.182 Z1.365 F100
G1 X8.828 Y7.241 Z1.360 F100
G1 X8.941 Y7.314 Z1.355 F100
G1 X9.045 Y7.399 Z1.351 F100
G1 X9.138 Y7.496 Z1.346 F100
G1 X9.219 Y7.603 Z1.341 F100
G1 X9.288 Y7.718 Z1.336 F100
G1 X9.342 Y7.841 Z1.331 F100
G1 X9.383 Y7.969 Z1.327 F100
G1 X9.408 Y8.101 Z1.322 F100
G1 X9.418 Y8.235 Z1.317 F100
G1 X9.412 Y8.369 Z1.312 F100
G1 X9.391 Y8.501 Z1.308 F100
G1 X9.355 Y8.631 Z1.303 F100
G1 X9.304 Y8.755 Z1.298 F100
G1 X9.239 Y8.872 Z1.293 F100
G1 X9.161 Y8.982 Z1.289 F100
G1 X9.071 Y9.081 Z1.284 F100
G1 X8.970 Y9.170 Z1.279 F100
G1 X8.860 Y9.246 Z1.274 F100
G1 X8.742 Y9.309 Z1.269 F100
G1 X8.617 Y9.358 Z1.265 F100
G1 X8.487 Y9.392 Z1.260 F100
G1 X8.354 Y9.411 Z1.255 F100
G1 X8.220 Y9.415 Z1.250 F100
G1 X8.087 Y9.403 Z1.246 F100
G1 X7.956 Y9.376 Z1.241 F100
G1 X7.828 Y9.334 Z1.236 F100
G1 X7.707 Y9.277 Z1.231 F100
G1 X7.593 Y9.207 Z1.227 F100
G1 X7.487 Y9.125 Z1.222 F100
G1 X7.392 Y9.030 Z1.217 F100
G1 X7.308 Y8.925 Z1.212 F100
G1 X7.237 Y8.812 Z1.207 F100
G1 X7.180 Y8.691 Z1.203 F100
G1 X7.136 Y8.564 Z1.198 F100
G1 X7.108 Y8.433 Z1.193 F100
G1 X7.095 Y8.300 Z1.188 F100
G1 X7.098 Y8.166 Z1.184 F100
G1 X7.116 Y8.033 Z1.179 F100
G1 X7.149 Y7.904 Z1.174 F100
G1 X7.196 Y7.778 Z1.169 F100
G1 X7.258 Y7.660 Z1.165 F100
G1 X7.334 Y7.549 Z1.160 F100
G1 X7.421 Y7.448 Z1.155 F100
G1 X7.519 Y7.357 Z1.150 F100
G1 X7.628 Y7.278 Z1.145 F100
G1 X7.744 Y7.212 Z1.141 F100
G1 X7.868 Y7.161 Z1.136 F100
G1 X7.996 Y7.123 Z1.131 F100
G1 X8.129 Y7.101 Z1.126 F100
G1 X8.262 Y7.094 Z1.122 F100
G1 X8.396 Y7.103 Z1.117 F100
G1 X8.527 Y7.127 Z1.112 F100
G1 X8.655 Y7.166 Z1.107 F100
G1 X8.778 Y7.219 Z1.103 F100
G1 X8.893 Y7.286 Z1.098 F100
G1 X9.001 Y7.366 Z1.093 F100
G1 X9.098 Y7.458 Z1.088 F100
G1 X9.184 Y7.561 Z1.083 F100
G1 X9.257 Y7.672 Z1.079 F100
G1 X9.317 Y7.792 Z1.074 F100
G1 X9.363 Y7.917 Z1.069 F100
G1 X9.395 Y8.047 Z1.064 F100
G1 X9.411 Y8.180 Z1.060 F100
G1 X9.412 Y8.314 Z1.055 F100
G1 X9.397 Y8.447 Z1.050 F100
G1 X9.367 Y8.577 Z1.045 F100
G1 X9.322 Y8.703 Z1.041 F100
G1 X9.263 Y8.823 Z1.036 F100
G1 X9.191 Y8.935 Z1.031 F100
G1 X9.106 Y9.039 Z1.026 F100
G1 X9.010 Y9.131 Z1.021 F100
G1 X8.904 Y9.212 Z1.017 F100
G1 X8.789 Y9.281 Z1.012 F100
G1 X8.667 Y9.335 Z1.007 F100
G1 X8.540 Y9.375 Z1.002 F100
G1 X8.409 Y9.401 Z0.998 F100
G1 X8.275 Y9.411 Z0.993 F100
G1 X8.142 Y9.405 Z0.988 F100
G1 X8.010 Y9.384 Z0.983 F100
G1 X7.881 Y9.349 Z0.979 F100
G1 X7.758 Y9.298 Z0.974 F100
G1 X7.641 Y9.234 Z0.969 F100
G1 X7.532 Y9.156 Z0.964 F100
G1 X7.433 Y9.067 Z0.959 F100
G1 X7.344 Y8.967 Z0.955 F100
G1 X7.268 Y8.857 Z0.950 F100
G1 X7.206 Y8.739 Z0.945 F100
G1 X7.157 Y8.615 Z0.940 F100
G1 X7.122 Y8.486 Z0.936 F100
G1 X7.103 Y8.354 Z0.931 F100
G1 X7.099 Y8.221 Z0.926 F100
G1 X7.111 Y8.088 Z0.921 F100
G1 X7.138 Y7.957 Z0.917 F100
G1 X7.179 Y7.831 Z0.912 F100
G1 X7.235 Y7.710 Z0.907 F100
G1 X7.305 Y7.596 Z0.902 F100
G1 X7.387 Y7.491 Z0.897 F100
G1 X7.481 Y7.396 Z0.893 F100
G1 X7.585 Y7.312 Z0.888 F100
G1 X7.698 Y7.242 Z0.883 F100
G1 X7.819 Y7.184 Z0.878 F100
G1 X7.945 Y7.141 Z0.874 F100
G1 X8.075 Y7.113 Z0.869 F100
G1 X8.207 Y7.100 Z0.864 F100
G1 X8.341 Y7.102 Z0.859 F100
G1 X8.473 Y7.120 Z0.855 F100
G1 X8.602 Y7.152 Z0.850 F100
G1 X8.726 Y7.200 Z0.845 F100
G1 X8.845 Y7.261 Z0.840 F100
G1 X8.955 Y7.336 Z0.835 F100
G1 X9.056 Y7.423 Z0.831 F100
G1 X9.146 Y7.521 Z0.826 F100
G1 X9.225 Y7.628 Z0.821 F100
G1 X9.290 Y7.744 Z0.816 F100
G1 X9.342 Y7.867 Z0.812 F100
G1 X9.379 Y7.995 Z0.807 F100
G1 X9.402 Y8.126 Z0.802 F100
G1 X9.409 Y8.259 Z0.797 F100
G1 X9.400 Y8.392 Z0.793 F100
G1 X9.377 Y8.523 Z0.788 F100
G1 X9.338 Y8.651 Z0.783 F100
G1 X9.285 Y8.773 Z0.778 F100
G1 X9.218 Y8.888 Z0.773 F100
G1 X9.139 Y8.994 Z0.769 F100
G1 X9.047 Y9.091 Z0.764 F100
G1 X8.946 Y9.177 Z0.759 F100
G1 X8.835 Y9.250 Z0.754 F100
G1 X8.716 Y9.310 Z0.750 F100
G1 X8.591 Y9.356 Z0.745 F100
G1 X8.462 Y9.388 Z0.740 F100
G1 X8.330 Y9.404 Z0.735 F100
G1 X8.196 Y9.405 Z0.731 F100
G1 X8.064 Y9.390 Z0.726 F100
G1 X7.934 Y9.361 Z0.721 F100
G1 X7.809 Y9.316 Z0.716 F100
G1 X7.690 Y9.258 Z0.711 F100
G1 X7.578 Y9.186 Z0.707 F100
G1 X7.475 Y9.102 Z0.702 F100
G1 X7.383 Y9.006 Z0.697 F100
G1 X7.302 Y8.901 Z0.692 F100
G1 X7.234 Y8.786 Z0.688 F100
G1 X7.179 Y8.665 Z0.683 F100
G1 X7.139 Y8.539 Z0.678 F100
G1 X7.114 Y8.408 Z0.673 F100
G1 X7.104 Y8.276 Z0.669 F100
G1 X7.109 Y8.143 Z0.664 F100
G1 X7.129 Y8.011 Z0.659 F100
G1 X7.165 Y7.883 Z0.654 F100
G1 X7.215 Y7.760 Z0.649 F100
G1 X7.279 Y7.644 Z0.645 F100
G1 X7.356 Y7.535 Z0.640 F100
G1 X7.445 Y7.436 Z0.635 F100
G1 X7.544 Y7.349 Z0.630 F100
G1 X7.653 Y7.273 Z0.626 F100
G1 X7.770 Y7.210 Z0.621 F100
G1 X7.894 Y7.161 Z0.616 F100
G1 X8.022 Y7.127 Z0.611 F100
G1 X8.153 Y7.108 Z0.607 F100
G1 X8.286 Y7.104 Z0.602 F100
G1 X8.418 Y7.115 Z0.597 F100
G1 X8.548 Y7.142 Z0.592 F100
G1 X8.674 Y7.183 Z0.587 F100
G1 X8.795 Y7.238 Z0.583 F100
G1 X8.908 Y7.308 Z0.578 F100
G1 X9.013 Y7.389 Z0.573 F100
G1 X9.108 Y7.482 Z0.568 F100
G1 X9.191 Y7.586 Z0.564 F100
G1 X9.261 Y7.698 Z0.559 F100
G1 X9.319 Y7.818 Z0.554 F100
G1 X9.362 Y7.943 Z0.549 F100
G1 X9.390 Y8.073 Z0.545 F100
G1 X9.403 Y8.205 Z0.540 F100
G1 X9.401 Y8.337 Z0.535 F100
G1 X9.384 Y8.469 Z0.530 F100
G1 X9.351 Y8.597 Z0.525 F100
G1 X9.304 Y8.721 Z0.521 F100
G1 X9.243 Y8.839 Z0.516 F100
G1 X9.169 Y8.949 Z0.511 F100
G1 X9.083 Y9.050 Z0.506 F100
G1 X8.986 Y9.140 Z0.502 F100
G1 X8.879 Y9.218 Z0.497 F100
G1 X8.763 Y9.283 Z0.492 F100
G1 X8.641 Y9.335 Z0.487 F100
G1 X8.514 Y9.372 Z0.483 F100
G1 X8.383 Y9.395 Z0.478 F100
G1 X8.251 Y9.402 Z0.473 F100
G1 X8.119 Y9.394 Z0.468 F100
G1 X7.988 Y9.370 Z0.463 F100
G1 X7.861 Y9.332 Z0.459 F100
G1 X7.740 Y9.279 Z0.454 F100
G1 X7.625 Y9.213 Z0.449 F100
G1 X7.519 Y9.134 Z0.444 F100
G1 X7.422 Y9.043 Z0.440 F100
G1 X7.337 Y8.942 Z0.435 F100
G1 X7.264 Y8.832 Z0.430 F100
G1 X7.204 Y8.714 Z0.425 F100
G1 X7.158 Y8.590 Z0.421 F100
G1 X7.127 Y8.461 Z0.416 F100
G1 X7.111 Y8.330 Z0.411 F100
G1 X7.109 Y8.197 Z0.406 F100
G1 X7.124 Y8.065 Z0.401 F100
G1 X7.153 Y7.936 Z0.397 F100
G1 X7.197 Y7.811 Z0.392 F100
G1 X7.255 Y7.693 Z0.387 F100
G1 X7.326 Y7.581 Z0.382 F100
G1 X7.410 Y7.479 Z0.378 F100
G1 X7.505 Y7.387 Z0.373 F100
G1 X7.610 Y7.306 Z0.368 F100
G1 X7.723 Y7.238 Z0.363 F100
G1 X7.844 Y7.184 Z0.359 F100
G1 X7.970 Y7.144 Z0.354 F100
G1 X8.100 Y7.118 Z0.349 F100
G1 X8.232 Y7.108 Z0.344 F100
G1 X8.364 Y7.113 Z0.339 F100
G1 X8.494 Y7.133 Z0.335 F100
G1 X8.622 Y7.169 Z0.330 F100
G1 X8.745 Y7.218 Z0.325 F100
G1 X8.861 Y7.282 Z0.320 F100
G1 X8.969 Y7.358 Z0.316 F100
G1 X9.067 Y7.446 Z0.311 F100
G1 X9.155 Y7.545 Z0.306 F100
G1 X9.230 Y7.654 Z0.301 F100
G1 X9.293 Y7.770 Z0.297 F100
G1 X9.341 Y7.893 Z0.292 F100
G1 X9.376 Y8.020 Z0.287 F100
G1 X9.395 Y8.151 Z0.282 F100
G1 X9.399 Y8.283 Z0.277 F100
G1 X9.388 Y8.415 Z0.273 F100
G1 X9.362 Y8.544 Z0.268 F100
G1 X9.321 Y8.670 Z0.263 F100
G1 X9.266 Y8.790 Z0.258 F100
G1 X9.197 Y8.903 Z0.254 F100
G1 X9.116 Y9.007 Z0.249 F100
G1 X9.024 Y9.101 Z0.244 F100
G1 X8.921 Y9.184 Z0.239 F100
G1 X8.809 Y9.254 Z0.234 F100
G1 X8.690 Y9.312 Z0.230 F100
G1 X8.565 Y9.355 Z0.225 F100
G1 X8.436 Y9.383 Z0.220 F100
G1 X8.305 Y9.396 Z0.215 F100
G1 X8.173 Y9.394 Z0.211 F100
G1 X8.042 Y9.377 Z0.206 F100
G1 X7.914 Y9.345 Z0.201 F100
G1 X7.791 Y9.299 Z0.196 F100
G1 X7.674 Y9.238 Z0.192 F100
G1 X7.564 Y9.164 Z0.187 F100
G1 X7.464 Y9.079 Z0.182 F100
G1 X7.374 Y8.982 Z0.177 F100
G1 X7.296 Y8.876 Z0.172 F100
G1 X7.231 Y8.761 Z0.168 F100
G1 X7.179 Y8.639 Z0.163 F100
G1 X7.142 Y8.513 Z0.158 F100
G1 X7.120 Y8.383 Z0.153 F100
G1 X7.113 Y8.251 Z0.149 F100
G1 X7.120 Y8.120 Z0.144 F100
G1 X7.144 Y7.990 Z0.139 F100
G1 X7.181 Y7.864 Z0.134 F100
G1 X7.234 Y7.743 Z0.130 F100
G1 X7.299 Y7.628 Z0.125 F100
G1 X7.378 Y7.523 Z0.120 F100
G1 X7.468 Y7.426 Z0.115 F100
G1 X7.569 Y7.341 Z0.110 F100
G1 X7.678 Y7.268 Z0.106 F100
G1 X7.796 Y7.209 Z0.101 F100
G1 X7.919 Y7.163 Z0.096 F100
G1 X8.047 Y7.131 Z0.091 F100
G1 X8.178 Y7.115 Z0.087 F100
G1 X8.310 Y7.114 Z0.082 F100
G1 X8.441 Y7.128 Z0.077 F100
G1 X8.569 Y7.157 Z0.072 F100
G1 X8.694 Y7.200 Z0.068 F100
G1 X8.812 Y7.258 Z0.063 F100
G1 X8.923 Y7.329 Z0.058 F100
G1 X9.025 Y7.412 Z0.053 F100
G1 X9.117 Y7.506 Z0.048 F100
G1 X9.197 Y7.611 Z0.044 F100
G1 X9.265 Y7.723 Z0.039 F100
G1 X9.319 Y7.843 Z0.034 F100
G1 X9.359 Y7.969 Z0.029 F100
G1 X9.384 Y8.098 Z0.025 F100
G1 X9.395 Y8.229 Z0.020 F100
G1 X9.390 Y8.360 Z0.015 F100
G1 X9.370 Y8.491 Z0.010 F100
G1 X9.335 Y8.617 Z0.006 F100
G1 X9.286 Y8.740 Z0.001 F100
G1 X9.223 Y8.855 Z-0.004 F100
G1 X9.147 Y8.963 Z-0.009 F100
G1 X9.059 Y9.061 Z-0.014 F100
G1 X8.961 Y9.148 Z-0.018 F100
G1 X8.853 Y9.223 Z-0.023 F100
G1 X8.738 Y9.286 Z-0.028 F100
G1 X8.616 Y9.334 Z-0.033 F100
G1 X8.489 Y9.369 Z-0.037 F100
G1 X8.359 Y9.388 Z-0.042 F100
G1 X8.227 Y9.392 Z-0.047 F100
G1 X8.096 Y9.381 Z-0.052 F100
G1 X7.967 Y9.356 Z-0.056 F100
G1 X7.842 Y9.315 Z-0.061 F100
G1 X7.723 Y9.260 Z-0.066 F100
G1 X7.610 Y9.192 Z-0.071 F100
G1 X7.507 Y9.112 Z-0.076 F100
G1 X7.413 Y9.020 Z-0.080 F100
G1 X7.330 Y8.917 Z-0.085 F100
G1 X7.260 Y8.806 Z-0.090 F100
G1 X7.203 Y8.688 Z-0.095 F100
G1 X7.160 Y8.564 Z-0.099 F100
G1 X7.132 Y8.436 Z-0.104 F100
G1 X7.118 Y8.305 Z-0.109 F100
G1 X7.120 Y8.174 Z-0.114 F100
G1 X7.137 Y8.044 Z-0.118 F100
G1 X7.168 Y7.916 Z-0.123 F100
G1 X7.215 Y7.793 Z-0.128 F100
G1 X7.275 Y7.677 Z-0.133 F100
G1 X7.348 Y7.568 Z-0.138 F100
G1 X7.433 Y7.468 Z-0.142 F100
G1 X7.529 Y7.378 Z-0.147 F100
G1 X7.635 Y7.301 Z-0.152 F100
G1 X7.749 Y7.235 Z-0.157 F100
G1 X7.870 Y7.184 Z-0.161 F100
G1 X7.996 Y7.147 Z-0.166 F100
G1 X8.125 Y7.124 Z-0.171 F100
G1 X8.256 Y7.117 Z-0.176 F100
G1 X8.387 Y7.125 Z-0.180 F100
G1 X8.516 Y7.147 Z-0.185 F100
G1 X8.642 Y7.185 Z-0.190 F100
G1 X8.762 Y7.237 Z-0.195 F100
G1 X8.876 Y7.302 Z-0.200 F100
G1 X8.981 Y7.380 Z-0.204 F100
G1 X9.077 Y7.469 Z-0.209 F100
G1 X9.162 Y7.569 Z-0.214 F100
G1 X9.235 Y7.679 Z-0.219 F100
G1 X9.294 Y7.795 Z-0.223 F100
G1 X9.340 Y7.918 Z-0.228 F100
G1 X9.371 Y8.045 Z-0.233 F100
G1 X9.388 Y8.176 Z-0.238 F100
G1 X9.389 Y8.307 Z-0.242 F100
G1 X9.375 Y8.437 Z-0.247 F100
G1 X9.347 Y8.565 Z-0.252 F100
G1 X9.304 Y8.689 Z-0.257 F100
G1 X9.246 Y8.807 Z-0.262 F100
G1 X9.176 Y8.917 Z-0.266 F100
G1 X9.094 Y9.019 Z-0.271 F100
G1 X9.000 Y9.110 Z-0.276 F100
G1 X8.896 Y9.190 Z-0.281 F100
G1 X8.784 Y9.258 Z-0.285 F100
G1 X8.665 Y9.312 Z-0.290 F100
G1 X8.540 Y9.352 Z-0.295 F100
G1 X8.412 Y9.377 Z-0.300 F100
G1 X8.281 Y9.388 Z-0.304 F100
G1 X8.150 Y9.383 Z-0.309 F100
G1 X8.021 Y9.364 Z-0.314 F100
G1 X7.894 Y9.329 Z-0.319 F100
G1 X7.773 Y9.280 Z-0.324 F100
G1 X7.658 Y9.218 Z-0.328 F100
G1 X7.551 Y9.142 Z-0.333 F100
G1 X7.453 Y9.055 Z-0.338 F100
G1 X7.366 Y8.958 Z-0.343 F100
G1 X7.291 Y8.850 Z-0.347 F100
G1 X7.229 Y8.735 Z-0.352 F100
G1 X7.180 Y8.614 Z-0.357 F100
G1 X7.146 Y8.488 Z-0.362 F100
G1 X7.126 Y8.358 Z-0.366 F100
G1 X7.122 Y8.228 Z-0.371 F100
G1 X7.133 Y8.097 Z-0.376 F100
G1 X7.158 Y7.969 Z-0.381 F100
G1 X7.198 Y7.845 Z-0.386 F100
G1 X7.253 Y7.726 Z-0.390 F100
G1 X7.320 Y7.614 Z-0.395 F100
G1 X7.400 Y7.510 Z-0.400 F100
G1 X7.492 Y7.417 Z-0.405 F100
G1 X7.593 Y7.334 Z-0.409 F100
G1 X7.704 Y7.264 Z-0.414 F100
G1 X7.821 Y7.207 Z-0.419 F100
G1 X7.945 Y7.165 Z-0.424 F100
G1 X8.072 Y7.136 Z-0.428 F100
G1 X8.202 Y7.123 Z-0.433 F100
G1 X8.333 Y7.124 Z-0.438 F100
G1 X8.462 Y7.141 Z-0.443 F100
G1 X8.589 Y7.172 Z-0.448 F100
G1 X8.712 Y7.218 Z-0.452 F100
G1 X8.828 Y7.278 Z-0.457 F100
G1 X8.936 Y7.350 Z-0.462 F100
G1 X9.036 Y7.435 Z-0.467 F100
G1 X9.125 Y7.530 Z-0.471 F100
G1 X9.203 Y7.635 Z-0.476 F100
G1 X9.267 Y7.749 Z-0.481 F100
G1 X9.319 Y7.869 Z-0.486 F100
G1 X9.356 Y7.994 Z-0.490 F100
G1 X9.378 Y8.123 Z-0.495 F100
G1 X9.386 Y8.253 Z-0.500 F100
G1 X9.378 Y8.387 Z-0.500 F100
G1 X9.354 Y8.519 Z-0.500 F100
G1 X9.315 Y8.647 Z-0.500 F100
G1 X9.261 Y8.770 Z-0.500 F100
G1 X9.193 Y8.885 Z-0.500 F100
G1 X9.112 Y8.992 Z-0.500 F100
G1 X9.018 Y9.088 Z-0.500 F100
G1 X8.914 Y9.173 Z-0.500 F100
G1 X8.801 Y9.244 Z-0.500 F100
G1 X8.680 Y9.302 Z-0.500 F100
G1 X8.553 Y9.345 Z-0.500 F100
G1 X8.421 Y9.373 Z-0.500 F100
G1 X8.288 Y9.384 Z-0.500 F100
G1 X8.154 Y9.381 Z-0.500 F100
G1 X8.021 Y9.361 Z-0.500 F100
G1 X7.892 Y9.325 Z-0.500 F100
G1 X7.767 Y9.275 Z-0.500 F100
G1 X7.650 Y9.210 Z-0.500 F100
G1 X7.541 Y9.132 Z-0.500 F100
G1 X7.442 Y9.042 Z-0.500 F100
G1 X7.355 Y8.940 Z-0.500 F100
G1 X7.280 Y8.829 Z-0.500 F100
G1 X7.218 Y8.709 Z-0.500 F100
G1 X7.172 Y8.584 Z-0.500 F100
G1 X7.140 Y8.453 Z-0.500 F100
G1 X7.124 Y8.320 Z-0.500 F100
G1 X7.124 Y8.186 Z-0.500 F100
G1 X7.140 Y8.053 Z-0.500 F100
G1 X7.172 Y7.923 Z-0.500 F100
G1 X7.218 Y7.797 Z-0.500 F100
G1 X7.280 Y7.678 Z-0.500 F100
G1 X7.355 Y7.566 Z-0.500 F100
G1 X7.442 Y7.465 Z-0.500 F100
G1 X7.541 Y7.374 Z-0.500 F100
G1 X7.650 Y7.296 Z-0.500 F100
G1 X7.767 Y7.231 Z-0.500 F100
G1 X7.892 Y7.181 Z-0.500 F100
G1 X8.021 Y7.146 Z-0.500 F100
G1 X8.154 Y7.126 Z-0.500 F100
G1 X8.288 Y7.122 Z-0.500 F100
G1 X8.421 Y7.134 Z-0.500 F100
G1 X8.553 Y7.161 Z-0.500 F100
G1 X8.680 Y7.204 Z-0.500 F100
G1 X8.801 Y7.262 Z-0.500 F100
G1 X8.914 Y7.334 Z-0.500 F100
G1 X9.018 Y7.418 Z-0.500 F100
G1 X9.112 Y7.514 Z-0.500 F100
G1 X9.193 Y7.621 Z-0.500 F100
G1 X9.261 Y7.736 Z-0.500 F100
G1 X9.315 Y7.859 Z-0.500 F100
G1 X9.354 Y7.987 Z-0.500 F100
G1 X9.378 Y8.119 Z-0.500 F100
G1 X9.386 Y8.253 Z-0.500 F100
G1 X9.421 Y8.807 Z-0.500 F500
G1 X9.449 Y8.943 Z-0.500 F500
G1 X9.443 Y9.093 Z-0.500 F500
G1 X9.406 Y9.238 Z-0.500 F500
G1 X9.344 Y9.375 Z-0.500 F500
G1 X9.262 Y9.500 Z-0.500 F500
G1 X9.164 Y9.614 Z-0.500 F500
G1 X9.052 Y9.713 Z-0.500 F500
G1 X8.929 Y9.799 Z-0.500 F500
G1 X8.797 Y9.870 Z-0.500 F500
G1 X8.658 Y9.927 Z-0.500 F500
G1 X8.514 Y9.969 Z-0.500 F500
G1 X8.367 Y9.997 Z-0.500 F500
G1 X8.217 Y10.010 Z-0.500 F500
G1 X8.067 Y10.009 Z-0.500 F500
G1 X7.918 Y9.993 Z-0.500 F500
G1 X7.771 Y9.965 Z-0.500 F500
G1 X7.627 Y9.923 Z-0.500 F500
G1 X7.487 Y9.868 Z-0.500 F500
G1 X7.353 Y9.801 Z-0.500 F500
G1 X7.225 Y9.723 Z-0.500 F500
G1 X7.104 Y9.634 Z-0.500 F500
G1 X6.991 Y9.535 Z-0.500 F500
G1 X6.887 Y9.427 Z-0.500 F500
G1 X6.793 Y9.310 Z-0.500 F500
G1 X6.709 Y9.186 Z-0.500 F500
G1 X6.636 Y9.055 Z-0.500 F500
G1 X6.574 Y8.919 Z-0.500 F500
G1 X6.524 Y8.777 Z-0.500 F500
G1 X6.485 Y8.632 Z-0.500 F500
G1 X6.459 Y8.485 Z-0.500 F500
G1 X6.446 Y8.335 Z-0.500 F500
G1 X6.445 Y8.185 Z-0.500 F500
G1 X6.456 Y8.036 Z-0.500 F500
G1 X6.480 Y7.887 Z-0.500 F500
G1 X6.516 Y7.742 Z-0.500 F500
G1 X6.564 Y7.600 Z-0.500 F500
G1 X6.624 Y7.462 Z-0.500 F500
G1 X6.695 Y7.330 Z-0.500 F500
G1 X6.776 Y7.204 Z-0.500 F500
G1 X6.868 Y7.085 Z-0.500 F500
G1 X6.969 Y6.975 Z-0.500 F500
G1 X7.079 Y6.873 Z-0.500 F500
G1 X7.197 Y6.780 Z-0.500 F500
G1 X7.323 Y6.698 Z-0.500 F500
G1 X7.454 Y6.626 Z-0.500 F500
G1 X7.591 Y6.565 Z-0.500 F500
G1 X7.733 Y6.516 Z-0.500 F500
G1 X7.879 Y6.479 Z-0.500 F500
G1 X8.026 Y6.454 Z-0.500 F500
G1 X8.176 Y6.442 Z-0.500 F500
G1 X8.326 Y6.441 Z-0.500 F500
G1 X8.475 Y6.453 Z-0.500 F500
G1 X8.623 Y6.478 Z-0.500 F500
G1 X8.769 Y6.514 Z-0.500 F500
G1 X8.911 Y6.563 Z-0.500 F500
G1 X9.048 Y6.623 Z-0.500 F500
G1 X9.180 Y6.694 Z-0.500 F500
G1 X9.306 Y6.776 Z-0.500 F500
G1 X9.425 Y6.868 Z-0.500 F500
G1 X9.535 Y6.969 Z-0.500 F500
G1 X9.637 Y7.080 Z-0.500 F500
G1 X9.729 Y7.198 Z-0.500 F500
G1 X9.811 Y7.323 Z-0.500 F500
G1 X9.901 Y7.488 Z-0.500 F500
G1 X10.016 Y7.748 Z-0.500 F500
G1 X10.108 Y8.010 Z-0.500 F500
G1 X10.168 Y8.235 Z-0.500 F500
G1 X10.202 Y8.425 Z-0.500 F500
G1 X10.219 Y8.600 Z-0.500 F500
G1 X10.221 Y8.775 Z-0.500 F500
G1 X10.211 Y8.932 Z-0.500 F500
G1 X10.188 Y9.092 Z-0.500 F500
G1 X10.153 Y9.247 Z-0.500 F500
G1 X10.107 Y9.391 Z-0.500 F500
G1 X10.048 Y9.538 Z-0.500 F500
G1 X9.977 Y9.679 Z-0.500 F500
G1 X9.897 Y9.810 Z-0.500 F500
G1 X9.804 Y9.939 Z-0.500 F500
G1 X9.698 Y10.063 Z-0.500 F500
G1 X9.585 Y10.176 Z-0.500 F500
G1 X9.461 Y10.281 Z-0.500 F500
G1 X9.325 Y10.379 Z-0.500 F500
G1 X9.179 Y10.467 Z-0.500 F500
G1 X9.026 Y10.543 Z-0.500 F500
G1 X8.867 Y10.607 Z-0.500 F500
G1 X8.700 Y10.659 Z-0.500 F500
G1 X8.525 Y10.698 Z-0.500 F500
G1 X8.344 Y10.724 Z-0.500 F500
G1 X8.161 Y10.735 Z-0.500 F500
G1 X7.976 Y10.731 Z-0.500 F500
G1 X7.791 Y10.713 Z-0.500 F500
G1 X7.607 Y10.679 Z-0.500 F500
G1 X7.423 Y10.630 Z-0.500 F500
G1 X7.242 Y10.566 Z-0.500 F500
G1 X7.065 Y10.487 Z-0.500 F500
G1 X6.893 Y10.392 Z-0.500 F500
G1 X6.729 Y10.284 Z-0.500 F500
G1 X6.572 Y10.162 Z-0.500 F500
G1 X6.426 Y10.027 Z-0.500 F500
G1 X6.290 Y9.881 Z-0.500 F500
G1 X6.166 Y9.724 Z-0.500 F500
G1 X6.055 Y9.557 Z-0.500 F500
G1 X5.957 Y9.381 Z-0.500 F500
G1 X5.873 Y9.197 Z-0.500 F500
G1 X5.805 Y9.006 Z-0.500 F500
G1 X5.752 Y8.811 Z-0.500 F500
G1 X5.714 Y8.611 Z-0.500 F500
G1 X5.693 Y8.408 Z-0.500 F500
G1 X5.688 Y8.204 Z-0.500 F500
G1 X5.699 Y7.999 Z-0.500 F500
G1 X5.727 Y7.796 Z-0.500 F500
G1 X5.771 Y7.595 Z-0.500 F500
G1 X5.831 Y7.399 Z-0.500 F500
G1 X5.907 Y7.207 Z-0.500 F500
G1 X5.998 Y7.023 Z-0.500 F500
G1 X6.103 Y6.846 Z-0.500 F500
G1 X6.223 Y6.678 Z-0.500 F500
G1 X6.356 Y6.520 Z-0.500 F500
G1 X6.500 Y6.373 Z-0.500 F500
G1 X6.657 Y6.238 Z-0.500 F500
G1 X6.823 Y6.116 Z-0.500 F500
G1 X6.999 Y6.008 Z-0.500 F500
G1 X7.184 Y5.915 Z-0.500 F500
G1 X7.375 Y5.836 Z-0.500 F500
G1 X7.571 Y5.773 Z-0.500 F500
G1 X7.772 Y5.726 Z-0.500 F500
G1 X7.977 Y5.695 Z-0.500 F500
G1 X8.182 Y5.681 Z-0.500 F500
G1 X8.389 Y5.684 Z-0.500 F500
G1 X8.594 Y5.702 Z-0.500 F500
G1 X8.798 Y5.738 Z-0.500 F500
G1 X8.998 Y5.789 Z-0.500 F500
G1 X9.193 Y5.857 Z-0.500 F500
G1 X9.382 Y5.940 Z-0.500 F500
G1 X9.563 Y6.037 Z-0.500 F500
G1 X9.737 Y6.149 Z-0.500 F500
G1 X9.901 Y6.275 Z-0.500 F500
G1 X10.061 Y6.420 Z-0.500 F500
G1 X10.226 Y6.595 Z-0.500 F500
G1 X10.384 Y6.793 Z-0.500 F500
G1 X10.531 Y7.010 Z-0.500 F500
G1 X10.665 Y7.246 Z-0.500 F500
G1 X10.778 Y7.489 Z-0.500 F500
G1 X10.868 Y7.732 Z-0.500 F500
G1 X10.936 Y7.975 Z-0.500 F500
G1 X10.983 Y8.216 Z-0.500 F500
G1 X11.010 Y8.454 Z-0.500 F500
G1 X11.018 Y8.689 Z-0.500 F500
G1 X11.007 Y8.921 Z-0.500 F500
G1 X10.977 Y9.149 Z-0.500 F500
G1 X10.930 Y9.371 Z-0.500 F500
G1 X10.866 Y9.588 Z-0.500 F500
G1 X10.785 Y9.799 Z-0.500 F500
G1 X10.687 Y10.001 Z-0.500 F500
G1 X10.573 Y10.196 Z-0.500 F500
G1 X10.444 Y10.381 Z-0.500 F500
G1 X10.299 Y10.556 Z-0.500 F500
G1 X10.139 Y10.720 Z-0.500 F500
G1 X9.967 Y10.872 Z-0.500 F500
G1 X9.781 Y11.010 Z-0.500 F500
G1 X9.583 Y11.134 Z-0.500 F500
G1 X9.374 Y11.242 Z-0.500 F500
G1 X9.155 Y11.335 Z-0.500 F500
G1 X8.927 Y11.410 Z-0.500 F500
G1 X8.692 Y11.466 Z-0.500 F500
G1 X8.452 Y11.505 Z-0.500 F500
G1 X8.207 Y11.524 Z-0.500 F500
G1 X7.960 Y11.523 Z-0.500 F500
G1 X7.711 Y11.502 Z-0.500 F500
G1 X7.463 Y11.461 Z-0.500 F500
G1 X7.218 Y11.400 Z-0.500 F500
G1 X6.976 Y11.318 Z-0.500 F500
G1 X6.741 Y11.217 Z-0.500 F500
G1 X6.512 Y11.097 Z-0.500 F500
G1 X6.293 Y10.958 Z-0.500 F500
G1 X6.085 Y10.801 Z-0.500 F500
G1 X5.890 Y10.627 Z-0.500 F500
G1 X5.708 Y10.438 Z-0.500 F500
G1 X5.542 Y10.233 Z-0.500 F500
G1 X5.392 Y10.016 Z-0.500 F500
G1 X5.259 Y9.786 Z-0.500 F500
G1 X5.145 Y9.546 Z-0.500 F500
G1 X5.051 Y9.296 Z-0.500 F500
G1 X4.976 Y9.040 Z-0.500 F500
G1 X4.923 Y8.777 Z-0.500 F500
G1 X4.890 Y8.511 Z-0.500 F500
G1 X4.879 Y8.242 Z-0.500 F500
G1 X4.890 Y7.973 Z-0.500 F500
G1 X4.922 Y7.705 Z-0.500 F500
G1 X4.976 Y7.441 Z-0.500 F500
G1 X5.050 Y7.181 Z-0.500 F500
G1 X5.146 Y6.928 Z-0.500 F500
G1 X5.261 Y6.684 Z-0.500 F500
G1 X5.396 Y6.449 Z-0.500 F500
G1 X5.550 Y6.225 Z-0.500 F500
G1 X5.721 Y6.015 Z-0.500 F500
G1 X5.908 Y5.819 Z-0.500 F500
G1 X6.111 Y5.638 Z-0.500 F500
G1 X6.327 Y5.475 Z-0.500 F500
G1 X6.556 Y5.329 Z-0.500 F500
G1 X6.796 Y5.202 Z-0.500 F500
G1 X7.045 Y5.094 Z-0.500 F500
G1 X7.302 Y5.007 Z-0.500 F500
G1 X7.566 Y4.941 Z-0.500 F500
G1 X7.833 Y4.896 Z-0.500 F500
G1 X8.104 Y4.873 Z-0.500 F500
G1 X8.375 Y4.872 Z-0.500 F500
G1 X8.646 Y4.892 Z-0.500 F500
G1 X8.914 Y4.935 Z-0.500 F500
G1 X9.178 Y4.998 Z-0.500 F500
G1 X9.436 Y5.083 Z-0.500 F500
G1 X9.687 Y5.188 Z-0.500 F500
G1 X9.930 Y5.313 Z-0.500 F500
G1 X10.169 Y5.462 Z-0.500 F500
G1 X10.402 Y5.635 Z-0.500 F500
G1 X10.628 Y5.833 Z-0.500 F500
G1 X10.843 Y6.054 Z-0.500 F500
G1 X11.044 Y6.296 Z-0.500 F500
G1 X11.227 Y6.557 Z-0.500 F500
G1 X11.388 Y6.831 Z-0.500 F500
G1 X11.526 Y7.116 Z-0.500 F500
G1 X11.640 Y7.409 Z-0.500 F500
G1 X11.729 Y7.707 Z-0.500 F500
G1 X11.745 Y7.788 Z-0.500 F500
G1 X11.747 Y7.800 Z-0.500 F500
G1 X11.802 Y8.180 Z-0.500 F500
G1 X11.810 Y8.243 Z-0.500 F500
G1 X11.809 Y8.274 Z-0.500 F500
G1 X11.678 Y9.188 Z-0.500 F500
G1 X11.667 Y9.251 Z-0.500 F500
G1 X11.642 Y9.314 Z-0.500 F500
G1 X11.297 Y10.071 Z-0.500 F500
G1 X11.250 Y10.169 Z-0.500 F500
G1 X11.230 Y10.197 Z-0.500 F500
G1 X11.122 Y10.323 Z-0.500 F500
G1 X10.620 Y10.902 Z-0.500 F500
G1 X10.594 Y10.930 Z-0.500 F500
G1 X10.567 Y10.954 Z-0.500 F500
G1 X10.494 Y11.002 Z-0.500 F500
G1 X9.784 Y11.458 Z-0.500 F500
G1 X9.738 Y11.485 Z-0.500 F500
G1 X9.613 Y11.526 Z-0.500 F500
G1 X8.794 Y11.767 Z-0.500 F500
G1 X8.762 Y11.773 Z-0.500 F500
G1 X8.731 Y11.776 Z-0.500 F500
G1 X7.786 Y11.776 Z-0.500 F500
G1 X7.755 Y11.774 Z-0.500 F500
G1 X7.723 Y11.769 Z-0.500 F500
G1 X6.842 Y11.511 Z-0.500 F500
G1 X6.783 Y11.492 Z-0.500 F500
G1 X6.716 Y11.453 Z-0.500 F500
G1 X5.960 Y10.967 Z-0.500 F500
G1 X5.942 Y10.954 Z-0.500 F500
G1 X5.913 Y10.929 Z-0.500 F500
G1 X5.883 Y10.897 Z-0.500 F500
G1 X5.331 Y10.259 Z-0.500 F500
G1 X5.278 Y10.197 Z-0.500 F500
G1 X5.256 Y10.166 Z-0.500 F500
G1 X5.240 Y10.134 Z-0.500 F500
G1 X4.866 Y9.314 Z-0.500 F500
G1 X4.841 Y9.251 Z-0.500 F500
G1 X4.830 Y9.188 Z-0.500 F500
G1 X4.701 Y8.291 Z-0.500 F500
G1 X4.699 Y8.255 Z-0.500 F500
G1 X4.701 Y8.218 Z-0.500 F500
G1 X4.833 Y7.297 Z-0.500 F500
G1 X4.839 Y7.265 Z-0.500 F500
G1 X4.849 Y7.234 Z-0.500 F500
G1 X4.877 Y7.171 Z-0.500 F500
G1 X5.222 Y6.414 Z-0.500 F500
G1 X5.252 Y6.351 Z-0.500 F500
G1 X5.271 Y6.320 Z-0.500 F500
G1 X5.297 Y6.288 Z-0.500 F500
G1 X5.902 Y5.591 Z-0.500 F500
G1 X5.931 Y5.564 Z-0.500 F500
G1 X5.960 Y5.541 Z-0.500 F500
G1 X6.716 Y5.056 Z-0.500 F500
G1 X6.761 Y5.027 Z-0.500 F500
G1 X6.782 Y5.017 Z-0.500 F500
G1 X6.802 Y5.010 Z-0.500 F500
G1 X7.723 Y4.739 Z-0.500 F500
G1 X7.755 Y4.734 Z-0.500 F500
G1 X7.786 Y4.732 Z-0.500 F500
G1 X8.731 Y4.732 Z-0.500 F500
G1 X8.762 Y4.736 Z-0.500 F500
G1 X8.794 Y4.742 Z-0.500 F500
G1 X9.613 Y4.982 Z-0.500 F500
G1 X9.738 Y5.023 Z-0.500 F500
G1 X9.746 Y5.027 Z-0.500 F500
G1 X9.990 Y5.183 Z-0.500 F500
G1 X10.533 Y5.532 Z-0.500 F500
G1 X10.576 Y5.562 Z-0.500 F500
G1 X10.620 Y5.606 Z-0.500 F500
G1 X11.211 Y6.288 Z-0.500 F500
G1 X11.250 Y6.340 Z-0.500 F500
G1 X11.286 Y6.414 Z-0.500 F500
G1 X11.632 Y7.171 Z-0.500 F500
G1 X11.659 Y7.234 Z-0.500 F500
G1 X11.669 Y7.265 Z-0.500 F500
G1 X11.675 Y7.297 Z-0.500 F500
G1 X11.747 Y7.800 Z-0.500 F500
G1 X11.746 Y7.861 Z-0.500 F500
G1 X11.730 Y7.919 Z-0.500 F500
G1 X11.699 Y7.971 Z-0.500 F500
G1 X11.656 Y8.014 Z-0.500 F500
G1 X11.604 Y8.045 Z-0.500 F500
G1 X11.546 Y8.061 Z-0.500 F500
G1 X11.485 Y8.063 Z-0.500 F500
G1 X11.426 Y8.048 Z-0.500 F500
G1 X11.373 Y8.020 Z-0.500 F500
G1 X11.343 Y7.983 Z-0.495 F500
G1 X11.315 Y7.947 Z-0.480 F500
G1 X11.289 Y7.914 Z-0.457 F500
G1 X11.281 Y7.883 Z-0.430 F500
G1 X11.274 Y7.857 Z-0.398 F500
G1 X11.273 Y7.839 Z-0.367 F500
G1 X11.272 Y7.826 Z-0.334 F500
G1 X11.272 Y7.817 Z-0.298 F500
G1 X11.273 Y7.814 Z-0.262 F500
G1 X11.273 Y7.814 Z5.000 F500
G1 X7.156 Y8.693 Z5.000 F500
G1 X7.156 Y8.693 Z2.000 F500
G1 X7.113 Y8.563 Z1.995 F100
G1 X7.085 Y8.430 Z1.990 F100
G1 X7.072 Y8.294 Z1.986 F100
G1 X7.075 Y8.157 Z1.981 F100
G1 X7.094 Y8.022 Z1.976 F100
G1 X7.129 Y7.890 Z1.971 F100
G1 X7.178 Y7.763 Z1.967 F100
G1 X7.242 Y7.642 Z1.962 F100
G1 X7.319 Y7.530 Z1.957 F100
G1 X7.409 Y7.427 Z1.952 F100
G1 X7.510 Y7.335 Z1.948 F100
G1 X7.621 Y7.255 Z1.943 F100
G1 X7.740 Y7.189 Z1.938 F100
G1 X7.866 Y7.137 Z1.933 F100
G1 X7.997 Y7.099 Z1.928 F100
G1 X8.132 Y7.078 Z1.924 F100
G1 X8.269 Y7.071 Z1.919 F100
G1 X8.405 Y7.081 Z1.914 F100
G1 X8.539 Y7.106 Z1.909 F100
G1 X8.669 Y7.146 Z1.905 F100
G1 X8.794 Y7.202 Z1.900 F100
G1 X8.911 Y7.271 Z1.895 F100
G1 X9.020 Y7.353 Z1.890 F100
G1 X9.118 Y7.447 Z1.886 F100
G1 X9.205 Y7.552 Z1.881 F100
G1 X9.280 Y7.666 Z1.876 F100
G1 X9.341 Y7.788 Z1.871 F100
G1 X9.387 Y7.917 Z1.866 F100
G1 X9.418 Y8.049 Z1.862 F100
G1 X9.434 Y8.185 Z1.857 F100
G1 X9.434 Y8.321 Z1.852 F100
G1 X9.418 Y8.457 Z1.847 F100
G1 X9.387 Y8.589 Z1.843 F100
G1 X9.340 Y8.717 Z1.838 F100
G1 X9.280 Y8.839 Z1.833 F100
G1 X9.205 Y8.953 Z1.828 F100
G1 X9.118 Y9.058 Z1.824 F100
G1 X9.020 Y9.152 Z1.819 F100
G1 X8.911 Y9.234 Z1.814 F100
G1 X8.794 Y9.303 Z1.809 F100
G1 X8.669 Y9.358 Z1.804 F100
G1 X8.539 Y9.398 Z1.800 F100
G1 X8.405 Y9.424 Z1.795 F100
G1 X8.269 Y9.433 Z1.790 F100
G1 X8.133 Y9.427 Z1.785 F100
G1 X7.999 Y9.405 Z1.781 F100
G1 X7.868 Y9.367 Z1.776 F100
G1 X7.742 Y9.315 Z1.771 F100
G1 X7.623 Y9.249 Z1.766 F100
G1 X7.512 Y9.170 Z1.762 F100
G1 X7.412 Y9.078 Z1.757 F100
G1 X7.322 Y8.975 Z1.752 F100
G1 X7.246 Y8.863 Z1.747 F100
G1 X7.182 Y8.743 Z1.742 F100
G1 X7.133 Y8.616 Z1.738 F100
G1 X7.099 Y8.484 Z1.733 F100
G1 X7.080 Y8.350 Z1.728 F100
G1 X7.077 Y8.214 Z1.723 F100
G1 X7.089 Y8.078 Z1.719 F100
G1 X7.117 Y7.945 Z1.714 F100
G1 X7.161 Y7.816 Z1.709 F100
G1 X7.218 Y7.693 Z1.704 F100
G1 X7.290 Y7.577 Z1.700 F100
G1 X7.374 Y7.471 Z1.695 F100
G1 X7.470 Y7.374 Z1.690 F100
G1 X7.577 Y7.290 Z1.685 F100
G1 X7.693 Y7.218 Z1.680 F100
G1 X7.816 Y7.160 Z1.676 F100
G1 X7.944 Y7.117 Z1.671 F100
G1 X8.077 Y7.089 Z1.666 F100
G1 X8.213 Y7.076 Z1.661 F100
G1 X8.348 Y7.080 Z1.657 F100
G1 X8.483 Y7.098 Z1.652 F100
G1 X8.615 Y7.132 Z1.647 F100
G1 X8.741 Y7.181 Z1.642 F100
G1 X8.861 Y7.245 Z1.638 F100
G1 X8.974 Y7.321 Z1.633 F100
G1 X9.076 Y7.410 Z1.628 F100
G1 X9.168 Y7.511 Z1.623 F100
G1 X9.247 Y7.621 Z1.618 F100
G1 X9.313 Y7.740 Z1.614 F100
G1 X9.365 Y7.865 Z1.609 F100
G1 X9.403 Y7.996 Z1.604 F100
G1 X9.425 Y8.130 Z1.599 F100
G1 X9.431 Y8.265 Z1.595 F100
G1 X9.422 Y8.401 Z1.590 F100
G1 X9.397 Y8.534 Z1.585 F100
G1 X9.357 Y8.664 Z1.580 F100
G1 X9.302 Y8.788 Z1.576 F100
G1 X9.234 Y8.905 Z1.571 F100
G1 X9.152 Y9.013 Z1.566 F100
G1 X9.058 Y9.112 Z1.561 F100
G1 X8.954 Y9.198 Z1.556 F100
G1 X8.840 Y9.273 Z1.552 F100
G1 X8.719 Y9.333 Z1.547 F100
G1 X8.591 Y9.379 Z1.542 F100
G1 X8.459 Y9.411 Z1.537 F100
G1 X8.325 Y9.426 Z1.533 F100
G1 X8.189 Y9.427 Z1.528 F100
G1 X8.054 Y9.411 Z1.523 F100
G1 X7.922 Y9.380 Z1.518 F100
G1 X7.794 Y9.334 Z1.514 F100
G1 X7.673 Y9.274 Z1.509 F100
G1 X7.559 Y9.200 Z1.504 F100
G1 X7.455 Y9.114 Z1.499 F100
G1 X7.361 Y9.016 Z1.494 F100
G1 X7.279 Y8.908 Z1.490 F100
G1 X7.211 Y8.791 Z1.485 F100
G1 X7.156 Y8.667 Z1.480 F100
G1 X7.115 Y8.538 Z1.475 F100
G1 X7.090 Y8.404 Z1.471 F100
G1 X7.081 Y8.269 Z1.466 F100
G1 X7.087 Y8.134 Z1.461 F100
G1 X7.108 Y8.000 Z1.456 F100
G1 X7.145 Y7.870 Z1.452 F100
G1 X7.197 Y7.744 Z1.447 F100
G1 X7.263 Y7.626 Z1.442 F100
G1 X7.342 Y7.516 Z1.437 F100
G1 X7.433 Y7.415 Z1.432 F100
G1 X7.535 Y7.326 Z1.428 F100
G1 X7.647 Y7.250 Z1.423 F100
G1 X7.766 Y7.187 Z1.418 F100
G1 X7.892 Y7.137 Z1.413 F100
G1 X8.023 Y7.103 Z1.409 F100
G1 X8.157 Y7.084 Z1.404 F100
G1 X8.293 Y7.081 Z1.399 F100
G1 X8.427 Y7.093 Z1.394 F100
G1 X8.560 Y7.121 Z1.390 F100
G1 X8.688 Y7.164 Z1.385 F100
G1 X8.811 Y7.221 Z1.380 F100
G1 X8.926 Y7.292 Z1.375 F100
G1 X9.032 Y7.376 Z1.370 F100
G1 X9.128 Y7.472 Z1.366 F100
G1 X9.213 Y7.577 Z1.361 F100
G1 X9.284 Y7.692 Z1.356 F100
G1 X9.342 Y7.815 Z1.351 F100
G1 X9.385 Y7.943 Z1.347 F100
G1 X9.413 Y8.075 Z1.342 F100
G1 X9.426 Y8.210 Z1.337 F100
G1 X9.423 Y8.345 Z1.332 F100
G1 X9.405 Y8.479 Z1.328 F100
G1 X9.371 Y8.610 Z1.323 F100
G1 X9.322 Y8.736 Z1.318 F100
G1 X9.259 Y8.856 Z1.313 F100
G1 X9.183 Y8.967 Z1.308 F100
G1 X9.095 Y9.070 Z1.304 F100
G1 X8.995 Y9.161 Z1.299 F100
G1 X8.885 Y9.240 Z1.294 F100
G1 X8.767 Y9.306 Z1.289 F100
G1 X8.643 Y9.358 Z1.285 F100
G1 X8.513 Y9.395 Z1.280 F100
G1 X8.379 Y9.417 Z1.275 F100
G1 X8.244 Y9.424 Z1.270 F100
G1 X8.109 Y9.415 Z1.266 F100
G1 X7.977 Y9.390 Z1.261 F100
G1 X7.848 Y9.351 Z1.256 F100
G1 X7.724 Y9.296 Z1.251 F100
G1 X7.607 Y9.228 Z1.246 F100
G1 X7.499 Y9.147 Z1.242 F100
G1 X7.402 Y9.054 Z1.237 F100
G1 X7.315 Y8.950 Z1.232 F100
G1 X7.241 Y8.837 Z1.227 F100
G1 X7.181 Y8.717 Z1.223 F100
G1 X7.134 Y8.590 Z1.218 F100
G1 X7.103 Y8.458 Z1.213 F100
G1 X7.087 Y8.324 Z1.208 F100
G1 X7.087 Y8.189 Z1.203 F100
G1 X7.102 Y8.055 Z1.199 F100
G1 X7.133 Y7.924 Z1.194 F100
G1 X7.178 Y7.796 Z1.189 F100
G1 X7.238 Y7.676 Z1.184 F100
G1 X7.312 Y7.562 Z1.180 F100
G1 X7.397 Y7.458 Z1.175 F100
G1 X7.495 Y7.365 Z1.170 F100
G1 X7.602 Y7.283 Z1.165 F100
G1 X7.718 Y7.215 Z1.161 F100
G1 X7.842 Y7.160 Z1.156 F100
G1 X7.970 Y7.120 Z1.151 F100
G1 X8.103 Y7.095 Z1.146 F100
G1 X8.237 Y7.085 Z1.141 F100
G1 X8.372 Y7.091 Z1.137 F100
G1 X8.505 Y7.112 Z1.132 F100
G1 X8.635 Y7.149 Z1.127 F100
G1 X8.760 Y7.200 Z1.122 F100
G1 X8.878 Y7.265 Z1.118 F100
G1 X8.987 Y7.344 Z1.113 F100
G1 X9.087 Y7.434 Z1.108 F100
G1 X9.176 Y7.536 Z1.103 F100
G1 X9.253 Y7.647 Z1.099 F100
G1 X9.316 Y7.766 Z1.094 F100
G1 X9.365 Y7.891 Z1.089 F100
G1 X9.399 Y8.021 Z1.084 F100
G1 X9.418 Y8.155 Z1.079 F100
G1 X9.421 Y8.289 Z1.075 F100
G1 X9.409 Y8.424 Z1.070 F100
G1 X9.382 Y8.556 Z1.065 F100
G1 X9.340 Y8.683 Z1.060 F100
G1 X9.283 Y8.805 Z1.056 F100
G1 X9.212 Y8.920 Z1.051 F100
G1 X9.129 Y9.026 Z1.046 F100
G1 X9.034 Y9.122 Z1.041 F100
G1 X8.929 Y9.206 Z1.037 F100
G1 X8.814 Y9.277 Z1.032 F100
G1 X8.692 Y9.334 Z1.027 F100
G1 X8.565 Y9.378 Z1.022 F100
G1 X8.433 Y9.406 Z1.017 F100
G1 X8.300 Y9.419 Z1.013 F100
G1 X8.165 Y9.416 Z1.008 F100
G1 X8.032 Y9.398 Z1.003 F100
G1 X7.901 Y9.364 Z0.998 F100
G1 X7.776 Y9.316 Z0.994 F100
G1 X7.657 Y9.254 Z0.989 F100
G1 X7.545 Y9.178 Z0.984 F100
G1 X7.443 Y9.090 Z0.979 F100
G1 X7.353 Y8.991 Z0.975 F100
G1 X7.274 Y8.882 Z0.970 F100
G1 X7.208 Y8.765 Z0.965 F100
G1 X7.156 Y8.641 Z0.960 F100
G1 X7.119 Y8.511 Z0.955 F100
G1 X7.096 Y8.379 Z0.951 F100
G1 X7.090 Y8.244 Z0.946 F100
G1 X7.099 Y8.110 Z0.941 F100
G1 X7.123 Y7.978 Z0.936 F100
G1 X7.162 Y7.850 Z0.932 F100
G1 X7.216 Y7.726 Z0.927 F100
G1 X7.284 Y7.610 Z0.922 F100
G1 X7.364 Y7.503 Z0.917 F100
G1 X7.457 Y7.405 Z0.913 F100
G1 X7.560 Y7.319 Z0.908 F100
G1 X7.672 Y7.245 Z0.903 F100
G1 X7.792 Y7.185 Z0.898 F100
G1 X7.918 Y7.139 Z0.893 F100
G1 X8.049 Y7.108 Z0.889 F100
G1 X8.182 Y7.092 Z0.884 F100
G1 X8.317 Y7.091 Z0.879 F100
G1 X8.450 Y7.106 Z0.874 F100
G1 X8.581 Y7.136 Z0.870 F100
G1 X8.708 Y7.182 Z0.865 F100
G1 X8.828 Y7.241 Z0.860 F100
G1 X8.941 Y7.314 Z0.855 F100
G1 X9.045 Y7.399 Z0.851 F100
G1 X9.138 Y7.496 Z0.846 F100
G1 X9.219 Y7.603 Z0.841 F100
G1 X9.287 Y7.718 Z0.836 F100
G1 X9.342 Y7.841 Z0.831 F100
G1 X9.382 Y7.969 Z0.827 F100
G1 X9.408 Y8.100 Z0.822 F100
G1 X9.417 Y8.234 Z0.817 F100
G1 X9.412 Y8.368 Z0.812 F100
G1 X9.391 Y8.501 Z0.808 F100
G1 X9.354 Y8.630 Z0.803 F100
G1 X9.304 Y8.754 Z0.798 F100
G1 X9.239 Y8.872 Z0.793 F100
G1 X9.161 Y8.981 Z0.789 F100
G1 X9.071 Y9.081 Z0.784 F100
G1 X8.970 Y9.169 Z0.779 F100
G1 X8.860 Y9.245 Z0.774 F100
G1 X8.741 Y9.308 Z0.769 F100
G1 X8.617 Y9.357 Z0.765 F100
G1 X8.487 Y9.392 Z0.760 F100
G1 X8.354 Y9.411 Z0.755 F100
G1 X8.220 Y9.414 Z0.750 F100
G1 X8.087 Y9.403 Z0.746 F100
G1 X7.955 Y9.376 Z0.741 F100
G1 X7.828 Y9.333 Z0.736 F100
G1 X7.707 Y9.277 Z0.731 F100
G1 X7.592 Y9.207 Z0.727 F100
G1 X7.487 Y9.124 Z0.722 F100
G1 X7.392 Y9.030 Z0.717 F100
G1 X7.308 Y8.925 Z0.712 F100
G1 X7.237 Y8.811 Z0.707 F100
G1 X7.179 Y8.690 Z0.703 F100
G1 X7.136 Y8.564 Z0.698 F100
G1 X7.108 Y8.433 Z0.693 F100
G1 X7.095 Y8.299 Z0.688 F100
G1 X7.098 Y8.166 Z0.684 F100
G1 X7.115 Y8.033 Z0.679 F100
G1 X7.148 Y7.903 Z0.674 F100
G1 X7.196 Y7.778 Z0.669 F100
G1 X7.258 Y7.659 Z0.665 F100
G1 X7.333 Y7.549 Z0.660 F100
G1 X7.421 Y7.447 Z0.655 F100
G1 X7.519 Y7.356 Z0.650 F100
G1 X7.628 Y7.278 Z0.645 F100
G1 X7.744 Y7.212 Z0.641 F100
G1 X7.868 Y7.160 Z0.636 F100
G1 X7.996 Y7.123 Z0.631 F100
G1 X8.128 Y7.101 Z0.626 F100
G1 X8.262 Y7.094 Z0.622 F100
G1 X8.396 Y7.103 Z0.617 F100
G1 X8.527 Y7.126 Z0.612 F100
G1 X8.655 Y7.165 Z0.607 F100
G1 X8.778 Y7.219 Z0.603 F100
G1 X8.893 Y7.286 Z0.598 F100
G1 X9.000 Y7.366 Z0.593 F100
G1 X9.098 Y7.458 Z0.588 F100
G1 X9.183 Y7.560 Z0.583 F100
G1 X9.257 Y7.672 Z0.579 F100
G1 X9.317 Y7.791 Z0.574 F100
G1 X9.363 Y7.917 Z0.569 F100
G1 X9.395 Y8.047 Z0.564 F100
G1 X9.411 Y8.180 Z0.560 F100
G1 X9.411 Y8.314 Z0.555 F100
G1 X9.397 Y8.446 Z0.550 F100
G1 X9.367 Y8.577 Z0.545 F100
G1 X9.322 Y8.703 Z0.541 F100
G1 X9.263 Y8.823 Z0.536 F100
G1 X9.191 Y8.935 Z0.531 F100
G1 X9.106 Y9.038 Z0.526 F100
G1 X9.010 Y9.131 Z0.521 F100
G1 X8.904 Y9.212 Z0.517 F100
G1 X8.789 Y9.280 Z0.512 F100
G1 X8.667 Y9.335 Z0.507 F100
G1 X8.539 Y9.375 Z0.502 F100
G1 X8.408 Y9.400 Z0.498 F100
G1 X8.275 Y9.410 Z0.493 F100
G1 X8.142 Y9.405 Z0.488 F100
G1 X8.010 Y9.384 Z0.483 F100
G1 X7.881 Y9.348 Z0.479 F100
G1 X7.757 Y9.298 Z0.474 F100
G1 X7.640 Y9.233 Z0.469 F100
G1 X7.532 Y9.156 Z0.464 F100
G1 X7.432 Y9.066 Z0.459 F100
G1 X7.344 Y8.966 Z0.455 F100
G1 X7.268 Y8.857 Z0.450 F100
G1 X7.205 Y8.739 Z0.445 F100
G1 X7.156 Y8.615 Z0.440 F100
G1 X7.122 Y8.486 Z0.436 F100
G1 X7.103 Y8.354 Z0.431 F100
G1 X7.099 Y8.221 Z0.426 F100
G1 X7.111 Y8.088 Z0.421 F100
G1 X7.138 Y7.957 Z0.417 F100
G1 X7.179 Y7.830 Z0.412 F100
G1 X7.235 Y7.709 Z0.407 F100
G1 X7.305 Y7.595 Z0.402 F100
G1 X7.387 Y7.490 Z0.397 F100
G1 X7.481 Y7.395 Z0.393 F100
G1 X7.585 Y7.312 Z0.388 F100
G1 X7.698 Y7.241 Z0.383 F100
G1 X7.818 Y7.184 Z0.378 F100
G1 X7.944 Y7.141 Z0.374 F100
G1 X8.075 Y7.112 Z0.369 F100
G1 X8.207 Y7.099 Z0.364 F100
G1 X8.340 Y7.102 Z0.359 F100
G1 X8.473 Y7.119 Z0.355 F100
G1 X8.602 Y7.152 Z0.350 F100
G1 X8.726 Y7.199 Z0.345 F100
G1 X8.844 Y7.261 Z0.340 F100
G1 X8.955 Y7.335 Z0.335 F100
G1 X9.056 Y7.422 Z0.331 F100
G1 X9.146 Y7.520 Z0.326 F100
G1 X9.225 Y7.628 Z0.321 F100
G1 X9.290 Y7.744 Z0.316 F100
G1 X9.342 Y7.867 Z0.312 F100
G1 X9.379 Y7.995 Z0.307 F100
G1 X9.401 Y8.126 Z0.302 F100
G1 X9.408 Y8.259 Z0.297 F100
G1 X9.400 Y8.392 Z0.293 F100
G1 X9.376 Y8.523 Z0.288 F100
G1 X9.338 Y8.650 Z0.283 F100
G1 X9.285 Y8.772 Z0.278 F100
G1 X9.218 Y8.887 Z0.273 F100
G1 X9.139 Y8.994 Z0.269 F100
G1 X9.047 Y9.091 Z0.264 F100
G1 X8.945 Y9.177 Z0.259 F100
G1 X8.834 Y9.250 Z0.254 F100
G1 X8.716 Y9.310 Z0.250 F100
G1 X8.591 Y9.356 Z0.245 F100
G1 X8.461 Y9.387 Z0.240 F100
G1 X8.329 Y9.403 Z0.235 F100
G1 X8.196 Y9.404 Z0.231 F100
G1 X8.064 Y9.390 Z0.226 F100
G1 X7.934 Y9.360 Z0.221 F100
G1 X7.809 Y9.316 Z0.216 F100
G1 X7.689 Y9.257 Z0.211 F100
G1 X7.578 Y9.186 Z0.207 F100
G1 X7.475 Y9.101 Z0.202 F100
G1 X7.382 Y9.006 Z0.197 F100
G1 X7.302 Y8.900 Z0.192 F100
G1 X7.234 Y8.786 Z0.188 F100
G1 X7.179 Y8.665 Z0.183 F100
G1 X7.139 Y8.538 Z0.178 F100
G1 X7.114 Y8.408 Z0.173 F100
G1 X7.103 Y8.275 Z0.169 F100
G1 X7.109 Y8.142 Z0.164 F100
G1 X7.129 Y8.011 Z0.159 F100
G1 X7.165 Y7.883 Z0.154 F100
G1 X7.215 Y7.760 Z0.149 F100
G1 X7.279 Y7.643 Z0.145 F100
G1 X7.356 Y7.535 Z0.140 F100
G1 X7.444 Y7.436 Z0.135 F100
G1 X7.544 Y7.348 Z0.130 F100
G1 X7.653 Y7.272 Z0.126 F100
G1 X7.770 Y7.210 Z0.121 F100
G1 X7.893 Y7.161 Z0.116 F100
G1 X8.022 Y7.127 Z0.111 F100
G1 X8.153 Y7.107 Z0.107 F100
G1 X8.286 Y7.103 Z0.102 F100
G1 X8.418 Y7.115 Z0.097 F100
G1 X8.548 Y7.141 Z0.092 F100
G1 X8.674 Y7.182 Z0.087 F100
G1 X8.795 Y7.238 Z0.083 F100
G1 X8.908 Y7.307 Z0.078 F100
G1 X9.013 Y7.389 Z0.073 F100
G1 X9.107 Y7.482 Z0.068 F100
G1 X9.190 Y7.585 Z0.064 F100
G1 X9.261 Y7.698 Z0.059 F100
G1 X9.318 Y7.818 Z0.054 F100
G1 X9.361 Y7.943 Z0.049 F100
G1 X9.390 Y8.073 Z0.045 F100
G1 X9.403 Y8.204 Z0.040 F100
G1 X9.401 Y8.337 Z0.035 F100
G1 X9.383 Y8.468 Z0.030 F100
G1 X9.351 Y8.597 Z0.025 F100
G1 X9.304 Y8.721 Z0.021 F100
G1 X9.243 Y8.839 Z0.016 F100
G1 X9.169 Y8.949 Z0.011 F100
G1 X9.083 Y9.049 Z0.006 F100
G1 X8.985 Y9.139 Z0.002 F100
G1 X8.878 Y9.218 Z-0.003 F100
G1 X8.763 Y9.283 Z-0.008 F100
G1 X8.641 Y9.335 Z-0.013 F100
G1 X8.514 Y9.372 Z-0.017 F100
G1 X8.383 Y9.394 Z-0.022 F100
G1 X8.251 Y9.401 Z-0.027 F100
G1 X8.118 Y9.393 Z-0.032 F100
G1 X7.988 Y9.370 Z-0.037 F100
G1 X7.861 Y9.332 Z-0.041 F100
G1 X7.740 Y9.279 Z-0.046 F100
G1 X7.625 Y9.213 Z-0.051 F100
G1 X7.519 Y9.134 Z-0.056 F100
G1 X7.422 Y9.043 Z-0.060 F100
G1 X7.337 Y8.942 Z-0.065 F100
G1 X7.264 Y8.831 Z-0.070 F100
G1 X7.204 Y8.713 Z-0.075 F100
G1 X7.158 Y8.589 Z-0.079 F100
G1 X7.127 Y8.461 Z-0.084 F100
G1 X7.110 Y8.329 Z-0.089 F100
G1 X7.109 Y8.197 Z-0.094 F100
G1 X7.124 Y8.065 Z-0.099 F100
G1 X7.153 Y7.936 Z-0.103 F100
G1 X7.197 Y7.811 Z-0.108 F100
G1 X7.255 Y7.692 Z-0.113 F100
G1 X7.326 Y7.581 Z-0.118 F100
G1 X7.410 Y7.478 Z-0.122 F100
G1 X7.505 Y7.386 Z-0.127 F100
G1 X7.610 Y7.306 Z-0.132 F100
G1 X7.723 Y7.238 Z-0.137 F100
G1 X7.844 Y7.183 Z-0.141 F100
G1 X7.970 Y7.143 Z-0.146 F100
G1 X8.100 Y7.118 Z-0.151 F100
G1 X8.231 Y7.108 Z-0.156 F100
G1 X8.364 Y7.113 Z-0.161 F100
G1 X8.494 Y7.133 Z-0.165 F100
G1 X8.622 Y7.168 Z-0.170 F100
G1 X8.744 Y7.218 Z-0.175 F100
G1 X8.860 Y7.281 Z-0.180 F100
G1 X8.968 Y7.358 Z-0.184 F100
G1 X9.067 Y7.446 Z-0.189 F100
G1 X9.154 Y7.545 Z-0.194 F100
G1 X9.230 Y7.653 Z-0.199 F100
G1 X9.293 Y7.770 Z-0.203 F100
G1 X9.341 Y7.892 Z-0.208 F100
G1 X9.376 Y8.020 Z-0.213 F100
G1 X9.395 Y8.151 Z-0.218 F100
G1 X9.399 Y8.283 Z-0.223 F100
G1 X9.388 Y8.414 Z-0.227 F100
G1 X9.362 Y8.544 Z-0.232 F100
G1 X9.321 Y8.669 Z-0.237 F100
G1 X9.266 Y8.789 Z-0.242 F100
G1 X9.197 Y8.902 Z-0.246 F100
G1 X9.116 Y9.006 Z-0.251 F100
G1 X9.023 Y9.101 Z-0.256 F100
G1 X8.920 Y9.184 Z-0.261 F100
G1 X8.809 Y9.254 Z-0.266 F100
G1 X8.690 Y9.311 Z-0.270 F100
G1 X8.565 Y9.354 Z-0.275 F100
G1 X8.436 Y9.382 Z-0.280 F100
G1 X8.305 Y9.396 Z-0.285 F100
G1 X8.173 Y9.394 Z-0.289 F100
G1 X8.042 Y9.377 Z-0.294 F100
G1 X7.914 Y9.345 Z-0.299 F100
G1 X7.791 Y9.298 Z-0.304 F100
G1 X7.673 Y9.238 Z-0.308 F100
G1 X7.564 Y9.164 Z-0.313 F100
G1 X7.464 Y9.078 Z-0.318 F100
G1 X7.374 Y8.982 Z-0.323 F100
G1 X7.296 Y8.875 Z-0.328 F100
G1 X7.231 Y8.760 Z-0.332 F100
G1 X7.179 Y8.639 Z-0.337 F100
G1 X7.142 Y8.512 Z-0.342 F100
G1 X7.120 Y8.382 Z-0.347 F100
G1 X7.112 Y8.251 Z-0.351 F100
G1 X7.120 Y8.119 Z-0.356 F100
G1 X7.143 Y7.989 Z-0.361 F100
G1 X7.181 Y7.863 Z-0.366 F100
G1 X7.233 Y7.742 Z-0.370 F100
G1 X7.299 Y7.628 Z-0.375 F100
G1 X7.378 Y7.522 Z-0.380 F100
G1 X7.468 Y7.426 Z-0.385 F100
G1 X7.568 Y7.341 Z-0.390 F100
G1 X7.678 Y7.268 Z-0.394 F100
G1 X7.795 Y7.208 Z-0.399 F100
G1 X7.919 Y7.162 Z-0.404 F100
G1 X8.047 Y7.131 Z-0.409 F100
G1 X8.178 Y7.115 Z-0.413 F100
G1 X8.309 Y7.113 Z-0.418 F100
G1 X8.441 Y7.127 Z-0.423 F100
G1 X8.569 Y7.156 Z-0.428 F100
G1 X8.693 Y7.200 Z-0.432 F100
G1 X8.812 Y7.258 Z-0.437 F100
G1 X8.923 Y7.328 Z-0.442 F100
G1 X9.025 Y7.412 Z-0.447 F100
G1 X9.116 Y7.506 Z-0.452 F100
G1 X9.197 Y7.610 Z-0.456 F100
G1 X9.264 Y7.723 Z-0.461 F100
G1 X9.319 Y7.843 Z-0.466 F100
G1 X9.359 Y7.968 Z-0.471 F100
G1 X9.384 Y8.097 Z-0.475 F100
G1 X9.395 Y8.229 Z-0.480 F100
G1 X9.390 Y8.360 Z-0.485 F100
G1 X9.370 Y8.490 Z-0.490 F100
G1 X9.335 Y8.617 Z-0.494 F100
G1 X9.286 Y8.739 Z-0.499 F100
G1 X9.223 Y8.855 Z-0.504 F100
G1 X9.147 Y8.962 Z-0.509 F100
G1 X9.059 Y9.060 Z-0.514 F100
G1 X8.961 Y9.148 Z-0.518 F100
G1 X8.853 Y9.223 Z-0.523 F100
G1 X8.737 Y9.285 Z-0.528 F100
G1 X8.615 Y9.334 Z-0.533 F100
G1 X8.488 Y9.368 Z-0.537 F100
G1 X8.358 Y9.388 Z-0.542 F100
G1 X8.227 Y9.392 Z-0.547 F100
G1 X8.096 Y9.381 Z-0.552 F100
G1 X7.967 Y9.355 Z-0.556 F100
G1 X7.842 Y9.315 Z-0.561 F100
G1 X7.723 Y9.260 Z-0.566 F100
G1 X7.610 Y9.192 Z-0.571 F100
G1 X7.506 Y9.111 Z-0.576 F100
G1 X7.413 Y9.019 Z-0.580 F100
G1 X7.330 Y8.917 Z-0.585 F100
G1 X7.260 Y8.806 Z-0.590 F100
G1 X7.203 Y8.687 Z-0.595 F100
G1 X7.160 Y8.563 Z-0.599 F100
G1 X7.131 Y8.435 Z-0.604 F100
G1 X7.118 Y8.305 Z-0.609 F100
G1 X7.120 Y8.173 Z-0.614 F100
G1 X7.137 Y8.043 Z-0.618 F100
G1 X7.168 Y7.916 Z-0.623 F100
G1 X7.214 Y7.793 Z-0.628 F100
G1 X7.274 Y7.676 Z-0.633 F100
G1 X7.348 Y7.567 Z-0.638 F100
G1 X7.433 Y7.467 Z-0.642 F100
G1 X7.529 Y7.378 Z-0.647 F100
G1 X7.635 Y7.300 Z-0.652 F100
G1 X7.749 Y7.235 Z-0.657 F100
G1 X7.869 Y7.184 Z-0.661 F100
G1 X7.995 Y7.146 Z-0.666 F100
G1 X8.125 Y7.124 Z-0.671 F100
G1 X8.256 Y7.117 Z-0.676 F100
G1 X8.387 Y7.124 Z-0.680 F100
G1 X8.516 Y7.147 Z-0.685 F100
G1 X8.641 Y7.185 Z-0.690 F100
G1 X8.762 Y7.236 Z-0.695 F100
G1 X8.876 Y7.302 Z-0.700 F100
G1 X8.981 Y7.379 Z-0.704 F100
G1 X9.077 Y7.469 Z-0.709 F100
G1 X9.162 Y7.569 Z-0.714 F100
G1 X9.234 Y7.678 Z-0.719 F100
G1 X9.294 Y7.795 Z-0.723 F100
G1 X9.340 Y7.918 Z-0.728 F100
G1 X9.371 Y8.045 Z-0.733 F100
G1 X9.388 Y8.175 Z-0.738 F100
G1 X9.389 Y8.306 Z-0.742 F100
G1 X9.375 Y8.437 Z-0.747 F100
G1 X9.347 Y8.565 Z-0.752 F100
G1 X9.303 Y8.688 Z-0.757 F100
G1 X9.246 Y8.806 Z-0.762 F100
G1 X9.176 Y8.917 Z-0.766 F100
G1 X9.093 Y9.018 Z-0.771 F100
G1 X9.000 Y9.110 Z-0.776 F100
G1 X8.896 Y9.190 Z-0.781 F100
G1 X8.784 Y9.257 Z-0.785 F100
G1 X8.665 Y9.311 Z-0.790 F100
G1 X8.540 Y9.352 Z-0.795 F100
G1 X8.411 Y9.377 Z-0.800 F100
G1 X8.281 Y9.387 Z-0.804 F100
G1 X8.150 Y9.383 Z-0.809 F100
G1 X8.021 Y9.363 Z-0.814 F100
G1 X7.894 Y9.329 Z-0.819 F100
G1 X7.773 Y9.280 Z-0.824 F100
G1 X7.658 Y9.217 Z-0.828 F100
G1 X7.550 Y9.142 Z-0.833 F100
G1 X7.453 Y9.055 Z-0.838 F100
G1 X7.366 Y8.957 Z-0.843 F100
G1 X7.291 Y8.850 Z-0.847 F100
G1 X7.228 Y8.735 Z-0.852 F100
G1 X7.180 Y8.614 Z-0.857 F100
G1 X7.146 Y8.487 Z-0.862 F100
G1 X7.126 Y8.358 Z-0.866 F100
G1 X7.122 Y8.227 Z-0.871 F100
G1 X7.132 Y8.097 Z-0.876 F100
G1 X7.158 Y7.969 Z-0.881 F100
G1 X7.198 Y7.844 Z-0.886 F100
G1 X7.252 Y7.725 Z-0.890 F100
G1 X7.320 Y7.613 Z-0.895 F100
G1 X7.400 Y7.510 Z-0.900 F100
G1 X7.491 Y7.416 Z-0.905 F100
G1 X7.593 Y7.334 Z-0.909 F100
G1 X7.703 Y7.264 Z-0.914 F100
G1 X7.821 Y7.207 Z-0.919 F100
G1 X7.945 Y7.164 Z-0.924 F100
G1 X8.072 Y7.136 Z-0.928 F100
G1 X8.202 Y7.122 Z-0.933 F100
G1 X8.333 Y7.124 Z-0.938 F100
G1 X8.462 Y7.140 Z-0.943 F100
G1 X8.589 Y7.172 Z-0.948 F100
G1 X8.711 Y7.218 Z-0.952 F100
G1 X8.828 Y7.277 Z-0.957 F100
G1 X8.936 Y7.350 Z-0.962 F100
G1 X9.036 Y7.434 Z-0.967 F100
G1 X9.125 Y7.530 Z-0.971 F100
G1 X9.202 Y7.635 Z-0.976 F100
G1 X9.267 Y7.748 Z-0.981 F100
G1 X9.319 Y7.869 Z-0.986 F100
G1 X9.356 Y7.994 Z-0.990 F100
G1 X9.378 Y8.122 Z-0.995 F100
G1 X9.386 Y8.253 Z-1.000 F100
G1 X9.378 Y8.387 Z-1.000 F100
G1 X9.354 Y8.519 Z-1.000 F100
G1 X9.315 Y8.647 Z-1.000 F100
G1 X9.261 Y8.770 Z-1.000 F100
G1 X9.193 Y8.885 Z-1.000 F100
G1 X9.111 Y8.992 Z-1.000 F100
G1 X9.018 Y9.088 Z-1.000 F100
G1 X8.914 Y9.172 Z-1.000 F100
G1 X8.800 Y9.244 Z-1.000 F100
G1 X8.679 Y9.302 Z-1.000 F100
G1 X8.552 Y9.345 Z-1.000 F100
G1 X8.421 Y9.372 Z-1.000 F100
G1 X8.288 Y9.384 Z-1.000 F100
G1 X8.154 Y9.380 Z-1.000 F100
G1 X8.021 Y9.360 Z-1.000 F100
G1 X7.892 Y9.325 Z-1.000 F100
G1 X7.767 Y9.275 Z-1.000 F100
G1 X7.650 Y9.210 Z-1.000 F100
G1 X7.541 Y9.132 Z-1.000 F100
G1 X7.442 Y9.041 Z-1.000 F100
G1 X7.354 Y8.940 Z-1.000 F100
G1 X7.280 Y8.828 Z-1.000 F100
G1 X7.218 Y8.709 Z-1.000 F100
G1 X7.172 Y8.583 Z-1.000 F100
G1 X7.140 Y8.453 Z-1.000 F100
G1 X7.124 Y8.320 Z-1.000 F100
G1 X7.124 Y8.186 Z-1.000 F100
G1 X7.140 Y8.053 Z-1.000 F100
G1 X7.172 Y7.922 Z-1.000 F100
G1 X7.218 Y7.797 Z-1.000 F100
G1 X7.280 Y7.677 Z-1.000 F100
G1 X7.354 Y7.566 Z-1.000 F100
G1 X7.442 Y7.464 Z-1.000 F100
G1 X7.541 Y7.374 Z-1.000 F100
G1 X7.650 Y7.296 Z-1.000 F100
G1 X7.767 Y7.231 Z-1.000 F100
G1 X7.892 Y7.181 Z-1.000 F100
G1 X8.021 Y7.145 Z-1.000 F100
G1 X8.154 Y7.125 Z-1.000 F100
G1 X8.288 Y7.122 Z-1.000 F100
G1 X8.421 Y7.133 Z-1.000 F100
G1 X8.552 Y7.161 Z-1.000 F100
G1 X8.679 Y7.204 Z-1.000 F100
G1 X8.800 Y7.262 Z-1.000 F100
G1 X8.914 Y7.333 Z-1.000 F100
G1 X9.018 Y7.418 Z-1.000 F100
G1 X9.111 Y7.514 Z-1.000 F100
G1 X9.193 Y7.621 Z-1.000 F100
G1 X9.261 Y7.736 Z-1.000 F100
G1 X9.315 Y7.859 Z-1.000 F100
G1 X9.354 Y7.987 Z-1.000 F100
G1 X9.378 Y8.119 Z-1.000 F100
G1 X9.386 Y8.253 Z-1.000 F100
G1 X9.421 Y8.807 Z-1.000 F500
G1 X9.449 Y8.942 Z-1.000 F500
G1 X9.443 Y9.092 Z-1.000 F500
G1 X9.406 Y9.238 Z-1.000 F500
G1 X9.344 Y9.374 Z-1.000 F500
G1 X9.262 Y9.500 Z-1.000 F500
G1 X9.164 Y9.613 Z-1.000 F500
G1 X9.052 Y9.713 Z-1.000 F500
G1 X8.929 Y9.799 Z-1.000 F500
G1 X8.797 Y9.870 Z-1.000 F500
G1 X8.658 Y9.927 Z-1.000 F500
G1 X8.514 Y9.969 Z-1.000 F500
G1 X8.366 Y9.996 Z-1.000 F500
G1 X8.217 Y10.009 Z-1.000 F500
G1 X8.067 Y10.008 Z-1.000 F500
G1 X7.918 Y9.993 Z-1.000 F500
G1 X7.770 Y9.964 Z-1.000 F500
G1 X7.626 Y9.922 Z-1.000 F500
G1 X7.487 Y9.868 Z-1.000 F500
G1 X7.352 Y9.801 Z-1.000 F500
G1 X7.224 Y9.723 Z-1.000 F500
G1 X7.104 Y9.634 Z-1.000 F500
G1 X6.991 Y9.535 Z-1.000 F500
G1 X6.887 Y9.427 Z-1.000 F500
G1 X6.793 Y9.310 Z-1.000 F500
G1 X6.709 Y9.186 Z-1.000 F500
G1 X6.636 Y9.055 Z-1.000 F500
G1 X6.574 Y8.918 Z-1.000 F500
G1 X6.523 Y8.777 Z-1.000 F500
G1 X6.485 Y8.632 Z-1.000 F500
G1 X6.459 Y8.484 Z-1.000 F500
G1 X6.446 Y8.335 Z-1.000 F500
G1 X6.445 Y8.185 Z-1.000 F500
G1 X6.456 Y8.035 Z-1.000 F500
G1 X6.480 Y7.887 Z-1.000 F500
G1 X6.516 Y7.741 Z-1.000 F500
G1 X6.564 Y7.599 Z-1.000 F500
G1 X6.624 Y7.462 Z-1.000 F500
G1 X6.694 Y7.330 Z-1.000 F500
G1 X6.776 Y7.204 Z-1.000 F500
G1 X6.868 Y7.085 Z-1.000 F500
G1 X6.969 Y6.974 Z-1.000 F500
G1 X7.079 Y6.872 Z-1.000 F500
G1 X7.197 Y6.780 Z-1.000 F500
G1 X7.322 Y6.697 Z-1.000 F500
G1 X7.454 Y6.626 Z-1.000 F500
G1 X7.591 Y6.565 Z-1.000 F500
G1 X7.733 Y6.516 Z-1.000 F500
G1 X7.878 Y6.479 Z-1.000 F500
G1 X8.026 Y6.454 Z-1.000 F500
G1 X8.176 Y6.441 Z-1.000 F500
G1 X8.326 Y6.441 Z-1.000 F500
G1 X8.475 Y6.453 Z-1.000 F500
G1 X8.623 Y6.477 Z-1.000 F500
G1 X8.769 Y6.514 Z-1.000 F500
G1 X8.911 Y6.562 Z-1.000 F500
G1 X9.048 Y6.622 Z-1.000 F500
G1 X9.180 Y6.694 Z-1.000 F500
G1 X9.306 Y6.775 Z-1.000 F500
G1 X9.424 Y6.867 Z-1.000 F500
G1 X9.535 Y6.969 Z-1.000 F500
G1 X9.637 Y7.079 Z-1.000 F500
G1 X9.729 Y7.197 Z-1.000 F500
G1 X9.811 Y7.323 Z-1.000 F500
G1 X9.901 Y7.488 Z-1.000 F500
G1 X10.016 Y7.747 Z-1.000 F500
G1 X10.108 Y8.009 Z-1.000 F500
G1 X10.167 Y8.235 Z-1.000 F500
G1 X10.201 Y8.425 Z-1.000 F500
G1 X10.218 Y8.599 Z-1.000 F500
G1 X10.221 Y8.774 Z-1.000 F500
G1 X10.211 Y8.932 Z-1.000 F500
G1 X10.188 Y9.091 Z-1.000 F500
G1 X10.153 Y9.247 Z-1.000 F500
G1 X10.107 Y9.391 Z-1.000 F500
G1 X10.048 Y9.538 Z-1.000 F500
G1 X9.977 Y9.678 Z-1.000 F500
G1 X9.897 Y9.809 Z-1.000 F500
G1 X9.804 Y9.939 Z-1.000 F500
G1 X9.698 Y10.063 Z-1.000 F500
G1 X9.585 Y10.175 Z-1.000 F500
G1 X9.461 Y10.280 Z-1.000 F500
G1 X9.325 Y10.378 Z-1.000 F500
G1 X9.178 Y10.467 Z-1.000 F500
G1 X9.026 Y10.543 Z-1.000 F500
G1 X8.867 Y10.607 Z-1.000 F500
G1 X8.699 Y10.659 Z-1.000 F500
G1 X8.525 Y10.698 Z-1.000 F500
G1 X8.344 Y10.724 Z-1.000 F500
G1 X8.160 Y10.735 Z-1.000 F500
G1 X7.976 Y10.731 Z-1.000 F500
G1 X7.791 Y10.713 Z-1.000 F500
G1 X7.607 Y10.679 Z-1.000 F500
G1 X7.423 Y10.630 Z-1.000 F500
G1 X7.242 Y10.566 Z-1.000 F500
G1 X7.065 Y10.486 Z-1.000 F500
G1 X6.893 Y10.392 Z-1.000 F500
G1 X6.728 Y10.284 Z-1.000 F500
G1 X6.572 Y10.162 Z-1.000 F500
G1 X6.425 Y10.027 Z-1.000 F500
G1 X6.290 Y9.881 Z-1.000 F500
G1 X6.166 Y9.723 Z-1.000 F500
G1 X6.054 Y9.556 Z-1.000 F500
G1 X5.957 Y9.380 Z-1.000 F500
G1 X5.873 Y9.196 Z-1.000 F500
G1 X5.805 Y9.006 Z-1.000 F500
G1 X5.751 Y8.810 Z-1.000 F500
G1 X5.714 Y8.610 Z-1.000 F500
G1 X5.693 Y8.408 Z-1.000 F500
G1 X5.688 Y8.203 Z-1.000 F500
G1 X5.699 Y7.999 Z-1.000 F500
G1 X5.727 Y7.795 Z-1.000 F500
G1 X5.771 Y7.595 Z-1.000 F500
G1 X5.831 Y7.398 Z-1.000 F500
G1 X5.907 Y7.207 Z-1.000 F500
G1 X5.998 Y7.022 Z-1.000 F500
G1 X6.103 Y6.845 Z-1.000 F500
G1 X6.223 Y6.677 Z-1.000 F500
G1 X6.355 Y6.519 Z-1.000 F500
G1 X6.500 Y6.373 Z-1.000 F500
G1 X6.657 Y6.238 Z-1.000 F500
G1 X6.823 Y6.116 Z-1.000 F500
G1 X6.999 Y6.008 Z-1.000 F500
G1 X7.183 Y5.914 Z-1.000 F500
G1 X7.374 Y5.836 Z-1.000 F500
G1 X7.571 Y5.773 Z-1.000 F500
G1 X7.772 Y5.726 Z-1.000 F500
G1 X7.976 Y5.695 Z-1.000 F500
G1 X8.182 Y5.681 Z-1.000 F500
G1 X8.389 Y5.683 Z-1.000 F500
G1 X8.594 Y5.702 Z-1.000 F500
G1 X8.798 Y5.737 Z-1.000 F500
G1 X8.997 Y5.789 Z-1.000 F500
G1 X9.192 Y5.856 Z-1.000 F500
G1 X9.381 Y5.939 Z-1.000 F500
G1 X9.563 Y6.037 Z-1.000 F500
G1 X9.736 Y6.149 Z-1.000 F500
G1 X9.901 Y6.275 Z-1.000 F500
G1 X10.060 Y6.419 Z-1.000 F500
G1 X10.226 Y6.595 Z-1.000 F500
G1 X10.384 Y6.792 Z-1.000 F500
G1 X10.531 Y7.010 Z-1.000 F500
G1 X10.665 Y7.246 Z-1.000 F500
G1 X10.777 Y7.488 Z-1.000 F500
G1 X10.867 Y7.732 Z-1.000 F500
G1 X10.936 Y7.975 Z-1.000 F500
G1 X10.983 Y8.215 Z-1.000 F500
G1 X11.010 Y8.454 Z-1.000 F500
G1 X11.018 Y8.689 Z-1.000 F500
G1 X11.007 Y8.921 Z-1.000 F500
G1 X10.977 Y9.149 Z-1.000 F500
G1 X10.930 Y9.371 Z-1.000 F500
G1 X10.866 Y9.587 Z-1.000 F500
G1 X10.784 Y9.798 Z-1.000 F500
G1 X10.687 Y10.001 Z-1.000 F500
G1 X10.573 Y10.195 Z-1.000 F500
G1 X10.443 Y10.381 Z-1.000 F500
G1 X10.299 Y10.556 Z-1.000 F500
G1 X10.139 Y10.720 Z-1.000 F500
G1 X9.967 Y10.871 Z-1.000 F500
G1 X9.781 Y11.009 Z-1.000 F500
G1 X9.583 Y11.133 Z-1.000 F500
G1 X9.374 Y11.242 Z-1.000 F500
G1 X9.155 Y11.334 Z-1.000 F500
G1 X8.927 Y11.409 Z-1.000 F500
G1 X8.692 Y11.466 Z-1.000 F500
G1 X8.451 Y11.504 Z-1.000 F500
G1 X8.207 Y11.523 Z-1.000 F500
G1 X7.959 Y11.522 Z-1.000 F500
G1 X7.711 Y11.501 Z-1.000 F500
G1 X7.463 Y11.460 Z-1.000 F500
G1 X7.218 Y11.399 Z-1.000 F500
G1 X6.976 Y11.318 Z-1.000 F500
G1 X6.740 Y11.217 Z-1.000 F500
G1 X6.512 Y11.097 Z-1.000 F500
G1 X6.293 Y10.957 Z-1.000 F500
G1 X6.085 Y10.801 Z-1.000 F500
G1 X5.890 Y10.627 Z-1.000 F500
G1 X5.708 Y10.437 Z-1.000 F500
G1 X5.541 Y10.233 Z-1.000 F500
G1 X5.391 Y10.015 Z-1.000 F500
G1 X5.259 Y9.785 Z-1.000 F500
G1 X5.145 Y9.545 Z-1.000 F500
G1 X5.051 Y9.296 Z-1.000 F500
G1 X4.976 Y9.039 Z-1.000 F500
G1 X4.922 Y8.777 Z-1.000 F500
G1 X4.890 Y8.510 Z-1.000 F500
G1 X4.879 Y8.242 Z-1.000 F500
G1 X4.890 Y7.973 Z-1.000 F500
G1 X4.922 Y7.705 Z-1.000 F500
G1 X4.975 Y7.441 Z-1.000 F500
G1 X5.050 Y7.181 Z-1.000 F500
G1 X5.146 Y6.928 Z-1.000 F500
G1 X5.261 Y6.683 Z-1.000 F500
G1 X5.396 Y6.448 Z-1.000 F500
G1 X5.550 Y6.225 Z-1.000 F500
G1 X5.720 Y6.015 Z-1.000 F500
G1 X5.908 Y5.818 Z-1.000 F500
G1 X6.110 Y5.638 Z-1.000 F500
G1 X6.327 Y5.474 Z-1.000 F500
G1 X6.556 Y5.328 Z-1.000 F500
G1 X6.796 Y5.201 Z-1.000 F500
G1 X7.045 Y5.094 Z-1.000 F500
G1 X7.302 Y5.007 Z-1.000 F500
G1 X7.565 Y4.941 Z-1.000 F500
G1 X7.833 Y4.896 Z-1.000 F500
G1 X8.104 Y4.873 Z-1.000 F500
G1 X8.375 Y4.872 Z-1.000 F500
G1 X8.646 Y4.892 Z-1.000 F500
G1 X8.914 Y4.934 Z-1.000 F500
G1 X9.178 Y4.998 Z-1.000 F500
G1 X9.436 Y5.082 Z-1.000 F500
G1 X9.686 Y5.187 Z-1.000 F500
G1 X9.930 Y5.313 Z-1.000 F500
G1 X10.168 Y5.462 Z-1.000 F500
G1 X10.402 Y5.635 Z-1.000 F500
G1 X10.628 Y5.832 Z-1.000 F500
G1 X10.843 Y6.053 Z-1.000 F500
G1 X11.044 Y6.296 Z-1.000 F500
G1 X11.227 Y6.556 Z-1.000 F500
G1 X11.388 Y6.831 Z-1.000 F500
G1 X11.526 Y7.116 Z-1.000 F500
G1 X11.640 Y7.409 Z-1.000 F500
G1 X11.729 Y7.707 Z-1.000 F500
G1 X11.746 Y7.789 Z-1.000 F500
G1 X11.748 Y7.802 Z-1.000 F500
G1 X11.802 Y8.180 Z-1.000 F500
G1 X11.810 Y8.243 Z-1.000 F500
G1 X11.809 Y8.274 Z-1.000 F500
G1 X11.678 Y9.188 Z-1.000 F500
G1 X11.667 Y9.251 Z-1.000 F500
G1 X11.642 Y9.314 Z-1.000 F500
G1 X11.297 Y10.071 Z-1.000 F500
G1 X11.250 Y10.169 Z-1.000 F500
G1 X11.230 Y10.197 Z-1.000 F500
G1 X11.122 Y10.323 Z-1.000 F500
G1 X10.620 Y10.902 Z-1.000 F500
G1 X10.594 Y10.930 Z-1.000 F500
G1 X10.567 Y10.954 Z-1.000 F500
G1 X10.494 Y11.002 Z-1.000 F500
G1 X9.784 Y11.458 Z-1.000 F500
G1 X9.738 Y11.485 Z-1.000 F500
G1 X9.613 Y11.526 Z-1.000 F500
G1 X8.794 Y11.767 Z-1.000 F500
G1 X8.762 Y11.773 Z-1.000 F500
G1 X8.731 Y11.776 Z-1.000 F500
G1 X7.786 Y11.776 Z-1.000 F500
G1 X7.755 Y11.774 Z-1.000 F500
G1 X7.723 Y11.769 Z-1.000 F500
G1 X6.842 Y11.511 Z-1.000 F500
G1 X6.783 Y11.492 Z-1.000 F500
G1 X6.716 Y11.453 Z-1.000 F500
G1 X5.960 Y10.967 Z-1.000 F500
G1 X5.942 Y10.954 Z-1.000 F500
G1 X5.913 Y10.929 Z-1.000 F500
G1 X5.883 Y10.897 Z-1.000 F500
G1 X5.331 Y10.259 Z-1.000 F500
G1 X5.278 Y10.197 Z-1.000 F500
G1 X5.256 Y10.166 Z-1.000 F500
G1 X5.240 Y10.134 Z-1.000 F500
G1 X4.866 Y9.314 Z-1.000 F500
G1 X4.841 Y9.251 Z-1.000 F500
G1 X4.830 Y9.188 Z-1.000 F500
G1 X4.701 Y8.291 Z-1.000 F500
G1 X4.699 Y8.255 Z-1.000 F500
G1 X4.701 Y8.218 Z-1.000 F500
G1 X4.833 Y7.297 Z-1.000 F500
G1 X4.839 Y7.265 Z-1.000 F500
G1 X4.849 Y7.234 Z-1.000 F500
G1 X4.877 Y7.171 Z-1.000 F500
G1 X5.222 Y6.414 Z-1.000 F500
G1 X5.252 Y6.351 Z-1.000 F500
G1 X5.271 Y6.320 Z-1.000 F500
G1 X5.297 Y6.288 Z-1.000 F500
G1 X5.902 Y5.591 Z-1.000 F500
G1 X5.931 Y5.564 Z-1.000 F500
G1 X5.960 Y5.541 Z-1.000 F500
G1 X6.716 Y5.056 Z-1.000 F500
G1 X6.761 Y5.027 Z-1.000 F500
G1 X6.782 Y5.017 Z-1.000 F500
G1 X6.802 Y5.010 Z-1.000 F500
G1 X7.723 Y4.739 Z-1.000 F500
G1 X7.755 Y4.734 Z-1.000 F500
G1 X7.786 Y4.732 Z-1.000 F500
G1 X8.731 Y4.732 Z-1.000 F500
G1 X8.762 Y4.736 Z-1.000 F500
G1 X8.794 Y4.742 Z-1.000 F500
G1 X9.613 Y4.982 Z-1.000 F500
G1 X9.738 Y5.023 Z-1.000 F500
G1 X9.746 Y5.027 Z-1.000 F500
G1 X9.990 Y5.183 Z-1.000 F500
G1 X10.533 Y5.532 Z-1.000 F500
G1 X10.576 Y5.562 Z-1.000 F500
G1 X10.620 Y5.606 Z-1.000 F500
G1 X11.211 Y6.288 Z-1.000 F500
G1 X11.250 Y6.340 Z-1.000 F500
G1 X11.286 Y6.414 Z-1.000 F500
G1 X11.632 Y7.171 Z-1.000 F500
G1 X11.659 Y7.234 Z-1.000 F500
G1 X11.669 Y7.265 Z-1.000 F500
G1 X11.675 Y7.297 Z-1.000 F500
G1 X11.748 Y7.802 Z-1.000 F500
G1 X11.746 Y7.862 Z-1.000 F500
G1 X11.730 Y7.921 Z-1.000 F500
G1 X11.699 Y7.973 Z-1.000 F500
G1 X11.656 Y8.016 Z-1.000 F500
G1 X11.604 Y8.046 Z-1.000 F500
G1 X11.546 Y8.063 Z-1.000 F500
G1 X11.485 Y8.064 Z-1.000 F500
G1 X11.426 Y8.050 Z-1.000 F500
G1 X11.373 Y8.021 Z-1.000 F500
G1 X11.343 Y7.984 Z-0.995 F500
G1 X11.315 Y7.948 Z-0.980 F500
G1 X11.289 Y7.916 Z-0.957 F500
G1 X11.281 Y7.885 Z-0.930 F500
G1 X11.275 Y7.859 Z-0.898 F500
G1 X11.273 Y7.841 Z-0.867 F500
G1 X11.272 Y7.827 Z-0.834 F500
G1 X11.273 Y7.819 Z-0.798 F500
G1 X11.273 Y7.816 Z-0.762 F500
G1 X11.273 Y7.816 Z5.000 F500
G1 X7.156 Y8.694 Z5.000 F500
G1 X7.156 Y8.694 Z1.500 F500
G1 X7.113 Y8.564 Z1.495 F100
G1 X7.085 Y8.430 Z1.490 F100
G1 X7.073 Y8.295 Z1.486 F100
G1 X7.076 Y8.158 Z1.481 F100
G1 X7.095 Y8.023 Z1.476 F100
G1 X7.129 Y7.891 Z1.471 F100
G1 X7.179 Y7.764 Z1.467 F100
G1 X7.242 Y7.643 Z1.462 F100
G1 X7.320 Y7.530 Z1.457 F100
G1 X7.409 Y7.427 Z1.452 F100
G1 X7.510 Y7.335 Z1.448 F100
G1 X7.621 Y7.256 Z1.443 F100
G1 X7.740 Y7.189 Z1.438 F100
G1 X7.866 Y7.137 Z1.433 F100
G1 X7.998 Y7.100 Z1.428 F100
G1 X8.133 Y7.078 Z1.424 F100
G1 X8.269 Y7.072 Z1.419 F100
G1 X8.405 Y7.081 Z1.414 F100
G1 X8.539 Y7.107 Z1.409 F100
G1 X8.669 Y7.147 Z1.405 F100
G1 X8.794 Y7.202 Z1.400 F100
G1 X8.911 Y7.271 Z1.395 F100
G1 X9.020 Y7.353 Z1.390 F100
G1 X9.119 Y7.448 Z1.386 F100
G1 X9.206 Y7.553 Z1.381 F100
G1 X9.280 Y7.667 Z1.376 F100
G1 X9.341 Y7.789 Z1.371 F100
G1 X9.387 Y7.917 Z1.366 F100
G1 X9.418 Y8.050 Z1.362 F100
G1 X9.434 Y8.185 Z1.357 F100
G1 X9.434 Y8.322 Z1.352 F100
G1 X9.418 Y8.457 Z1.347 F100
G1 X9.387 Y8.590 Z1.343 F100
G1 X9.341 Y8.718 Z1.338 F100
G1 X9.280 Y8.840 Z1.333 F100
G1 X9.205 Y8.954 Z1.328 F100
G1 X9.118 Y9.059 Z1.324 F100
G1 X9.020 Y9.153 Z1.319 F100
G1 X8.911 Y9.235 Z1.314 F100
G1 X8.794 Y9.304 Z1.309 F100
G1 X8.669 Y9.359 Z1.304 F100
G1 X8.539 Y9.399 Z1.300 F100
G1 X8.405 Y9.424 Z1.295 F100
G1 X8.269 Y9.434 Z1.290 F100
G1 X8.133 Y9.427 Z1.285 F100
G1 X7.999 Y9.405 Z1.281 F100
G1 X7.868 Y9.368 Z1.276 F100
G1 X7.742 Y9.316 Z1.271 F100
G1 X7.623 Y9.250 Z1.266 F100
G1 X7.513 Y9.170 Z1.262 F100
G1 X7.412 Y9.078 Z1.257 F100
G1 X7.323 Y8.976 Z1.252 F100
G1 X7.246 Y8.864 Z1.247 F100
G1 X7.182 Y8.743 Z1.242 F100
G1 X7.133 Y8.616 Z1.238 F100
G1 X7.099 Y8.485 Z1.233 F100
G1 X7.080 Y8.350 Z1.228 F100
G1 X7.077 Y8.214 Z1.223 F100
G1 X7.090 Y8.079 Z1.219 F100
G1 X7.118 Y7.946 Z1.214 F100
G1 X7.161 Y7.817 Z1.209 F100
G1 X7.219 Y7.694 Z1.204 F100
G1 X7.290 Y7.578 Z1.200 F100
G1 X7.375 Y7.471 Z1.195 F100
G1 X7.471 Y7.375 Z1.190 F100
G1 X7.577 Y7.290 Z1.185 F100
G1 X7.693 Y7.219 Z1.180 F100
G1 X7.816 Y7.161 Z1.176 F100
G1 X7.945 Y7.118 Z1.171 F100
G1 X8.078 Y7.090 Z1.166 F100
G1 X8.213 Y7.077 Z1.161 F100
G1 X8.349 Y7.080 Z1.157 F100
G1 X8.483 Y7.099 Z1.152 F100
G1 X8.615 Y7.133 Z1.147 F100
G1 X8.742 Y7.182 Z1.142 F100
G1 X8.862 Y7.245 Z1.138 F100
G1 X8.974 Y7.322 Z1.133 F100
G1 X9.076 Y7.411 Z1.128 F100
G1 X9.168 Y7.511 Z1.123 F100
G1 X9.247 Y7.622 Z1.118 F100
G1 X9.314 Y7.740 Z1.114 F100
G1 X9.366 Y7.866 Z1.109 F100
G1 X9.403 Y7.996 Z1.104 F100
G1 X9.425 Y8.130 Z1.099 F100
G1 X9.431 Y8.266 Z1.095 F100
G1 X9.422 Y8.401 Z1.090 F100
G1 X9.397 Y8.535 Z1.085 F100
G1 X9.357 Y8.664 Z1.080 F100
G1 X9.302 Y8.789 Z1.076 F100
G1 X9.234 Y8.906 Z1.071 F100
G1 X9.152 Y9.014 Z1.066 F100
G1 X9.059 Y9.112 Z1.061 F100
G1 X8.954 Y9.199 Z1.056 F100
G1 X8.841 Y9.273 Z1.052 F100
G1 X8.719 Y9.334 Z1.047 F100
G1 X8.592 Y9.380 Z1.042 F100
G1 X8.460 Y9.411 Z1.037 F100
G1 X8.325 Y9.427 Z1.033 F100
G1 X8.189 Y9.427 Z1.028 F100
G1 X8.054 Y9.412 Z1.023 F100
G1 X7.922 Y9.381 Z1.018 F100
G1 X7.795 Y9.335 Z1.014 F100
G1 X7.673 Y9.275 Z1.009 F100
G1 X7.560 Y9.201 Z1.004 F100
G1 X7.455 Y9.114 Z0.999 F100
G1 X7.361 Y9.016 Z0.994 F100
G1 X7.280 Y8.908 Z0.990 F100
G1 X7.211 Y8.791 Z0.985 F100
G1 X7.156 Y8.668 Z0.980 F100
G1 X7.116 Y8.538 Z0.975 F100
G1 X7.091 Y8.405 Z0.971 F100
G1 X7.081 Y8.270 Z0.966 F100
G1 X7.087 Y8.134 Z0.961 F100
G1 X7.109 Y8.001 Z0.956 F100
G1 X7.146 Y7.870 Z0.952 F100
G1 X7.197 Y7.745 Z0.947 F100
G1 X7.263 Y7.626 Z0.942 F100
G1 X7.342 Y7.516 Z0.937 F100
G1 X7.433 Y7.416 Z0.932 F100
G1 X7.535 Y7.327 Z0.928 F100
G1 X7.647 Y7.250 Z0.923 F100
G1 X7.767 Y7.187 Z0.918 F100
G1 X7.893 Y7.138 Z0.913 F100
G1 X8.024 Y7.104 Z0.909 F100
G1 X8.158 Y7.085 Z0.904 F100
G1 X8.293 Y7.082 Z0.899 F100
G1 X8.428 Y7.094 Z0.894 F100
G1 X8.560 Y7.122 Z0.890 F100
G1 X8.689 Y7.164 Z0.885 F100
G1 X8.811 Y7.222 Z0.880 F100
G1 X8.927 Y7.293 Z0.875 F100
G1 X9.033 Y7.377 Z0.870 F100
G1 X9.129 Y7.472 Z0.866 F100
G1 X9.213 Y7.578 Z0.861 F100
G1 X9.284 Y7.693 Z0.856 F100
G1 X9.342 Y7.815 Z0.851 F100
G1 X9.385 Y7.944 Z0.847 F100
G1 X9.413 Y8.076 Z0.842 F100
G1 X9.426 Y8.210 Z0.837 F100
G1 X9.423 Y8.346 Z0.832 F100
G1 X9.405 Y8.480 Z0.828 F100
G1 X9.371 Y8.610 Z0.823 F100
G1 X9.323 Y8.737 Z0.818 F100
G1 X9.260 Y8.856 Z0.813 F100
G1 X9.184 Y8.968 Z0.808 F100
G1 X9.095 Y9.070 Z0.804 F100
G1 X8.995 Y9.161 Z0.799 F100
G1 X8.886 Y9.241 Z0.794 F100
G1 X8.768 Y9.307 Z0.789 F100
G1 X8.643 Y9.359 Z0.785 F100
G1 X8.513 Y9.396 Z0.780 F100
G1 X8.380 Y9.418 Z0.775 F100
G1 X8.244 Y9.425 Z0.770 F100
G1 X8.110 Y9.415 Z0.766 F100
G1 X7.977 Y9.391 Z0.761 F100
G1 X7.848 Y9.351 Z0.756 F100
G1 X7.724 Y9.297 Z0.751 F100
G1 X7.608 Y9.229 Z0.746 F100
G1 X7.500 Y9.148 Z0.742 F100
G1 X7.402 Y9.055 Z0.737 F100
G1 X7.315 Y8.951 Z0.732 F100
G1 X7.241 Y8.838 Z0.727 F100
G1 X7.181 Y8.717 Z0.723 F100
G1 X7.135 Y8.590 Z0.718 F100
G1 X7.104 Y8.459 Z0.713 F100
G1 X7.088 Y8.325 Z0.708 F100
G1 X7.087 Y8.190 Z0.703 F100
G1 X7.103 Y8.056 Z0.699 F100
G1 X7.133 Y7.924 Z0.694 F100
G1 X7.179 Y7.797 Z0.689 F100
G1 X7.239 Y7.676 Z0.684 F100
G1 X7.312 Y7.563 Z0.680 F100
G1 X7.398 Y7.459 Z0.675 F100
G1 X7.495 Y7.366 Z0.670 F100
G1 X7.603 Y7.284 Z0.665 F100
G1 X7.719 Y7.215 Z0.661 F100
G1 X7.842 Y7.161 Z0.656 F100
G1 X7.971 Y7.120 Z0.651 F100
G1 X8.103 Y7.095 Z0.646 F100
G1 X8.238 Y7.086 Z0.641 F100
G1 X8.372 Y7.091 Z0.637 F100
G1 X8.506 Y7.113 Z0.632 F100
G1 X8.635 Y7.149 Z0.627 F100
G1 X8.760 Y7.201 Z0.622 F100
G1 X8.878 Y7.266 Z0.618 F100
G1 X8.988 Y7.344 Z0.613 F100
G1 X9.088 Y7.435 Z0.608 F100
G1 X9.176 Y7.536 Z0.603 F100
G1 X9.253 Y7.647 Z0.599 F100
G1 X9.316 Y7.766 Z0.594 F100
G1 X9.365 Y7.892 Z0.589 F100
G1 X9.399 Y8.022 Z0.584 F100
G1 X9.418 Y8.155 Z0.579 F100
G1 X9.422 Y8.290 Z0.575 F100
G1 X9.410 Y8.424 Z0.570 F100
G1 X9.382 Y8.556 Z0.565 F100
G1 X9.340 Y8.684 Z0.560 F100
G1 X9.283 Y8.806 Z0.556 F100
G1 X9.212 Y8.921 Z0.551 F100
G1 X9.129 Y9.027 Z0.546 F100
G1 X9.034 Y9.122 Z0.541 F100
G1 X8.929 Y9.206 Z0.537 F100
G1 X8.815 Y9.277 Z0.532 F100
G1 X8.693 Y9.335 Z0.527 F100
G1 X8.565 Y9.378 Z0.522 F100
G1 X8.434 Y9.406 Z0.517 F100
G1 X8.300 Y9.419 Z0.513 F100
G1 X8.165 Y9.417 Z0.508 F100
G1 X8.032 Y9.398 Z0.503 F100
G1 X7.902 Y9.365 Z0.498 F100
G1 X7.776 Y9.317 Z0.494 F100
G1 X7.657 Y9.254 Z0.489 F100
G1 X7.546 Y9.179 Z0.484 F100
G1 X7.444 Y9.091 Z0.479 F100
G1 X7.353 Y8.992 Z0.475 F100
G1 X7.274 Y8.883 Z0.470 F100
G1 X7.208 Y8.765 Z0.465 F100
G1 X7.156 Y8.641 Z0.460 F100
G1 X7.119 Y8.512 Z0.455 F100
G1 X7.097 Y8.379 Z0.451 F100
G1 X7.090 Y8.245 Z0.446 F100
G1 X7.099 Y8.111 Z0.441 F100
G1 X7.123 Y7.979 Z0.436 F100
G1 X7.162 Y7.850 Z0.432 F100
G1 X7.216 Y7.727 Z0.427 F100
G1 X7.284 Y7.611 Z0.422 F100
G1 X7.365 Y7.503 Z0.417 F100
G1 X7.457 Y7.406 Z0.413 F100
G1 X7.560 Y7.320 Z0.408 F100
G1 X7.672 Y7.246 Z0.403 F100
G1 X7.792 Y7.186 Z0.398 F100
G1 X7.919 Y7.139 Z0.393 F100
G1 X8.049 Y7.108 Z0.389 F100
G1 X8.183 Y7.092 Z0.384 F100
G1 X8.317 Y7.092 Z0.379 F100
G1 X8.451 Y7.107 Z0.374 F100
G1 X8.582 Y7.137 Z0.370 F100
G1 X8.708 Y7.182 Z0.365 F100
G1 X8.829 Y7.241 Z0.360 F100
G1 X8.941 Y7.314 Z0.355 F100
G1 X9.045 Y7.400 Z0.351 F100
G1 X9.138 Y7.496 Z0.346 F100
G1 X9.219 Y7.603 Z0.341 F100
G1 X9.288 Y7.719 Z0.336 F100
G1 X9.342 Y7.841 Z0.331 F100
G1 X9.383 Y7.969 Z0.327 F100
G1 X9.408 Y8.101 Z0.322 F100
G1 X9.418 Y8.235 Z0.317 F100
G1 X9.412 Y8.369 Z0.312 F100
G1 X9.391 Y8.502 Z0.308 F100
G1 X9.355 Y8.631 Z0.303 F100
G1 X9.304 Y8.755 Z0.298 F100
G1 X9.239 Y8.873 Z0.293 F100
G1 X9.161 Y8.982 Z0.289 F100
G1 X9.071 Y9.081 Z0.284 F100
G1 X8.970 Y9.170 Z0.279 F100
G1 X8.860 Y9.246 Z0.274 F100
G1 X8.742 Y9.309 Z0.269 F100
G1 X8.617 Y9.358 Z0.265 F100
G1 X8.487 Y9.392 Z0.260 F100
G1 X8.355 Y9.411 Z0.255 F100
G1 X8.221 Y9.415 Z0.250 F100
G1 X8.087 Y9.403 Z0.246 F100
G1 X7.956 Y9.376 Z0.241 F100
G1 X7.829 Y9.334 Z0.236 F100
G1 X7.707 Y9.278 Z0.231 F100
G1 X7.593 Y9.208 Z0.227 F100
G1 X7.487 Y9.125 Z0.222 F100
G1 X7.392 Y9.030 Z0.217 F100
G1 X7.308 Y8.926 Z0.212 F100
G1 X7.237 Y8.812 Z0.207 F100
G1 X7.180 Y8.691 Z0.203 F100
G1 X7.137 Y8.564 Z0.198 F100
G1 X7.108 Y8.433 Z0.193 F100
G1 X7.095 Y8.300 Z0.188 F100
G1 X7.098 Y8.166 Z0.184 F100
G1 X7.116 Y8.033 Z0.179 F100
G1 X7.149 Y7.904 Z0.174 F100
G1 X7.197 Y7.779 Z0.169 F100
G1 X7.258 Y7.660 Z0.165 F100
G1 X7.334 Y7.549 Z0.160 F100
G1 X7.421 Y7.448 Z0.155 F100
G1 X7.520 Y7.357 Z0.150 F100
G1 X7.628 Y7.278 Z0.145 F100
G1 X7.745 Y7.213 Z0.141 F100
G1 X7.868 Y7.161 Z0.136 F100
G1 X7.997 Y7.124 Z0.131 F100
G1 X8.129 Y7.101 Z0.126 F100
G1 X8.262 Y7.095 Z0.122 F100
G1 X8.396 Y7.103 Z0.117 F100
G1 X8.527 Y7.127 Z0.112 F100
G1 X8.655 Y7.166 Z0.107 F100
G1 X8.778 Y7.219 Z0.103 F100
G1 X8.894 Y7.287 Z0.098 F100
G1 X9.001 Y7.367 Z0.093 F100
G1 X9.098 Y7.459 Z0.088 F100
G1 X9.184 Y7.561 Z0.083 F100
G1 X9.257 Y7.673 Z0.079 F100
G1 X9.318 Y7.792 Z0.074 F100
G1 X9.364 Y7.918 Z0.069 F100
G1 X9.395 Y8.048 Z0.064 F100
G1 X9.411 Y8.180 Z0.060 F100
G1 X9.412 Y8.314 Z0.055 F100
G1 X9.397 Y8.447 Z0.050 F100
G1 X9.367 Y8.577 Z0.045 F100
G1 X9.322 Y8.703 Z0.041 F100
G1 X9.263 Y8.823 Z0.036 F100
G1 X9.191 Y8.936 Z0.031 F100
G1 X9.106 Y9.039 Z0.026 F100
G1 X9.010 Y9.131 Z0.021 F100
G1 X8.904 Y9.213 Z0.017 F100
G1 X8.789 Y9.281 Z0.012 F100
G1 X8.667 Y9.335 Z0.007 F100
G1 X8.540 Y9.376 Z0.002 F100
G1 X8.409 Y9.401 Z-0.002 F100
G1 X8.275 Y9.411 Z-0.007 F100
G1 X8.142 Y9.405 Z-0.012 F100
G1 X8.010 Y9.385 Z-0.017 F100
G1 X7.881 Y9.349 Z-0.021 F100
G1 X7.758 Y9.298 Z-0.026 F100
G1 X7.641 Y9.234 Z-0.031 F100
G1 X7.532 Y9.156 Z-0.036 F100
G1 X7.433 Y9.067 Z-0.041 F100
G1 X7.345 Y8.967 Z-0.045 F100
G1 X7.269 Y8.857 Z-0.050 F100
G1 X7.206 Y8.740 Z-0.055 F100
G1 X7.157 Y8.615 Z-0.060 F100
G1 X7.123 Y8.487 Z-0.064 F100
G1 X7.103 Y8.355 Z-0.069 F100
G1 X7.100 Y8.221 Z-0.074 F100
G1 X7.111 Y8.088 Z-0.079 F100
G1 X7.138 Y7.958 Z-0.083 F100
G1 X7.180 Y7.831 Z-0.088 F100
G1 X7.236 Y7.710 Z-0.093 F100
G1 X7.305 Y7.596 Z-0.098 F100
G1 X7.387 Y7.491 Z-0.103 F100
G1 X7.481 Y7.396 Z-0.107 F100
G1 X7.585 Y7.313 Z-0.112 F100
G1 X7.698 Y7.242 Z-0.117 F100
G1 X7.819 Y7.184 Z-0.122 F100
G1 X7.945 Y7.141 Z-0.126 F100
G1 X8.075 Y7.113 Z-0.131 F100
G1 X8.208 Y7.100 Z-0.136 F100
G1 X8.341 Y7.102 Z-0.141 F100
G1 X8.473 Y7.120 Z-0.145 F100
G1 X8.602 Y7.153 Z-0.150 F100
G1 X8.727 Y7.200 Z-0.155 F100
G1 X8.845 Y7.261 Z-0.160 F100
G1 X8.955 Y7.336 Z-0.165 F100
G1 X9.056 Y7.423 Z-0.169 F100
G1 X9.147 Y7.521 Z-0.174 F100
G1 X9.225 Y7.628 Z-0.179 F100
G1 X9.291 Y7.744 Z-0.184 F100
G1 X9.342 Y7.867 Z-0.188 F100
G1 X9.380 Y7.995 Z-0.193 F100
G1 X9.402 Y8.127 Z-0.198 F100
G1 X9.409 Y8.260 Z-0.203 F100
G1 X9.400 Y8.392 Z-0.207 F100
G1 X9.377 Y8.523 Z-0.212 F100
G1 X9.338 Y8.651 Z-0.217 F100
G1 X9.285 Y8.773 Z-0.222 F100
G1 X9.218 Y8.888 Z-0.227 F100
G1 X9.139 Y8.995 Z-0.231 F100
G1 X9.048 Y9.091 Z-0.236 F100
G1 X8.946 Y9.177 Z-0.241 F100
G1 X8.835 Y9.250 Z-0.246 F100
G1 X8.716 Y9.311 Z-0.250 F100
G1 X8.591 Y9.357 Z-0.255 F100
G1 X8.462 Y9.388 Z-0.260 F100
G1 X8.330 Y9.404 Z-0.265 F100
G1 X8.197 Y9.405 Z-0.269 F100
G1 X8.064 Y9.390 Z-0.274 F100
G1 X7.935 Y9.361 Z-0.279 F100
G1 X7.809 Y9.316 Z-0.284 F100
G1 X7.690 Y9.258 Z-0.289 F100
G1 X7.578 Y9.186 Z-0.293 F100
G1 X7.475 Y9.102 Z-0.298 F100
G1 X7.383 Y9.006 Z-0.303 F100
G1 X7.302 Y8.901 Z-0.308 F100
G1 X7.234 Y8.787 Z-0.312 F100
G1 X7.179 Y8.665 Z-0.317 F100
G1 X7.139 Y8.539 Z-0.322 F100
G1 X7.114 Y8.408 Z-0.327 F100
G1 X7.104 Y8.276 Z-0.331 F100
G1 X7.109 Y8.143 Z-0.336 F100
G1 X7.130 Y8.012 Z-0.341 F100
G1 X7.165 Y7.884 Z-0.346 F100
G1 X7.215 Y7.760 Z-0.351 F100
G1 X7.279 Y7.644 Z-0.355 F100
G1 X7.356 Y7.535 Z-0.360 F100
G1 X7.445 Y7.437 Z-0.365 F100
G1 X7.544 Y7.349 Z-0.370 F100
G1 X7.653 Y7.273 Z-0.374 F100
G1 X7.770 Y7.210 Z-0.379 F100
G1 X7.894 Y7.161 Z-0.384 F100
G1 X8.022 Y7.127 Z-0.389 F100
G1 X8.153 Y7.108 Z-0.393 F100
G1 X8.286 Y7.104 Z-0.398 F100
G1 X8.418 Y7.115 Z-0.403 F100
G1 X8.548 Y7.142 Z-0.408 F100
G1 X8.675 Y7.183 Z-0.413 F100
G1 X8.795 Y7.239 Z-0.417 F100
G1 X8.908 Y7.308 Z-0.422 F100
G1 X9.013 Y7.389 Z-0.427 F100
G1 X9.108 Y7.483 Z-0.432 F100
G1 X9.191 Y7.586 Z-0.436 F100
G1 X9.261 Y7.698 Z-0.441 F100
G1 X9.319 Y7.818 Z-0.446 F100
G1 X9.362 Y7.944 Z-0.451 F100
G1 X9.390 Y8.073 Z-0.455 F100
G1 X9.403 Y8.205 Z-0.460 F100
G1 X9.401 Y8.338 Z-0.465 F100
G1 X9.384 Y8.469 Z-0.470 F100
G1 X9.351 Y8.598 Z-0.475 F100
G1 X9.304 Y8.722 Z-0.479 F100
G1 X9.243 Y8.839 Z-0.484 F100
G1 X9.169 Y8.949 Z-0.489 F100
G1 X9.083 Y9.050 Z-0.494 F100
G1 X8.986 Y9.140 Z-0.498 F100
G1 X8.879 Y9.218 Z-0.503 F100
G1 X8.763 Y9.284 Z-0.508 F100
G1 X8.641 Y9.335 Z-0.513 F100
G1 X8.514 Y9.372 Z-0.517 F100
G1 X8.383 Y9.395 Z-0.522 F100
G1 X8.251 Y9.402 Z-0.527 F100
G1 X8.119 Y9.394 Z-0.532 F100
G1 X7.988 Y9.370 Z-0.537 F100
G1 X7.862 Y9.332 Z-0.541 F100
G1 X7.740 Y9.280 Z-0.546 F100
G1 X7.625 Y9.213 Z-0.551 F100
G1 X7.519 Y9.134 Z-0.556 F100
G1 X7.423 Y9.044 Z-0.560 F100
G1 X7.337 Y8.942 Z-0.565 F100
G1 X7.264 Y8.832 Z-0.570 F100
G1 X7.204 Y8.714 Z-0.575 F100
G1 X7.158 Y8.590 Z-0.579 F100
G1 X7.127 Y8.461 Z-0.584 F100
G1 X7.111 Y8.330 Z-0.589 F100
G1 X7.110 Y8.197 Z-0.594 F100
G1 X7.124 Y8.066 Z-0.599 F100
G1 X7.153 Y7.936 Z-0.603 F100
G1 X7.197 Y7.812 Z-0.608 F100
G1 X7.255 Y7.693 Z-0.613 F100
G1 X7.326 Y7.581 Z-0.618 F100
G1 X7.410 Y7.479 Z-0.622 F100
G1 X7.505 Y7.387 Z-0.627 F100
G1 X7.610 Y7.306 Z-0.632 F100
G1 X7.724 Y7.238 Z-0.637 F100
G1 X7.844 Y7.184 Z-0.641 F100
G1 X7.970 Y7.144 Z-0.646 F100
G1 X8.100 Y7.119 Z-0.651 F100
G1 X8.232 Y7.108 Z-0.656 F100
G1 X8.364 Y7.113 Z-0.661 F100
G1 X8.495 Y7.134 Z-0.665 F100
G1 X8.622 Y7.169 Z-0.670 F100
G1 X8.745 Y7.218 Z-0.675 F100
G1 X8.861 Y7.282 Z-0.680 F100
G1 X8.969 Y7.358 Z-0.684 F100
G1 X9.067 Y7.446 Z-0.689 F100
G1 X9.155 Y7.545 Z-0.694 F100
G1 X9.230 Y7.654 Z-0.699 F100
G1 X9.293 Y7.770 Z-0.703 F100
G1 X9.342 Y7.893 Z-0.708 F100
G1 X9.376 Y8.020 Z-0.713 F100
G1 X9.395 Y8.151 Z-0.718 F100
G1 X9.399 Y8.283 Z-0.723 F100
G1 X9.388 Y8.415 Z-0.727 F100
G1 X9.362 Y8.544 Z-0.732 F100
G1 X9.321 Y8.670 Z-0.737 F100
G1 X9.266 Y8.790 Z-0.742 F100
G1 X9.197 Y8.903 Z-0.746 F100
G1 X9.116 Y9.007 Z-0.751 F100
G1 X9.024 Y9.101 Z-0.756 F100
G1 X8.921 Y9.184 Z-0.761 F100
G1 X8.809 Y9.255 Z-0.766 F100
G1 X8.690 Y9.312 Z-0.770 F100
G1 X8.565 Y9.355 Z-0.775 F100
G1 X8.436 Y9.383 Z-0.780 F100
G1 X8.305 Y9.396 Z-0.785 F100
G1 X8.173 Y9.394 Z-0.789 F100
G1 X8.042 Y9.377 Z-0.794 F100
G1 X7.914 Y9.345 Z-0.799 F100
G1 X7.791 Y9.299 Z-0.804 F100
G1 X7.674 Y9.238 Z-0.808 F100
G1 X7.564 Y9.165 Z-0.813 F100
G1 X7.464 Y9.079 Z-0.818 F100
G1 X7.374 Y8.982 Z-0.823 F100
G1 X7.296 Y8.876 Z-0.828 F100
G1 X7.231 Y8.761 Z-0.832 F100
G1 X7.180 Y8.640 Z-0.837 F100
G1 X7.142 Y8.513 Z-0.842 F100
G1 X7.120 Y8.383 Z-0.847 F100
G1 X7.113 Y8.251 Z-0.851 F100
G1 X7.121 Y8.120 Z-0.856 F100
G1 X7.144 Y7.990 Z-0.861 F100
G1 X7.182 Y7.864 Z-0.866 F100
G1 X7.234 Y7.743 Z-0.870 F100
G1 X7.299 Y7.629 Z-0.875 F100
G1 X7.378 Y7.523 Z-0.880 F100
G1 X7.468 Y7.427 Z-0.885 F100
G1 X7.569 Y7.342 Z-0.890 F100
G1 X7.678 Y7.269 Z-0.894 F100
G1 X7.796 Y7.209 Z-0.899 F100
G1 X7.919 Y7.163 Z-0.904 F100
G1 X8.047 Y7.132 Z-0.909 F100
G1 X8.178 Y7.115 Z-0.913 F100
G1 X8.310 Y7.114 Z-0.918 F100
G1 X8.441 Y7.128 Z-0.923 F100
G1 X8.569 Y7.157 Z-0.928 F100
G1 X8.694 Y7.201 Z-0.932 F100
G1 X8.812 Y7.258 Z-0.937 F100
G1 X8.923 Y7.329 Z-0.942 F100
G1 X9.025 Y7.412 Z-0.947 F100
G1 X9.117 Y7.506 Z-0.952 F100
G1 X9.197 Y7.611 Z-0.956 F100
G1 X9.265 Y7.724 Z-0.961 F100
G1 X9.319 Y7.843 Z-0.966 F100
G1 X9.359 Y7.969 Z-0.971 F100
G1 X9.385 Y8.098 Z-0.975 F100
G1 X9.395 Y8.229 Z-0.980 F100
G1 X9.390 Y8.361 Z-0.985 F100
G1 X9.370 Y8.491 Z-0.990 F100
G1 X9.335 Y8.618 Z-0.994 F100
G1 X9.286 Y8.740 Z-0.999 F100
G1 X9.223 Y8.855 Z-1.004 F100
G1 X9.147 Y8.963 Z-1.009 F100
G1 X9.060 Y9.061 Z-1.014 F100
G1 X8.961 Y9.148 Z-1.018 F100
G1 X8.853 Y9.223 Z-1.023 F100
G1 X8.738 Y9.286 Z-1.028 F100
G1 X8.616 Y9.335 Z-1.033 F100
G1 X8.489 Y9.369 Z-1.037 F100
G1 X8.359 Y9.388 Z-1.042 F100
G1 X8.227 Y9.393 Z-1.047 F100
G1 X8.096 Y9.382 Z-1.052 F100
G1 X7.968 Y9.356 Z-1.056 F100
G1 X7.843 Y9.315 Z-1.061 F100
G1 X7.723 Y9.261 Z-1.066 F100
G1 X7.611 Y9.192 Z-1.071 F100
G1 X7.507 Y9.112 Z-1.076 F100
G1 X7.413 Y9.020 Z-1.080 F100
G1 X7.330 Y8.918 Z-1.085 F100
G1 X7.260 Y8.807 Z-1.090 F100
G1 X7.203 Y8.688 Z-1.095 F100
G1 X7.160 Y8.564 Z-1.099 F100
G1 X7.132 Y8.436 Z-1.104 F100
G1 X7.118 Y8.305 Z-1.109 F100
G1 X7.120 Y8.174 Z-1.114 F100
G1 X7.137 Y8.044 Z-1.118 F100
G1 X7.169 Y7.916 Z-1.123 F100
G1 X7.215 Y7.794 Z-1.128 F100
G1 X7.275 Y7.677 Z-1.133 F100
G1 X7.348 Y7.568 Z-1.138 F100
G1 X7.433 Y7.468 Z-1.142 F100
G1 X7.529 Y7.378 Z-1.147 F100
G1 X7.635 Y7.301 Z-1.152 F100
G1 X7.749 Y7.236 Z-1.157 F100
G1 X7.870 Y7.184 Z-1.161 F100
G1 X7.996 Y7.147 Z-1.166 F100
G1 X8.125 Y7.125 Z-1.171 F100
G1 X8.256 Y7.117 Z-1.176 F100
G1 X8.387 Y7.125 Z-1.180 F100
G1 X8.516 Y7.148 Z-1.185 F100
G1 X8.642 Y7.185 Z-1.190 F100
G1 X8.762 Y7.237 Z-1.195 F100
G1 X8.876 Y7.302 Z-1.200 F100
G1 X8.981 Y7.380 Z-1.204 F100
G1 X9.077 Y7.470 Z-1.209 F100
G1 X9.162 Y7.570 Z-1.214 F100
G1 X9.235 Y7.679 Z-1.219 F100
G1 X9.294 Y7.795 Z-1.223 F100
G1 X9.340 Y7.918 Z-1.228 F100
G1 X9.371 Y8.046 Z-1.233 F100
G1 X9.388 Y8.176 Z-1.238 F100
G1 X9.389 Y8.307 Z-1.242 F100
G1 X9.376 Y8.437 Z-1.247 F100
G1 X9.347 Y8.565 Z-1.252 F100
G1 X9.304 Y8.689 Z-1.257 F100
G1 X9.247 Y8.807 Z-1.262 F100
G1 X9.176 Y8.917 Z-1.266 F100
G1 X9.094 Y9.019 Z-1.271 F100
G1 X9.000 Y9.110 Z-1.276 F100
G1 X8.896 Y9.190 Z-1.281 F100
G1 X8.784 Y9.258 Z-1.285 F100
G1 X8.665 Y9.312 Z-1.290 F100
G1 X8.540 Y9.352 Z-1.295 F100
G1 X8.412 Y9.378 Z-1.300 F100
G1 X8.281 Y9.388 Z-1.304 F100
G1 X8.150 Y9.383 Z-1.309 F100
G1 X8.021 Y9.364 Z-1.314 F100
G1 X7.895 Y9.329 Z-1.319 F100
G1 X7.773 Y9.280 Z-1.324 F100
G1 X7.658 Y9.218 Z-1.328 F100
G1 X7.551 Y9.143 Z-1.333 F100
G1 X7.453 Y9.055 Z-1.338 F100
G1 X7.366 Y8.958 Z-1.343 F100
G1 X7.291 Y8.851 Z-1.347 F100
G1 X7.229 Y8.736 Z-1.352 F100
G1 X7.180 Y8.614 Z-1.357 F100
G1 X7.146 Y8.488 Z-1.362 F100
G1 X7.126 Y8.359 Z-1.366 F100
G1 X7.122 Y8.228 Z-1.371 F100
G1 X7.133 Y8.098 Z-1.376 F100
G1 X7.158 Y7.969 Z-1.381 F100
G1 X7.198 Y7.845 Z-1.386 F100
G1 X7.253 Y7.726 Z-1.390 F100
G1 X7.320 Y7.614 Z-1.395 F100
G1 X7.400 Y7.510 Z-1.400 F100
G1 X7.492 Y7.417 Z-1.405 F100
G1 X7.593 Y7.335 Z-1.409 F100
G1 X7.704 Y7.265 Z-1.414 F100
G1 X7.822 Y7.208 Z-1.419 F100
G1 X7.945 Y7.165 Z-1.424 F100
G1 X8.072 Y7.136 Z-1.428 F100
G1 X8.202 Y7.123 Z-1.433 F100
G1 X8.333 Y7.124 Z-1.438 F100
G1 X8.463 Y7.141 Z-1.443 F100
G1 X8.589 Y7.172 Z-1.448 F100
G1 X8.712 Y7.218 Z-1.452 F100
G1 X8.828 Y7.278 Z-1.457 F100
G1 X8.937 Y7.350 Z-1.462 F100
G1 X9.036 Y7.435 Z-1.467 F100
G1 X9.125 Y7.530 Z-1.471 F100
G1 X9.203 Y7.636 Z-1.476 F100
G1 X9.268 Y7.749 Z-1.481 F100
G1 X9.319 Y7.869 Z-1.486 F100
G1 X9.356 Y7.994 Z-1.490 F100
G1 X9.379 Y8.123 Z-1.495 F100
G1 X9.386 Y8.253 Z-1.500 F100
G1 X9.378 Y8.387 Z-1.500 F100
G1 X9.354 Y8.519 Z-1.500 F100
G1 X9.315 Y8.647 Z-1.500 F100
G1 X9.261 Y8.770 Z-1.500 F100
G1 X9.193 Y8.886 Z-1.500 F100
G1 X9.112 Y8.992 Z-1.500 F100
G1 X9.018 Y9.088 Z-1.500 F100
G1 X8.914 Y9.173 Z-1.500 F100
G1 X8.801 Y9.245 Z-1.500 F100
G1 X8.680 Y9.302 Z-1.500 F100
G1 X8.553 Y9.345 Z-1.500 F100
G1 X8.421 Y9.373 Z-1.500 F100
G1 X8.288 Y9.385 Z-1.500 F100
G1 X8.154 Y9.381 Z-1.500 F100
G1 X8.021 Y9.361 Z-1.500 F100
G1 X7.892 Y9.326 Z-1.500 F100
G1 X7.768 Y9.275 Z-1.500 F100
G1 X7.650 Y9.210 Z-1.500 F100
G1 X7.541 Y9.132 Z-1.500 F100
G1 X7.442 Y9.042 Z-1.500 F100
G1 X7.355 Y8.940 Z-1.500 F100
G1 X7.280 Y8.829 Z-1.500 F100
G1 X7.219 Y8.710 Z-1.500 F100
G1 X7.172 Y8.584 Z-1.500 F100
G1 X7.140 Y8.454 Z-1.500 F100
G1 X7.125 Y8.320 Z-1.500 F100
G1 X7.125 Y8.186 Z-1.500 F100
G1 X7.140 Y8.053 Z-1.500 F100
G1 X7.172 Y7.923 Z-1.500 F100
G1 X7.219 Y7.797 Z-1.500 F100
G1 X7.280 Y7.678 Z-1.500 F100
G1 X7.355 Y7.567 Z-1.500 F100
G1 X7.442 Y7.465 Z-1.500 F100
G1 X7.541 Y7.375 Z-1.500 F100
G1 X7.650 Y7.296 Z-1.500 F100
G1 X7.768 Y7.232 Z-1.500 F100
G1 X7.892 Y7.181 Z-1.500 F100
G1 X8.021 Y7.146 Z-1.500 F100
G1 X8.154 Y7.126 Z-1.500 F100
G1 X8.288 Y7.122 Z-1.500 F100
G1 X8.421 Y7.134 Z-1.500 F100
G1 X8.553 Y7.162 Z-1.500 F100
G1 X8.680 Y7.205 Z-1.500 F100
G1 X8.801 Y7.262 Z-1.500 F100
G1 X8.914 Y7.334 Z-1.500 F100
G1 X9.018 Y7.418 Z-1.500 F100
G1 X9.112 Y7.515 Z-1.500 F100
G1 X9.193 Y7.621 Z-1.500 F100
G1 X9.261 Y7.737 Z-1.500 F100
G1 X9.315 Y7.859 Z-1.500 F100
G1 X9.354 Y7.988 Z-1.500 F100
G1 X9.378 Y8.120 Z-1.500 F100
G1 X9.386 Y8.253 Z-1.500 F100
G1 X9.421 Y8.807 Z-1.500 F500
G1 X9.449 Y8.943 Z-1.500 F500
G1 X9.443 Y9.093 Z-1.500 F500
G1 X9.406 Y9.238 Z-1.500 F500
G1 X9.344 Y9.375 Z-1.500 F500
G1 X9.262 Y9.501 Z-1.500 F500
G1 X9.164 Y9.614 Z-1.500 F500
G1 X9.052 Y9.714 Z-1.500 F500
G1 X8.929 Y9.799 Z-1.500 F500
G1 X8.797 Y9.871 Z-1.500 F500
G1 X8.658 Y9.927 Z-1.500 F500
G1 X8.514 Y9.970 Z-1.500 F500
G1 X8.367 Y9.997 Z-1.500 F500
G1 X8.217 Y10.010 Z-1.500 F500
G1 X8.067 Y10.009 Z-1.500 F500
G1 X7.918 Y9.994 Z-1.500 F500
G1 X7.771 Y9.965 Z-1.500 F500
G1 X7.627 Y9.923 Z-1.500 F500
G1 X7.487 Y9.868 Z-1.500 F500
G1 X7.353 Y9.802 Z-1.500 F500
G1 X7.225 Y9.724 Z-1.500 F500
G1 X7.104 Y9.635 Z-1.500 F500
G1 X6.991 Y9.536 Z-1.500 F500
G1 X6.887 Y9.427 Z-1.500 F500
G1 X6.793 Y9.311 Z-1.500 F500
G1 X6.709 Y9.186 Z-1.500 F500
G1 X6.636 Y9.055 Z-1.500 F500
G1 X6.574 Y8.919 Z-1.500 F500
G1 X6.524 Y8.777 Z-1.500 F500
G1 X6.486 Y8.632 Z-1.500 F500
G1 X6.460 Y8.485 Z-1.500 F500
G1 X6.446 Y8.335 Z-1.500 F500
G1 X6.445 Y8.185 Z-1.500 F500
G1 X6.456 Y8.036 Z-1.500 F500
G1 X6.480 Y7.888 Z-1.500 F500
G1 X6.516 Y7.742 Z-1.500 F500
G1 X6.564 Y7.600 Z-1.500 F500
G1 X6.624 Y7.462 Z-1.500 F500
G1 X6.695 Y7.330 Z-1.500 F500
G1 X6.776 Y7.204 Z-1.500 F500
G1 X6.868 Y7.085 Z-1.500 F500
G1 X6.969 Y6.975 Z-1.500 F500
G1 X7.079 Y6.873 Z-1.500 F500
G1 X7.197 Y6.780 Z-1.500 F500
G1 X7.323 Y6.698 Z-1.500 F500
G1 X7.454 Y6.626 Z-1.500 F500
G1 X7.592 Y6.566 Z-1.500 F500
G1 X7.733 Y6.517 Z-1.500 F500
G1 X7.879 Y6.479 Z-1.500 F500
G1 X8.027 Y6.454 Z-1.500 F500
G1 X8.176 Y6.442 Z-1.500 F500
G1 X8.326 Y6.441 Z-1.500 F500
G1 X8.476 Y6.453 Z-1.500 F500
G1 X8.624 Y6.478 Z-1.500 F500
G1 X8.769 Y6.514 Z-1.500 F500
G1 X8.911 Y6.563 Z-1.500 F500
G1 X9.048 Y6.623 Z-1.500 F500
G1 X9.180 Y6.694 Z-1.500 F500
G1 X9.306 Y6.776 Z-1.500 F500
G1 X9.425 Y6.868 Z-1.500 F500
G1 X9.535 Y6.969 Z-1.500 F500
G1 X9.637 Y7.080 Z-1.500 F500
G1 X9.729 Y7.198 Z-1.500 F500
G1 X9.811 Y7.323 Z-1.500 F500
G1 X9.901 Y7.488 Z-1.500 F500
G1 X10.016 Y7.748 Z-1.500 F500
G1 X10.108 Y8.010 Z-1.500 F500
G1 X10.168 Y8.235 Z-1.500 F500
G1 X10.202 Y8.426 Z-1.500 F500
G1 X10.219 Y8.600 Z-1.500 F500
G1 X10.222 Y8.775 Z-1.500 F500
G1 X10.212 Y8.932 Z-1.500 F500
G1 X10.188 Y9.092 Z-1.500 F500
G1 X10.153 Y9.247 Z-1.500 F500
G1 X10.107 Y9.392 Z-1.500 F500
G1 X10.048 Y9.538 Z-1.500 F500
G1 X9.977 Y9.679 Z-1.500 F500
G1 X9.898 Y9.810 Z-1.500 F500
G1 X9.804 Y9.939 Z-1.500 F500
G1 X9.698 Y10.063 Z-1.500 F500
G1 X9.585 Y10.176 Z-1.500 F500
G1 X9.461 Y10.281 Z-1.500 F500
G1 X9.325 Y10.379 Z-1.500 F500
G1 X9.179 Y10.467 Z-1.500 F500
G1 X9.026 Y10.543 Z-1.500 F500
G1 X8.867 Y10.607 Z-1.500 F500
G1 X8.700 Y10.659 Z-1.500 F500
G1 X8.525 Y10.699 Z-1.500 F500
G1 X8.344 Y10.724 Z-1.500 F500
G1 X8.161 Y10.735 Z-1.500 F500
G1 X7.976 Y10.732 Z-1.500 F500
G1 X7.791 Y10.713 Z-1.500 F500
G1 X7.607 Y10.680 Z-1.500 F500
G1 X7.423 Y10.631 Z-1.500 F500
G1 X7.242 Y10.566 Z-1.500 F500
G1 X7.065 Y10.487 Z-1.500 F500
G1 X6.893 Y10.393 Z-1.500 F500
G1 X6.729 Y10.284 Z-1.500 F500
G1 X6.572 Y10.162 Z-1.500 F500
G1 X6.426 Y10.028 Z-1.500 F500
G1 X6.290 Y9.881 Z-1.500 F500
G1 X6.166 Y9.724 Z-1.500 F500
G1 X6.055 Y9.557 Z-1.500 F500
G1 X5.957 Y9.381 Z-1.500 F500
G1 X5.874 Y9.197 Z-1.500 F500
G1 X5.805 Y9.007 Z-1.500 F500
G1 X5.752 Y8.811 Z-1.500 F500
G1 X5.714 Y8.611 Z-1.500 F500
G1 X5.693 Y8.408 Z-1.500 F500
G1 X5.688 Y8.204 Z-1.500 F500
G1 X5.699 Y7.999 Z-1.500 F500
G1 X5.727 Y7.796 Z-1.500 F500
G1 X5.771 Y7.596 Z-1.500 F500
G1 X5.831 Y7.399 Z-1.500 F500
G1 X5.907 Y7.208 Z-1.500 F500
G1 X5.998 Y7.023 Z-1.500 F500
G1 X6.104 Y6.846 Z-1.500 F500
G1 X6.223 Y6.678 Z-1.500 F500
G1 X6.356 Y6.520 Z-1.500 F500
G1 X6.501 Y6.373 Z-1.500 F500
G1 X6.657 Y6.238 Z-1.500 F500
G1 X6.824 Y6.117 Z-1.500 F500
G1 X7.000 Y6.008 Z-1.500 F500
G1 X7.184 Y5.915 Z-1.500 F500
G1 X7.375 Y5.836 Z-1.500 F500
G1 X7.571 Y5.773 Z-1.500 F500
G1 X7.772 Y5.726 Z-1.500 F500
G1 X7.977 Y5.696 Z-1.500 F500
G1 X8.183 Y5.681 Z-1.500 F500
G1 X8.389 Y5.684 Z-1.500 F500
G1 X8.595 Y5.703 Z-1.500 F500
G1 X8.798 Y5.738 Z-1.500 F500
G1 X8.998 Y5.790 Z-1.500 F500
G1 X9.193 Y5.857 Z-1.500 F500
G1 X9.382 Y5.940 Z-1.500 F500
G1 X9.563 Y6.038 Z-1.500 F500
G1 X9.737 Y6.150 Z-1.500 F500
G1 X9.901 Y6.276 Z-1.500 F500
G1 X10.061 Y6.420 Z-1.500 F500
G1 X10.226 Y6.595 Z-1.500 F500
G1 X10.384 Y6.793 Z-1.500 F500
G1 X10.532 Y7.010 Z-1.500 F500
G1 X10.665 Y7.246 Z-1.500 F500
G1 X10.778 Y7.489 Z-1.500 F500
G1 X10.868 Y7.733 Z-1.500 F500
G1 X10.936 Y7.975 Z-1.500 F500
G1 X10.983 Y8.216 Z-1.500 F500
G1 X11.010 Y8.454 Z-1.500 F500
G1 X11.018 Y8.689 Z-1.500 F500
G1 X11.007 Y8.921 Z-1.500 F500
G1 X10.978 Y9.149 Z-1.500 F500
G1 X10.931 Y9.371 Z-1.500 F500
G1 X10.866 Y9.588 Z-1.500 F500
G1 X10.785 Y9.799 Z-1.500 F500
G1 X10.687 Y10.002 Z-1.500 F500
G1 X10.573 Y10.196 Z-1.500 F500
G1 X10.444 Y10.381 Z-1.500 F500
G1 X10.299 Y10.557 Z-1.500 F500
G1 X10.140 Y10.721 Z-1.500 F500
G1 X9.967 Y10.872 Z-1.500 F500
G1 X9.781 Y11.010 Z-1.500 F500
G1 X9.584 Y11.134 Z-1.500 F500
G1 X9.374 Y11.242 Z-1.500 F500
G1 X9.155 Y11.335 Z-1.500 F500
G1 X8.927 Y11.410 Z-1.500 F500
G1 X8.692 Y11.467 Z-1.500 F500
G1 X8.452 Y11.505 Z-1.500 F500
G1 X8.207 Y11.524 Z-1.500 F500
G1 X7.960 Y11.523 Z-1.500 F500
G1 X7.711 Y11.502 Z-1.500 F500
G1 X7.464 Y11.461 Z-1.500 F500
G1 X7.218 Y11.400 Z-1.500 F500
G1 X6.977 Y11.319 Z-1.500 F500
G1 X6.741 Y11.217 Z-1.500 F500
G1 X6.513 Y11.097 Z-1.500 F500
G1 X6.294 Y10.958 Z-1.500 F500
G1 X6.086 Y10.801 Z-1.500 F500
G1 X5.890 Y10.627 Z-1.500 F500
G1 X5.708 Y10.438 Z-1.500 F500
G1 X5.542 Y10.233 Z-1.500 F500
G1 X5.392 Y10.016 Z-1.500 F500
G1 X5.259 Y9.786 Z-1.500 F500
G1 X5.145 Y9.546 Z-1.500 F500
G1 X5.051 Y9.296 Z-1.500 F500
G1 X4.976 Y9.040 Z-1.500 F500
G1 X4.923 Y8.777 Z-1.500 F500
G1 X4.890 Y8.511 Z-1.500 F500
G1 X4.879 Y8.242 Z-1.500 F500
G1 X4.890 Y7.973 Z-1.500 F500
G1 X4.922 Y7.706 Z-1.500 F500
G1 X4.976 Y7.441 Z-1.500 F500
G1 X5.051 Y7.181 Z-1.500 F500
G1 X5.146 Y6.928 Z-1.500 F500
G1 X5.262 Y6.684 Z-1.500 F500
G1 X5.396 Y6.449 Z-1.500 F500
G1 X5.550 Y6.226 Z-1.500 F500
G1 X5.721 Y6.015 Z-1.500 F500
G1 X5.908 Y5.819 Z-1.500 F500
G1 X6.111 Y5.638 Z-1.500 F500
G1 X6.327 Y5.475 Z-1.500 F500
G1 X6.556 Y5.329 Z-1.500 F500
G1 X6.796 Y5.202 Z-1.500 F500
G1 X7.045 Y5.094 Z-1.500 F500
G1 X7.302 Y5.007 Z-1.500 F500
G1 X7.566 Y4.941 Z-1.500 F500
G1 X7.834 Y4.897 Z-1.500 F500
G1 X8.104 Y4.874 Z-1.500 F500
G1 X8.376 Y4.872 Z-1.500 F500
G1 X8.646 Y4.893 Z-1.500 F500
G1 X8.914 Y4.935 Z-1.500 F500
G1 X9.178 Y4.998 Z-1.500 F500
G1 X9.436 Y5.083 Z-1.500 F500
G1 X9.687 Y5.188 Z-1.500 F500
G1 X9.930 Y5.313 Z-1.500 F500
G1 X10.169 Y5.462 Z-1.500 F500
G1 X10.402 Y5.635 Z-1.500 F500
G1 X10.628 Y5.833 Z-1.500 F500
G1 X10.843 Y6.054 Z-1.500 F500
G1 X11.044 Y6.296 Z-1.500 F500
G1 X11.227 Y6.557 Z-1.500 F500
G1 X11.388 Y6.831 Z-1.500 F500
G1 X11.526 Y7.116 Z-1.500 F500
G1 X11.640 Y7.409 Z-1.500 F500
G1 X11.729 Y7.708 Z-1.500 F500
G1 X11.745 Y7.786 Z-1.500 F500
G1 X11.747 Y7.799 Z-1.500 F500
G1 X11.802 Y8.180 Z-1.500 F500
G1 X11.810 Y8.243 Z-1.500 F500
G1 X11.809 Y8.274 Z-1.500 F500
G1 X11.678 Y9.188 Z-1.500 F500
G1 X11.667 Y9.251 Z-1.500 F500
G1 X11.642 Y9.314 Z-1.500 F500
G1 X11.297 Y10.071 Z-1.500 F500
G1 X11.250 Y10.169 Z-1.500 F500
G1 X11.230 Y10.197 Z-1.500 F500
G1 X11.122 Y10.323 Z-1.500 F500
G1 X10.620 Y10.902 Z-1.500 F500
G1 X10.594 Y10.930 Z-1.500 F500
G1 X10.567 Y10.954 Z-1.500 F500
G1 X10.494 Y11.002 Z-1.500 F500
G1 X9.784 Y11.458 Z-1.500 F500
G1 X9.738 Y11.485 Z-1.500 F500
G1 X9.613 Y11.526 Z-1.500 F500
G1 X8.794 Y11.767 Z-1.500 F500
G1 X8.762 Y11.773 Z-1.500 F500
G1 X8.731 Y11.776 Z-1.500 F500
G1 X7.786 Y11.776 Z-1.500 F500
G1 X7.755 Y11.774 Z-1.500 F500
G1 X7.723 Y11.769 Z-1.500 F500
G1 X6.842 Y11.511 Z-1.500 F500
G1 X6.783 Y11.492 Z-1.500 F500
G1 X6.716 Y11.453 Z-1.500 F500
G1 X5.960 Y10.967 Z-1.500 F500
G1 X5.942 Y10.954 Z-1.500 F500
G1 X5.913 Y10.929 Z-1.500 F500
G1 X5.883 Y10.897 Z-1.500 F500
G1 X5.331 Y10.259 Z-1.500 F500
G1 X5.278 Y10.197 Z-1.500 F500
G1 X5.256 Y10.166 Z-1.500 F500
G1 X5.240 Y10.134 Z-1.500 F500
G1 X4.866 Y9.314 Z-1.500 F500
G1 X4.841 Y9.251 Z-1.500 F500
G1 X4.830 Y9.188 Z-1.500 F500
G1 X4.701 Y8.291 Z-1.500 F500
G1 X4.699 Y8.255 Z-1.500 F500
G1 X4.701 Y8.218 Z-1.500 F500
G1 X4.833 Y7.297 Z-1.500 F500
G1 X4.839 Y7.265 Z-1.500 F500
G1 X4.849 Y7.234 Z-1.500 F500
G1 X4.877 Y7.171 Z-1.500 F500
G1 X5.222 Y6.414 Z-1.500 F500
G1 X5.252 Y6.351 Z-1.500 F500
G1 X5.271 Y6.320 Z-1.500 F500
G1 X5.297 Y6.288 Z-1.500 F500
G1 X5.902 Y5.591 Z-1.500 F500
G1 X5.931 Y5.564 Z-1.500 F500
G1 X5.960 Y5.541 Z-1.500 F500
G1 X6.716 Y5.056 Z-1.500 F500
G1 X6.761 Y5.027 Z-1.500 F500
G1 X6.782 Y5.017 Z-1.500 F500
G1 X6.802 Y5.010 Z-1.500 F500
G1 X7.723 Y4.739 Z-1.500 F500
G1 X7.755 Y4.734 Z-1.500 F500
G1 X7.786 Y4.732 Z-1.500 F500
G1 X8.731 Y4.732 Z-1.500 F500
G1 X8.762 Y4.736 Z-1.500 F500
G1 X8.794 Y4.742 Z-1.500 F500
G1 X9.613 Y4.982 Z-1.500 F500
G1 X9.738 Y5.023 Z-1.500 F500
G1 X9.746 Y5.027 Z-1.500 F500
G1 X9.990 Y5.183 Z-1.500 F500
G1 X10.533 Y5.532 Z-1.500 F500
G1 X10.576 Y5.562 Z-1.500 F500
G1 X10.620 Y5.606 Z-1.500 F500
G1 X11.211 Y6.288 Z-1.500 F500
G1 X11.250 Y6.340 Z-1.500 F500
G1 X11.286 Y6.414 Z-1.500 F500
G1 X11.632 Y7.171 Z-1.500 F500
G1 X11.659 Y7.234 Z-1.500 F500
G1 X11.669 Y7.265 Z-1.500 F500
G1 X11.675 Y7.297 Z-1.500 F500
G1 X11.747 Y7.799 Z-1.500 F500
G1 X11.746 Y7.859 Z-1.500 F500
G1 X11.730 Y7.918 Z-1.500 F500
G1 X11.699 Y7.970 Z-1.500 F500
G1 X11.656 Y8.013 Z-1.500 F500
G1 X11.604 Y8.044 Z-1.500 F500
G1 X11.545 Y8.060 Z-1.500 F500
G1 X11.485 Y8.061 Z-1.500 F500
G1 X11.426 Y8.047 Z-1.500 F500
G1 X11.372 Y8.019 Z-1.500 F500
G1 X11.343 Y7.981 Z-1.495 F500
G1 X11.315 Y7.945 Z-1.480 F500
G1 X11.289 Y7.913 Z-1.457 F500
G1 X11.281 Y7.882 Z-1.430 F500
G1 X11.274 Y7.856 Z-1.398 F500
G1 X11.273 Y7.838 Z-1.367 F500
G1 X11.272 Y7.824 Z-1.334 F500
G1 X11.272 Y7.816 Z-1.298 F500
G1 X11.272 Y7.813 Z-1.262 F500
G1 X11.272 Y7.813 Z5.000 F500
G1 X7.156 Y8.693 Z5.000 F500
G1 X7.156 Y8.693 Z1.000 F500
G1 X7.113 Y8.563 Z0.995 F100
G1 X7.085 Y8.430 Z0.990 F100
G1 X7.072 Y8.294 Z0.986 F100
G1 X7.075 Y8.157 Z0.981 F100
G1 X7.094 Y8.022 Z0.976 F100
G1 X7.129 Y7.890 Z0.971 F100
G1 X7.178 Y7.763 Z0.967 F100
G1 X7.242 Y7.642 Z0.962 F100
G1 X7.319 Y7.530 Z0.957 F100
G1 X7.409 Y7.427 Z0.952 F100
G1 X7.510 Y7.335 Z0.948 F100
G1 X7.621 Y7.255 Z0.943 F100
G1 X7.740 Y7.189 Z0.938 F100
G1 X7.866 Y7.137 Z0.933 F100
G1 X7.997 Y7.099 Z0.928 F100
G1 X8.132 Y7.078 Z0.924 F100
G1 X8.269 Y7.071 Z0.919 F100
G1 X8.405 Y7.081 Z0.914 F100
G1 X8.539 Y7.106 Z0.909 F100
G1 X8.669 Y7.146 Z0.905 F100
G1 X8.794 Y7.202 Z0.900 F100
G1 X8.911 Y7.271 Z0.895 F100
G1 X9.020 Y7.353 Z0.890 F100
G1 X9.118 Y7.447 Z0.886 F100
G1 X9.205 Y7.552 Z0.881 F100
G1 X9.280 Y7.666 Z0.876 F100
G1 X9.341 Y7.788 Z0.871 F100
G1 X9.387 Y7.917 Z0.866 F100
G1 X9.418 Y8.049 Z0.862 F100
G1 X9.434 Y8.185 Z0.857 F100
G1 X9.434 Y8.321 Z0.852 F100
G1 X9.418 Y8.457 Z0.847 F100
G1 X9.387 Y8.589 Z0.843 F100
G1 X9.340 Y8.717 Z0.838 F100
G1 X9.280 Y8.839 Z0.833 F100
G1 X9.205 Y8.953 Z0.828 F100
G1 X9.118 Y9.058 Z0.824 F100
G1 X9.020 Y9.152 Z0.819 F100
G1 X8.911 Y9.234 Z0.814 F100
G1 X8.794 Y9.303 Z0.809 F100
G1 X8.669 Y9.358 Z0.804 F100
G1 X8.539 Y9.398 Z0.800 F100
G1 X8.405 Y9.423 Z0.795 F100
G1 X8.269 Y9.433 Z0.790 F100
G1 X8.133 Y9.427 Z0.785 F100
G1 X7.999 Y9.405 Z0.781 F100
G1 X7.868 Y9.367 Z0.776 F100
G1 X7.742 Y9.315 Z0.771 F100
G1 X7.623 Y9.249 Z0.766 F100
G1 X7.512 Y9.170 Z0.762 F100
G1 X7.412 Y9.078 Z0.757 F100
G1 X7.322 Y8.975 Z0.752 F100
G1 X7.246 Y8.863 Z0.747 F100
G1 X7.182 Y8.743 Z0.742 F100
G1 X7.133 Y8.616 Z0.738 F100
G1 X7.099 Y8.484 Z0.733 F100
G1 X7.080 Y8.350 Z0.728 F100
G1 X7.077 Y8.214 Z0.723 F100
G1 X7.089 Y8.078 Z0.719 F100
G1 X7.117 Y7.945 Z0.714 F100
G1 X7.161 Y7.816 Z0.709 F100
G1 X7.218 Y7.693 Z0.704 F100
G1 X7.290 Y7.577 Z0.700 F100
G1 X7.374 Y7.471 Z0.695 F100
G1 X7.470 Y7.374 Z0.690 F100
G1 X7.577 Y7.290 Z0.685 F100
G1 X7.693 Y7.218 Z0.680 F100
G1 X7.816 Y7.160 Z0.676 F100
G1 X7.944 Y7.117 Z0.671 F100
G1 X8.077 Y7.089 Z0.666 F100
G1 X8.213 Y7.076 Z0.661 F100
G1 X8.348 Y7.080 Z0.657 F100
G1 X8.483 Y7.098 Z0.652 F100
G1 X8.615 Y7.132 Z0.647 F100
G1 X8.741 Y7.181 Z0.642 F100
G1 X8.861 Y7.245 Z0.638 F100
G1 X8.974 Y7.321 Z0.633 F100
G1 X9.076 Y7.410 Z0.628 F100
G1 X9.168 Y7.511 Z0.623 F100
G1 X9.247 Y7.621 Z0.618 F100
G1 X9.313 Y7.740 Z0.614 F100
G1 X9.365 Y7.865 Z0.609 F100
G1 X9.403 Y7.996 Z0.604 F100
G1 X9.425 Y8.130 Z0.599 F100
G1 X9.431 Y8.265 Z0.595 F100
G1 X9.422 Y8.401 Z0.590 F100
G1 X9.397 Y8.534 Z0.585 F100
G1 X9.357 Y8.664 Z0.580 F100
G1 X9.302 Y8.788 Z0.576 F100
G1 X9.234 Y8.905 Z0.571 F100
G1 X9.152 Y9.013 Z0.566 F100
G1 X9.058 Y9.112 Z0.561 F100
G1 X8.954 Y9.198 Z0.556 F100
G1 X8.840 Y9.273 Z0.552 F100
G1 X8.719 Y9.333 Z0.547 F100
G1 X8.591 Y9.379 Z0.542 F100
G1 X8.459 Y9.411 Z0.537 F100
G1 X8.325 Y9.426 Z0.533 F100
G1 X8.189 Y9.427 Z0.528 F100
G1 X8.054 Y9.411 Z0.523 F100
G1 X7.922 Y9.380 Z0.518 F100
G1 X7.794 Y9.334 Z0.514 F100
G1 X7.673 Y9.274 Z0.509 F100
G1 X7.559 Y9.200 Z0.504 F100
G1 X7.455 Y9.114 Z0.499 F100
G1 X7.361 Y9.016 Z0.494 F100
G1 X7.279 Y8.908 Z0.490 F100
G1 X7.211 Y8.791 Z0.485 F100
G1 X7.156 Y8.667 Z0.480 F100
G1 X7.115 Y8.538 Z0.475 F100
G1 X7.090 Y8.404 Z0.471 F100
G1 X7.081 Y8.269 Z0.466 F100
G1 X7.087 Y8.134 Z0.461 F100
G1 X7.108 Y8.000 Z0.456 F100
G1 X7.145 Y7.870 Z0.452 F100
G1 X7.197 Y7.744 Z0.447 F100
G1 X7.263 Y7.626 Z0.442 F100
G1 X7.342 Y7.516 Z0.437 F100
G1 X7.433 Y7.415 Z0.432 F100
G1 X7.535 Y7.326 Z0.428 F100
G1 X7.647 Y7.250 Z0.423 F100
G1 X7.766 Y7.186 Z0.418 F100
G1 X7.892 Y7.137 Z0.413 F100
G1 X8.023 Y7.103 Z0.409 F100
G1 X8.157 Y7.084 Z0.404 F100
G1 X8.293 Y7.081 Z0.399 F100
G1 X8.427 Y7.093 Z0.394 F100
G1 X8.560 Y7.121 Z0.390 F100
G1 X8.688 Y7.164 Z0.385 F100
G1 X8.811 Y7.221 Z0.380 F100
G1 X8.926 Y7.292 Z0.375 F100
G1 X9.032 Y7.376 Z0.370 F100
G1 X9.128 Y7.472 Z0.366 F100
G1 X9.213 Y7.577 Z0.361 F100
G1 X9.284 Y7.692 Z0.356 F100
G1 X9.342 Y7.815 Z0.351 F100
G1 X9.385 Y7.943 Z0.347 F100
G1 X9.413 Y8.075 Z0.342 F100
G1 X9.426 Y8.210 Z0.337 F100
G1 X9.423 Y8.345 Z0.332 F100
G1 X9.405 Y8.479 Z0.328 F100
G1 X9.371 Y8.610 Z0.323 F100
G1 X9.322 Y8.736 Z0.318 F100
G1 X9.259 Y8.856 Z0.313 F100
G1 X9.183 Y8.967 Z0.308 F100
G1 X9.095 Y9.070 Z0.304 F100
G1 X8.995 Y9.161 Z0.299 F100
G1 X8.885 Y9.240 Z0.294 F100
G1 X8.767 Y9.306 Z0.289 F100
G1 X8.643 Y9.358 Z0.285 F100
G1 X8.513 Y9.395 Z0.280 F100
G1 X8.379 Y9.417 Z0.275 F100
G1 X8.244 Y9.424 Z0.270 F100
G1 X8.109 Y9.415 Z0.266 F100
G1 X7.977 Y9.390 Z0.261 F100
G1 X7.848 Y9.351 Z0.256 F100
G1 X7.724 Y9.296 Z0.251 F100
G1 X7.607 Y9.228 Z0.246 F100
G1 X7.499 Y9.147 Z0.242 F100
G1 X7.402 Y9.054 Z0.237 F100
G1 X7.315 Y8.950 Z0.232 F100
G1 X7.241 Y8.837 Z0.227 F100
G1 X7.181 Y8.717 Z0.223 F100
G1 X7.134 Y8.590 Z0.218 F100
G1 X7.103 Y8.458 Z0.213 F100
G1 X7.087 Y8.324 Z0.208 F100
G1 X7.087 Y8.189 Z0.203 F100
G1 X7.102 Y8.055 Z0.199 F100
G1 X7.133 Y7.924 Z0.194 F100
G1 X7.178 Y7.796 Z0.189 F100
G1 X7.238 Y7.676 Z0.184 F100
G1 X7.312 Y7.562 Z0.180 F100
G1 X7.397 Y7.458 Z0.175 F100
G1 X7.495 Y7.365 Z0.170 F100
G1 X7.602 Y7.283 Z0.165 F100
G1 X7.718 Y7.215 Z0.161 F100
G1 X7.842 Y7.160 Z0.156 F100
G1 X7.970 Y7.120 Z0.151 F100
G1 X8.103 Y7.095 Z0.146 F100
G1 X8.237 Y7.085 Z0.141 F100
G1 X8.372 Y7.091 Z0.137 F100
G1 X8.505 Y7.112 Z0.132 F100
G1 X8.635 Y7.149 Z0.127 F100
G1 X8.760 Y7.200 Z0.122 F100
G1 X8.878 Y7.265 Z0.118 F100
G1 X8.987 Y7.344 Z0.113 F100
G1 X9.087 Y7.434 Z0.108 F100
G1 X9.176 Y7.536 Z0.103 F100
G1 X9.253 Y7.647 Z0.099 F100
G1 X9.316 Y7.766 Z0.094 F100
G1 X9.365 Y7.891 Z0.089 F100
G1 X9.399 Y8.021 Z0.084 F100
G1 X9.418 Y8.155 Z0.079 F100
G1 X9.421 Y8.289 Z0.075 F100
G1 X9.409 Y8.424 Z0.070 F100
G1 X9.382 Y8.556 Z0.065 F100
G1 X9.340 Y8.683 Z0.060 F100
G1 X9.283 Y8.805 Z0.056 F100
G1 X9.212 Y8.920 Z0.051 F100
G1 X9.129 Y9.026 Z0.046 F100
G1 X9.034 Y9.122 Z0.041 F100
G1 X8.929 Y9.206 Z0.037 F100
G1 X8.814 Y9.277 Z0.032 F100
G1 X8.692 Y9.334 Z0.027 F100
G1 X8.565 Y9.378 Z0.022 F100
G1 X8.433 Y9.406 Z0.017 F100
G1 X8.300 Y9.419 Z0.013 F100
G1 X8.165 Y9.416 Z0.008 F100
G1 X8.032 Y9.398 Z0.003 F100
G1 X7.901 Y9.364 Z-0.002 F100
G1 X7.776 Y9.316 Z-0.006 F100
G1 X7.657 Y9.254 Z-0.011 F100
G1 X7.545 Y9.178 Z-0.016 F100
G1 X7.443 Y9.090 Z-0.021 F100
G1 X7.353 Y8.991 Z-0.025 F100
G1 X7.274 Y8.882 Z-0.030 F100
G1 X7.208 Y8.765 Z-0.035 F100
G1 X7.156 Y8.641 Z-0.040 F100
G1 X7.119 Y8.511 Z-0.045 F100
G1 X7.096 Y8.379 Z-0.049 F100
G1 X7.090 Y8.244 Z-0.054 F100
G1 X7.099 Y8.110 Z-0.059 F100
G1 X7.123 Y7.978 Z-0.064 F100
G1 X7.162 Y7.850 Z-0.068 F100
G1 X7.216 Y7.726 Z-0.073 F100
G1 X7.284 Y7.610 Z-0.078 F100
