;Titan-1-Nomad-Drilling
;Now at Henrietta Hankin!
;Machine
;vendor: Snapmaker
;model: Desktop CNC
;description: Generic Snapmaker Marlin v20180725
M3 S10000
G4 S2 P2
G21
G90

;Titan-1-Nomad-Drilling
G0 X1.270 Y1.270 Z16.825
G0 X1.270 Y1.270 Z16.825
G0 X1.270 Y1.270 Z16.825
G0 X1.270 Y1.270 Z6.825
G0 X1.270 Y1.270 Z4.780
G0 X1.270 Y1.270 Z1.780
G1 X1.270 Y1.270 Z-0.520 F300
G0 X1.270 Y1.270 Z4.780
G0 X1.270 Y1.270 Z1.480
G1 X1.270 Y1.270 Z-0.820 F300
G0 X1.270 Y1.270 Z4.780
G0 X1.270 Y1.270 Z1.180
G1 X1.270 Y1.270 Z-1.120 F300
G0 X1.270 Y1.270 Z4.780
G0 X1.270 Y1.270 Z0.880
G1 X1.270 Y1.270 Z-1.420 F300
G0 X1.270 Y1.270 Z4.780
G0 X1.270 Y1.270 Z0.580
G1 X1.270 Y1.270 Z-1.720 F300
G0 X1.270 Y1.270 Z4.780
G0 X1.270 Y1.270 Z0.280
G1 X1.270 Y1.270 Z-2.020 F300
G0 X1.270 Y1.270 Z4.780
G0 X1.270 Y1.270 Z-0.020
G1 X1.270 Y1.270 Z-2.320 F300
G0 X1.270 Y1.270 Z4.780
G0 X1.270 Y1.270 Z-0.320
G1 X1.270 Y1.270 Z-2.620 F300
G0 X1.270 Y1.270 Z4.780
G0 X1.270 Y1.270 Z-0.620
G1 X1.270 Y1.270 Z-2.920 F300
G0 X1.270 Y1.270 Z4.780
G0 X1.270 Y1.270 Z-0.920
G1 X1.270 Y1.270 Z-3.220 F300
G0 X1.270 Y1.270 Z4.780
G0 X1.270 Y1.270 Z-1.220
G1 X1.270 Y1.270 Z-3.520 F300
G0 X1.270 Y1.270 Z4.780
G0 X1.270 Y1.270 Z-1.520
G1 X1.270 Y1.270 Z-3.617 F300
G0 X1.270 Y1.270 Z6.825
G0 X1.270 Y14.815 Z6.825
G0 X1.270 Y14.815 Z6.825
G0 X1.270 Y14.815 Z4.780
G0 X1.270 Y14.815 Z1.780
G1 X1.270 Y14.815 Z-0.520 F300
G0 X1.270 Y14.815 Z4.780
G0 X1.270 Y14.815 Z1.480
G1 X1.270 Y14.815 Z-0.820 F300
G0 X1.270 Y14.815 Z4.780
G0 X1.270 Y14.815 Z1.180
G1 X1.270 Y14.815 Z-1.120 F300
G0 X1.270 Y14.815 Z4.780
G0 X1.270 Y14.815 Z0.880
G1 X1.270 Y14.815 Z-1.420 F300
G0 X1.270 Y14.815 Z4.780
G0 X1.270 Y14.815 Z0.580
G1 X1.270 Y14.815 Z-1.720 F300
G0 X1.270 Y14.815 Z4.780
G0 X1.270 Y14.815 Z0.280
G1 X1.270 Y14.815 Z-2.020 F300
G0 X1.270 Y14.815 Z4.780
G0 X1.270 Y14.815 Z-0.020
G1 X1.270 Y14.815 Z-2.320 F300
G0 X1.270 Y14.815 Z4.780
G0 X1.270 Y14.815 Z-0.320
G1 X1.270 Y14.815 Z-2.620 F300
G0 X1.270 Y14.815 Z4.780
G0 X1.270 Y14.815 Z-0.620
G1 X1.270 Y14.815 Z-2.920 F300
G0 X1.270 Y14.815 Z4.780
G0 X1.270 Y14.815 Z-0.920
G1 X1.270 Y14.815 Z-3.220 F300
G0 X1.270 Y14.815 Z4.780
G0 X1.270 Y14.815 Z-1.220
G1 X1.270 Y14.815 Z-3.520 F300
G0 X1.270 Y14.815 Z4.780
G0 X1.270 Y14.815 Z-1.520
G1 X1.270 Y14.815 Z-3.617 F300
G0 X1.270 Y14.815 Z6.825
G0 X9.736 Y13.545 Z6.825
G0 X9.736 Y13.545 Z6.825
G0 X9.736 Y13.545 Z4.780
G0 X9.736 Y13.545 Z1.780
G1 X9.736 Y13.545 Z-0.520 F300
G0 X9.736 Y13.545 Z4.780
G0 X9.736 Y13.545 Z1.480
G1 X9.736 Y13.545 Z-0.820 F300
G0 X9.736 Y13.545 Z4.780
G0 X9.736 Y13.545 Z1.180
G1 X9.736 Y13.545 Z-1.120 F300
G0 X9.736 Y13.545 Z4.780
G0 X9.736 Y13.545 Z0.880
G1 X9.736 Y13.545 Z-1.420 F300
G0 X9.736 Y13.545 Z4.780
G0 X9.736 Y13.545 Z0.580
G1 X9.736 Y13.545 Z-1.720 F300
G0 X9.736 Y13.545 Z4.780
G0 X9.736 Y13.545 Z0.280
G1 X9.736 Y13.545 Z-2.020 F300
G0 X9.736 Y13.545 Z4.780
G0 X9.736 Y13.545 Z-0.020
G1 X9.736 Y13.545 Z-2.320 F300
G0 X9.736 Y13.545 Z4.780
G0 X9.736 Y13.545 Z-0.320
G1 X9.736 Y13.545 Z-2.620 F300
G0 X9.736 Y13.545 Z4.780
G0 X9.736 Y13.545 Z-0.620
G1 X9.736 Y13.545 Z-2.920 F300
G0 X9.736 Y13.545 Z4.780
G0 X9.736 Y13.545 Z-0.920
G1 X9.736 Y13.545 Z-3.220 F300
G0 X9.736 Y13.545 Z4.780
G0 X9.736 Y13.545 Z-1.220
G1 X9.736 Y13.545 Z-3.520 F300
G0 X9.736 Y13.545 Z4.780
G0 X9.736 Y13.545 Z-1.520
G1 X9.736 Y13.545 Z-3.617 F300
G0 X9.736 Y13.545 Z6.825
G0 X16.932 Y5.791 Z6.825
G0 X16.932 Y5.791 Z6.825
G0 X16.932 Y5.791 Z4.780
G0 X16.932 Y5.791 Z1.780
G1 X16.932 Y5.791 Z-0.520 F300
G0 X16.932 Y5.791 Z4.780
G0 X16.932 Y5.791 Z1.480
G1 X16.932 Y5.791 Z-0.820 F300
G0 X16.932 Y5.791 Z4.780
G0 X16.932 Y5.791 Z1.180
G1 X16.932 Y5.791 Z-1.120 F300
G0 X16.932 Y5.791 Z4.780
G0 X16.932 Y5.791 Z0.880
G1 X16.932 Y5.791 Z-1.420 F300
G0 X16.932 Y5.791 Z4.780
G0 X16.932 Y5.791 Z0.580
G1 X16.932 Y5.791 Z-1.720 F300
G0 X16.932 Y5.791 Z4.780
G0 X16.932 Y5.791 Z0.280
G1 X16.932 Y5.791 Z-2.020 F300
G0 X16.932 Y5.791 Z4.780
G0 X16.932 Y5.791 Z-0.020
G1 X16.932 Y5.791 Z-2.320 F300
G0 X16.932 Y5.791 Z4.780
G0 X16.932 Y5.791 Z-0.320
G1 X16.932 Y5.791 Z-2.620 F300
G0 X16.932 Y5.791 Z4.780
G0 X16.932 Y5.791 Z-0.620
G1 X16.932 Y5.791 Z-2.920 F300
G0 X16.932 Y5.791 Z4.780
G0 X16.932 Y5.791 Z-0.920
G1 X16.932 Y5.791 Z-3.220 F300
G0 X16.932 Y5.791 Z4.780
G0 X16.932 Y5.791 Z-1.220
G1 X16.932 Y5.791 Z-3.520 F300
G0 X16.932 Y5.791 Z4.780
G0 X16.932 Y5.791 Z-1.520
G1 X16.932 Y5.791 Z-3.617 F300
G0 X16.932 Y5.791 Z6.825
G0 X24.128 Y13.545 Z6.825
G0 X24.128 Y13.545 Z6.825
G0 X24.128 Y13.545 Z4.780
G0 X24.128 Y13.545 Z1.780
G1 X24.128 Y13.545 Z-0.520 F300
G0 X24.128 Y13.545 Z4.780
G0 X24.128 Y13.545 Z1.480
G1 X24.128 Y13.545 Z-0.820 F300
G0 X24.128 Y13.545 Z4.780
G0 X24.128 Y13.545 Z1.180
G1 X24.128 Y13.545 Z-1.120 F300
G0 X24.128 Y13.545 Z4.780
G0 X24.128 Y13.545 Z0.880
G1 X24.128 Y13.545 Z-1.420 F300
G0 X24.128 Y13.545 Z4.780
G0 X24.128 Y13.545 Z0.580
G1 X24.128 Y13.545 Z-1.720 F300
G0 X24.128 Y13.545 Z4.780
G0 X24.128 Y13.545 Z0.280
G1 X24.128 Y13.545 Z-2.020 F300
G0 X24.128 Y13.545 Z4.780
G0 X24.128 Y13.545 Z-0.020
G1 X24.128 Y13.545 Z-2.320 F300
G0 X24.128 Y13.545 Z4.780
G0 X24.128 Y13.545 Z-0.320
G1 X24.128 Y13.545 Z-2.620 F300
G0 X24.128 Y13.545 Z4.780
G0 X24.128 Y13.545 Z-0.620
G1 X24.128 Y13.545 Z-2.920 F300
G0 X24.128 Y13.545 Z4.780
G0 X24.128 Y13.545 Z-0.920
G1 X24.128 Y13.545 Z-3.220 F300
G0 X24.128 Y13.545 Z4.780
G0 X24.128 Y13.545 Z-1.220
G1 X24.128 Y13.545 Z-3.520 F300
G0 X24.128 Y13.545 Z4.780
G0 X24.128 Y13.545 Z-1.520
G1 X24.128 Y13.545 Z-3.617 F300
G0 X24.128 Y13.545 Z6.825
G0 X32.593 Y14.815 Z6.825
G0 X32.593 Y14.815 Z6.825
G0 X32.593 Y14.815 Z4.780
G0 X32.593 Y14.815 Z1.780
G1 X32.593 Y14.815 Z-0.520 F300
G0 X32.593 Y14.815 Z4.780
G0 X32.593 Y14.815 Z1.480
G1 X32.593 Y14.815 Z-0.820 F300
G0 X32.593 Y14.815 Z4.780
G0 X32.593 Y14.815 Z1.180
G1 X32.593 Y14.815 Z-1.120 F300
G0 X32.593 Y14.815 Z4.780
G0 X32.593 Y14.815 Z0.880
G1 X32.593 Y14.815 Z-1.420 F300
G0 X32.593 Y14.815 Z4.780
G0 X32.593 Y14.815 Z0.580
G1 X32.593 Y14.815 Z-1.720 F300
G0 X32.593 Y14.815 Z4.780
G0 X32.593 Y14.815 Z0.280
G1 X32.593 Y14.815 Z-2.020 F300
G0 X32.593 Y14.815 Z4.780
G0 X32.593 Y14.815 Z-0.020
G1 X32.593 Y14.815 Z-2.320 F300
G0 X32.593 Y14.815 Z4.780
G0 X32.593 Y14.815 Z-0.320
G1 X32.593 Y14.815 Z-2.620 F300
G0 X32.593 Y14.815 Z4.780
G0 X32.593 Y14.815 Z-0.620
G1 X32.593 Y14.815 Z-2.920 F300
G0 X32.593 Y14.815 Z4.780
G0 X32.593 Y14.815 Z-0.920
G1 X32.593 Y14.815 Z-3.220 F300
G0 X32.593 Y14.815 Z4.780
G0 X32.593 Y14.815 Z-1.220
G1 X32.593 Y14.815 Z-3.520 F300
G0 X32.593 Y14.815 Z4.780
G0 X32.593 Y14.815 Z-1.520
G1 X32.593 Y14.815 Z-3.617 F300
G0 X32.593 Y14.815 Z6.825
G0 X32.593 Y1.270 Z6.825
G0 X32.593 Y1.270 Z6.825
G0 X32.593 Y1.270 Z4.780
G0 X32.593 Y1.270 Z1.780
G1 X32.593 Y1.270 Z-0.520 F300
G0 X32.593 Y1.270 Z4.780
G0 X32.593 Y1.270 Z1.480
G1 X32.593 Y1.270 Z-0.820 F300
G0 X32.593 Y1.270 Z4.780
G0 X32.593 Y1.270 Z1.180
G1 X32.593 Y1.270 Z-1.120 F300
G0 X32.593 Y1.270 Z4.780
G0 X32.593 Y1.270 Z0.880
G1 X32.593 Y1.270 Z-1.420 F300
G0 X32.593 Y1.270 Z4.780
G0 X32.593 Y1.270 Z0.580
G1 X32.593 Y1.270 Z-1.720 F300
G0 X32.593 Y1.270 Z4.780
G0 X32.593 Y1.270 Z0.280
G1 X32.593 Y1.270 Z-2.020 F300
G0 X32.593 Y1.270 Z4.780
G0 X32.593 Y1.270 Z-0.020
G1 X32.593 Y1.270 Z-2.320 F300
G0 X32.593 Y1.270 Z4.780
G0 X32.593 Y1.270 Z-0.320
G1 X32.593 Y1.270 Z-2.620 F300
G0 X32.593 Y1.270 Z4.780
G0 X32.593 Y1.270 Z-0.620
G1 X32.593 Y1.270 Z-2.920 F300
G0 X32.593 Y1.270 Z4.780
G0 X32.593 Y1.270 Z-0.920
G1 X32.593 Y1.270 Z-3.220 F300
G0 X32.593 Y1.270 Z4.780
G0 X32.593 Y1.270 Z-1.220
G1 X32.593 Y1.270 Z-3.520 F300
G0 X32.593 Y1.270 Z4.780
G0 X32.593 Y1.270 Z-1.520
G1 X32.593 Y1.270 Z-3.617 F300
G0 X32.593 Y1.270 Z6.825
G0 X32.593 Y1.270 Z16.825
G0 X0.000 Y0.000
M5
