;Titan-1-Nomad-Countersinks
;Now at Henrietta Hankin!
;Machine
;vendor: Snapmaker
;model: Desktop CNC
;description: Generic Snapmaker Marlin v20180725
M3 S10000
G4 S2 P2
G21
G90

;Drill12
G0 X1.270 Y1.270 Z16.825
G0 X1.270 Y1.270 Z16.825
G0 X1.270 Y1.270 Z16.825
G0 X1.270 Y1.270 Z6.825
G0 X1.270 Y1.270 Z5.000
G1 X1.270 Y1.270 Z-0.557 F166.7
G0 X1.270 Y1.270 Z6.825
G0 X1.270 Y14.815 Z6.825
G0 X1.270 Y14.815 Z6.825
G0 X1.270 Y14.815 Z5.000
G1 X1.270 Y14.815 Z-0.557 F166.7
G0 X1.270 Y14.815 Z6.825
G0 X9.736 Y13.545 Z6.825
G0 X9.736 Y13.545 Z6.825
G0 X9.736 Y13.545 Z5.000
G1 X9.736 Y13.545 Z-0.557 F166.7
G0 X9.736 Y13.545 Z6.825
G0 X16.932 Y5.791 Z6.825
G0 X16.932 Y5.791 Z6.825
G0 X16.932 Y5.791 Z5.000
G1 X16.932 Y5.791 Z-0.557 F166.7
G0 X16.932 Y5.791 Z6.825
G0 X24.128 Y13.545 Z6.825
G0 X24.128 Y13.545 Z6.825
G0 X24.128 Y13.545 Z5.000
G1 X24.128 Y13.545 Z-0.557 F166.7
G0 X24.128 Y13.545 Z6.825
G0 X32.593 Y14.815 Z6.825
G0 X32.593 Y14.815 Z6.825
G0 X32.593 Y14.815 Z5.000
G1 X32.593 Y14.815 Z-0.557 F166.7
G0 X32.593 Y14.815 Z6.825
G0 X32.593 Y1.270 Z6.825
G0 X32.593 Y1.270 Z6.825
G0 X32.593 Y1.270 Z5.000
G1 X32.593 Y1.270 Z-0.557 F166.7
G0 X32.593 Y1.270 Z6.825
G0 X32.593 Y1.270 Z16.825
G0 X0.000 Y0.000
M5
