;Titan-1-Edge-Bite-Face
;Machine
;vendor: Snapmaker
;model: Desktop CNC
;description: Generic Snapmaker Marlin v20180725
M3 S18000
G4 S2 P2
G21
G90
;When using Fusion for Personal Use, the feedrate of rapid
;moves is reduced to match the feedrate of cutting moves,
;which can increase machining time. Unrestricted rapid moves
;are available with a Fusion Subscription.

;Long Edge Squaring
G0 X0.452 Y-2.064 Z15.000
G1 X0.452 Y-2.064 Z15.000 F200
G1 X0.452 Y-2.064 Z0.218 F200
G1 X0.452 Y-2.056 Z0.147 F200
G1 X0.452 Y-2.032 Z0.080 F200
G1 X0.452 Y-1.994 Z0.020 F200
G1 X0.452 Y-1.944 Z-0.031 F200
G1 X0.452 Y-1.884 Z-0.069 F200
G1 X0.452 Y-1.817 Z-0.092 F200
G1 X0.452 Y-1.746 Z-0.100 F200
G1 X0.452 Y-1.597 Z-0.100 F200
G1 X0.452 Y41.597 Z-0.100 F200
G1 X0.460 Y41.724 Z-0.100 F200
G1 X0.484 Y41.848 Z-0.100 F200
G1 X0.523 Y41.968 Z-0.100 F200
G1 X0.577 Y42.083 Z-0.100 F200
G1 X0.645 Y42.190 Z-0.100 F200
G1 X0.725 Y42.287 Z-0.100 F200
G1 X0.817 Y42.374 Z-0.100 F200
G1 X0.920 Y42.448 Z-0.100 F200
G1 X1.031 Y42.509 Z-0.100 F200
G1 X1.148 Y42.556 Z-0.100 F200
G1 X1.271 Y42.587 Z-0.100 F200
G1 X1.396 Y42.603 Z-0.100 F200
G1 X1.523 Y42.603 Z-0.100 F200
G1 X1.648 Y42.587 Z-0.100 F200
G1 X1.771 Y42.556 Z-0.100 F200
G1 X1.888 Y42.509 Z-0.100 F200
G1 X1.999 Y42.448 Z-0.100 F200
G1 X2.102 Y42.374 Z-0.100 F200
G1 X2.194 Y42.287 Z-0.100 F200
G1 X2.274 Y42.190 Z-0.100 F200
G1 X2.342 Y42.083 Z-0.100 F200
G1 X2.396 Y41.968 Z-0.100 F200
G1 X2.435 Y41.848 Z-0.100 F200
G1 X2.459 Y41.724 Z-0.100 F200
G1 X2.467 Y41.597 Z-0.100 F200
G1 X2.467 Y-1.597 Z-0.100 F200
G1 X2.467 Y-1.668 Z-0.092 F200
G1 X2.467 Y-1.735 Z-0.069 F200
G1 X2.467 Y-1.795 Z-0.031 F200
G1 X2.467 Y-1.846 Z0.020 F200
G1 X2.467 Y-1.884 Z0.080 F200
G1 X2.467 Y-1.907 Z0.147 F200
G1 X2.467 Y-1.915 Z0.218 F200
G1 X2.467 Y-1.915 Z5.000 F200
G1 X0.452 Y-2.064 Z5.000 F200
G1 X0.452 Y-2.064 Z0.117 F200
G1 X0.452 Y-2.056 Z0.047 F200
G1 X0.452 Y-2.032 Z-0.020 F200
G1 X0.452 Y-1.994 Z-0.080 F200
G1 X0.452 Y-1.944 Z-0.131 F200
G1 X0.452 Y-1.884 Z-0.169 F200
G1 X0.452 Y-1.817 Z-0.192 F200
G1 X0.452 Y-1.746 Z-0.200 F200
G1 X0.452 Y-1.597 Z-0.200 F200
G1 X0.452 Y41.597 Z-0.200 F200
G1 X0.460 Y41.724 Z-0.200 F200
G1 X0.484 Y41.848 Z-0.200 F200
G1 X0.523 Y41.968 Z-0.200 F200
G1 X0.577 Y42.083 Z-0.200 F200
G1 X0.645 Y42.190 Z-0.200 F200
G1 X0.725 Y42.287 Z-0.200 F200
G1 X0.817 Y42.374 Z-0.200 F200
G1 X0.920 Y42.448 Z-0.200 F200
G1 X1.031 Y42.509 Z-0.200 F200
G1 X1.148 Y42.556 Z-0.200 F200
G1 X1.271 Y42.587 Z-0.200 F200
G1 X1.396 Y42.603 Z-0.200 F200
G1 X1.523 Y42.603 Z-0.200 F200
G1 X1.648 Y42.587 Z-0.200 F200
G1 X1.771 Y42.556 Z-0.200 F200
G1 X1.888 Y42.509 Z-0.200 F200
G1 X1.999 Y42.448 Z-0.200 F200
G1 X2.102 Y42.374 Z-0.200 F200
G1 X2.194 Y42.287 Z-0.200 F200
G1 X2.274 Y42.190 Z-0.200 F200
G1 X2.342 Y42.083 Z-0.200 F200
G1 X2.396 Y41.968 Z-0.200 F200
G1 X2.435 Y41.848 Z-0.200 F200
G1 X2.459 Y41.724 Z-0.200 F200
G1 X2.467 Y41.597 Z-0.200 F200
G1 X2.467 Y-1.597 Z-0.200 F200
G1 X2.467 Y-1.668 Z-0.192 F200
G1 X2.467 Y-1.735 Z-0.169 F200
G1 X2.467 Y-1.795 Z-0.131 F200
G1 X2.467 Y-1.846 Z-0.080 F200
G1 X2.467 Y-1.884 Z-0.020 F200
G1 X2.467 Y-1.907 Z0.047 F200
G1 X2.467 Y-1.915 Z0.117 F200
G1 X2.467 Y-1.915 Z5.000 F200
G1 X0.452 Y-2.064 Z5.000 F200
G1 X0.452 Y-2.064 Z0.100 F200
G1 X0.452 Y-2.064 Z0.018 F200
G1 X0.452 Y-2.056 Z-0.053 F200
G1 X0.452 Y-2.032 Z-0.120 F200
G1 X0.452 Y-1.994 Z-0.180 F200
G1 X0.452 Y-1.944 Z-0.231 F200
G1 X0.452 Y-1.884 Z-0.269 F200
G1 X0.452 Y-1.817 Z-0.292 F200
G1 X0.452 Y-1.746 Z-0.300 F200
G1 X0.452 Y-1.597 Z-0.300 F200
G1 X0.452 Y41.597 Z-0.300 F200
G1 X0.460 Y41.724 Z-0.300 F200
G1 X0.484 Y41.848 Z-0.300 F200
G1 X0.523 Y41.968 Z-0.300 F200
G1 X0.577 Y42.083 Z-0.300 F200
G1 X0.645 Y42.190 Z-0.300 F200
G1 X0.725 Y42.287 Z-0.300 F200
G1 X0.817 Y42.374 Z-0.300 F200
G1 X0.920 Y42.448 Z-0.300 F200
G1 X1.031 Y42.509 Z-0.300 F200
G1 X1.148 Y42.556 Z-0.300 F200
G1 X1.271 Y42.587 Z-0.300 F200
G1 X1.396 Y42.603 Z-0.300 F200
G1 X1.523 Y42.603 Z-0.300 F200
G1 X1.648 Y42.587 Z-0.300 F200
G1 X1.771 Y42.556 Z-0.300 F200
G1 X1.888 Y42.509 Z-0.300 F200
G1 X1.999 Y42.448 Z-0.300 F200
G1 X2.102 Y42.374 Z-0.300 F200
G1 X2.194 Y42.287 Z-0.300 F200
G1 X2.274 Y42.190 Z-0.300 F200
G1 X2.342 Y42.083 Z-0.300 F200
G1 X2.396 Y41.968 Z-0.300 F200
G1 X2.435 Y41.848 Z-0.300 F200
G1 X2.459 Y41.724 Z-0.300 F200
G1 X2.467 Y41.597 Z-0.300 F200
G1 X2.467 Y-1.597 Z-0.300 F200
G1 X2.467 Y-1.668 Z-0.292 F200
G1 X2.467 Y-1.735 Z-0.269 F200
G1 X2.467 Y-1.795 Z-0.231 F200
G1 X2.467 Y-1.846 Z-0.180 F200
G1 X2.467 Y-1.884 Z-0.120 F200
G1 X2.467 Y-1.907 Z-0.053 F200
G1 X2.467 Y-1.915 Z0.018 F200
G1 X2.467 Y-1.915 Z5.000 F200
G1 X0.452 Y-2.064 Z5.000 F200
G1 X0.452 Y-2.064 Z0.100 F200
G1 X0.452 Y-2.064 Z-0.083 F200
G1 X0.452 Y-2.056 Z-0.153 F200
G1 X0.452 Y-2.032 Z-0.220 F200
G1 X0.452 Y-1.994 Z-0.280 F200
G1 X0.452 Y-1.944 Z-0.331 F200
G1 X0.452 Y-1.884 Z-0.369 F200
G1 X0.452 Y-1.817 Z-0.392 F200
G1 X0.452 Y-1.746 Z-0.400 F200
G1 X0.452 Y-1.597 Z-0.400 F200
G1 X0.452 Y41.597 Z-0.400 F200
G1 X0.460 Y41.724 Z-0.400 F200
G1 X0.484 Y41.848 Z-0.400 F200
G1 X0.523 Y41.968 Z-0.400 F200
G1 X0.577 Y42.083 Z-0.400 F200
G1 X0.645 Y42.190 Z-0.400 F200
G1 X0.725 Y42.287 Z-0.400 F200
G1 X0.817 Y42.374 Z-0.400 F200
G1 X0.920 Y42.448 Z-0.400 F200
G1 X1.031 Y42.509 Z-0.400 F200
G1 X1.148 Y42.556 Z-0.400 F200
G1 X1.271 Y42.587 Z-0.400 F200
G1 X1.396 Y42.603 Z-0.400 F200
G1 X1.523 Y42.603 Z-0.400 F200
G1 X1.648 Y42.587 Z-0.400 F200
G1 X1.771 Y42.556 Z-0.400 F200
G1 X1.888 Y42.509 Z-0.400 F200
G1 X1.999 Y42.448 Z-0.400 F200
G1 X2.102 Y42.374 Z-0.400 F200
G1 X2.194 Y42.287 Z-0.400 F200
G1 X2.274 Y42.190 Z-0.400 F200
G1 X2.342 Y42.083 Z-0.400 F200
G1 X2.396 Y41.968 Z-0.400 F200
G1 X2.435 Y41.848 Z-0.400 F200
G1 X2.459 Y41.724 Z-0.400 F200
G1 X2.467 Y41.597 Z-0.400 F200
G1 X2.467 Y-1.597 Z-0.400 F200
G1 X2.467 Y-1.668 Z-0.392 F200
G1 X2.467 Y-1.735 Z-0.369 F200
G1 X2.467 Y-1.795 Z-0.331 F200
G1 X2.467 Y-1.846 Z-0.280 F200
G1 X2.467 Y-1.884 Z-0.220 F200
G1 X2.467 Y-1.907 Z-0.153 F200
G1 X2.467 Y-1.915 Z-0.083 F200
G1 X2.467 Y-1.915 Z5.000 F200
G1 X0.452 Y-2.064 Z5.000 F200
G1 X0.452 Y-2.064 Z0.100 F200
G1 X0.452 Y-2.064 Z-0.183 F200
G1 X0.452 Y-2.056 Z-0.253 F200
G1 X0.452 Y-2.032 Z-0.320 F200
G1 X0.452 Y-1.994 Z-0.380 F200
G1 X0.452 Y-1.944 Z-0.431 F200
G1 X0.452 Y-1.884 Z-0.469 F200
G1 X0.452 Y-1.817 Z-0.492 F200
G1 X0.452 Y-1.746 Z-0.500 F200
G1 X0.452 Y-1.597 Z-0.500 F200
G1 X0.452 Y41.597 Z-0.500 F200
G1 X0.460 Y41.724 Z-0.500 F200
G1 X0.484 Y41.848 Z-0.500 F200
G1 X0.523 Y41.968 Z-0.500 F200
G1 X0.577 Y42.083 Z-0.500 F200
G1 X0.645 Y42.190 Z-0.500 F200
G1 X0.725 Y42.287 Z-0.500 F200
G1 X0.817 Y42.374 Z-0.500 F200
G1 X0.920 Y42.448 Z-0.500 F200
G1 X1.031 Y42.509 Z-0.500 F200
G1 X1.148 Y42.556 Z-0.500 F200
G1 X1.271 Y42.587 Z-0.500 F200
G1 X1.396 Y42.603 Z-0.500 F200
G1 X1.523 Y42.603 Z-0.500 F200
G1 X1.648 Y42.587 Z-0.500 F200
G1 X1.771 Y42.556 Z-0.500 F200
G1 X1.888 Y42.509 Z-0.500 F200
G1 X1.999 Y42.448 Z-0.500 F200
G1 X2.102 Y42.374 Z-0.500 F200
G1 X2.194 Y42.287 Z-0.500 F200
G1 X2.274 Y42.190 Z-0.500 F200
G1 X2.342 Y42.083 Z-0.500 F200
G1 X2.396 Y41.968 Z-0.500 F200
G1 X2.435 Y41.848 Z-0.500 F200
G1 X2.459 Y41.724 Z-0.500 F200
G1 X2.467 Y41.597 Z-0.500 F200
G1 X2.467 Y-1.597 Z-0.500 F200
G1 X2.467 Y-1.668 Z-0.492 F200
G1 X2.467 Y-1.735 Z-0.469 F200
G1 X2.467 Y-1.795 Z-0.431 F200
G1 X2.467 Y-1.846 Z-0.380 F200
G1 X2.467 Y-1.884 Z-0.320 F200
G1 X2.467 Y-1.907 Z-0.253 F200
G1 X2.467 Y-1.915 Z-0.183 F200
G1 X2.467 Y-1.915 Z5.000 F200
G1 X0.452 Y-2.064 Z5.000 F200
G1 X0.452 Y-2.064 Z0.100 F200
G1 X0.452 Y-2.064 Z-0.282 F200
G1 X0.452 Y-2.056 Z-0.353 F200
G1 X0.452 Y-2.032 Z-0.420 F200
G1 X0.452 Y-1.994 Z-0.480 F200
G1 X0.452 Y-1.944 Z-0.531 F200
G1 X0.452 Y-1.884 Z-0.569 F200
G1 X0.452 Y-1.817 Z-0.592 F200
G1 X0.452 Y-1.746 Z-0.600 F200
G1 X0.452 Y-1.597 Z-0.600 F200
G1 X0.452 Y41.597 Z-0.600 F200
G1 X0.460 Y41.724 Z-0.600 F200
G1 X0.484 Y41.848 Z-0.600 F200
G1 X0.523 Y41.968 Z-0.600 F200
G1 X0.577 Y42.083 Z-0.600 F200
G1 X0.645 Y42.190 Z-0.600 F200
G1 X0.725 Y42.287 Z-0.600 F200
G1 X0.817 Y42.374 Z-0.600 F200
G1 X0.920 Y42.448 Z-0.600 F200
G1 X1.031 Y42.509 Z-0.600 F200
G1 X1.148 Y42.556 Z-0.600 F200
G1 X1.271 Y42.587 Z-0.600 F200
G1 X1.396 Y42.603 Z-0.600 F200
G1 X1.523 Y42.603 Z-0.600 F200
G1 X1.648 Y42.587 Z-0.600 F200
G1 X1.771 Y42.556 Z-0.600 F200
G1 X1.888 Y42.509 Z-0.600 F200
G1 X1.999 Y42.448 Z-0.600 F200
G1 X2.102 Y42.374 Z-0.600 F200
G1 X2.194 Y42.287 Z-0.600 F200
G1 X2.274 Y42.190 Z-0.600 F200
G1 X2.342 Y42.083 Z-0.600 F200
G1 X2.396 Y41.968 Z-0.600 F200
G1 X2.435 Y41.848 Z-0.600 F200
G1 X2.459 Y41.724 Z-0.600 F200
G1 X2.467 Y41.597 Z-0.600 F200
G1 X2.467 Y-1.597 Z-0.600 F200
G1 X2.467 Y-1.668 Z-0.592 F200
G1 X2.467 Y-1.735 Z-0.569 F200
G1 X2.467 Y-1.795 Z-0.531 F200
G1 X2.467 Y-1.846 Z-0.480 F200
G1 X2.467 Y-1.884 Z-0.420 F200
G1 X2.467 Y-1.907 Z-0.353 F200
G1 X2.467 Y-1.915 Z-0.282 F200
G1 X2.467 Y-1.915 Z5.000 F200
G1 X0.452 Y-2.064 Z5.000 F200
G1 X0.452 Y-2.064 Z0.100 F200
G1 X0.452 Y-2.064 Z-0.382 F200
G1 X0.452 Y-2.056 Z-0.453 F200
G1 X0.452 Y-2.032 Z-0.520 F200
G1 X0.452 Y-1.994 Z-0.580 F200
G1 X0.452 Y-1.944 Z-0.631 F200
G1 X0.452 Y-1.884 Z-0.669 F200
G1 X0.452 Y-1.817 Z-0.692 F200
G1 X0.452 Y-1.746 Z-0.700 F200
G1 X0.452 Y-1.597 Z-0.700 F200
G1 X0.452 Y41.597 Z-0.700 F200
G1 X0.460 Y41.724 Z-0.700 F200
G1 X0.484 Y41.848 Z-0.700 F200
G1 X0.523 Y41.968 Z-0.700 F200
G1 X0.577 Y42.083 Z-0.700 F200
G1 X0.645 Y42.190 Z-0.700 F200
G1 X0.725 Y42.287 Z-0.700 F200
G1 X0.817 Y42.374 Z-0.700 F200
G1 X0.920 Y42.448 Z-0.700 F200
G1 X1.031 Y42.509 Z-0.700 F200
G1 X1.148 Y42.556 Z-0.700 F200
G1 X1.271 Y42.587 Z-0.700 F200
G1 X1.396 Y42.603 Z-0.700 F200
G1 X1.523 Y42.603 Z-0.700 F200
G1 X1.648 Y42.587 Z-0.700 F200
G1 X1.771 Y42.556 Z-0.700 F200
G1 X1.888 Y42.509 Z-0.700 F200
G1 X1.999 Y42.448 Z-0.700 F200
G1 X2.102 Y42.374 Z-0.700 F200
G1 X2.194 Y42.287 Z-0.700 F200
G1 X2.274 Y42.190 Z-0.700 F200
G1 X2.342 Y42.083 Z-0.700 F200
G1 X2.396 Y41.968 Z-0.700 F200
G1 X2.435 Y41.848 Z-0.700 F200
G1 X2.459 Y41.724 Z-0.700 F200
G1 X2.467 Y41.597 Z-0.700 F200
G1 X2.467 Y-1.597 Z-0.700 F200
G1 X2.467 Y-1.668 Z-0.692 F200
G1 X2.467 Y-1.735 Z-0.669 F200
G1 X2.467 Y-1.795 Z-0.631 F200
G1 X2.467 Y-1.846 Z-0.580 F200
G1 X2.467 Y-1.884 Z-0.520 F200
G1 X2.467 Y-1.907 Z-0.453 F200
G1 X2.467 Y-1.915 Z-0.382 F200
G1 X2.467 Y-1.915 Z5.000 F200
G1 X0.452 Y-2.064 Z5.000 F200
G1 X0.452 Y-2.064 Z0.100 F200
G1 X0.452 Y-2.064 Z-0.482 F200
G1 X0.452 Y-2.056 Z-0.553 F200
G1 X0.452 Y-2.032 Z-0.620 F200
G1 X0.452 Y-1.994 Z-0.680 F200
G1 X0.452 Y-1.944 Z-0.731 F200
G1 X0.452 Y-1.884 Z-0.769 F200
G1 X0.452 Y-1.817 Z-0.792 F200
G1 X0.452 Y-1.746 Z-0.800 F200
G1 X0.452 Y-1.597 Z-0.800 F200
G1 X0.452 Y41.597 Z-0.800 F200
G1 X0.460 Y41.724 Z-0.800 F200
G1 X0.484 Y41.848 Z-0.800 F200
G1 X0.523 Y41.968 Z-0.800 F200
G1 X0.577 Y42.083 Z-0.800 F200
G1 X0.645 Y42.190 Z-0.800 F200
G1 X0.725 Y42.287 Z-0.800 F200
G1 X0.817 Y42.374 Z-0.800 F200
G1 X0.920 Y42.448 Z-0.800 F200
G1 X1.031 Y42.509 Z-0.800 F200
G1 X1.148 Y42.556 Z-0.800 F200
G1 X1.271 Y42.587 Z-0.800 F200
G1 X1.396 Y42.603 Z-0.800 F200
G1 X1.523 Y42.603 Z-0.800 F200
G1 X1.648 Y42.587 Z-0.800 F200
G1 X1.771 Y42.556 Z-0.800 F200
G1 X1.888 Y42.509 Z-0.800 F200
G1 X1.999 Y42.448 Z-0.800 F200
G1 X2.102 Y42.374 Z-0.800 F200
G1 X2.194 Y42.287 Z-0.800 F200
G1 X2.274 Y42.190 Z-0.800 F200
G1 X2.342 Y42.083 Z-0.800 F200
G1 X2.396 Y41.968 Z-0.800 F200
G1 X2.435 Y41.848 Z-0.800 F200
G1 X2.459 Y41.724 Z-0.800 F200
G1 X2.467 Y41.597 Z-0.800 F200
G1 X2.467 Y-1.597 Z-0.800 F200
G1 X2.467 Y-1.668 Z-0.792 F200
G1 X2.467 Y-1.735 Z-0.769 F200
G1 X2.467 Y-1.795 Z-0.731 F200
G1 X2.467 Y-1.846 Z-0.680 F200
G1 X2.467 Y-1.884 Z-0.620 F200
G1 X2.467 Y-1.907 Z-0.553 F200
G1 X2.467 Y-1.915 Z-0.482 F200
G1 X2.467 Y-1.915 Z5.000 F200
G1 X0.452 Y-2.064 Z5.000 F200
G1 X0.452 Y-2.064 Z0.100 F200
G1 X0.452 Y-2.064 Z-0.582 F200
G1 X0.452 Y-2.056 Z-0.653 F200
G1 X0.452 Y-2.032 Z-0.720 F200
G1 X0.452 Y-1.994 Z-0.780 F200
G1 X0.452 Y-1.944 Z-0.831 F200
G1 X0.452 Y-1.884 Z-0.869 F200
G1 X0.452 Y-1.817 Z-0.892 F200
G1 X0.452 Y-1.746 Z-0.900 F200
G1 X0.452 Y-1.597 Z-0.900 F200
G1 X0.452 Y41.597 Z-0.900 F200
G1 X0.460 Y41.724 Z-0.900 F200
G1 X0.484 Y41.848 Z-0.900 F200
G1 X0.523 Y41.968 Z-0.900 F200
G1 X0.577 Y42.083 Z-0.900 F200
G1 X0.645 Y42.190 Z-0.900 F200
G1 X0.725 Y42.287 Z-0.900 F200
G1 X0.817 Y42.374 Z-0.900 F200
G1 X0.920 Y42.448 Z-0.900 F200
G1 X1.031 Y42.509 Z-0.900 F200
G1 X1.148 Y42.556 Z-0.900 F200
G1 X1.271 Y42.587 Z-0.900 F200
G1 X1.396 Y42.603 Z-0.900 F200
G1 X1.523 Y42.603 Z-0.900 F200
G1 X1.648 Y42.587 Z-0.900 F200
G1 X1.771 Y42.556 Z-0.900 F200
G1 X1.888 Y42.509 Z-0.900 F200
G1 X1.999 Y42.448 Z-0.900 F200
G1 X2.102 Y42.374 Z-0.900 F200
G1 X2.194 Y42.287 Z-0.900 F200
G1 X2.274 Y42.190 Z-0.900 F200
G1 X2.342 Y42.083 Z-0.900 F200
G1 X2.396 Y41.968 Z-0.900 F200
G1 X2.435 Y41.848 Z-0.900 F200
G1 X2.459 Y41.724 Z-0.900 F200
G1 X2.467 Y41.597 Z-0.900 F200
G1 X2.467 Y-1.597 Z-0.900 F200
G1 X2.467 Y-1.668 Z-0.892 F200
G1 X2.467 Y-1.735 Z-0.869 F200
G1 X2.467 Y-1.795 Z-0.831 F200
G1 X2.467 Y-1.846 Z-0.780 F200
G1 X2.467 Y-1.884 Z-0.720 F200
G1 X2.467 Y-1.907 Z-0.653 F200
G1 X2.467 Y-1.915 Z-0.582 F200
G1 X2.467 Y-1.915 Z5.000 F200
G1 X0.452 Y-2.064 Z5.000 F200
G1 X0.452 Y-2.064 Z0.100 F200
G1 X0.452 Y-2.064 Z-0.683 F200
G1 X0.452 Y-2.056 Z-0.753 F200
G1 X0.452 Y-2.032 Z-0.820 F200
G1 X0.452 Y-1.994 Z-0.880 F200
G1 X0.452 Y-1.944 Z-0.931 F200
G1 X0.452 Y-1.884 Z-0.969 F200
G1 X0.452 Y-1.817 Z-0.992 F200
G1 X0.452 Y-1.746 Z-1.000 F200
G1 X0.452 Y-1.597 Z-1.000 F200
G1 X0.452 Y41.597 Z-1.000 F200
G1 X0.460 Y41.724 Z-1.000 F200
G1 X0.484 Y41.848 Z-1.000 F200
G1 X0.523 Y41.968 Z-1.000 F200
G1 X0.577 Y42.083 Z-1.000 F200
G1 X0.645 Y42.190 Z-1.000 F200
G1 X0.725 Y42.287 Z-1.000 F200
G1 X0.817 Y42.374 Z-1.000 F200
G1 X0.920 Y42.448 Z-1.000 F200
G1 X1.031 Y42.509 Z-1.000 F200
G1 X1.148 Y42.556 Z-1.000 F200
G1 X1.271 Y42.587 Z-1.000 F200
G1 X1.396 Y42.603 Z-1.000 F200
G1 X1.523 Y42.603 Z-1.000 F200
G1 X1.648 Y42.587 Z-1.000 F200
G1 X1.771 Y42.556 Z-1.000 F200
G1 X1.888 Y42.509 Z-1.000 F200
G1 X1.999 Y42.448 Z-1.000 F200
G1 X2.102 Y42.374 Z-1.000 F200
G1 X2.194 Y42.287 Z-1.000 F200
G1 X2.274 Y42.190 Z-1.000 F200
G1 X2.342 Y42.083 Z-1.000 F200
G1 X2.396 Y41.968 Z-1.000 F200
G1 X2.435 Y41.848 Z-1.000 F200
G1 X2.459 Y41.724 Z-1.000 F200
G1 X2.467 Y41.597 Z-1.000 F200
G1 X2.467 Y-1.597 Z-1.000 F200
G1 X2.467 Y-1.668 Z-0.992 F200
G1 X2.467 Y-1.735 Z-0.969 F200
G1 X2.467 Y-1.795 Z-0.931 F200
G1 X2.467 Y-1.846 Z-0.880 F200
G1 X2.467 Y-1.884 Z-0.820 F200
G1 X2.467 Y-1.907 Z-0.753 F200
G1 X2.467 Y-1.915 Z-0.683 F200
G1 X2.467 Y-1.915 Z5.000 F200
G1 X0.452 Y-2.064 Z5.000 F200
G1 X0.452 Y-2.064 Z0.100 F200
G1 X0.452 Y-2.064 Z-0.783 F200
G1 X0.452 Y-2.056 Z-0.853 F200
G1 X0.452 Y-2.032 Z-0.920 F200
G1 X0.452 Y-1.994 Z-0.980 F200
G1 X0.452 Y-1.944 Z-1.031 F200
G1 X0.452 Y-1.884 Z-1.069 F200
G1 X0.452 Y-1.817 Z-1.092 F200
G1 X0.452 Y-1.746 Z-1.100 F200
G1 X0.452 Y-1.597 Z-1.100 F200
G1 X0.452 Y41.597 Z-1.100 F200
G1 X0.460 Y41.724 Z-1.100 F200
G1 X0.484 Y41.848 Z-1.100 F200
G1 X0.523 Y41.968 Z-1.100 F200
G1 X0.577 Y42.083 Z-1.100 F200
G1 X0.645 Y42.190 Z-1.100 F200
G1 X0.725 Y42.287 Z-1.100 F200
G1 X0.817 Y42.374 Z-1.100 F200
G1 X0.920 Y42.448 Z-1.100 F200
G1 X1.031 Y42.509 Z-1.100 F200
G1 X1.148 Y42.556 Z-1.100 F200
G1 X1.271 Y42.587 Z-1.100 F200
G1 X1.396 Y42.603 Z-1.100 F200
G1 X1.523 Y42.603 Z-1.100 F200
G1 X1.648 Y42.587 Z-1.100 F200
G1 X1.771 Y42.556 Z-1.100 F200
G1 X1.888 Y42.509 Z-1.100 F200
G1 X1.999 Y42.448 Z-1.100 F200
G1 X2.102 Y42.374 Z-1.100 F200
G1 X2.194 Y42.287 Z-1.100 F200
G1 X2.274 Y42.190 Z-1.100 F200
G1 X2.342 Y42.083 Z-1.100 F200
G1 X2.396 Y41.968 Z-1.100 F200
G1 X2.435 Y41.848 Z-1.100 F200
G1 X2.459 Y41.724 Z-1.100 F200
G1 X2.467 Y41.597 Z-1.100 F200
G1 X2.467 Y-1.597 Z-1.100 F200
G1 X2.467 Y-1.668 Z-1.092 F200
G1 X2.467 Y-1.735 Z-1.069 F200
G1 X2.467 Y-1.795 Z-1.031 F200
G1 X2.467 Y-1.846 Z-0.980 F200
G1 X2.467 Y-1.884 Z-0.920 F200
G1 X2.467 Y-1.907 Z-0.853 F200
G1 X2.467 Y-1.915 Z-0.783 F200
G1 X2.467 Y-1.915 Z5.000 F200
G1 X0.452 Y-2.064 Z5.000 F200
G1 X0.452 Y-2.064 Z0.100 F200
G1 X0.452 Y-2.064 Z-0.882 F200
G1 X0.452 Y-2.056 Z-0.953 F200
G1 X0.452 Y-2.032 Z-1.020 F200
G1 X0.452 Y-1.994 Z-1.080 F200
G1 X0.452 Y-1.944 Z-1.131 F200
G1 X0.452 Y-1.884 Z-1.169 F200
G1 X0.452 Y-1.817 Z-1.192 F200
G1 X0.452 Y-1.746 Z-1.200 F200
G1 X0.452 Y-1.597 Z-1.200 F200
G1 X0.452 Y41.597 Z-1.200 F200
G1 X0.460 Y41.724 Z-1.200 F200
G1 X0.484 Y41.848 Z-1.200 F200
G1 X0.523 Y41.968 Z-1.200 F200
G1 X0.577 Y42.083 Z-1.200 F200
G1 X0.645 Y42.190 Z-1.200 F200
G1 X0.725 Y42.287 Z-1.200 F200
G1 X0.817 Y42.374 Z-1.200 F200
G1 X0.920 Y42.448 Z-1.200 F200
G1 X1.031 Y42.509 Z-1.200 F200
G1 X1.148 Y42.556 Z-1.200 F200
G1 X1.271 Y42.587 Z-1.200 F200
G1 X1.396 Y42.603 Z-1.200 F200
G1 X1.523 Y42.603 Z-1.200 F200
G1 X1.648 Y42.587 Z-1.200 F200
G1 X1.771 Y42.556 Z-1.200 F200
G1 X1.888 Y42.509 Z-1.200 F200
G1 X1.999 Y42.448 Z-1.200 F200
G1 X2.102 Y42.374 Z-1.200 F200
G1 X2.194 Y42.287 Z-1.200 F200
G1 X2.274 Y42.190 Z-1.200 F200
G1 X2.342 Y42.083 Z-1.200 F200
G1 X2.396 Y41.968 Z-1.200 F200
G1 X2.435 Y41.848 Z-1.200 F200
G1 X2.459 Y41.724 Z-1.200 F200
G1 X2.467 Y41.597 Z-1.200 F200
G1 X2.467 Y-1.597 Z-1.200 F200
G1 X2.467 Y-1.668 Z-1.192 F200
G1 X2.467 Y-1.735 Z-1.169 F200
G1 X2.467 Y-1.795 Z-1.131 F200
G1 X2.467 Y-1.846 Z-1.080 F200
G1 X2.467 Y-1.884 Z-1.020 F200
G1 X2.467 Y-1.907 Z-0.953 F200
G1 X2.467 Y-1.915 Z-0.882 F200
G1 X2.467 Y-1.915 Z5.000 F200
G1 X0.452 Y-2.064 Z5.000 F200
G1 X0.452 Y-2.064 Z0.100 F200
G1 X0.452 Y-2.064 Z-0.983 F200
G1 X0.452 Y-2.056 Z-1.053 F200
G1 X0.452 Y-2.032 Z-1.120 F200
G1 X0.452 Y-1.994 Z-1.180 F200
G1 X0.452 Y-1.944 Z-1.231 F200
G1 X0.452 Y-1.884 Z-1.269 F200
G1 X0.452 Y-1.817 Z-1.292 F200
G1 X0.452 Y-1.746 Z-1.300 F200
G1 X0.452 Y-1.597 Z-1.300 F200
G1 X0.452 Y41.597 Z-1.300 F200
G1 X0.460 Y41.724 Z-1.300 F200
G1 X0.484 Y41.848 Z-1.300 F200
G1 X0.523 Y41.968 Z-1.300 F200
G1 X0.577 Y42.083 Z-1.300 F200
G1 X0.645 Y42.190 Z-1.300 F200
G1 X0.725 Y42.287 Z-1.300 F200
G1 X0.817 Y42.374 Z-1.300 F200
G1 X0.920 Y42.448 Z-1.300 F200
G1 X1.031 Y42.509 Z-1.300 F200
G1 X1.148 Y42.556 Z-1.300 F200
G1 X1.271 Y42.587 Z-1.300 F200
G1 X1.396 Y42.603 Z-1.300 F200
G1 X1.523 Y42.603 Z-1.300 F200
G1 X1.648 Y42.587 Z-1.300 F200
G1 X1.771 Y42.556 Z-1.300 F200
G1 X1.888 Y42.509 Z-1.300 F200
G1 X1.999 Y42.448 Z-1.300 F200
G1 X2.102 Y42.374 Z-1.300 F200
G1 X2.194 Y42.287 Z-1.300 F200
G1 X2.274 Y42.190 Z-1.300 F200
G1 X2.342 Y42.083 Z-1.300 F200
G1 X2.396 Y41.968 Z-1.300 F200
G1 X2.435 Y41.848 Z-1.300 F200
G1 X2.459 Y41.724 Z-1.300 F200
G1 X2.467 Y41.597 Z-1.300 F200
G1 X2.467 Y-1.597 Z-1.300 F200
G1 X2.467 Y-1.668 Z-1.292 F200
G1 X2.467 Y-1.735 Z-1.269 F200
G1 X2.467 Y-1.795 Z-1.231 F200
G1 X2.467 Y-1.846 Z-1.180 F200
G1 X2.467 Y-1.884 Z-1.120 F200
G1 X2.467 Y-1.907 Z-1.053 F200
G1 X2.467 Y-1.915 Z-0.983 F200
G1 X2.467 Y-1.915 Z5.000 F200
G1 X0.452 Y-2.064 Z5.000 F200
G1 X0.452 Y-2.064 Z0.100 F200
G1 X0.452 Y-2.064 Z-1.082 F200
G1 X0.452 Y-2.056 Z-1.153 F200
G1 X0.452 Y-2.032 Z-1.220 F200
G1 X0.452 Y-1.994 Z-1.280 F200
G1 X0.452 Y-1.944 Z-1.331 F200
G1 X0.452 Y-1.884 Z-1.369 F200
G1 X0.452 Y-1.817 Z-1.392 F200
G1 X0.452 Y-1.746 Z-1.400 F200
G1 X0.452 Y-1.597 Z-1.400 F200
G1 X0.452 Y41.597 Z-1.400 F200
G1 X0.460 Y41.724 Z-1.400 F200
G1 X0.484 Y41.848 Z-1.400 F200
G1 X0.523 Y41.968 Z-1.400 F200
G1 X0.577 Y42.083 Z-1.400 F200
G1 X0.645 Y42.190 Z-1.400 F200
G1 X0.725 Y42.287 Z-1.400 F200
G1 X0.817 Y42.374 Z-1.400 F200
G1 X0.920 Y42.448 Z-1.400 F200
G1 X1.031 Y42.509 Z-1.400 F200
G1 X1.148 Y42.556 Z-1.400 F200
G1 X1.271 Y42.587 Z-1.400 F200
G1 X1.396 Y42.603 Z-1.400 F200
G1 X1.523 Y42.603 Z-1.400 F200
G1 X1.648 Y42.587 Z-1.400 F200
G1 X1.771 Y42.556 Z-1.400 F200
G1 X1.888 Y42.509 Z-1.400 F200
G1 X1.999 Y42.448 Z-1.400 F200
G1 X2.102 Y42.374 Z-1.400 F200
G1 X2.194 Y42.287 Z-1.400 F200
G1 X2.274 Y42.190 Z-1.400 F200
G1 X2.342 Y42.083 Z-1.400 F200
G1 X2.396 Y41.968 Z-1.400 F200
G1 X2.435 Y41.848 Z-1.400 F200
G1 X2.459 Y41.724 Z-1.400 F200
G1 X2.467 Y41.597 Z-1.400 F200
G1 X2.467 Y-1.597 Z-1.400 F200
G1 X2.467 Y-1.668 Z-1.392 F200
G1 X2.467 Y-1.735 Z-1.369 F200
G1 X2.467 Y-1.795 Z-1.331 F200
G1 X2.467 Y-1.846 Z-1.280 F200
G1 X2.467 Y-1.884 Z-1.220 F200
G1 X2.467 Y-1.907 Z-1.153 F200
G1 X2.467 Y-1.915 Z-1.082 F200
G1 X2.467 Y-1.915 Z5.000 F200
G1 X0.452 Y-2.064 Z5.000 F200
G1 X0.452 Y-2.064 Z0.100 F200
G1 X0.452 Y-2.064 Z-1.183 F200
G1 X0.452 Y-2.056 Z-1.253 F200
G1 X0.452 Y-2.032 Z-1.320 F200
G1 X0.452 Y-1.994 Z-1.380 F200
G1 X0.452 Y-1.944 Z-1.431 F200
G1 X0.452 Y-1.884 Z-1.469 F200
G1 X0.452 Y-1.817 Z-1.492 F200
G1 X0.452 Y-1.746 Z-1.500 F200
G1 X0.452 Y-1.597 Z-1.500 F200
G1 X0.452 Y41.597 Z-1.500 F200
G1 X0.460 Y41.724 Z-1.500 F200
G1 X0.484 Y41.848 Z-1.500 F200
G1 X0.523 Y41.968 Z-1.500 F200
G1 X0.577 Y42.083 Z-1.500 F200
G1 X0.645 Y42.190 Z-1.500 F200
G1 X0.725 Y42.287 Z-1.500 F200
G1 X0.817 Y42.374 Z-1.500 F200
G1 X0.920 Y42.448 Z-1.500 F200
G1 X1.031 Y42.509 Z-1.500 F200
G1 X1.148 Y42.556 Z-1.500 F200
G1 X1.271 Y42.587 Z-1.500 F200
G1 X1.396 Y42.603 Z-1.500 F200
G1 X1.523 Y42.603 Z-1.500 F200
G1 X1.648 Y42.587 Z-1.500 F200
G1 X1.771 Y42.556 Z-1.500 F200
G1 X1.888 Y42.509 Z-1.500 F200
G1 X1.999 Y42.448 Z-1.500 F200
G1 X2.102 Y42.374 Z-1.500 F200
G1 X2.194 Y42.287 Z-1.500 F200
G1 X2.274 Y42.190 Z-1.500 F200
G1 X2.342 Y42.083 Z-1.500 F200
G1 X2.396 Y41.968 Z-1.500 F200
G1 X2.435 Y41.848 Z-1.500 F200
G1 X2.459 Y41.724 Z-1.500 F200
G1 X2.467 Y41.597 Z-1.500 F200
G1 X2.467 Y-1.597 Z-1.500 F200
G1 X2.467 Y-1.668 Z-1.492 F200
G1 X2.467 Y-1.735 Z-1.469 F200
G1 X2.467 Y-1.795 Z-1.431 F200
G1 X2.467 Y-1.846 Z-1.380 F200
G1 X2.467 Y-1.884 Z-1.320 F200
G1 X2.467 Y-1.907 Z-1.253 F200
G1 X2.467 Y-1.915 Z-1.183 F200
G1 X2.467 Y-1.915 Z5.000 F200
G1 X0.452 Y-2.064 Z5.000 F200
G1 X0.452 Y-2.064 Z0.100 F200
G1 X0.452 Y-2.064 Z-1.283 F200
G1 X0.452 Y-2.056 Z-1.353 F200
G1 X0.452 Y-2.032 Z-1.420 F200
G1 X0.452 Y-1.994 Z-1.480 F200
G1 X0.452 Y-1.944 Z-1.531 F200
G1 X0.452 Y-1.884 Z-1.569 F200
G1 X0.452 Y-1.817 Z-1.592 F200
G1 X0.452 Y-1.746 Z-1.600 F200
G1 X0.452 Y-1.597 Z-1.600 F200
G1 X0.452 Y41.597 Z-1.600 F200
G1 X0.460 Y41.724 Z-1.600 F200
G1 X0.484 Y41.848 Z-1.600 F200
G1 X0.523 Y41.968 Z-1.600 F200
G1 X0.577 Y42.083 Z-1.600 F200
G1 X0.645 Y42.190 Z-1.600 F200
G1 X0.725 Y42.287 Z-1.600 F200
G1 X0.817 Y42.374 Z-1.600 F200
G1 X0.920 Y42.448 Z-1.600 F200
G1 X1.031 Y42.509 Z-1.600 F200
G1 X1.148 Y42.556 Z-1.600 F200
G1 X1.271 Y42.587 Z-1.600 F200
G1 X1.396 Y42.603 Z-1.600 F200
G1 X1.523 Y42.603 Z-1.600 F200
G1 X1.648 Y42.587 Z-1.600 F200
G1 X1.771 Y42.556 Z-1.600 F200
G1 X1.888 Y42.509 Z-1.600 F200
G1 X1.999 Y42.448 Z-1.600 F200
G1 X2.102 Y42.374 Z-1.600 F200
G1 X2.194 Y42.287 Z-1.600 F200
G1 X2.274 Y42.190 Z-1.600 F200
G1 X2.342 Y42.083 Z-1.600 F200
G1 X2.396 Y41.968 Z-1.600 F200
G1 X2.435 Y41.848 Z-1.600 F200
G1 X2.459 Y41.724 Z-1.600 F200
G1 X2.467 Y41.597 Z-1.600 F200
G1 X2.467 Y-1.597 Z-1.600 F200
G1 X2.467 Y-1.668 Z-1.592 F200
G1 X2.467 Y-1.735 Z-1.569 F200
G1 X2.467 Y-1.795 Z-1.531 F200
G1 X2.467 Y-1.846 Z-1.480 F200
G1 X2.467 Y-1.884 Z-1.420 F200
G1 X2.467 Y-1.907 Z-1.353 F200
G1 X2.467 Y-1.915 Z-1.283 F200
G1 X2.467 Y-1.915 Z5.000 F200
G1 X0.452 Y-2.064 Z5.000 F200
G1 X0.452 Y-2.064 Z0.100 F200
G1 X0.452 Y-2.064 Z-1.383 F200
G1 X0.452 Y-2.056 Z-1.453 F200
G1 X0.452 Y-2.032 Z-1.520 F200
G1 X0.452 Y-1.994 Z-1.580 F200
G1 X0.452 Y-1.944 Z-1.631 F200
G1 X0.452 Y-1.884 Z-1.669 F200
G1 X0.452 Y-1.817 Z-1.692 F200
G1 X0.452 Y-1.746 Z-1.700 F200
G1 X0.452 Y-1.597 Z-1.700 F200
G1 X0.452 Y41.597 Z-1.700 F200
G1 X0.460 Y41.724 Z-1.700 F200
G1 X0.484 Y41.848 Z-1.700 F200
G1 X0.523 Y41.968 Z-1.700 F200
G1 X0.577 Y42.083 Z-1.700 F200
G1 X0.645 Y42.190 Z-1.700 F200
G1 X0.725 Y42.287 Z-1.700 F200
G1 X0.817 Y42.374 Z-1.700 F200
G1 X0.920 Y42.448 Z-1.700 F200
G1 X1.031 Y42.509 Z-1.700 F200
G1 X1.148 Y42.556 Z-1.700 F200
G1 X1.271 Y42.587 Z-1.700 F200
G1 X1.396 Y42.603 Z-1.700 F200
G1 X1.523 Y42.603 Z-1.700 F200
G1 X1.648 Y42.587 Z-1.700 F200
G1 X1.771 Y42.556 Z-1.700 F200
G1 X1.888 Y42.509 Z-1.700 F200
G1 X1.999 Y42.448 Z-1.700 F200
G1 X2.102 Y42.374 Z-1.700 F200
G1 X2.194 Y42.287 Z-1.700 F200
G1 X2.274 Y42.190 Z-1.700 F200
G1 X2.342 Y42.083 Z-1.700 F200
G1 X2.396 Y41.968 Z-1.700 F200
G1 X2.435 Y41.848 Z-1.700 F200
G1 X2.459 Y41.724 Z-1.700 F200
G1 X2.467 Y41.597 Z-1.700 F200
G1 X2.467 Y-1.597 Z-1.700 F200
G1 X2.467 Y-1.668 Z-1.692 F200
G1 X2.467 Y-1.735 Z-1.669 F200
G1 X2.467 Y-1.795 Z-1.631 F200
G1 X2.467 Y-1.846 Z-1.580 F200
G1 X2.467 Y-1.884 Z-1.520 F200
G1 X2.467 Y-1.907 Z-1.453 F200
G1 X2.467 Y-1.915 Z-1.383 F200
G1 X2.467 Y-1.915 Z5.000 F200
G1 X0.452 Y-2.064 Z5.000 F200
G1 X0.452 Y-2.064 Z0.100 F200
G1 X0.452 Y-2.064 Z-1.482 F200
G1 X0.452 Y-2.056 Z-1.553 F200
G1 X0.452 Y-2.032 Z-1.620 F200
G1 X0.452 Y-1.994 Z-1.680 F200
G1 X0.452 Y-1.944 Z-1.731 F200
G1 X0.452 Y-1.884 Z-1.769 F200
G1 X0.452 Y-1.817 Z-1.792 F200
G1 X0.452 Y-1.746 Z-1.800 F200
G1 X0.452 Y-1.597 Z-1.800 F200
G1 X0.452 Y41.597 Z-1.800 F200
G1 X0.460 Y41.724 Z-1.800 F200
G1 X0.484 Y41.848 Z-1.800 F200
G1 X0.523 Y41.968 Z-1.800 F200
G1 X0.577 Y42.083 Z-1.800 F200
G1 X0.645 Y42.190 Z-1.800 F200
G1 X0.725 Y42.287 Z-1.800 F200
G1 X0.817 Y42.374 Z-1.800 F200
G1 X0.920 Y42.448 Z-1.800 F200
G1 X1.031 Y42.509 Z-1.800 F200
G1 X1.148 Y42.556 Z-1.800 F200
G1 X1.271 Y42.587 Z-1.800 F200
G1 X1.396 Y42.603 Z-1.800 F200
G1 X1.523 Y42.603 Z-1.800 F200
G1 X1.648 Y42.587 Z-1.800 F200
G1 X1.771 Y42.556 Z-1.800 F200
G1 X1.888 Y42.509 Z-1.800 F200
G1 X1.999 Y42.448 Z-1.800 F200
G1 X2.102 Y42.374 Z-1.800 F200
G1 X2.194 Y42.287 Z-1.800 F200
G1 X2.274 Y42.190 Z-1.800 F200
G1 X2.342 Y42.083 Z-1.800 F200
G1 X2.396 Y41.968 Z-1.800 F200
G1 X2.435 Y41.848 Z-1.800 F200
G1 X2.459 Y41.724 Z-1.800 F200
G1 X2.467 Y41.597 Z-1.800 F200
G1 X2.467 Y-1.597 Z-1.800 F200
G1 X2.467 Y-1.668 Z-1.792 F200
G1 X2.467 Y-1.735 Z-1.769 F200
G1 X2.467 Y-1.795 Z-1.731 F200
G1 X2.467 Y-1.846 Z-1.680 F200
G1 X2.467 Y-1.884 Z-1.620 F200
G1 X2.467 Y-1.907 Z-1.553 F200
G1 X2.467 Y-1.915 Z-1.482 F200
G1 X2.467 Y-1.915 Z5.000 F200
G1 X0.452 Y-2.064 Z5.000 F200
G1 X0.452 Y-2.064 Z0.100 F200
G1 X0.452 Y-2.064 Z-1.582 F200
G1 X0.452 Y-2.056 Z-1.653 F200
G1 X0.452 Y-2.032 Z-1.720 F200
G1 X0.452 Y-1.994 Z-1.780 F200
G1 X0.452 Y-1.944 Z-1.831 F200
G1 X0.452 Y-1.884 Z-1.869 F200
G1 X0.452 Y-1.817 Z-1.892 F200
G1 X0.452 Y-1.746 Z-1.900 F200
G1 X0.452 Y-1.597 Z-1.900 F200
G1 X0.452 Y41.597 Z-1.900 F200
G1 X0.460 Y41.724 Z-1.900 F200
G1 X0.484 Y41.848 Z-1.900 F200
G1 X0.523 Y41.968 Z-1.900 F200
G1 X0.577 Y42.083 Z-1.900 F200
G1 X0.645 Y42.190 Z-1.900 F200
G1 X0.725 Y42.287 Z-1.900 F200
G1 X0.817 Y42.374 Z-1.900 F200
G1 X0.920 Y42.448 Z-1.900 F200
G1 X1.031 Y42.509 Z-1.900 F200
G1 X1.148 Y42.556 Z-1.900 F200
G1 X1.271 Y42.587 Z-1.900 F200
G1 X1.396 Y42.603 Z-1.900 F200
G1 X1.523 Y42.603 Z-1.900 F200
G1 X1.648 Y42.587 Z-1.900 F200
G1 X1.771 Y42.556 Z-1.900 F200
G1 X1.888 Y42.509 Z-1.900 F200
G1 X1.999 Y42.448 Z-1.900 F200
G1 X2.102 Y42.374 Z-1.900 F200
G1 X2.194 Y42.287 Z-1.900 F200
G1 X2.274 Y42.190 Z-1.900 F200
G1 X2.342 Y42.083 Z-1.900 F200
G1 X2.396 Y41.968 Z-1.900 F200
G1 X2.435 Y41.848 Z-1.900 F200
G1 X2.459 Y41.724 Z-1.900 F200
G1 X2.467 Y41.597 Z-1.900 F200
G1 X2.467 Y-1.597 Z-1.900 F200
G1 X2.467 Y-1.668 Z-1.892 F200
G1 X2.467 Y-1.735 Z-1.869 F200
G1 X2.467 Y-1.795 Z-1.831 F200
G1 X2.467 Y-1.846 Z-1.780 F200
G1 X2.467 Y-1.884 Z-1.720 F200
G1 X2.467 Y-1.907 Z-1.653 F200
G1 X2.467 Y-1.915 Z-1.582 F200
G1 X2.467 Y-1.915 Z5.000 F200
G1 X0.452 Y-2.064 Z5.000 F200
G1 X0.452 Y-2.064 Z0.100 F200
G1 X0.452 Y-2.064 Z-1.683 F200
G1 X0.452 Y-2.056 Z-1.753 F200
G1 X0.452 Y-2.032 Z-1.820 F200
G1 X0.452 Y-1.994 Z-1.880 F200
G1 X0.452 Y-1.944 Z-1.931 F200
G1 X0.452 Y-1.884 Z-1.969 F200
G1 X0.452 Y-1.817 Z-1.992 F200
G1 X0.452 Y-1.746 Z-2.000 F200
G1 X0.452 Y-1.597 Z-2.000 F200
G1 X0.452 Y41.597 Z-2.000 F200
G1 X0.460 Y41.724 Z-2.000 F200
G1 X0.484 Y41.848 Z-2.000 F200
G1 X0.523 Y41.968 Z-2.000 F200
G1 X0.577 Y42.083 Z-2.000 F200
G1 X0.645 Y42.190 Z-2.000 F200
G1 X0.725 Y42.287 Z-2.000 F200
G1 X0.817 Y42.374 Z-2.000 F200
G1 X0.920 Y42.448 Z-2.000 F200
G1 X1.031 Y42.509 Z-2.000 F200
G1 X1.148 Y42.556 Z-2.000 F200
G1 X1.271 Y42.587 Z-2.000 F200
G1 X1.396 Y42.603 Z-2.000 F200
G1 X1.523 Y42.603 Z-2.000 F200
G1 X1.648 Y42.587 Z-2.000 F200
G1 X1.771 Y42.556 Z-2.000 F200
G1 X1.888 Y42.509 Z-2.000 F200
G1 X1.999 Y42.448 Z-2.000 F200
G1 X2.102 Y42.374 Z-2.000 F200
G1 X2.194 Y42.287 Z-2.000 F200
G1 X2.274 Y42.190 Z-2.000 F200
G1 X2.342 Y42.083 Z-2.000 F200
G1 X2.396 Y41.968 Z-2.000 F200
G1 X2.435 Y41.848 Z-2.000 F200
G1 X2.459 Y41.724 Z-2.000 F200
G1 X2.467 Y41.597 Z-2.000 F200
G1 X2.467 Y-1.597 Z-2.000 F200
G1 X2.467 Y-1.668 Z-1.992 F200
G1 X2.467 Y-1.735 Z-1.969 F200
G1 X2.467 Y-1.795 Z-1.931 F200
G1 X2.467 Y-1.846 Z-1.880 F200
G1 X2.467 Y-1.884 Z-1.820 F200
G1 X2.467 Y-1.907 Z-1.753 F200
G1 X2.467 Y-1.915 Z-1.683 F200
G1 X2.467 Y-1.915 Z5.000 F200
G1 X0.452 Y-2.064 Z5.000 F200
G1 X0.452 Y-2.064 Z0.100 F200
G1 X0.452 Y-2.064 Z-1.783 F200
G1 X0.452 Y-2.056 Z-1.853 F200
G1 X0.452 Y-2.032 Z-1.920 F200
G1 X0.452 Y-1.994 Z-1.980 F200
G1 X0.452 Y-1.944 Z-2.031 F200
G1 X0.452 Y-1.884 Z-2.069 F200
G1 X0.452 Y-1.817 Z-2.092 F200
G1 X0.452 Y-1.746 Z-2.100 F200
G1 X0.452 Y-1.597 Z-2.100 F200
G1 X0.452 Y41.597 Z-2.100 F200
G1 X0.460 Y41.724 Z-2.100 F200
G1 X0.484 Y41.848 Z-2.100 F200
G1 X0.523 Y41.968 Z-2.100 F200
G1 X0.577 Y42.083 Z-2.100 F200
G1 X0.645 Y42.190 Z-2.100 F200
G1 X0.725 Y42.287 Z-2.100 F200
G1 X0.817 Y42.374 Z-2.100 F200
G1 X0.920 Y42.448 Z-2.100 F200
G1 X1.031 Y42.509 Z-2.100 F200
G1 X1.148 Y42.556 Z-2.100 F200
G1 X1.271 Y42.587 Z-2.100 F200
G1 X1.396 Y42.603 Z-2.100 F200
G1 X1.523 Y42.603 Z-2.100 F200
G1 X1.648 Y42.587 Z-2.100 F200
G1 X1.771 Y42.556 Z-2.100 F200
G1 X1.888 Y42.509 Z-2.100 F200
G1 X1.999 Y42.448 Z-2.100 F200
G1 X2.102 Y42.374 Z-2.100 F200
G1 X2.194 Y42.287 Z-2.100 F200
G1 X2.274 Y42.190 Z-2.100 F200
G1 X2.342 Y42.083 Z-2.100 F200
G1 X2.396 Y41.968 Z-2.100 F200
G1 X2.435 Y41.848 Z-2.100 F200
G1 X2.459 Y41.724 Z-2.100 F200
G1 X2.467 Y41.597 Z-2.100 F200
G1 X2.467 Y-1.597 Z-2.100 F200
G1 X2.467 Y-1.668 Z-2.092 F200
G1 X2.467 Y-1.735 Z-2.069 F200
G1 X2.467 Y-1.795 Z-2.031 F200
G1 X2.467 Y-1.846 Z-1.980 F200
G1 X2.467 Y-1.884 Z-1.920 F200
G1 X2.467 Y-1.907 Z-1.853 F200
G1 X2.467 Y-1.915 Z-1.783 F200
G1 X2.467 Y-1.915 Z5.000 F200
G1 X0.452 Y-2.064 Z5.000 F200
G1 X0.452 Y-2.064 Z0.100 F200
G1 X0.452 Y-2.064 Z-1.883 F200
G1 X0.452 Y-2.056 Z-1.953 F200
G1 X0.452 Y-2.032 Z-2.020 F200
G1 X0.452 Y-1.994 Z-2.080 F200
G1 X0.452 Y-1.944 Z-2.131 F200
G1 X0.452 Y-1.884 Z-2.169 F200
G1 X0.452 Y-1.817 Z-2.192 F200
G1 X0.452 Y-1.746 Z-2.200 F200
G1 X0.452 Y-1.597 Z-2.200 F200
G1 X0.452 Y41.597 Z-2.200 F200
G1 X0.460 Y41.724 Z-2.200 F200
G1 X0.484 Y41.848 Z-2.200 F200
G1 X0.523 Y41.968 Z-2.200 F200
G1 X0.577 Y42.083 Z-2.200 F200
G1 X0.645 Y42.190 Z-2.200 F200
G1 X0.725 Y42.287 Z-2.200 F200
G1 X0.817 Y42.374 Z-2.200 F200
G1 X0.920 Y42.448 Z-2.200 F200
G1 X1.031 Y42.509 Z-2.200 F200
G1 X1.148 Y42.556 Z-2.200 F200
G1 X1.271 Y42.587 Z-2.200 F200
G1 X1.396 Y42.603 Z-2.200 F200
G1 X1.523 Y42.603 Z-2.200 F200
G1 X1.648 Y42.587 Z-2.200 F200
G1 X1.771 Y42.556 Z-2.200 F200
G1 X1.888 Y42.509 Z-2.200 F200
G1 X1.999 Y42.448 Z-2.200 F200
G1 X2.102 Y42.374 Z-2.200 F200
G1 X2.194 Y42.287 Z-2.200 F200
G1 X2.274 Y42.190 Z-2.200 F200
G1 X2.342 Y42.083 Z-2.200 F200
G1 X2.396 Y41.968 Z-2.200 F200
G1 X2.435 Y41.848 Z-2.200 F200
G1 X2.459 Y41.724 Z-2.200 F200
G1 X2.467 Y41.597 Z-2.200 F200
G1 X2.467 Y-1.597 Z-2.200 F200
G1 X2.467 Y-1.668 Z-2.192 F200
G1 X2.467 Y-1.735 Z-2.169 F200
G1 X2.467 Y-1.795 Z-2.131 F200
G1 X2.467 Y-1.846 Z-2.080 F200
G1 X2.467 Y-1.884 Z-2.020 F200
G1 X2.467 Y-1.907 Z-1.953 F200
G1 X2.467 Y-1.915 Z-1.883 F200
G1 X2.467 Y-1.915 Z5.000 F200
G1 X0.452 Y-2.064 Z5.000 F200
G1 X0.452 Y-2.064 Z0.100 F200
G1 X0.452 Y-2.064 Z-1.982 F200
G1 X0.452 Y-2.056 Z-2.053 F200
G1 X0.452 Y-2.032 Z-2.120 F200
G1 X0.452 Y-1.994 Z-2.180 F200
G1 X0.452 Y-1.944 Z-2.231 F200
G1 X0.452 Y-1.884 Z-2.269 F200
G1 X0.452 Y-1.817 Z-2.292 F200
G1 X0.452 Y-1.746 Z-2.300 F200
G1 X0.452 Y-1.597 Z-2.300 F200
G1 X0.452 Y41.597 Z-2.300 F200
G1 X0.460 Y41.724 Z-2.300 F200
G1 X0.484 Y41.848 Z-2.300 F200
G1 X0.523 Y41.968 Z-2.300 F200
G1 X0.577 Y42.083 Z-2.300 F200
G1 X0.645 Y42.190 Z-2.300 F200
G1 X0.725 Y42.287 Z-2.300 F200
G1 X0.817 Y42.374 Z-2.300 F200
G1 X0.920 Y42.448 Z-2.300 F200
G1 X1.031 Y42.509 Z-2.300 F200
G1 X1.148 Y42.556 Z-2.300 F200
G1 X1.271 Y42.587 Z-2.300 F200
G1 X1.396 Y42.603 Z-2.300 F200
G1 X1.523 Y42.603 Z-2.300 F200
G1 X1.648 Y42.587 Z-2.300 F200
G1 X1.771 Y42.556 Z-2.300 F200
G1 X1.888 Y42.509 Z-2.300 F200
G1 X1.999 Y42.448 Z-2.300 F200
G1 X2.102 Y42.374 Z-2.300 F200
G1 X2.194 Y42.287 Z-2.300 F200
G1 X2.274 Y42.190 Z-2.300 F200
G1 X2.342 Y42.083 Z-2.300 F200
G1 X2.396 Y41.968 Z-2.300 F200
G1 X2.435 Y41.848 Z-2.300 F200
G1 X2.459 Y41.724 Z-2.300 F200
G1 X2.467 Y41.597 Z-2.300 F200
G1 X2.467 Y-1.597 Z-2.300 F200
G1 X2.467 Y-1.668 Z-2.292 F200
G1 X2.467 Y-1.735 Z-2.269 F200
G1 X2.467 Y-1.795 Z-2.231 F200
G1 X2.467 Y-1.846 Z-2.180 F200
G1 X2.467 Y-1.884 Z-2.120 F200
G1 X2.467 Y-1.907 Z-2.053 F200
G1 X2.467 Y-1.915 Z-1.982 F200
G1 X2.467 Y-1.915 Z5.000 F200
G1 X0.452 Y-2.064 Z5.000 F200
G1 X0.452 Y-2.064 Z0.100 F200
G1 X0.452 Y-2.064 Z-2.082 F200
G1 X0.452 Y-2.056 Z-2.153 F200
G1 X0.452 Y-2.032 Z-2.220 F200
G1 X0.452 Y-1.994 Z-2.280 F200
G1 X0.452 Y-1.944 Z-2.331 F200
G1 X0.452 Y-1.884 Z-2.369 F200
G1 X0.452 Y-1.817 Z-2.392 F200
G1 X0.452 Y-1.746 Z-2.400 F200
G1 X0.452 Y-1.597 Z-2.400 F200
G1 X0.452 Y41.597 Z-2.400 F200
G1 X0.460 Y41.724 Z-2.400 F200
G1 X0.484 Y41.848 Z-2.400 F200
G1 X0.523 Y41.968 Z-2.400 F200
G1 X0.577 Y42.083 Z-2.400 F200
G1 X0.645 Y42.190 Z-2.400 F200
G1 X0.725 Y42.287 Z-2.400 F200
G1 X0.817 Y42.374 Z-2.400 F200
G1 X0.920 Y42.448 Z-2.400 F200
G1 X1.031 Y42.509 Z-2.400 F200
G1 X1.148 Y42.556 Z-2.400 F200
G1 X1.271 Y42.587 Z-2.400 F200
G1 X1.396 Y42.603 Z-2.400 F200
G1 X1.523 Y42.603 Z-2.400 F200
G1 X1.648 Y42.587 Z-2.400 F200
G1 X1.771 Y42.556 Z-2.400 F200
G1 X1.888 Y42.509 Z-2.400 F200
G1 X1.999 Y42.448 Z-2.400 F200
G1 X2.102 Y42.374 Z-2.400 F200
G1 X2.194 Y42.287 Z-2.400 F200
G1 X2.274 Y42.190 Z-2.400 F200
G1 X2.342 Y42.083 Z-2.400 F200
G1 X2.396 Y41.968 Z-2.400 F200
G1 X2.435 Y41.848 Z-2.400 F200
G1 X2.459 Y41.724 Z-2.400 F200
G1 X2.467 Y41.597 Z-2.400 F200
G1 X2.467 Y-1.597 Z-2.400 F200
G1 X2.467 Y-1.668 Z-2.392 F200
G1 X2.467 Y-1.735 Z-2.369 F200
G1 X2.467 Y-1.795 Z-2.331 F200
G1 X2.467 Y-1.846 Z-2.280 F200
G1 X2.467 Y-1.884 Z-2.220 F200
G1 X2.467 Y-1.907 Z-2.153 F200
G1 X2.467 Y-1.915 Z-2.082 F200
G1 X2.467 Y-1.915 Z5.000 F200
G1 X0.452 Y-2.064 Z5.000 F200
G1 X0.452 Y-2.064 Z0.100 F200
G1 X0.452 Y-2.064 Z-2.182 F200
G1 X0.452 Y-2.056 Z-2.253 F200
G1 X0.452 Y-2.032 Z-2.320 F200
G1 X0.452 Y-1.994 Z-2.380 F200
G1 X0.452 Y-1.944 Z-2.431 F200
G1 X0.452 Y-1.884 Z-2.469 F200
G1 X0.452 Y-1.817 Z-2.492 F200
G1 X0.452 Y-1.746 Z-2.500 F200
G1 X0.452 Y-1.597 Z-2.500 F200
G1 X0.452 Y41.597 Z-2.500 F200
G1 X0.460 Y41.724 Z-2.500 F200
G1 X0.484 Y41.848 Z-2.500 F200
G1 X0.523 Y41.968 Z-2.500 F200
G1 X0.577 Y42.083 Z-2.500 F200
G1 X0.645 Y42.190 Z-2.500 F200
G1 X0.725 Y42.287 Z-2.500 F200
G1 X0.817 Y42.374 Z-2.500 F200
G1 X0.920 Y42.448 Z-2.500 F200
G1 X1.031 Y42.509 Z-2.500 F200
G1 X1.148 Y42.556 Z-2.500 F200
G1 X1.271 Y42.587 Z-2.500 F200
G1 X1.396 Y42.603 Z-2.500 F200
G1 X1.523 Y42.603 Z-2.500 F200
G1 X1.648 Y42.587 Z-2.500 F200
G1 X1.771 Y42.556 Z-2.500 F200
G1 X1.888 Y42.509 Z-2.500 F200
G1 X1.999 Y42.448 Z-2.500 F200
G1 X2.102 Y42.374 Z-2.500 F200
G1 X2.194 Y42.287 Z-2.500 F200
G1 X2.274 Y42.190 Z-2.500 F200
G1 X2.342 Y42.083 Z-2.500 F200
G1 X2.396 Y41.968 Z-2.500 F200
G1 X2.435 Y41.848 Z-2.500 F200
G1 X2.459 Y41.724 Z-2.500 F200
G1 X2.467 Y41.597 Z-2.500 F200
G1 X2.467 Y-1.597 Z-2.500 F200
G1 X2.467 Y-1.668 Z-2.492 F200
G1 X2.467 Y-1.735 Z-2.469 F200
G1 X2.467 Y-1.795 Z-2.431 F200
G1 X2.467 Y-1.846 Z-2.380 F200
G1 X2.467 Y-1.884 Z-2.320 F200
G1 X2.467 Y-1.907 Z-2.253 F200
G1 X2.467 Y-1.915 Z-2.182 F200
G1 X2.467 Y-1.915 Z5.000 F200
G1 X0.452 Y-2.064 Z5.000 F200
G1 X0.452 Y-2.064 Z0.100 F200
G1 X0.452 Y-2.064 Z-2.283 F200
G1 X0.452 Y-2.056 Z-2.353 F200
G1 X0.452 Y-2.032 Z-2.420 F200
G1 X0.452 Y-1.994 Z-2.480 F200
G1 X0.452 Y-1.944 Z-2.531 F200
G1 X0.452 Y-1.884 Z-2.569 F200
G1 X0.452 Y-1.817 Z-2.592 F200
G1 X0.452 Y-1.746 Z-2.600 F200
G1 X0.452 Y-1.597 Z-2.600 F200
G1 X0.452 Y41.597 Z-2.600 F200
G1 X0.460 Y41.724 Z-2.600 F200
G1 X0.484 Y41.848 Z-2.600 F200
G1 X0.523 Y41.968 Z-2.600 F200
G1 X0.577 Y42.083 Z-2.600 F200
G1 X0.645 Y42.190 Z-2.600 F200
G1 X0.725 Y42.287 Z-2.600 F200
G1 X0.817 Y42.374 Z-2.600 F200
G1 X0.920 Y42.448 Z-2.600 F200
G1 X1.031 Y42.509 Z-2.600 F200
G1 X1.148 Y42.556 Z-2.600 F200
G1 X1.271 Y42.587 Z-2.600 F200
G1 X1.396 Y42.603 Z-2.600 F200
G1 X1.523 Y42.603 Z-2.600 F200
G1 X1.648 Y42.587 Z-2.600 F200
G1 X1.771 Y42.556 Z-2.600 F200
G1 X1.888 Y42.509 Z-2.600 F200
G1 X1.999 Y42.448 Z-2.600 F200
G1 X2.102 Y42.374 Z-2.600 F200
G1 X2.194 Y42.287 Z-2.600 F200
G1 X2.274 Y42.190 Z-2.600 F200
G1 X2.342 Y42.083 Z-2.600 F200
G1 X2.396 Y41.968 Z-2.600 F200
G1 X2.435 Y41.848 Z-2.600 F200
G1 X2.459 Y41.724 Z-2.600 F200
G1 X2.467 Y41.597 Z-2.600 F200
G1 X2.467 Y-1.597 Z-2.600 F200
G1 X2.467 Y-1.668 Z-2.592 F200
G1 X2.467 Y-1.735 Z-2.569 F200
G1 X2.467 Y-1.795 Z-2.531 F200
G1 X2.467 Y-1.846 Z-2.480 F200
G1 X2.467 Y-1.884 Z-2.420 F200
G1 X2.467 Y-1.907 Z-2.353 F200
G1 X2.467 Y-1.915 Z-2.283 F200
G1 X2.467 Y-1.915 Z5.000 F200
G1 X0.452 Y-2.064 Z5.000 F200
G1 X0.452 Y-2.064 Z0.100 F200
G1 X0.452 Y-2.064 Z-2.382 F200
G1 X0.452 Y-2.056 Z-2.453 F200
G1 X0.452 Y-2.032 Z-2.520 F200
G1 X0.452 Y-1.994 Z-2.580 F200
G1 X0.452 Y-1.944 Z-2.631 F200
G1 X0.452 Y-1.884 Z-2.669 F200
G1 X0.452 Y-1.817 Z-2.692 F200
G1 X0.452 Y-1.746 Z-2.700 F200
G1 X0.452 Y-1.597 Z-2.700 F200
G1 X0.452 Y41.597 Z-2.700 F200
G1 X0.460 Y41.724 Z-2.700 F200
G1 X0.484 Y41.848 Z-2.700 F200
G1 X0.523 Y41.968 Z-2.700 F200
G1 X0.577 Y42.083 Z-2.700 F200
G1 X0.645 Y42.190 Z-2.700 F200
G1 X0.725 Y42.287 Z-2.700 F200
G1 X0.817 Y42.374 Z-2.700 F200
G1 X0.920 Y42.448 Z-2.700 F200
G1 X1.031 Y42.509 Z-2.700 F200
G1 X1.148 Y42.556 Z-2.700 F200
G1 X1.271 Y42.587 Z-2.700 F200
G1 X1.396 Y42.603 Z-2.700 F200
G1 X1.523 Y42.603 Z-2.700 F200
G1 X1.648 Y42.587 Z-2.700 F200
G1 X1.771 Y42.556 Z-2.700 F200
G1 X1.888 Y42.509 Z-2.700 F200
G1 X1.999 Y42.448 Z-2.700 F200
G1 X2.102 Y42.374 Z-2.700 F200
G1 X2.194 Y42.287 Z-2.700 F200
G1 X2.274 Y42.190 Z-2.700 F200
G1 X2.342 Y42.083 Z-2.700 F200
G1 X2.396 Y41.968 Z-2.700 F200
G1 X2.435 Y41.848 Z-2.700 F200
G1 X2.459 Y41.724 Z-2.700 F200
G1 X2.467 Y41.597 Z-2.700 F200
G1 X2.467 Y-1.597 Z-2.700 F200
G1 X2.467 Y-1.668 Z-2.692 F200
G1 X2.467 Y-1.735 Z-2.669 F200
G1 X2.467 Y-1.795 Z-2.631 F200
G1 X2.467 Y-1.846 Z-2.580 F200
G1 X2.467 Y-1.884 Z-2.520 F200
G1 X2.467 Y-1.907 Z-2.453 F200
G1 X2.467 Y-1.915 Z-2.382 F200
G1 X2.467 Y-1.915 Z5.000 F200
G1 X0.452 Y-2.064 Z5.000 F200
G1 X0.452 Y-2.064 Z0.100 F200
G1 X0.452 Y-2.064 Z-2.483 F200
G1 X0.452 Y-2.056 Z-2.553 F200
G1 X0.452 Y-2.032 Z-2.620 F200
G1 X0.452 Y-1.994 Z-2.680 F200
G1 X0.452 Y-1.944 Z-2.731 F200
G1 X0.452 Y-1.884 Z-2.769 F200
G1 X0.452 Y-1.817 Z-2.792 F200
G1 X0.452 Y-1.746 Z-2.800 F200
G1 X0.452 Y-1.597 Z-2.800 F200
G1 X0.452 Y41.597 Z-2.800 F200
G1 X0.460 Y41.724 Z-2.800 F200
G1 X0.484 Y41.848 Z-2.800 F200
G1 X0.523 Y41.968 Z-2.800 F200
G1 X0.577 Y42.083 Z-2.800 F200
G1 X0.645 Y42.190 Z-2.800 F200
G1 X0.725 Y42.287 Z-2.800 F200
G1 X0.817 Y42.374 Z-2.800 F200
G1 X0.920 Y42.448 Z-2.800 F200
G1 X1.031 Y42.509 Z-2.800 F200
G1 X1.148 Y42.556 Z-2.800 F200
G1 X1.271 Y42.587 Z-2.800 F200
G1 X1.396 Y42.603 Z-2.800 F200
G1 X1.523 Y42.603 Z-2.800 F200
G1 X1.648 Y42.587 Z-2.800 F200
G1 X1.771 Y42.556 Z-2.800 F200
G1 X1.888 Y42.509 Z-2.800 F200
G1 X1.999 Y42.448 Z-2.800 F200
G1 X2.102 Y42.374 Z-2.800 F200
G1 X2.194 Y42.287 Z-2.800 F200
G1 X2.274 Y42.190 Z-2.800 F200
G1 X2.342 Y42.083 Z-2.800 F200
G1 X2.396 Y41.968 Z-2.800 F200
G1 X2.435 Y41.848 Z-2.800 F200
G1 X2.459 Y41.724 Z-2.800 F200
G1 X2.467 Y41.597 Z-2.800 F200
G1 X2.467 Y-1.597 Z-2.800 F200
G1 X2.467 Y-1.668 Z-2.792 F200
G1 X2.467 Y-1.735 Z-2.769 F200
G1 X2.467 Y-1.795 Z-2.731 F200
G1 X2.467 Y-1.846 Z-2.680 F200
G1 X2.467 Y-1.884 Z-2.620 F200
G1 X2.467 Y-1.907 Z-2.553 F200
G1 X2.467 Y-1.915 Z-2.483 F200
G1 X2.467 Y-1.915 Z5.000 F200
G1 X0.452 Y-2.064 Z5.000 F200
G1 X0.452 Y-2.064 Z0.100 F200
G1 X0.452 Y-2.064 Z-2.582 F200
G1 X0.452 Y-2.056 Z-2.653 F200
G1 X0.452 Y-2.032 Z-2.720 F200
G1 X0.452 Y-1.994 Z-2.780 F200
G1 X0.452 Y-1.944 Z-2.831 F200
G1 X0.452 Y-1.884 Z-2.869 F200
G1 X0.452 Y-1.817 Z-2.892 F200
G1 X0.452 Y-1.746 Z-2.900 F200
G1 X0.452 Y-1.597 Z-2.900 F200
G1 X0.452 Y41.597 Z-2.900 F200
G1 X0.460 Y41.724 Z-2.900 F200
G1 X0.484 Y41.848 Z-2.900 F200
G1 X0.523 Y41.968 Z-2.900 F200
G1 X0.577 Y42.083 Z-2.900 F200
G1 X0.645 Y42.190 Z-2.900 F200
G1 X0.725 Y42.287 Z-2.900 F200
G1 X0.817 Y42.374 Z-2.900 F200
G1 X0.920 Y42.448 Z-2.900 F200
G1 X1.031 Y42.509 Z-2.900 F200
G1 X1.148 Y42.556 Z-2.900 F200
G1 X1.271 Y42.587 Z-2.900 F200
G1 X1.396 Y42.603 Z-2.900 F200
G1 X1.523 Y42.603 Z-2.900 F200
G1 X1.648 Y42.587 Z-2.900 F200
G1 X1.771 Y42.556 Z-2.900 F200
G1 X1.888 Y42.509 Z-2.900 F200
G1 X1.999 Y42.448 Z-2.900 F200
G1 X2.102 Y42.374 Z-2.900 F200
G1 X2.194 Y42.287 Z-2.900 F200
G1 X2.274 Y42.190 Z-2.900 F200
G1 X2.342 Y42.083 Z-2.900 F200
G1 X2.396 Y41.968 Z-2.900 F200
G1 X2.435 Y41.848 Z-2.900 F200
G1 X2.459 Y41.724 Z-2.900 F200
G1 X2.467 Y41.597 Z-2.900 F200
G1 X2.467 Y-1.597 Z-2.900 F200
G1 X2.467 Y-1.668 Z-2.892 F200
G1 X2.467 Y-1.735 Z-2.869 F200
G1 X2.467 Y-1.795 Z-2.831 F200
G1 X2.467 Y-1.846 Z-2.780 F200
G1 X2.467 Y-1.884 Z-2.720 F200
G1 X2.467 Y-1.907 Z-2.653 F200
G1 X2.467 Y-1.915 Z-2.582 F200
G1 X2.467 Y-1.915 Z5.000 F200
G1 X0.452 Y-2.064 Z5.000 F200
G1 X0.452 Y-2.064 Z0.100 F200
G1 X0.452 Y-2.064 Z-2.682 F200
G1 X0.452 Y-2.056 Z-2.753 F200
G1 X0.452 Y-2.032 Z-2.820 F200
G1 X0.452 Y-1.994 Z-2.880 F200
G1 X0.452 Y-1.944 Z-2.931 F200
G1 X0.452 Y-1.884 Z-2.969 F200
G1 X0.452 Y-1.817 Z-2.992 F200
G1 X0.452 Y-1.746 Z-3.000 F200
G1 X0.452 Y-1.597 Z-3.000 F200
G1 X0.452 Y41.597 Z-3.000 F200
G1 X0.460 Y41.724 Z-3.000 F200
G1 X0.484 Y41.848 Z-3.000 F200
G1 X0.523 Y41.968 Z-3.000 F200
G1 X0.577 Y42.083 Z-3.000 F200
G1 X0.645 Y42.190 Z-3.000 F200
G1 X0.725 Y42.287 Z-3.000 F200
G1 X0.817 Y42.374 Z-3.000 F200
G1 X0.920 Y42.448 Z-3.000 F200
G1 X1.031 Y42.509 Z-3.000 F200
G1 X1.148 Y42.556 Z-3.000 F200
G1 X1.271 Y42.587 Z-3.000 F200
G1 X1.396 Y42.603 Z-3.000 F200
G1 X1.523 Y42.603 Z-3.000 F200
G1 X1.648 Y42.587 Z-3.000 F200
G1 X1.771 Y42.556 Z-3.000 F200
G1 X1.888 Y42.509 Z-3.000 F200
G1 X1.999 Y42.448 Z-3.000 F200
G1 X2.102 Y42.374 Z-3.000 F200
G1 X2.194 Y42.287 Z-3.000 F200
G1 X2.274 Y42.190 Z-3.000 F200
G1 X2.342 Y42.083 Z-3.000 F200
G1 X2.396 Y41.968 Z-3.000 F200
G1 X2.435 Y41.848 Z-3.000 F200
G1 X2.459 Y41.724 Z-3.000 F200
G1 X2.467 Y41.597 Z-3.000 F200
G1 X2.467 Y-1.597 Z-3.000 F200
G1 X2.467 Y-1.668 Z-2.992 F200
G1 X2.467 Y-1.735 Z-2.969 F200
G1 X2.467 Y-1.795 Z-2.931 F200
G1 X2.467 Y-1.846 Z-2.880 F200
G1 X2.467 Y-1.884 Z-2.820 F200
G1 X2.467 Y-1.907 Z-2.753 F200
G1 X2.467 Y-1.915 Z-2.682 F200
G1 X2.467 Y-1.915 Z5.000 F200
G1 X0.452 Y-2.064 Z5.000 F200
G1 X0.452 Y-2.064 Z0.100 F200
G1 X0.452 Y-2.064 Z-2.783 F200
G1 X0.452 Y-2.056 Z-2.853 F200
G1 X0.452 Y-2.032 Z-2.920 F200
G1 X0.452 Y-1.994 Z-2.980 F200
G1 X0.452 Y-1.944 Z-3.031 F200
G1 X0.452 Y-1.884 Z-3.069 F200
G1 X0.452 Y-1.817 Z-3.092 F200
G1 X0.452 Y-1.746 Z-3.100 F200
G1 X0.452 Y-1.597 Z-3.100 F200
G1 X0.452 Y41.597 Z-3.100 F200
G1 X0.460 Y41.724 Z-3.100 F200
G1 X0.484 Y41.848 Z-3.100 F200
G1 X0.523 Y41.968 Z-3.100 F200
G1 X0.577 Y42.083 Z-3.100 F200
G1 X0.645 Y42.190 Z-3.100 F200
G1 X0.725 Y42.287 Z-3.100 F200
G1 X0.817 Y42.374 Z-3.100 F200
G1 X0.920 Y42.448 Z-3.100 F200
G1 X1.031 Y42.509 Z-3.100 F200
G1 X1.148 Y42.556 Z-3.100 F200
G1 X1.271 Y42.587 Z-3.100 F200
G1 X1.396 Y42.603 Z-3.100 F200
G1 X1.523 Y42.603 Z-3.100 F200
G1 X1.648 Y42.587 Z-3.100 F200
G1 X1.771 Y42.556 Z-3.100 F200
G1 X1.888 Y42.509 Z-3.100 F200
G1 X1.999 Y42.448 Z-3.100 F200
G1 X2.102 Y42.374 Z-3.100 F200
G1 X2.194 Y42.287 Z-3.100 F200
G1 X2.274 Y42.190 Z-3.100 F200
G1 X2.342 Y42.083 Z-3.100 F200
G1 X2.396 Y41.968 Z-3.100 F200
G1 X2.435 Y41.848 Z-3.100 F200
G1 X2.459 Y41.724 Z-3.100 F200
G1 X2.467 Y41.597 Z-3.100 F200
G1 X2.467 Y-1.597 Z-3.100 F200
G1 X2.467 Y-1.668 Z-3.092 F200
G1 X2.467 Y-1.735 Z-3.069 F200
G1 X2.467 Y-1.795 Z-3.031 F200
G1 X2.467 Y-1.846 Z-2.980 F200
G1 X2.467 Y-1.884 Z-2.920 F200
G1 X2.467 Y-1.907 Z-2.853 F200
G1 X2.467 Y-1.915 Z-2.783 F200
G1 X2.467 Y-1.915 Z5.000 F200
G1 X0.452 Y-2.064 Z5.000 F200
G1 X0.452 Y-2.064 Z0.100 F200
G1 X0.452 Y-2.064 Z-2.882 F200
G1 X0.452 Y-2.056 Z-2.953 F200
G1 X0.452 Y-2.032 Z-3.020 F200
G1 X0.452 Y-1.994 Z-3.080 F200
G1 X0.452 Y-1.944 Z-3.131 F200
G1 X0.452 Y-1.884 Z-3.169 F200
G1 X0.452 Y-1.817 Z-3.192 F200
G1 X0.452 Y-1.746 Z-3.200 F200
G1 X0.452 Y-1.597 Z-3.200 F200
G1 X0.452 Y41.597 Z-3.200 F200
G1 X0.460 Y41.724 Z-3.200 F200
G1 X0.484 Y41.848 Z-3.200 F200
G1 X0.523 Y41.968 Z-3.200 F200
G1 X0.577 Y42.083 Z-3.200 F200
G1 X0.645 Y42.190 Z-3.200 F200
G1 X0.725 Y42.287 Z-3.200 F200
G1 X0.817 Y42.374 Z-3.200 F200
G1 X0.920 Y42.448 Z-3.200 F200
G1 X1.031 Y42.509 Z-3.200 F200
G1 X1.148 Y42.556 Z-3.200 F200
G1 X1.271 Y42.587 Z-3.200 F200
G1 X1.396 Y42.603 Z-3.200 F200
G1 X1.523 Y42.603 Z-3.200 F200
G1 X1.648 Y42.587 Z-3.200 F200
G1 X1.771 Y42.556 Z-3.200 F200
G1 X1.888 Y42.509 Z-3.200 F200
G1 X1.999 Y42.448 Z-3.200 F200
G1 X2.102 Y42.374 Z-3.200 F200
G1 X2.194 Y42.287 Z-3.200 F200
G1 X2.274 Y42.190 Z-3.200 F200
G1 X2.342 Y42.083 Z-3.200 F200
G1 X2.396 Y41.968 Z-3.200 F200
G1 X2.435 Y41.848 Z-3.200 F200
G1 X2.459 Y41.724 Z-3.200 F200
G1 X2.467 Y41.597 Z-3.200 F200
G1 X2.467 Y-1.597 Z-3.200 F200
G1 X2.467 Y-1.668 Z-3.192 F200
G1 X2.467 Y-1.735 Z-3.169 F200
G1 X2.467 Y-1.795 Z-3.131 F200
G1 X2.467 Y-1.846 Z-3.080 F200
G1 X2.467 Y-1.884 Z-3.020 F200
G1 X2.467 Y-1.907 Z-2.953 F200
G1 X2.467 Y-1.915 Z-2.882 F200
G1 X2.467 Y-1.915 Z5.000 F200
G1 X0.452 Y-2.064 Z5.000 F200
G1 X0.452 Y-2.064 Z0.100 F200
G1 X0.452 Y-2.064 Z-2.983 F200
G1 X0.452 Y-2.056 Z-3.053 F200
G1 X0.452 Y-2.032 Z-3.120 F200
G1 X0.452 Y-1.994 Z-3.180 F200
G1 X0.452 Y-1.944 Z-3.231 F200
G1 X0.452 Y-1.884 Z-3.269 F200
G1 X0.452 Y-1.817 Z-3.292 F200
G1 X0.452 Y-1.746 Z-3.300 F200
G1 X0.452 Y-1.597 Z-3.300 F200
G1 X0.452 Y41.597 Z-3.300 F200
G1 X0.460 Y41.724 Z-3.300 F200
G1 X0.484 Y41.848 Z-3.300 F200
G1 X0.523 Y41.968 Z-3.300 F200
G1 X0.577 Y42.083 Z-3.300 F200
G1 X0.645 Y42.190 Z-3.300 F200
G1 X0.725 Y42.287 Z-3.300 F200
G1 X0.817 Y42.374 Z-3.300 F200
G1 X0.920 Y42.448 Z-3.300 F200
G1 X1.031 Y42.509 Z-3.300 F200
G1 X1.148 Y42.556 Z-3.300 F200
G1 X1.271 Y42.587 Z-3.300 F200
G1 X1.396 Y42.603 Z-3.300 F200
G1 X1.523 Y42.603 Z-3.300 F200
G1 X1.648 Y42.587 Z-3.300 F200
G1 X1.771 Y42.556 Z-3.300 F200
G1 X1.888 Y42.509 Z-3.300 F200
G1 X1.999 Y42.448 Z-3.300 F200
G1 X2.102 Y42.374 Z-3.300 F200
G1 X2.194 Y42.287 Z-3.300 F200
G1 X2.274 Y42.190 Z-3.300 F200
G1 X2.342 Y42.083 Z-3.300 F200
G1 X2.396 Y41.968 Z-3.300 F200
G1 X2.435 Y41.848 Z-3.300 F200
G1 X2.459 Y41.724 Z-3.300 F200
G1 X2.467 Y41.597 Z-3.300 F200
G1 X2.467 Y-1.597 Z-3.300 F200
G1 X2.467 Y-1.668 Z-3.292 F200
G1 X2.467 Y-1.735 Z-3.269 F200
G1 X2.467 Y-1.795 Z-3.231 F200
G1 X2.467 Y-1.846 Z-3.180 F200
G1 X2.467 Y-1.884 Z-3.120 F200
G1 X2.467 Y-1.907 Z-3.053 F200
G1 X2.467 Y-1.915 Z-2.983 F200
G1 X2.467 Y-1.915 Z5.000 F200
G1 X0.452 Y-2.064 Z5.000 F200
G1 X0.452 Y-2.064 Z0.100 F200
G1 X0.452 Y-2.064 Z-3.082 F200
G1 X0.452 Y-2.056 Z-3.153 F200
G1 X0.452 Y-2.032 Z-3.220 F200
G1 X0.452 Y-1.994 Z-3.280 F200
G1 X0.452 Y-1.944 Z-3.331 F200
G1 X0.452 Y-1.884 Z-3.369 F200
G1 X0.452 Y-1.817 Z-3.392 F200
G1 X0.452 Y-1.746 Z-3.400 F200
G1 X0.452 Y-1.597 Z-3.400 F200
G1 X0.452 Y41.597 Z-3.400 F200
G1 X0.460 Y41.724 Z-3.400 F200
G1 X0.484 Y41.848 Z-3.400 F200
G1 X0.523 Y41.968 Z-3.400 F200
G1 X0.577 Y42.083 Z-3.400 F200
G1 X0.645 Y42.190 Z-3.400 F200
G1 X0.725 Y42.287 Z-3.400 F200
G1 X0.817 Y42.374 Z-3.400 F200
G1 X0.920 Y42.448 Z-3.400 F200
G1 X1.031 Y42.509 Z-3.400 F200
G1 X1.148 Y42.556 Z-3.400 F200
G1 X1.271 Y42.587 Z-3.400 F200
G1 X1.396 Y42.603 Z-3.400 F200
G1 X1.523 Y42.603 Z-3.400 F200
G1 X1.648 Y42.587 Z-3.400 F200
G1 X1.771 Y42.556 Z-3.400 F200
G1 X1.888 Y42.509 Z-3.400 F200
G1 X1.999 Y42.448 Z-3.400 F200
G1 X2.102 Y42.374 Z-3.400 F200
G1 X2.194 Y42.287 Z-3.400 F200
G1 X2.274 Y42.190 Z-3.400 F200
G1 X2.342 Y42.083 Z-3.400 F200
G1 X2.396 Y41.968 Z-3.400 F200
G1 X2.435 Y41.848 Z-3.400 F200
G1 X2.459 Y41.724 Z-3.400 F200
G1 X2.467 Y41.597 Z-3.400 F200
G1 X2.467 Y-1.597 Z-3.400 F200
G1 X2.467 Y-1.668 Z-3.392 F200
G1 X2.467 Y-1.735 Z-3.369 F200
G1 X2.467 Y-1.795 Z-3.331 F200
G1 X2.467 Y-1.846 Z-3.280 F200
G1 X2.467 Y-1.884 Z-3.220 F200
G1 X2.467 Y-1.907 Z-3.153 F200
G1 X2.467 Y-1.915 Z-3.082 F200
G1 X2.467 Y-1.915 Z5.000 F200
G1 X0.452 Y-2.064 Z5.000 F200
G1 X0.452 Y-2.064 Z0.100 F200
G1 X0.452 Y-2.064 Z-3.182 F200
G1 X0.452 Y-2.056 Z-3.253 F200
G1 X0.452 Y-2.032 Z-3.320 F200
G1 X0.452 Y-1.994 Z-3.380 F200
G1 X0.452 Y-1.944 Z-3.431 F200
G1 X0.452 Y-1.884 Z-3.469 F200
G1 X0.452 Y-1.817 Z-3.492 F200
G1 X0.452 Y-1.746 Z-3.500 F200
G1 X0.452 Y-1.597 Z-3.500 F200
G1 X0.452 Y41.597 Z-3.500 F200
G1 X0.460 Y41.724 Z-3.500 F200
G1 X0.484 Y41.848 Z-3.500 F200
G1 X0.523 Y41.968 Z-3.500 F200
G1 X0.577 Y42.083 Z-3.500 F200
G1 X0.645 Y42.190 Z-3.500 F200
G1 X0.725 Y42.287 Z-3.500 F200
G1 X0.817 Y42.374 Z-3.500 F200
G1 X0.920 Y42.448 Z-3.500 F200
G1 X1.031 Y42.509 Z-3.500 F200
G1 X1.148 Y42.556 Z-3.500 F200
G1 X1.271 Y42.587 Z-3.500 F200
G1 X1.396 Y42.603 Z-3.500 F200
G1 X1.523 Y42.603 Z-3.500 F200
G1 X1.648 Y42.587 Z-3.500 F200
G1 X1.771 Y42.556 Z-3.500 F200
G1 X1.888 Y42.509 Z-3.500 F200
G1 X1.999 Y42.448 Z-3.500 F200
G1 X2.102 Y42.374 Z-3.500 F200
G1 X2.194 Y42.287 Z-3.500 F200
G1 X2.274 Y42.190 Z-3.500 F200
G1 X2.342 Y42.083 Z-3.500 F200
G1 X2.396 Y41.968 Z-3.500 F200
G1 X2.435 Y41.848 Z-3.500 F200
G1 X2.459 Y41.724 Z-3.500 F200
G1 X2.467 Y41.597 Z-3.500 F200
G1 X2.467 Y-1.597 Z-3.500 F200
G1 X2.467 Y-1.668 Z-3.492 F200
G1 X2.467 Y-1.735 Z-3.469 F200
G1 X2.467 Y-1.795 Z-3.431 F200
G1 X2.467 Y-1.846 Z-3.380 F200
G1 X2.467 Y-1.884 Z-3.320 F200
G1 X2.467 Y-1.907 Z-3.253 F200
G1 X2.467 Y-1.915 Z-3.182 F200
G1 X2.467 Y-1.915 Z5.000 F200
G1 X0.452 Y-2.064 Z5.000 F200
G1 X0.452 Y-2.064 Z0.100 F200
G1 X0.452 Y-2.064 Z-3.283 F200
G1 X0.452 Y-2.056 Z-3.353 F200
G1 X0.452 Y-2.032 Z-3.420 F200
G1 X0.452 Y-1.994 Z-3.480 F200
G1 X0.452 Y-1.944 Z-3.531 F200
G1 X0.452 Y-1.884 Z-3.569 F200
G1 X0.452 Y-1.817 Z-3.592 F200
G1 X0.452 Y-1.746 Z-3.600 F200
G1 X0.452 Y-1.597 Z-3.600 F200
G1 X0.452 Y41.597 Z-3.600 F200
G1 X0.460 Y41.724 Z-3.600 F200
G1 X0.484 Y41.848 Z-3.600 F200
G1 X0.523 Y41.968 Z-3.600 F200
G1 X0.577 Y42.083 Z-3.600 F200
G1 X0.645 Y42.190 Z-3.600 F200
G1 X0.725 Y42.287 Z-3.600 F200
G1 X0.817 Y42.374 Z-3.600 F200
G1 X0.920 Y42.448 Z-3.600 F200
G1 X1.031 Y42.509 Z-3.600 F200
G1 X1.148 Y42.556 Z-3.600 F200
G1 X1.271 Y42.587 Z-3.600 F200
G1 X1.396 Y42.603 Z-3.600 F200
G1 X1.523 Y42.603 Z-3.600 F200
G1 X1.648 Y42.587 Z-3.600 F200
G1 X1.771 Y42.556 Z-3.600 F200
G1 X1.888 Y42.509 Z-3.600 F200
G1 X1.999 Y42.448 Z-3.600 F200
G1 X2.102 Y42.374 Z-3.600 F200
G1 X2.194 Y42.287 Z-3.600 F200
G1 X2.274 Y42.190 Z-3.600 F200
G1 X2.342 Y42.083 Z-3.600 F200
G1 X2.396 Y41.968 Z-3.600 F200
G1 X2.435 Y41.848 Z-3.600 F200
G1 X2.459 Y41.724 Z-3.600 F200
G1 X2.467 Y41.597 Z-3.600 F200
G1 X2.467 Y-1.597 Z-3.600 F200
G1 X2.467 Y-1.668 Z-3.592 F200
G1 X2.467 Y-1.735 Z-3.569 F200
G1 X2.467 Y-1.795 Z-3.531 F200
G1 X2.467 Y-1.846 Z-3.480 F200
G1 X2.467 Y-1.884 Z-3.420 F200
G1 X2.467 Y-1.907 Z-3.353 F200
G1 X2.467 Y-1.915 Z-3.283 F200
G1 X2.467 Y-1.915 Z5.000 F200
G1 X0.452 Y-2.064 Z5.000 F200
G1 X0.452 Y-2.064 Z0.100 F200
G1 X0.452 Y-2.064 Z-3.382 F200
G1 X0.452 Y-2.056 Z-3.453 F200
G1 X0.452 Y-2.032 Z-3.520 F200
G1 X0.452 Y-1.994 Z-3.580 F200
G1 X0.452 Y-1.944 Z-3.631 F200
G1 X0.452 Y-1.884 Z-3.669 F200
G1 X0.452 Y-1.817 Z-3.692 F200
G1 X0.452 Y-1.746 Z-3.700 F200
G1 X0.452 Y-1.597 Z-3.700 F200
G1 X0.452 Y41.597 Z-3.700 F200
G1 X0.460 Y41.724 Z-3.700 F200
G1 X0.484 Y41.848 Z-3.700 F200
G1 X0.523 Y41.968 Z-3.700 F200
G1 X0.577 Y42.083 Z-3.700 F200
G1 X0.645 Y42.190 Z-3.700 F200
G1 X0.725 Y42.287 Z-3.700 F200
G1 X0.817 Y42.374 Z-3.700 F200
G1 X0.920 Y42.448 Z-3.700 F200
G1 X1.031 Y42.509 Z-3.700 F200
G1 X1.148 Y42.556 Z-3.700 F200
G1 X1.271 Y42.587 Z-3.700 F200
G1 X1.396 Y42.603 Z-3.700 F200
G1 X1.523 Y42.603 Z-3.700 F200
G1 X1.648 Y42.587 Z-3.700 F200
G1 X1.771 Y42.556 Z-3.700 F200
G1 X1.888 Y42.509 Z-3.700 F200
G1 X1.999 Y42.448 Z-3.700 F200
G1 X2.102 Y42.374 Z-3.700 F200
G1 X2.194 Y42.287 Z-3.700 F200
G1 X2.274 Y42.190 Z-3.700 F200
G1 X2.342 Y42.083 Z-3.700 F200
G1 X2.396 Y41.968 Z-3.700 F200
G1 X2.435 Y41.848 Z-3.700 F200
G1 X2.459 Y41.724 Z-3.700 F200
G1 X2.467 Y41.597 Z-3.700 F200
G1 X2.467 Y-1.597 Z-3.700 F200
G1 X2.467 Y-1.668 Z-3.692 F200
G1 X2.467 Y-1.735 Z-3.669 F200
G1 X2.467 Y-1.795 Z-3.631 F200
G1 X2.467 Y-1.846 Z-3.580 F200
G1 X2.467 Y-1.884 Z-3.520 F200
G1 X2.467 Y-1.907 Z-3.453 F200
G1 X2.467 Y-1.915 Z-3.382 F200
G1 X2.467 Y-1.915 Z5.000 F200
G1 X0.452 Y-2.064 Z5.000 F200
G1 X0.452 Y-2.064 Z0.100 F200
G1 X0.452 Y-2.064 Z-3.483 F200
G1 X0.452 Y-2.056 Z-3.553 F200
G1 X0.452 Y-2.032 Z-3.620 F200
G1 X0.452 Y-1.994 Z-3.680 F200
G1 X0.452 Y-1.944 Z-3.731 F200
G1 X0.452 Y-1.884 Z-3.769 F200
G1 X0.452 Y-1.817 Z-3.792 F200
G1 X0.452 Y-1.746 Z-3.800 F200
G1 X0.452 Y-1.597 Z-3.800 F200
G1 X0.452 Y41.597 Z-3.800 F200
G1 X0.460 Y41.724 Z-3.800 F200
G1 X0.484 Y41.848 Z-3.800 F200
G1 X0.523 Y41.968 Z-3.800 F200
G1 X0.577 Y42.083 Z-3.800 F200
G1 X0.645 Y42.190 Z-3.800 F200
G1 X0.725 Y42.287 Z-3.800 F200
G1 X0.817 Y42.374 Z-3.800 F200
G1 X0.920 Y42.448 Z-3.800 F200
G1 X1.031 Y42.509 Z-3.800 F200
G1 X1.148 Y42.556 Z-3.800 F200
G1 X1.271 Y42.587 Z-3.800 F200
G1 X1.396 Y42.603 Z-3.800 F200
G1 X1.523 Y42.603 Z-3.800 F200
G1 X1.648 Y42.587 Z-3.800 F200
G1 X1.771 Y42.556 Z-3.800 F200
G1 X1.888 Y42.509 Z-3.800 F200
G1 X1.999 Y42.448 Z-3.800 F200
G1 X2.102 Y42.374 Z-3.800 F200
G1 X2.194 Y42.287 Z-3.800 F200
G1 X2.274 Y42.190 Z-3.800 F200
G1 X2.342 Y42.083 Z-3.800 F200
G1 X2.396 Y41.968 Z-3.800 F200
G1 X2.435 Y41.848 Z-3.800 F200
G1 X2.459 Y41.724 Z-3.800 F200
G1 X2.467 Y41.597 Z-3.800 F200
G1 X2.467 Y-1.597 Z-3.800 F200
G1 X2.467 Y-1.668 Z-3.792 F200
G1 X2.467 Y-1.735 Z-3.769 F200
G1 X2.467 Y-1.795 Z-3.731 F200
G1 X2.467 Y-1.846 Z-3.680 F200
G1 X2.467 Y-1.884 Z-3.620 F200
G1 X2.467 Y-1.907 Z-3.553 F200
G1 X2.467 Y-1.915 Z-3.483 F200
G1 X2.467 Y-1.915 Z5.000 F200
G1 X0.452 Y-2.064 Z5.000 F200
G1 X0.452 Y-2.064 Z0.100 F200
G1 X0.452 Y-2.064 Z-3.582 F200
G1 X0.452 Y-2.056 Z-3.653 F200
G1 X0.452 Y-2.032 Z-3.720 F200
G1 X0.452 Y-1.994 Z-3.780 F200
G1 X0.452 Y-1.944 Z-3.831 F200
G1 X0.452 Y-1.884 Z-3.869 F200
G1 X0.452 Y-1.817 Z-3.892 F200
G1 X0.452 Y-1.746 Z-3.900 F200
G1 X0.452 Y-1.597 Z-3.900 F200
G1 X0.452 Y41.597 Z-3.900 F200
G1 X0.460 Y41.724 Z-3.900 F200
G1 X0.484 Y41.848 Z-3.900 F200
G1 X0.523 Y41.968 Z-3.900 F200
G1 X0.577 Y42.083 Z-3.900 F200
G1 X0.645 Y42.190 Z-3.900 F200
G1 X0.725 Y42.287 Z-3.900 F200
G1 X0.817 Y42.374 Z-3.900 F200
G1 X0.920 Y42.448 Z-3.900 F200
G1 X1.031 Y42.509 Z-3.900 F200
G1 X1.148 Y42.556 Z-3.900 F200
G1 X1.271 Y42.587 Z-3.900 F200
G1 X1.396 Y42.603 Z-3.900 F200
G1 X1.523 Y42.603 Z-3.900 F200
G1 X1.648 Y42.587 Z-3.900 F200
G1 X1.771 Y42.556 Z-3.900 F200
G1 X1.888 Y42.509 Z-3.900 F200
G1 X1.999 Y42.448 Z-3.900 F200
G1 X2.102 Y42.374 Z-3.900 F200
G1 X2.194 Y42.287 Z-3.900 F200
G1 X2.274 Y42.190 Z-3.900 F200
G1 X2.342 Y42.083 Z-3.900 F200
G1 X2.396 Y41.968 Z-3.900 F200
G1 X2.435 Y41.848 Z-3.900 F200
G1 X2.459 Y41.724 Z-3.900 F200
G1 X2.467 Y41.597 Z-3.900 F200
G1 X2.467 Y-1.597 Z-3.900 F200
G1 X2.467 Y-1.668 Z-3.892 F200
G1 X2.467 Y-1.735 Z-3.869 F200
G1 X2.467 Y-1.795 Z-3.831 F200
G1 X2.467 Y-1.846 Z-3.780 F200
G1 X2.467 Y-1.884 Z-3.720 F200
G1 X2.467 Y-1.907 Z-3.653 F200
G1 X2.467 Y-1.915 Z-3.582 F200
G1 X2.467 Y-1.915 Z5.000 F200
G1 X0.452 Y-2.064 Z5.000 F200
G1 X0.452 Y-2.064 Z0.100 F200
G1 X0.452 Y-2.064 Z-3.682 F200
G1 X0.452 Y-2.056 Z-3.753 F200
G1 X0.452 Y-2.032 Z-3.820 F200
G1 X0.452 Y-1.994 Z-3.880 F200
G1 X0.452 Y-1.944 Z-3.931 F200
G1 X0.452 Y-1.884 Z-3.969 F200
G1 X0.452 Y-1.817 Z-3.992 F200
G1 X0.452 Y-1.746 Z-4.000 F200
G1 X0.452 Y-1.597 Z-4.000 F200
G1 X0.452 Y41.597 Z-4.000 F200
G1 X0.460 Y41.724 Z-4.000 F200
G1 X0.484 Y41.848 Z-4.000 F200
G1 X0.523 Y41.968 Z-4.000 F200
G1 X0.577 Y42.083 Z-4.000 F200
G1 X0.645 Y42.190 Z-4.000 F200
G1 X0.725 Y42.287 Z-4.000 F200
G1 X0.817 Y42.374 Z-4.000 F200
G1 X0.920 Y42.448 Z-4.000 F200
G1 X1.031 Y42.509 Z-4.000 F200
G1 X1.148 Y42.556 Z-4.000 F200
G1 X1.271 Y42.587 Z-4.000 F200
G1 X1.396 Y42.603 Z-4.000 F200
G1 X1.523 Y42.603 Z-4.000 F200
G1 X1.648 Y42.587 Z-4.000 F200
G1 X1.771 Y42.556 Z-4.000 F200
G1 X1.888 Y42.509 Z-4.000 F200
G1 X1.999 Y42.448 Z-4.000 F200
G1 X2.102 Y42.374 Z-4.000 F200
G1 X2.194 Y42.287 Z-4.000 F200
G1 X2.274 Y42.190 Z-4.000 F200
G1 X2.342 Y42.083 Z-4.000 F200
G1 X2.396 Y41.968 Z-4.000 F200
G1 X2.435 Y41.848 Z-4.000 F200
G1 X2.459 Y41.724 Z-4.000 F200
G1 X2.467 Y41.597 Z-4.000 F200
G1 X2.467 Y-1.597 Z-4.000 F200
G1 X2.467 Y-1.668 Z-3.992 F200
G1 X2.467 Y-1.735 Z-3.969 F200
G1 X2.467 Y-1.795 Z-3.931 F200
G1 X2.467 Y-1.846 Z-3.880 F200
G1 X2.467 Y-1.884 Z-3.820 F200
G1 X2.467 Y-1.907 Z-3.753 F200
G1 X2.467 Y-1.915 Z-3.682 F200
G1 X2.467 Y-1.915 Z5.000 F200
G1 X0.452 Y-2.064 Z5.000 F200
G1 X0.452 Y-2.064 Z0.100 F200
G1 X0.452 Y-2.064 Z-3.783 F200
G1 X0.452 Y-2.056 Z-3.853 F200
G1 X0.452 Y-2.032 Z-3.920 F200
G1 X0.452 Y-1.994 Z-3.980 F200
G1 X0.452 Y-1.944 Z-4.031 F200
G1 X0.452 Y-1.884 Z-4.069 F200
G1 X0.452 Y-1.817 Z-4.092 F200
G1 X0.452 Y-1.746 Z-4.100 F200
G1 X0.452 Y-1.597 Z-4.100 F200
G1 X0.452 Y41.597 Z-4.100 F200
G1 X0.460 Y41.724 Z-4.100 F200
G1 X0.484 Y41.848 Z-4.100 F200
G1 X0.523 Y41.968 Z-4.100 F200
G1 X0.577 Y42.083 Z-4.100 F200
G1 X0.645 Y42.190 Z-4.100 F200
G1 X0.725 Y42.287 Z-4.100 F200
G1 X0.817 Y42.374 Z-4.100 F200
G1 X0.920 Y42.448 Z-4.100 F200
G1 X1.031 Y42.509 Z-4.100 F200
G1 X1.148 Y42.556 Z-4.100 F200
G1 X1.271 Y42.587 Z-4.100 F200
G1 X1.396 Y42.603 Z-4.100 F200
G1 X1.523 Y42.603 Z-4.100 F200
G1 X1.648 Y42.587 Z-4.100 F200
G1 X1.771 Y42.556 Z-4.100 F200
G1 X1.888 Y42.509 Z-4.100 F200
G1 X1.999 Y42.448 Z-4.100 F200
G1 X2.102 Y42.374 Z-4.100 F200
G1 X2.194 Y42.287 Z-4.100 F200
G1 X2.274 Y42.190 Z-4.100 F200
G1 X2.342 Y42.083 Z-4.100 F200
G1 X2.396 Y41.968 Z-4.100 F200
G1 X2.435 Y41.848 Z-4.100 F200
G1 X2.459 Y41.724 Z-4.100 F200
G1 X2.467 Y41.597 Z-4.100 F200
G1 X2.467 Y-1.597 Z-4.100 F200
G1 X2.467 Y-1.668 Z-4.092 F200
G1 X2.467 Y-1.735 Z-4.069 F200
G1 X2.467 Y-1.795 Z-4.031 F200
G1 X2.467 Y-1.846 Z-3.980 F200
G1 X2.467 Y-1.884 Z-3.920 F200
G1 X2.467 Y-1.907 Z-3.853 F200
G1 X2.467 Y-1.915 Z-3.783 F200
G1 X2.467 Y-1.915 Z5.000 F200
G1 X0.452 Y-2.064 Z5.000 F200
G1 X0.452 Y-2.064 Z0.100 F200
G1 X0.452 Y-2.064 Z-3.882 F200
G1 X0.452 Y-2.056 Z-3.953 F200
G1 X0.452 Y-2.032 Z-4.020 F200
G1 X0.452 Y-1.994 Z-4.080 F200
G1 X0.452 Y-1.944 Z-4.131 F200
G1 X0.452 Y-1.884 Z-4.169 F200
G1 X0.452 Y-1.817 Z-4.192 F200
G1 X0.452 Y-1.746 Z-4.200 F200
G1 X0.452 Y-1.597 Z-4.200 F200
G1 X0.452 Y41.597 Z-4.200 F200
G1 X0.460 Y41.724 Z-4.200 F200
G1 X0.484 Y41.848 Z-4.200 F200
G1 X0.523 Y41.968 Z-4.200 F200
G1 X0.577 Y42.083 Z-4.200 F200
G1 X0.645 Y42.190 Z-4.200 F200
G1 X0.725 Y42.287 Z-4.200 F200
G1 X0.817 Y42.374 Z-4.200 F200
G1 X0.920 Y42.448 Z-4.200 F200
G1 X1.031 Y42.509 Z-4.200 F200
G1 X1.148 Y42.556 Z-4.200 F200
G1 X1.271 Y42.587 Z-4.200 F200
G1 X1.396 Y42.603 Z-4.200 F200
G1 X1.523 Y42.603 Z-4.200 F200
G1 X1.648 Y42.587 Z-4.200 F200
G1 X1.771 Y42.556 Z-4.200 F200
G1 X1.888 Y42.509 Z-4.200 F200
G1 X1.999 Y42.448 Z-4.200 F200
G1 X2.102 Y42.374 Z-4.200 F200
G1 X2.194 Y42.287 Z-4.200 F200
G1 X2.274 Y42.190 Z-4.200 F200
G1 X2.342 Y42.083 Z-4.200 F200
G1 X2.396 Y41.968 Z-4.200 F200
G1 X2.435 Y41.848 Z-4.200 F200
G1 X2.459 Y41.724 Z-4.200 F200
G1 X2.467 Y41.597 Z-4.200 F200
G1 X2.467 Y-1.597 Z-4.200 F200
G1 X2.467 Y-1.668 Z-4.192 F200
G1 X2.467 Y-1.735 Z-4.169 F200
G1 X2.467 Y-1.795 Z-4.131 F200
G1 X2.467 Y-1.846 Z-4.080 F200
G1 X2.467 Y-1.884 Z-4.020 F200
G1 X2.467 Y-1.907 Z-3.953 F200
G1 X2.467 Y-1.915 Z-3.882 F200
G1 X2.467 Y-1.915 Z5.000 F200
G1 X0.452 Y-2.064 Z5.000 F200
G1 X0.452 Y-2.064 Z0.100 F200
G1 X0.452 Y-2.064 Z-3.983 F200
G1 X0.452 Y-2.056 Z-4.053 F200
G1 X0.452 Y-2.032 Z-4.120 F200
G1 X0.452 Y-1.994 Z-4.180 F200
G1 X0.452 Y-1.944 Z-4.231 F200
G1 X0.452 Y-1.884 Z-4.269 F200
G1 X0.452 Y-1.817 Z-4.292 F200
G1 X0.452 Y-1.746 Z-4.300 F200
G1 X0.452 Y-1.597 Z-4.300 F200
G1 X0.452 Y41.597 Z-4.300 F200
G1 X0.460 Y41.724 Z-4.300 F200
G1 X0.484 Y41.848 Z-4.300 F200
G1 X0.523 Y41.968 Z-4.300 F200
G1 X0.577 Y42.083 Z-4.300 F200
G1 X0.645 Y42.190 Z-4.300 F200
G1 X0.725 Y42.287 Z-4.300 F200
G1 X0.817 Y42.374 Z-4.300 F200
G1 X0.920 Y42.448 Z-4.300 F200
G1 X1.031 Y42.509 Z-4.300 F200
G1 X1.148 Y42.556 Z-4.300 F200
G1 X1.271 Y42.587 Z-4.300 F200
G1 X1.396 Y42.603 Z-4.300 F200
G1 X1.523 Y42.603 Z-4.300 F200
G1 X1.648 Y42.587 Z-4.300 F200
G1 X1.771 Y42.556 Z-4.300 F200
G1 X1.888 Y42.509 Z-4.300 F200
G1 X1.999 Y42.448 Z-4.300 F200
G1 X2.102 Y42.374 Z-4.300 F200
G1 X2.194 Y42.287 Z-4.300 F200
G1 X2.274 Y42.190 Z-4.300 F200
G1 X2.342 Y42.083 Z-4.300 F200
G1 X2.396 Y41.968 Z-4.300 F200
G1 X2.435 Y41.848 Z-4.300 F200
G1 X2.459 Y41.724 Z-4.300 F200
G1 X2.467 Y41.597 Z-4.300 F200
G1 X2.467 Y-1.597 Z-4.300 F200
G1 X2.467 Y-1.668 Z-4.292 F200
G1 X2.467 Y-1.735 Z-4.269 F200
G1 X2.467 Y-1.795 Z-4.231 F200
G1 X2.467 Y-1.846 Z-4.180 F200
G1 X2.467 Y-1.884 Z-4.120 F200
G1 X2.467 Y-1.907 Z-4.053 F200
G1 X2.467 Y-1.915 Z-3.983 F200
G1 X2.467 Y-1.915 Z5.000 F200
G1 X0.452 Y-2.064 Z5.000 F200
G1 X0.452 Y-2.064 Z0.100 F200
G1 X0.452 Y-2.064 Z-4.082 F200
G1 X0.452 Y-2.056 Z-4.153 F200
G1 X0.452 Y-2.032 Z-4.220 F200
G1 X0.452 Y-1.994 Z-4.280 F200
G1 X0.452 Y-1.944 Z-4.331 F200
G1 X0.452 Y-1.884 Z-4.369 F200
G1 X0.452 Y-1.817 Z-4.392 F200
G1 X0.452 Y-1.746 Z-4.400 F200
G1 X0.452 Y-1.597 Z-4.400 F200
G1 X0.452 Y41.597 Z-4.400 F200
G1 X0.460 Y41.724 Z-4.400 F200
G1 X0.484 Y41.848 Z-4.400 F200
G1 X0.523 Y41.968 Z-4.400 F200
G1 X0.577 Y42.083 Z-4.400 F200
G1 X0.645 Y42.190 Z-4.400 F200
G1 X0.725 Y42.287 Z-4.400 F200
G1 X0.817 Y42.374 Z-4.400 F200
G1 X0.920 Y42.448 Z-4.400 F200
G1 X1.031 Y42.509 Z-4.400 F200
G1 X1.148 Y42.556 Z-4.400 F200
G1 X1.271 Y42.587 Z-4.400 F200
G1 X1.396 Y42.603 Z-4.400 F200
G1 X1.523 Y42.603 Z-4.400 F200
G1 X1.648 Y42.587 Z-4.400 F200
G1 X1.771 Y42.556 Z-4.400 F200
G1 X1.888 Y42.509 Z-4.400 F200
G1 X1.999 Y42.448 Z-4.400 F200
G1 X2.102 Y42.374 Z-4.400 F200
G1 X2.194 Y42.287 Z-4.400 F200
G1 X2.274 Y42.190 Z-4.400 F200
G1 X2.342 Y42.083 Z-4.400 F200
G1 X2.396 Y41.968 Z-4.400 F200
G1 X2.435 Y41.848 Z-4.400 F200
G1 X2.459 Y41.724 Z-4.400 F200
G1 X2.467 Y41.597 Z-4.400 F200
G1 X2.467 Y-1.597 Z-4.400 F200
G1 X2.467 Y-1.668 Z-4.392 F200
G1 X2.467 Y-1.735 Z-4.369 F200
G1 X2.467 Y-1.795 Z-4.331 F200
G1 X2.467 Y-1.846 Z-4.280 F200
G1 X2.467 Y-1.884 Z-4.220 F200
G1 X2.467 Y-1.907 Z-4.153 F200
G1 X2.467 Y-1.915 Z-4.082 F200
G1 X2.467 Y-1.915 Z5.000 F200
G1 X0.452 Y-2.064 Z5.000 F200
G1 X0.452 Y-2.064 Z0.100 F200
G1 X0.452 Y-2.064 Z-4.182 F200
G1 X0.452 Y-2.056 Z-4.253 F200
G1 X0.452 Y-2.032 Z-4.320 F200
G1 X0.452 Y-1.994 Z-4.380 F200
G1 X0.452 Y-1.944 Z-4.431 F200
G1 X0.452 Y-1.884 Z-4.469 F200
G1 X0.452 Y-1.817 Z-4.492 F200
G1 X0.452 Y-1.746 Z-4.500 F200
G1 X0.452 Y-1.597 Z-4.500 F200
G1 X0.452 Y41.597 Z-4.500 F200
G1 X0.460 Y41.724 Z-4.500 F200
G1 X0.484 Y41.848 Z-4.500 F200
G1 X0.523 Y41.968 Z-4.500 F200
G1 X0.577 Y42.083 Z-4.500 F200
G1 X0.645 Y42.190 Z-4.500 F200
G1 X0.725 Y42.287 Z-4.500 F200
G1 X0.817 Y42.374 Z-4.500 F200
G1 X0.920 Y42.448 Z-4.500 F200
G1 X1.031 Y42.509 Z-4.500 F200
G1 X1.148 Y42.556 Z-4.500 F200
G1 X1.271 Y42.587 Z-4.500 F200
G1 X1.396 Y42.603 Z-4.500 F200
G1 X1.523 Y42.603 Z-4.500 F200
G1 X1.648 Y42.587 Z-4.500 F200
G1 X1.771 Y42.556 Z-4.500 F200
G1 X1.888 Y42.509 Z-4.500 F200
G1 X1.999 Y42.448 Z-4.500 F200
G1 X2.102 Y42.374 Z-4.500 F200
G1 X2.194 Y42.287 Z-4.500 F200
G1 X2.274 Y42.190 Z-4.500 F200
G1 X2.342 Y42.083 Z-4.500 F200
G1 X2.396 Y41.968 Z-4.500 F200
G1 X2.435 Y41.848 Z-4.500 F200
G1 X2.459 Y41.724 Z-4.500 F200
G1 X2.467 Y41.597 Z-4.500 F200
G1 X2.467 Y-1.597 Z-4.500 F200
G1 X2.467 Y-1.668 Z-4.492 F200
G1 X2.467 Y-1.735 Z-4.469 F200
G1 X2.467 Y-1.795 Z-4.431 F200
G1 X2.467 Y-1.846 Z-4.380 F200
G1 X2.467 Y-1.884 Z-4.320 F200
G1 X2.467 Y-1.907 Z-4.253 F200
G1 X2.467 Y-1.915 Z-4.182 F200
G1 X2.467 Y-1.915 Z5.000 F200
G1 X0.452 Y-2.064 Z5.000 F200
G1 X0.452 Y-2.064 Z0.100 F200
G1 X0.452 Y-2.064 Z-4.282 F200
G1 X0.452 Y-2.056 Z-4.353 F200
G1 X0.452 Y-2.032 Z-4.420 F200
G1 X0.452 Y-1.994 Z-4.480 F200
G1 X0.452 Y-1.944 Z-4.531 F200
G1 X0.452 Y-1.884 Z-4.569 F200
G1 X0.452 Y-1.817 Z-4.592 F200
G1 X0.452 Y-1.746 Z-4.600 F200
G1 X0.452 Y-1.597 Z-4.600 F200
G1 X0.452 Y41.597 Z-4.600 F200
G1 X0.460 Y41.724 Z-4.600 F200
G1 X0.484 Y41.848 Z-4.600 F200
G1 X0.523 Y41.968 Z-4.600 F200
G1 X0.577 Y42.083 Z-4.600 F200
G1 X0.645 Y42.190 Z-4.600 F200
G1 X0.725 Y42.287 Z-4.600 F200
G1 X0.817 Y42.374 Z-4.600 F200
G1 X0.920 Y42.448 Z-4.600 F200
G1 X1.031 Y42.509 Z-4.600 F200
G1 X1.148 Y42.556 Z-4.600 F200
G1 X1.271 Y42.587 Z-4.600 F200
G1 X1.396 Y42.603 Z-4.600 F200
G1 X1.523 Y42.603 Z-4.600 F200
G1 X1.648 Y42.587 Z-4.600 F200
G1 X1.771 Y42.556 Z-4.600 F200
G1 X1.888 Y42.509 Z-4.600 F200
G1 X1.999 Y42.448 Z-4.600 F200
G1 X2.102 Y42.374 Z-4.600 F200
G1 X2.194 Y42.287 Z-4.600 F200
G1 X2.274 Y42.190 Z-4.600 F200
G1 X2.342 Y42.083 Z-4.600 F200
G1 X2.396 Y41.968 Z-4.600 F200
G1 X2.435 Y41.848 Z-4.600 F200
G1 X2.459 Y41.724 Z-4.600 F200
G1 X2.467 Y41.597 Z-4.600 F200
G1 X2.467 Y-1.597 Z-4.600 F200
G1 X2.467 Y-1.668 Z-4.592 F200
G1 X2.467 Y-1.735 Z-4.569 F200
G1 X2.467 Y-1.795 Z-4.531 F200
G1 X2.467 Y-1.846 Z-4.480 F200
G1 X2.467 Y-1.884 Z-4.420 F200
G1 X2.467 Y-1.907 Z-4.353 F200
G1 X2.467 Y-1.915 Z-4.282 F200
G1 X2.467 Y-1.915 Z5.000 F200
G1 X0.452 Y-2.064 Z5.000 F200
G1 X0.452 Y-2.064 Z0.100 F200
G1 X0.452 Y-2.064 Z-4.383 F200
G1 X0.452 Y-2.056 Z-4.453 F200
G1 X0.452 Y-2.032 Z-4.520 F200
G1 X0.452 Y-1.994 Z-4.580 F200
G1 X0.452 Y-1.944 Z-4.631 F200
G1 X0.452 Y-1.884 Z-4.669 F200
G1 X0.452 Y-1.817 Z-4.692 F200
G1 X0.452 Y-1.746 Z-4.700 F200
G1 X0.452 Y-1.597 Z-4.700 F200
G1 X0.452 Y41.597 Z-4.700 F200
G1 X0.460 Y41.724 Z-4.700 F200
G1 X0.484 Y41.848 Z-4.700 F200
G1 X0.523 Y41.968 Z-4.700 F200
G1 X0.577 Y42.083 Z-4.700 F200
G1 X0.645 Y42.190 Z-4.700 F200
G1 X0.725 Y42.287 Z-4.700 F200
G1 X0.817 Y42.374 Z-4.700 F200
G1 X0.920 Y42.448 Z-4.700 F200
G1 X1.031 Y42.509 Z-4.700 F200
G1 X1.148 Y42.556 Z-4.700 F200
G1 X1.271 Y42.587 Z-4.700 F200
G1 X1.396 Y42.603 Z-4.700 F200
G1 X1.523 Y42.603 Z-4.700 F200
G1 X1.648 Y42.587 Z-4.700 F200
G1 X1.771 Y42.556 Z-4.700 F200
G1 X1.888 Y42.509 Z-4.700 F200
G1 X1.999 Y42.448 Z-4.700 F200
G1 X2.102 Y42.374 Z-4.700 F200
G1 X2.194 Y42.287 Z-4.700 F200
G1 X2.274 Y42.190 Z-4.700 F200
G1 X2.342 Y42.083 Z-4.700 F200
G1 X2.396 Y41.968 Z-4.700 F200
G1 X2.435 Y41.848 Z-4.700 F200
G1 X2.459 Y41.724 Z-4.700 F200
G1 X2.467 Y41.597 Z-4.700 F200
G1 X2.467 Y-1.597 Z-4.700 F200
G1 X2.467 Y-1.668 Z-4.692 F200
G1 X2.467 Y-1.735 Z-4.669 F200
G1 X2.467 Y-1.795 Z-4.631 F200
G1 X2.467 Y-1.846 Z-4.580 F200
G1 X2.467 Y-1.884 Z-4.520 F200
G1 X2.467 Y-1.907 Z-4.453 F200
G1 X2.467 Y-1.915 Z-4.383 F200
G1 X2.467 Y-1.915 Z5.000 F200
G1 X0.452 Y-2.064 Z5.000 F200
G1 X0.452 Y-2.064 Z0.100 F200
G1 X0.452 Y-2.064 Z-4.483 F200
G1 X0.452 Y-2.056 Z-4.553 F200
G1 X0.452 Y-2.032 Z-4.620 F200
G1 X0.452 Y-1.994 Z-4.680 F200
G1 X0.452 Y-1.944 Z-4.731 F200
G1 X0.452 Y-1.884 Z-4.769 F200
G1 X0.452 Y-1.817 Z-4.792 F200
G1 X0.452 Y-1.746 Z-4.800 F200
G1 X0.452 Y-1.597 Z-4.800 F200
G1 X0.452 Y41.597 Z-4.800 F200
G1 X0.460 Y41.724 Z-4.800 F200
G1 X0.484 Y41.848 Z-4.800 F200
G1 X0.523 Y41.968 Z-4.800 F200
G1 X0.577 Y42.083 Z-4.800 F200
G1 X0.645 Y42.190 Z-4.800 F200
G1 X0.725 Y42.287 Z-4.800 F200
G1 X0.817 Y42.374 Z-4.800 F200
G1 X0.920 Y42.448 Z-4.800 F200
G1 X1.031 Y42.509 Z-4.800 F200
G1 X1.148 Y42.556 Z-4.800 F200
G1 X1.271 Y42.587 Z-4.800 F200
G1 X1.396 Y42.603 Z-4.800 F200
G1 X1.523 Y42.603 Z-4.800 F200
G1 X1.648 Y42.587 Z-4.800 F200
G1 X1.771 Y42.556 Z-4.800 F200
G1 X1.888 Y42.509 Z-4.800 F200
G1 X1.999 Y42.448 Z-4.800 F200
G1 X2.102 Y42.374 Z-4.800 F200
G1 X2.194 Y42.287 Z-4.800 F200
G1 X2.274 Y42.190 Z-4.800 F200
G1 X2.342 Y42.083 Z-4.800 F200
G1 X2.396 Y41.968 Z-4.800 F200
G1 X2.435 Y41.848 Z-4.800 F200
G1 X2.459 Y41.724 Z-4.800 F200
G1 X2.467 Y41.597 Z-4.800 F200
G1 X2.467 Y-1.597 Z-4.800 F200
G1 X2.467 Y-1.668 Z-4.792 F200
G1 X2.467 Y-1.735 Z-4.769 F200
G1 X2.467 Y-1.795 Z-4.731 F200
G1 X2.467 Y-1.846 Z-4.680 F200
G1 X2.467 Y-1.884 Z-4.620 F200
G1 X2.467 Y-1.907 Z-4.553 F200
G1 X2.467 Y-1.915 Z-4.483 F200
G1 X2.467 Y-1.915 Z5.000 F200
G1 X0.452 Y-2.064 Z5.000 F200
G1 X0.452 Y-2.064 Z0.100 F200
G1 X0.452 Y-2.064 Z-4.582 F200
G1 X0.452 Y-2.056 Z-4.653 F200
G1 X0.452 Y-2.032 Z-4.720 F200
G1 X0.452 Y-1.994 Z-4.780 F200
G1 X0.452 Y-1.944 Z-4.831 F200
G1 X0.452 Y-1.884 Z-4.869 F200
G1 X0.452 Y-1.817 Z-4.892 F200
G1 X0.452 Y-1.746 Z-4.900 F200
G1 X0.452 Y-1.597 Z-4.900 F200
G1 X0.452 Y41.597 Z-4.900 F200
G1 X0.460 Y41.724 Z-4.900 F200
G1 X0.484 Y41.848 Z-4.900 F200
G1 X0.523 Y41.968 Z-4.900 F200
G1 X0.577 Y42.083 Z-4.900 F200
G1 X0.645 Y42.190 Z-4.900 F200
G1 X0.725 Y42.287 Z-4.900 F200
G1 X0.817 Y42.374 Z-4.900 F200
G1 X0.920 Y42.448 Z-4.900 F200
G1 X1.031 Y42.509 Z-4.900 F200
G1 X1.148 Y42.556 Z-4.900 F200
G1 X1.271 Y42.587 Z-4.900 F200
G1 X1.396 Y42.603 Z-4.900 F200
G1 X1.523 Y42.603 Z-4.900 F200
G1 X1.648 Y42.587 Z-4.900 F200
G1 X1.771 Y42.556 Z-4.900 F200
G1 X1.888 Y42.509 Z-4.900 F200
G1 X1.999 Y42.448 Z-4.900 F200
G1 X2.102 Y42.374 Z-4.900 F200
G1 X2.194 Y42.287 Z-4.900 F200
G1 X2.274 Y42.190 Z-4.900 F200
G1 X2.342 Y42.083 Z-4.900 F200
G1 X2.396 Y41.968 Z-4.900 F200
G1 X2.435 Y41.848 Z-4.900 F200
G1 X2.459 Y41.724 Z-4.900 F200
G1 X2.467 Y41.597 Z-4.900 F200
G1 X2.467 Y-1.597 Z-4.900 F200
G1 X2.467 Y-1.668 Z-4.892 F200
G1 X2.467 Y-1.735 Z-4.869 F200
G1 X2.467 Y-1.795 Z-4.831 F200
G1 X2.467 Y-1.846 Z-4.780 F200
G1 X2.467 Y-1.884 Z-4.720 F200
G1 X2.467 Y-1.907 Z-4.653 F200
G1 X2.467 Y-1.915 Z-4.582 F200
G1 X2.467 Y-1.915 Z5.000 F200
G1 X0.452 Y-2.064 Z5.000 F200
G1 X0.452 Y-2.064 Z0.100 F200
G1 X0.452 Y-2.064 Z-4.682 F200
G1 X0.452 Y-2.056 Z-4.753 F200
G1 X0.452 Y-2.032 Z-4.820 F200
G1 X0.452 Y-1.994 Z-4.880 F200
G1 X0.452 Y-1.944 Z-4.931 F200
G1 X0.452 Y-1.884 Z-4.969 F200
G1 X0.452 Y-1.817 Z-4.992 F200
G1 X0.452 Y-1.746 Z-5.000 F200
G1 X0.452 Y-1.597 Z-5.000 F200
G1 X0.452 Y41.597 Z-5.000 F200
G1 X0.460 Y41.724 Z-5.000 F200
G1 X0.484 Y41.848 Z-5.000 F200
G1 X0.523 Y41.968 Z-5.000 F200
G1 X0.577 Y42.083 Z-5.000 F200
G1 X0.645 Y42.190 Z-5.000 F200
G1 X0.725 Y42.287 Z-5.000 F200
G1 X0.817 Y42.374 Z-5.000 F200
G1 X0.920 Y42.448 Z-5.000 F200
G1 X1.031 Y42.509 Z-5.000 F200
G1 X1.148 Y42.556 Z-5.000 F200
G1 X1.271 Y42.587 Z-5.000 F200
G1 X1.396 Y42.603 Z-5.000 F200
G1 X1.523 Y42.603 Z-5.000 F200
G1 X1.648 Y42.587 Z-5.000 F200
G1 X1.771 Y42.556 Z-5.000 F200
G1 X1.888 Y42.509 Z-5.000 F200
G1 X1.999 Y42.448 Z-5.000 F200
G1 X2.102 Y42.374 Z-5.000 F200
G1 X2.194 Y42.287 Z-5.000 F200
G1 X2.274 Y42.190 Z-5.000 F200
G1 X2.342 Y42.083 Z-5.000 F200
G1 X2.396 Y41.968 Z-5.000 F200
G1 X2.435 Y41.848 Z-5.000 F200
G1 X2.459 Y41.724 Z-5.000 F200
G1 X2.467 Y41.597 Z-5.000 F200
G1 X2.467 Y-1.597 Z-5.000 F200
G1 X2.467 Y-1.668 Z-4.992 F200
G1 X2.467 Y-1.735 Z-4.969 F200
G1 X2.467 Y-1.795 Z-4.931 F200
G1 X2.467 Y-1.846 Z-4.880 F200
G1 X2.467 Y-1.884 Z-4.820 F200
G1 X2.467 Y-1.907 Z-4.753 F200
G1 X2.467 Y-1.915 Z-4.682 F200
G1 X2.467 Y-1.915 Z15.000 F200
G0 X0.000 Y0.000
M5
