;Titan-1-Nomad-Profile
;Now at Henrietta Hankin!
;Machine
;vendor: Snapmaker
;model: Desktop CNC
;description: Generic Snapmaker Marlin v20180725
M3 S10000
G4 S2 P2
G21
G90
;When using Fusion for Personal Use, the feedrate of rapid
;moves is reduced to match the feedrate of cutting moves,
;which can increase machining time. Unrestricted rapid moves
;are available with a Fusion Subscription.

;Titan-1-Nomad-Profile
G0 X36.403 Y8.360 Z16.825
G1 X36.403 Y8.360 Z16.825 F1000
G1 X36.403 Y8.360 Z6.825 F1000
G1 X36.403 Y8.360 Z2.460 F333.3
G1 X36.403 Y8.360 Z1.893 F333.3
G1 X36.395 Y8.360 Z1.822 F1000
G1 X36.372 Y8.360 Z1.755 F1000
G1 X36.334 Y8.360 Z1.695 F1000
G1 X36.284 Y8.360 Z1.645 F1000
G1 X36.224 Y8.360 Z1.607 F1000
G1 X36.156 Y8.360 Z1.583 F1000
G1 X36.086 Y8.360 Z1.575 F1000
G1 X35.768 Y8.360 Z1.575 F1000
G1 X35.698 Y8.352 Z1.575 F1000
G1 X35.631 Y8.329 Z1.575 F1000
G1 X35.570 Y8.291 Z1.575 F1000
G1 X35.520 Y8.241 Z1.575 F1000
G1 X35.482 Y8.180 Z1.575 F1000
G1 X35.459 Y8.113 Z1.575 F1000
G1 X35.451 Y8.043 Z1.575 F1000
G1 X35.451 Y0.085 Z1.575 F1000
G1 X35.443 Y-0.071 Z1.575 F1000
G1 X35.420 Y-0.225 Z1.575 F1000
G1 X35.382 Y-0.376 Z1.575 F1000
G1 X35.330 Y-0.523 Z1.575 F1000
G1 X35.263 Y-0.664 Z1.575 F1000
G1 X35.183 Y-0.798 Z1.575 F1000
G1 X35.090 Y-0.923 Z1.575 F1000
G1 X34.986 Y-1.038 Z1.575 F1000
G1 X34.901 Y-1.123 Z1.575 F1000
G1 X34.785 Y-1.227 Z1.575 F1000
G1 X34.660 Y-1.320 Z1.575 F1000
G1 X34.527 Y-1.400 Z1.575 F1000
G1 X34.386 Y-1.467 Z1.575 F1000
G1 X34.239 Y-1.519 Z1.575 F1000
G1 X34.088 Y-1.557 Z1.575 F1000
G1 X33.934 Y-1.580 Z1.575 F1000
G1 X33.779 Y-1.587 Z1.575 F1000
G1 X0.085 Y-1.587 Z1.575 F1000
G1 X-0.071 Y-1.580 Z1.575 F1000
G1 X-0.225 Y-1.557 Z1.575 F1000
G1 X-0.376 Y-1.519 Z1.575 F1000
G1 X-0.523 Y-1.467 Z1.575 F1000
G1 X-0.664 Y-1.400 Z1.575 F1000
G1 X-0.797 Y-1.320 Z1.575 F1000
G1 X-0.922 Y-1.227 Z1.575 F1000
G1 X-1.038 Y-1.123 Z1.575 F1000
G1 X-1.123 Y-1.038 Z1.575 F1000
G1 X-1.227 Y-0.922 Z1.575 F1000
G1 X-1.320 Y-0.797 Z1.575 F1000
G1 X-1.400 Y-0.664 Z1.575 F1000
G1 X-1.467 Y-0.523 Z1.575 F1000
G1 X-1.519 Y-0.376 Z1.575 F1000
G1 X-1.557 Y-0.225 Z1.575 F1000
G1 X-1.580 Y-0.071 Z1.575 F1000
G1 X-1.587 Y0.085 Z1.575 F1000
G1 X-1.587 Y16.000 Z1.575 F1000
G1 X-1.580 Y16.156 Z1.575 F1000
G1 X-1.557 Y16.310 Z1.575 F1000
G1 X-1.519 Y16.461 Z1.575 F1000
G1 X-1.467 Y16.608 Z1.575 F1000
G1 X-1.400 Y16.749 Z1.575 F1000
G1 X-1.320 Y16.882 Z1.575 F1000
G1 X-1.227 Y17.007 Z1.575 F1000
G1 X-1.123 Y17.123 Z1.575 F1000
G1 X-1.038 Y17.207 Z1.575 F1000
G1 X-0.923 Y17.312 Z1.575 F1000
G1 X-0.798 Y17.405 Z1.575 F1000
G1 X-0.664 Y17.485 Z1.575 F1000
G1 X-0.523 Y17.552 Z1.575 F1000
G1 X-0.376 Y17.604 Z1.575 F1000
G1 X-0.225 Y17.642 Z1.575 F1000
G1 X-0.071 Y17.665 Z1.575 F1000
G1 X0.085 Y17.673 Z1.575 F1000
G1 X33.779 Y17.673 Z1.575 F1000
G1 X33.934 Y17.665 Z1.575 F1000
G1 X34.088 Y17.642 Z1.575 F1000
G1 X34.239 Y17.604 Z1.575 F1000
G1 X34.386 Y17.552 Z1.575 F1000
G1 X34.527 Y17.485 Z1.575 F1000
G1 X34.661 Y17.405 Z1.575 F1000
G1 X34.786 Y17.312 Z1.575 F1000
G1 X34.901 Y17.208 Z1.575 F1000
G1 X34.986 Y17.123 Z1.575 F1000
G1 X35.090 Y17.007 Z1.575 F1000
G1 X35.183 Y16.882 Z1.575 F1000
G1 X35.263 Y16.749 Z1.575 F1000
G1 X35.330 Y16.608 Z1.575 F1000
G1 X35.382 Y16.461 Z1.575 F1000
G1 X35.420 Y16.310 Z1.575 F1000
G1 X35.443 Y16.156 Z1.575 F1000
G1 X35.451 Y16.000 Z1.575 F1000
G1 X35.451 Y8.043 Z1.575 F1000
G1 X35.459 Y7.972 Z1.575 F1000
G1 X35.482 Y7.905 Z1.575 F1000
G1 X35.520 Y7.845 Z1.575 F1000
G1 X35.570 Y7.794 Z1.575 F1000
G1 X35.631 Y7.756 Z1.575 F1000
G1 X35.698 Y7.733 Z1.575 F1000
G1 X35.768 Y7.725 Z1.575 F1000
G1 X36.086 Y7.725 Z1.575 F1000
G1 X36.156 Y7.725 Z1.583 F1000
G1 X36.224 Y7.725 Z1.607 F1000
G1 X36.284 Y7.725 Z1.645 F1000
G1 X36.334 Y7.725 Z1.695 F1000
G1 X36.372 Y7.725 Z1.755 F1000
G1 X36.395 Y7.725 Z1.822 F1000
G1 X36.403 Y7.725 Z1.893 F1000
G1 X36.403 Y7.725 Z6.825 F1000
G1 X36.403 Y8.360 Z6.825 F1000
G1 X36.403 Y8.360 Z2.210 F333.3
G1 X36.403 Y8.360 Z1.643 F333.3
G1 X36.395 Y8.360 Z1.572 F1000
G1 X36.372 Y8.360 Z1.505 F1000
G1 X36.334 Y8.360 Z1.445 F1000
G1 X36.284 Y8.360 Z1.395 F1000
G1 X36.224 Y8.360 Z1.357 F1000
G1 X36.156 Y8.360 Z1.333 F1000
G1 X36.086 Y8.360 Z1.325 F1000
G1 X35.768 Y8.360 Z1.325 F1000
G1 X35.698 Y8.352 Z1.325 F1000
G1 X35.631 Y8.329 Z1.325 F1000
G1 X35.570 Y8.291 Z1.325 F1000
G1 X35.520 Y8.241 Z1.325 F1000
G1 X35.482 Y8.180 Z1.325 F1000
G1 X35.459 Y8.113 Z1.325 F1000
G1 X35.451 Y8.043 Z1.325 F1000
G1 X35.451 Y0.085 Z1.325 F1000
G1 X35.443 Y-0.071 Z1.325 F1000
G1 X35.420 Y-0.225 Z1.325 F1000
G1 X35.382 Y-0.376 Z1.325 F1000
G1 X35.330 Y-0.523 Z1.325 F1000
G1 X35.263 Y-0.664 Z1.325 F1000
G1 X35.183 Y-0.798 Z1.325 F1000
G1 X35.090 Y-0.923 Z1.325 F1000
G1 X34.986 Y-1.038 Z1.325 F1000
G1 X34.901 Y-1.123 Z1.325 F1000
G1 X34.785 Y-1.227 Z1.325 F1000
G1 X34.660 Y-1.320 Z1.325 F1000
G1 X34.527 Y-1.400 Z1.325 F1000
G1 X34.386 Y-1.467 Z1.325 F1000
G1 X34.239 Y-1.519 Z1.325 F1000
G1 X34.088 Y-1.557 Z1.325 F1000
G1 X33.934 Y-1.580 Z1.325 F1000
G1 X33.779 Y-1.587 Z1.325 F1000
G1 X0.085 Y-1.587 Z1.325 F1000
G1 X-0.071 Y-1.580 Z1.325 F1000
G1 X-0.225 Y-1.557 Z1.325 F1000
G1 X-0.376 Y-1.519 Z1.325 F1000
G1 X-0.523 Y-1.467 Z1.325 F1000
G1 X-0.664 Y-1.400 Z1.325 F1000
G1 X-0.797 Y-1.320 Z1.325 F1000
G1 X-0.922 Y-1.227 Z1.325 F1000
G1 X-1.038 Y-1.123 Z1.325 F1000
G1 X-1.123 Y-1.038 Z1.325 F1000
G1 X-1.227 Y-0.922 Z1.325 F1000
G1 X-1.320 Y-0.797 Z1.325 F1000
G1 X-1.400 Y-0.664 Z1.325 F1000
G1 X-1.467 Y-0.523 Z1.325 F1000
G1 X-1.519 Y-0.376 Z1.325 F1000
G1 X-1.557 Y-0.225 Z1.325 F1000
G1 X-1.580 Y-0.071 Z1.325 F1000
G1 X-1.587 Y0.085 Z1.325 F1000
G1 X-1.587 Y16.000 Z1.325 F1000
G1 X-1.580 Y16.156 Z1.325 F1000
G1 X-1.557 Y16.310 Z1.325 F1000
G1 X-1.519 Y16.461 Z1.325 F1000
G1 X-1.467 Y16.608 Z1.325 F1000
G1 X-1.400 Y16.749 Z1.325 F1000
G1 X-1.320 Y16.882 Z1.325 F1000
G1 X-1.227 Y17.007 Z1.325 F1000
G1 X-1.123 Y17.123 Z1.325 F1000
G1 X-1.038 Y17.207 Z1.325 F1000
G1 X-0.923 Y17.312 Z1.325 F1000
G1 X-0.798 Y17.405 Z1.325 F1000
G1 X-0.664 Y17.485 Z1.325 F1000
G1 X-0.523 Y17.552 Z1.325 F1000
G1 X-0.376 Y17.604 Z1.325 F1000
G1 X-0.225 Y17.642 Z1.325 F1000
G1 X-0.071 Y17.665 Z1.325 F1000
G1 X0.085 Y17.673 Z1.325 F1000
G1 X33.779 Y17.673 Z1.325 F1000
G1 X33.934 Y17.665 Z1.325 F1000
G1 X34.088 Y17.642 Z1.325 F1000
G1 X34.239 Y17.604 Z1.325 F1000
G1 X34.386 Y17.552 Z1.325 F1000
G1 X34.527 Y17.485 Z1.325 F1000
G1 X34.661 Y17.405 Z1.325 F1000
G1 X34.786 Y17.312 Z1.325 F1000
G1 X34.901 Y17.208 Z1.325 F1000
G1 X34.986 Y17.123 Z1.325 F1000
G1 X35.090 Y17.007 Z1.325 F1000
G1 X35.183 Y16.882 Z1.325 F1000
G1 X35.263 Y16.749 Z1.325 F1000
G1 X35.330 Y16.608 Z1.325 F1000
G1 X35.382 Y16.461 Z1.325 F1000
G1 X35.420 Y16.310 Z1.325 F1000
G1 X35.443 Y16.156 Z1.325 F1000
G1 X35.451 Y16.000 Z1.325 F1000
G1 X35.451 Y8.043 Z1.325 F1000
G1 X35.459 Y7.972 Z1.325 F1000
G1 X35.482 Y7.905 Z1.325 F1000
G1 X35.520 Y7.845 Z1.325 F1000
G1 X35.570 Y7.794 Z1.325 F1000
G1 X35.631 Y7.756 Z1.325 F1000
G1 X35.698 Y7.733 Z1.325 F1000
G1 X35.768 Y7.725 Z1.325 F1000
G1 X36.086 Y7.725 Z1.325 F1000
G1 X36.156 Y7.725 Z1.333 F1000
G1 X36.224 Y7.725 Z1.357 F1000
G1 X36.284 Y7.725 Z1.395 F1000
G1 X36.334 Y7.725 Z1.445 F1000
G1 X36.372 Y7.725 Z1.505 F1000
G1 X36.395 Y7.725 Z1.572 F1000
G1 X36.403 Y7.725 Z1.643 F1000
G1 X36.403 Y7.725 Z6.825 F1000
G1 X36.403 Y8.360 Z6.825 F1000
G1 X36.403 Y8.360 Z1.960 F333.3
G1 X36.403 Y8.360 Z1.393 F333.3
G1 X36.395 Y8.360 Z1.322 F1000
G1 X36.372 Y8.360 Z1.255 F1000
G1 X36.334 Y8.360 Z1.195 F1000
G1 X36.284 Y8.360 Z1.145 F1000
G1 X36.224 Y8.360 Z1.107 F1000
G1 X36.156 Y8.360 Z1.083 F1000
G1 X36.086 Y8.360 Z1.075 F1000
G1 X35.768 Y8.360 Z1.075 F1000
G1 X35.698 Y8.352 Z1.075 F1000
G1 X35.631 Y8.329 Z1.075 F1000
G1 X35.570 Y8.291 Z1.075 F1000
G1 X35.520 Y8.241 Z1.075 F1000
G1 X35.482 Y8.180 Z1.075 F1000
G1 X35.459 Y8.113 Z1.075 F1000
G1 X35.451 Y8.043 Z1.075 F1000
G1 X35.451 Y0.085 Z1.075 F1000
G1 X35.443 Y-0.071 Z1.075 F1000
G1 X35.420 Y-0.225 Z1.075 F1000
G1 X35.382 Y-0.376 Z1.075 F1000
G1 X35.330 Y-0.523 Z1.075 F1000
G1 X35.263 Y-0.664 Z1.075 F1000
G1 X35.183 Y-0.798 Z1.075 F1000
G1 X35.090 Y-0.923 Z1.075 F1000
G1 X34.986 Y-1.038 Z1.075 F1000
G1 X34.901 Y-1.123 Z1.075 F1000
G1 X34.785 Y-1.227 Z1.075 F1000
G1 X34.660 Y-1.320 Z1.075 F1000
G1 X34.527 Y-1.400 Z1.075 F1000
G1 X34.386 Y-1.467 Z1.075 F1000
G1 X34.239 Y-1.519 Z1.075 F1000
G1 X34.088 Y-1.557 Z1.075 F1000
G1 X33.934 Y-1.580 Z1.075 F1000
G1 X33.779 Y-1.587 Z1.075 F1000
G1 X0.085 Y-1.587 Z1.075 F1000
G1 X-0.071 Y-1.580 Z1.075 F1000
G1 X-0.225 Y-1.557 Z1.075 F1000
G1 X-0.376 Y-1.519 Z1.075 F1000
G1 X-0.523 Y-1.467 Z1.075 F1000
G1 X-0.664 Y-1.400 Z1.075 F1000
G1 X-0.797 Y-1.320 Z1.075 F1000
G1 X-0.922 Y-1.227 Z1.075 F1000
G1 X-1.038 Y-1.123 Z1.075 F1000
G1 X-1.123 Y-1.038 Z1.075 F1000
G1 X-1.227 Y-0.922 Z1.075 F1000
G1 X-1.320 Y-0.797 Z1.075 F1000
G1 X-1.400 Y-0.664 Z1.075 F1000
G1 X-1.467 Y-0.523 Z1.075 F1000
G1 X-1.519 Y-0.376 Z1.075 F1000
G1 X-1.557 Y-0.225 Z1.075 F1000
G1 X-1.580 Y-0.071 Z1.075 F1000
G1 X-1.587 Y0.085 Z1.075 F1000
G1 X-1.587 Y16.000 Z1.075 F1000
G1 X-1.580 Y16.156 Z1.075 F1000
G1 X-1.557 Y16.310 Z1.075 F1000
G1 X-1.519 Y16.461 Z1.075 F1000
G1 X-1.467 Y16.608 Z1.075 F1000
G1 X-1.400 Y16.749 Z1.075 F1000
G1 X-1.320 Y16.882 Z1.075 F1000
G1 X-1.227 Y17.007 Z1.075 F1000
G1 X-1.123 Y17.123 Z1.075 F1000
G1 X-1.038 Y17.207 Z1.075 F1000
G1 X-0.923 Y17.312 Z1.075 F1000
G1 X-0.798 Y17.405 Z1.075 F1000
G1 X-0.664 Y17.485 Z1.075 F1000
G1 X-0.523 Y17.552 Z1.075 F1000
G1 X-0.376 Y17.604 Z1.075 F1000
G1 X-0.225 Y17.642 Z1.075 F1000
G1 X-0.071 Y17.665 Z1.075 F1000
G1 X0.085 Y17.673 Z1.075 F1000
G1 X33.779 Y17.673 Z1.075 F1000
G1 X33.934 Y17.665 Z1.075 F1000
G1 X34.088 Y17.642 Z1.075 F1000
G1 X34.239 Y17.604 Z1.075 F1000
G1 X34.386 Y17.552 Z1.075 F1000
G1 X34.527 Y17.485 Z1.075 F1000
G1 X34.661 Y17.405 Z1.075 F1000
G1 X34.786 Y17.312 Z1.075 F1000
G1 X34.901 Y17.208 Z1.075 F1000
G1 X34.986 Y17.123 Z1.075 F1000
G1 X35.090 Y17.007 Z1.075 F1000
G1 X35.183 Y16.882 Z1.075 F1000
G1 X35.263 Y16.749 Z1.075 F1000
G1 X35.330 Y16.608 Z1.075 F1000
G1 X35.382 Y16.461 Z1.075 F1000
G1 X35.420 Y16.310 Z1.075 F1000
G1 X35.443 Y16.156 Z1.075 F1000
G1 X35.451 Y16.000 Z1.075 F1000
G1 X35.451 Y8.043 Z1.075 F1000
G1 X35.459 Y7.972 Z1.075 F1000
G1 X35.482 Y7.905 Z1.075 F1000
G1 X35.520 Y7.845 Z1.075 F1000
G1 X35.570 Y7.794 Z1.075 F1000
G1 X35.631 Y7.756 Z1.075 F1000
G1 X35.698 Y7.733 Z1.075 F1000
G1 X35.768 Y7.725 Z1.075 F1000
G1 X36.086 Y7.725 Z1.075 F1000
G1 X36.156 Y7.725 Z1.083 F1000
G1 X36.224 Y7.725 Z1.107 F1000
G1 X36.284 Y7.725 Z1.145 F1000
G1 X36.334 Y7.725 Z1.195 F1000
G1 X36.372 Y7.725 Z1.255 F1000
G1 X36.395 Y7.725 Z1.322 F1000
G1 X36.403 Y7.725 Z1.393 F1000
G1 X36.403 Y7.725 Z6.825 F1000
G1 X36.403 Y8.360 Z6.825 F1000
G1 X36.403 Y8.360 Z1.710 F333.3
G1 X36.403 Y8.360 Z1.143 F333.3
G1 X36.395 Y8.360 Z1.072 F1000
G1 X36.372 Y8.360 Z1.005 F1000
G1 X36.334 Y8.360 Z0.945 F1000
G1 X36.284 Y8.360 Z0.895 F1000
G1 X36.224 Y8.360 Z0.857 F1000
G1 X36.156 Y8.360 Z0.833 F1000
G1 X36.086 Y8.360 Z0.825 F1000
G1 X35.768 Y8.360 Z0.825 F1000
G1 X35.698 Y8.352 Z0.825 F1000
G1 X35.631 Y8.329 Z0.825 F1000
G1 X35.570 Y8.291 Z0.825 F1000
G1 X35.520 Y8.241 Z0.825 F1000
G1 X35.482 Y8.180 Z0.825 F1000
G1 X35.459 Y8.113 Z0.825 F1000
G1 X35.451 Y8.043 Z0.825 F1000
G1 X35.451 Y0.085 Z0.825 F1000
G1 X35.443 Y-0.071 Z0.825 F1000
G1 X35.420 Y-0.225 Z0.825 F1000
G1 X35.382 Y-0.376 Z0.825 F1000
G1 X35.330 Y-0.523 Z0.825 F1000
G1 X35.263 Y-0.664 Z0.825 F1000
G1 X35.183 Y-0.798 Z0.825 F1000
G1 X35.090 Y-0.923 Z0.825 F1000
G1 X34.986 Y-1.038 Z0.825 F1000
G1 X34.901 Y-1.123 Z0.825 F1000
G1 X34.785 Y-1.227 Z0.825 F1000
G1 X34.660 Y-1.320 Z0.825 F1000
G1 X34.527 Y-1.400 Z0.825 F1000
G1 X34.386 Y-1.467 Z0.825 F1000
G1 X34.239 Y-1.519 Z0.825 F1000
G1 X34.088 Y-1.557 Z0.825 F1000
G1 X33.934 Y-1.580 Z0.825 F1000
G1 X33.779 Y-1.587 Z0.825 F1000
G1 X0.085 Y-1.587 Z0.825 F1000
G1 X-0.071 Y-1.580 Z0.825 F1000
G1 X-0.225 Y-1.557 Z0.825 F1000
G1 X-0.376 Y-1.519 Z0.825 F1000
G1 X-0.523 Y-1.467 Z0.825 F1000
G1 X-0.664 Y-1.400 Z0.825 F1000
G1 X-0.797 Y-1.320 Z0.825 F1000
G1 X-0.922 Y-1.227 Z0.825 F1000
G1 X-1.038 Y-1.123 Z0.825 F1000
G1 X-1.123 Y-1.038 Z0.825 F1000
G1 X-1.227 Y-0.922 Z0.825 F1000
G1 X-1.320 Y-0.797 Z0.825 F1000
G1 X-1.400 Y-0.664 Z0.825 F1000
G1 X-1.467 Y-0.523 Z0.825 F1000
G1 X-1.519 Y-0.376 Z0.825 F1000
G1 X-1.557 Y-0.225 Z0.825 F1000
G1 X-1.580 Y-0.071 Z0.825 F1000
G1 X-1.587 Y0.085 Z0.825 F1000
G1 X-1.587 Y16.000 Z0.825 F1000
G1 X-1.580 Y16.156 Z0.825 F1000
G1 X-1.557 Y16.310 Z0.825 F1000
G1 X-1.519 Y16.461 Z0.825 F1000
G1 X-1.467 Y16.608 Z0.825 F1000
G1 X-1.400 Y16.749 Z0.825 F1000
G1 X-1.320 Y16.882 Z0.825 F1000
G1 X-1.227 Y17.007 Z0.825 F1000
G1 X-1.123 Y17.123 Z0.825 F1000
G1 X-1.038 Y17.207 Z0.825 F1000
G1 X-0.923 Y17.312 Z0.825 F1000
G1 X-0.798 Y17.405 Z0.825 F1000
G1 X-0.664 Y17.485 Z0.825 F1000
G1 X-0.523 Y17.552 Z0.825 F1000
G1 X-0.376 Y17.604 Z0.825 F1000
G1 X-0.225 Y17.642 Z0.825 F1000
G1 X-0.071 Y17.665 Z0.825 F1000
G1 X0.085 Y17.673 Z0.825 F1000
G1 X33.779 Y17.673 Z0.825 F1000
G1 X33.934 Y17.665 Z0.825 F1000
G1 X34.088 Y17.642 Z0.825 F1000
G1 X34.239 Y17.604 Z0.825 F1000
G1 X34.386 Y17.552 Z0.825 F1000
G1 X34.527 Y17.485 Z0.825 F1000
G1 X34.661 Y17.405 Z0.825 F1000
G1 X34.786 Y17.312 Z0.825 F1000
G1 X34.901 Y17.208 Z0.825 F1000
G1 X34.986 Y17.123 Z0.825 F1000
G1 X35.090 Y17.007 Z0.825 F1000
G1 X35.183 Y16.882 Z0.825 F1000
G1 X35.263 Y16.749 Z0.825 F1000
G1 X35.330 Y16.608 Z0.825 F1000
G1 X35.382 Y16.461 Z0.825 F1000
G1 X35.420 Y16.310 Z0.825 F1000
G1 X35.443 Y16.156 Z0.825 F1000
G1 X35.451 Y16.000 Z0.825 F1000
G1 X35.451 Y8.043 Z0.825 F1000
G1 X35.459 Y7.972 Z0.825 F1000
G1 X35.482 Y7.905 Z0.825 F1000
G1 X35.520 Y7.845 Z0.825 F1000
G1 X35.570 Y7.794 Z0.825 F1000
G1 X35.631 Y7.756 Z0.825 F1000
G1 X35.698 Y7.733 Z0.825 F1000
G1 X35.768 Y7.725 Z0.825 F1000
G1 X36.086 Y7.725 Z0.825 F1000
G1 X36.156 Y7.725 Z0.833 F1000
G1 X36.224 Y7.725 Z0.857 F1000
G1 X36.284 Y7.725 Z0.895 F1000
G1 X36.334 Y7.725 Z0.945 F1000
G1 X36.372 Y7.725 Z1.005 F1000
G1 X36.395 Y7.725 Z1.072 F1000
G1 X36.403 Y7.725 Z1.143 F1000
G1 X36.403 Y7.725 Z6.825 F1000
G1 X36.403 Y8.360 Z6.825 F1000
G1 X36.403 Y8.360 Z1.460 F333.3
G1 X36.403 Y8.360 Z0.893 F333.3
G1 X36.395 Y8.360 Z0.822 F1000
G1 X36.372 Y8.360 Z0.755 F1000
G1 X36.334 Y8.360 Z0.695 F1000
G1 X36.284 Y8.360 Z0.645 F1000
G1 X36.224 Y8.360 Z0.607 F1000
G1 X36.156 Y8.360 Z0.583 F1000
G1 X36.086 Y8.360 Z0.575 F1000
G1 X35.768 Y8.360 Z0.575 F1000
G1 X35.698 Y8.352 Z0.575 F1000
G1 X35.631 Y8.329 Z0.575 F1000
G1 X35.570 Y8.291 Z0.575 F1000
G1 X35.520 Y8.241 Z0.575 F1000
G1 X35.482 Y8.180 Z0.575 F1000
G1 X35.459 Y8.113 Z0.575 F1000
G1 X35.451 Y8.043 Z0.575 F1000
G1 X35.451 Y0.085 Z0.575 F1000
G1 X35.443 Y-0.071 Z0.575 F1000
G1 X35.420 Y-0.225 Z0.575 F1000
G1 X35.382 Y-0.376 Z0.575 F1000
G1 X35.330 Y-0.523 Z0.575 F1000
G1 X35.263 Y-0.664 Z0.575 F1000
G1 X35.183 Y-0.798 Z0.575 F1000
G1 X35.090 Y-0.923 Z0.575 F1000
G1 X34.986 Y-1.038 Z0.575 F1000
G1 X34.901 Y-1.123 Z0.575 F1000
G1 X34.785 Y-1.227 Z0.575 F1000
G1 X34.660 Y-1.320 Z0.575 F1000
G1 X34.527 Y-1.400 Z0.575 F1000
G1 X34.386 Y-1.467 Z0.575 F1000
G1 X34.239 Y-1.519 Z0.575 F1000
G1 X34.088 Y-1.557 Z0.575 F1000
G1 X33.934 Y-1.580 Z0.575 F1000
G1 X33.779 Y-1.587 Z0.575 F1000
G1 X0.085 Y-1.587 Z0.575 F1000
G1 X-0.071 Y-1.580 Z0.575 F1000
G1 X-0.225 Y-1.557 Z0.575 F1000
G1 X-0.376 Y-1.519 Z0.575 F1000
G1 X-0.523 Y-1.467 Z0.575 F1000
G1 X-0.664 Y-1.400 Z0.575 F1000
G1 X-0.797 Y-1.320 Z0.575 F1000
G1 X-0.922 Y-1.227 Z0.575 F1000
G1 X-1.038 Y-1.123 Z0.575 F1000
G1 X-1.123 Y-1.038 Z0.575 F1000
G1 X-1.227 Y-0.922 Z0.575 F1000
G1 X-1.320 Y-0.797 Z0.575 F1000
G1 X-1.400 Y-0.664 Z0.575 F1000
G1 X-1.467 Y-0.523 Z0.575 F1000
G1 X-1.519 Y-0.376 Z0.575 F1000
G1 X-1.557 Y-0.225 Z0.575 F1000
G1 X-1.580 Y-0.071 Z0.575 F1000
G1 X-1.587 Y0.085 Z0.575 F1000
G1 X-1.587 Y16.000 Z0.575 F1000
G1 X-1.580 Y16.156 Z0.575 F1000
G1 X-1.557 Y16.310 Z0.575 F1000
G1 X-1.519 Y16.461 Z0.575 F1000
G1 X-1.467 Y16.608 Z0.575 F1000
G1 X-1.400 Y16.749 Z0.575 F1000
G1 X-1.320 Y16.882 Z0.575 F1000
G1 X-1.227 Y17.007 Z0.575 F1000
G1 X-1.123 Y17.123 Z0.575 F1000
G1 X-1.038 Y17.207 Z0.575 F1000
G1 X-0.923 Y17.312 Z0.575 F1000
G1 X-0.798 Y17.405 Z0.575 F1000
G1 X-0.664 Y17.485 Z0.575 F1000
G1 X-0.523 Y17.552 Z0.575 F1000
G1 X-0.376 Y17.604 Z0.575 F1000
G1 X-0.225 Y17.642 Z0.575 F1000
G1 X-0.071 Y17.665 Z0.575 F1000
G1 X0.085 Y17.673 Z0.575 F1000
G1 X33.779 Y17.673 Z0.575 F1000
G1 X33.934 Y17.665 Z0.575 F1000
G1 X34.088 Y17.642 Z0.575 F1000
G1 X34.239 Y17.604 Z0.575 F1000
G1 X34.386 Y17.552 Z0.575 F1000
G1 X34.527 Y17.485 Z0.575 F1000
G1 X34.661 Y17.405 Z0.575 F1000
G1 X34.786 Y17.312 Z0.575 F1000
G1 X34.901 Y17.208 Z0.575 F1000
G1 X34.986 Y17.123 Z0.575 F1000
G1 X35.090 Y17.007 Z0.575 F1000
G1 X35.183 Y16.882 Z0.575 F1000
G1 X35.263 Y16.749 Z0.575 F1000
G1 X35.330 Y16.608 Z0.575 F1000
G1 X35.382 Y16.461 Z0.575 F1000
G1 X35.420 Y16.310 Z0.575 F1000
G1 X35.443 Y16.156 Z0.575 F1000
G1 X35.451 Y16.000 Z0.575 F1000
G1 X35.451 Y8.043 Z0.575 F1000
G1 X35.459 Y7.972 Z0.575 F1000
G1 X35.482 Y7.905 Z0.575 F1000
G1 X35.520 Y7.845 Z0.575 F1000
G1 X35.570 Y7.794 Z0.575 F1000
G1 X35.631 Y7.756 Z0.575 F1000
G1 X35.698 Y7.733 Z0.575 F1000
G1 X35.768 Y7.725 Z0.575 F1000
G1 X36.086 Y7.725 Z0.575 F1000
G1 X36.156 Y7.725 Z0.583 F1000
G1 X36.224 Y7.725 Z0.607 F1000
G1 X36.284 Y7.725 Z0.645 F1000
G1 X36.334 Y7.725 Z0.695 F1000
G1 X36.372 Y7.725 Z0.755 F1000
G1 X36.395 Y7.725 Z0.822 F1000
G1 X36.403 Y7.725 Z0.893 F1000
G1 X36.403 Y7.725 Z6.825 F1000
G1 X36.403 Y8.360 Z6.825 F1000
G1 X36.403 Y8.360 Z1.210 F333.3
G1 X36.403 Y8.360 Z0.643 F333.3
G1 X36.395 Y8.360 Z0.572 F1000
G1 X36.372 Y8.360 Z0.505 F1000
G1 X36.334 Y8.360 Z0.445 F1000
G1 X36.284 Y8.360 Z0.395 F1000
G1 X36.224 Y8.360 Z0.357 F1000
G1 X36.156 Y8.360 Z0.333 F1000
G1 X36.086 Y8.360 Z0.325 F1000
G1 X35.768 Y8.360 Z0.325 F1000
G1 X35.698 Y8.352 Z0.325 F1000
G1 X35.631 Y8.329 Z0.325 F1000
G1 X35.570 Y8.291 Z0.325 F1000
G1 X35.520 Y8.241 Z0.325 F1000
G1 X35.482 Y8.180 Z0.325 F1000
G1 X35.459 Y8.113 Z0.325 F1000
G1 X35.451 Y8.043 Z0.325 F1000
G1 X35.451 Y0.085 Z0.325 F1000
G1 X35.443 Y-0.071 Z0.325 F1000
G1 X35.420 Y-0.225 Z0.325 F1000
G1 X35.382 Y-0.376 Z0.325 F1000
G1 X35.330 Y-0.523 Z0.325 F1000
G1 X35.263 Y-0.664 Z0.325 F1000
G1 X35.183 Y-0.798 Z0.325 F1000
G1 X35.090 Y-0.923 Z0.325 F1000
G1 X34.986 Y-1.038 Z0.325 F1000
G1 X34.901 Y-1.123 Z0.325 F1000
G1 X34.785 Y-1.227 Z0.325 F1000
G1 X34.660 Y-1.320 Z0.325 F1000
G1 X34.527 Y-1.400 Z0.325 F1000
G1 X34.386 Y-1.467 Z0.325 F1000
G1 X34.239 Y-1.519 Z0.325 F1000
G1 X34.088 Y-1.557 Z0.325 F1000
G1 X33.934 Y-1.580 Z0.325 F1000
G1 X33.779 Y-1.587 Z0.325 F1000
G1 X0.085 Y-1.587 Z0.325 F1000
G1 X-0.071 Y-1.580 Z0.325 F1000
G1 X-0.225 Y-1.557 Z0.325 F1000
G1 X-0.376 Y-1.519 Z0.325 F1000
G1 X-0.523 Y-1.467 Z0.325 F1000
G1 X-0.664 Y-1.400 Z0.325 F1000
G1 X-0.797 Y-1.320 Z0.325 F1000
G1 X-0.922 Y-1.227 Z0.325 F1000
G1 X-1.038 Y-1.123 Z0.325 F1000
G1 X-1.123 Y-1.038 Z0.325 F1000
G1 X-1.227 Y-0.922 Z0.325 F1000
G1 X-1.320 Y-0.797 Z0.325 F1000
G1 X-1.400 Y-0.664 Z0.325 F1000
G1 X-1.467 Y-0.523 Z0.325 F1000
G1 X-1.519 Y-0.376 Z0.325 F1000
G1 X-1.557 Y-0.225 Z0.325 F1000
G1 X-1.580 Y-0.071 Z0.325 F1000
G1 X-1.587 Y0.085 Z0.325 F1000
G1 X-1.587 Y16.000 Z0.325 F1000
G1 X-1.580 Y16.156 Z0.325 F1000
G1 X-1.557 Y16.310 Z0.325 F1000
G1 X-1.519 Y16.461 Z0.325 F1000
G1 X-1.467 Y16.608 Z0.325 F1000
G1 X-1.400 Y16.749 Z0.325 F1000
G1 X-1.320 Y16.882 Z0.325 F1000
G1 X-1.227 Y17.007 Z0.325 F1000
G1 X-1.123 Y17.123 Z0.325 F1000
G1 X-1.038 Y17.207 Z0.325 F1000
G1 X-0.923 Y17.312 Z0.325 F1000
G1 X-0.798 Y17.405 Z0.325 F1000
G1 X-0.664 Y17.485 Z0.325 F1000
G1 X-0.523 Y17.552 Z0.325 F1000
G1 X-0.376 Y17.604 Z0.325 F1000
G1 X-0.225 Y17.642 Z0.325 F1000
G1 X-0.071 Y17.665 Z0.325 F1000
G1 X0.085 Y17.673 Z0.325 F1000
G1 X33.779 Y17.673 Z0.325 F1000
G1 X33.934 Y17.665 Z0.325 F1000
G1 X34.088 Y17.642 Z0.325 F1000
G1 X34.239 Y17.604 Z0.325 F1000
G1 X34.386 Y17.552 Z0.325 F1000
G1 X34.527 Y17.485 Z0.325 F1000
G1 X34.661 Y17.405 Z0.325 F1000
G1 X34.786 Y17.312 Z0.325 F1000
G1 X34.901 Y17.208 Z0.325 F1000
G1 X34.986 Y17.123 Z0.325 F1000
G1 X35.090 Y17.007 Z0.325 F1000
G1 X35.183 Y16.882 Z0.325 F1000
G1 X35.263 Y16.749 Z0.325 F1000
G1 X35.330 Y16.608 Z0.325 F1000
G1 X35.382 Y16.461 Z0.325 F1000
G1 X35.420 Y16.310 Z0.325 F1000
G1 X35.443 Y16.156 Z0.325 F1000
G1 X35.451 Y16.000 Z0.325 F1000
G1 X35.451 Y8.043 Z0.325 F1000
G1 X35.459 Y7.972 Z0.325 F1000
G1 X35.482 Y7.905 Z0.325 F1000
G1 X35.520 Y7.845 Z0.325 F1000
G1 X35.570 Y7.794 Z0.325 F1000
G1 X35.631 Y7.756 Z0.325 F1000
G1 X35.698 Y7.733 Z0.325 F1000
G1 X35.768 Y7.725 Z0.325 F1000
G1 X36.086 Y7.725 Z0.325 F1000
G1 X36.156 Y7.725 Z0.333 F1000
G1 X36.224 Y7.725 Z0.357 F1000
G1 X36.284 Y7.725 Z0.395 F1000
G1 X36.334 Y7.725 Z0.445 F1000
G1 X36.372 Y7.725 Z0.505 F1000
G1 X36.395 Y7.725 Z0.572 F1000
G1 X36.403 Y7.725 Z0.643 F1000
G1 X36.403 Y7.725 Z6.825 F1000
G1 X36.403 Y8.360 Z6.825 F1000
G1 X36.403 Y8.360 Z0.960 F333.3
G1 X36.403 Y8.360 Z0.393 F333.3
G1 X36.395 Y8.360 Z0.322 F1000
G1 X36.372 Y8.360 Z0.255 F1000
G1 X36.334 Y8.360 Z0.195 F1000
G1 X36.284 Y8.360 Z0.145 F1000
G1 X36.224 Y8.360 Z0.107 F1000
G1 X36.156 Y8.360 Z0.083 F1000
G1 X36.086 Y8.360 Z0.075 F1000
G1 X35.768 Y8.360 Z0.075 F1000
G1 X35.698 Y8.352 Z0.075 F1000
G1 X35.631 Y8.329 Z0.075 F1000
G1 X35.570 Y8.291 Z0.075 F1000
G1 X35.520 Y8.241 Z0.075 F1000
G1 X35.482 Y8.180 Z0.075 F1000
G1 X35.459 Y8.113 Z0.075 F1000
G1 X35.451 Y8.043 Z0.075 F1000
G1 X35.451 Y0.085 Z0.075 F1000
G1 X35.443 Y-0.071 Z0.075 F1000
G1 X35.420 Y-0.225 Z0.075 F1000
G1 X35.382 Y-0.376 Z0.075 F1000
G1 X35.330 Y-0.523 Z0.075 F1000
G1 X35.263 Y-0.664 Z0.075 F1000
G1 X35.183 Y-0.798 Z0.075 F1000
G1 X35.090 Y-0.923 Z0.075 F1000
G1 X34.986 Y-1.038 Z0.075 F1000
G1 X34.901 Y-1.123 Z0.075 F1000
G1 X34.785 Y-1.227 Z0.075 F1000
G1 X34.660 Y-1.320 Z0.075 F1000
G1 X34.527 Y-1.400 Z0.075 F1000
G1 X34.386 Y-1.467 Z0.075 F1000
G1 X34.239 Y-1.519 Z0.075 F1000
G1 X34.088 Y-1.557 Z0.075 F1000
G1 X33.934 Y-1.580 Z0.075 F1000
G1 X33.779 Y-1.587 Z0.075 F1000
G1 X0.085 Y-1.587 Z0.075 F1000
G1 X-0.071 Y-1.580 Z0.075 F1000
G1 X-0.225 Y-1.557 Z0.075 F1000
G1 X-0.376 Y-1.519 Z0.075 F1000
G1 X-0.523 Y-1.467 Z0.075 F1000
G1 X-0.664 Y-1.400 Z0.075 F1000
G1 X-0.797 Y-1.320 Z0.075 F1000
G1 X-0.922 Y-1.227 Z0.075 F1000
G1 X-1.038 Y-1.123 Z0.075 F1000
G1 X-1.123 Y-1.038 Z0.075 F1000
G1 X-1.227 Y-0.922 Z0.075 F1000
G1 X-1.320 Y-0.797 Z0.075 F1000
G1 X-1.400 Y-0.664 Z0.075 F1000
G1 X-1.467 Y-0.523 Z0.075 F1000
G1 X-1.519 Y-0.376 Z0.075 F1000
G1 X-1.557 Y-0.225 Z0.075 F1000
G1 X-1.580 Y-0.071 Z0.075 F1000
G1 X-1.587 Y0.085 Z0.075 F1000
G1 X-1.587 Y16.000 Z0.075 F1000
G1 X-1.580 Y16.156 Z0.075 F1000
G1 X-1.557 Y16.310 Z0.075 F1000
G1 X-1.519 Y16.461 Z0.075 F1000
G1 X-1.467 Y16.608 Z0.075 F1000
G1 X-1.400 Y16.749 Z0.075 F1000
G1 X-1.320 Y16.882 Z0.075 F1000
G1 X-1.227 Y17.007 Z0.075 F1000
G1 X-1.123 Y17.123 Z0.075 F1000
G1 X-1.038 Y17.207 Z0.075 F1000
G1 X-0.923 Y17.312 Z0.075 F1000
G1 X-0.798 Y17.405 Z0.075 F1000
G1 X-0.664 Y17.485 Z0.075 F1000
G1 X-0.523 Y17.552 Z0.075 F1000
G1 X-0.376 Y17.604 Z0.075 F1000
G1 X-0.225 Y17.642 Z0.075 F1000
G1 X-0.071 Y17.665 Z0.075 F1000
G1 X0.085 Y17.673 Z0.075 F1000
G1 X33.779 Y17.673 Z0.075 F1000
G1 X33.934 Y17.665 Z0.075 F1000
G1 X34.088 Y17.642 Z0.075 F1000
G1 X34.239 Y17.604 Z0.075 F1000
G1 X34.386 Y17.552 Z0.075 F1000
G1 X34.527 Y17.485 Z0.075 F1000
G1 X34.661 Y17.405 Z0.075 F1000
G1 X34.786 Y17.312 Z0.075 F1000
G1 X34.901 Y17.208 Z0.075 F1000
G1 X34.986 Y17.123 Z0.075 F1000
G1 X35.090 Y17.007 Z0.075 F1000
G1 X35.183 Y16.882 Z0.075 F1000
G1 X35.263 Y16.749 Z0.075 F1000
G1 X35.330 Y16.608 Z0.075 F1000
G1 X35.382 Y16.461 Z0.075 F1000
G1 X35.420 Y16.310 Z0.075 F1000
G1 X35.443 Y16.156 Z0.075 F1000
G1 X35.451 Y16.000 Z0.075 F1000
G1 X35.451 Y8.043 Z0.075 F1000
G1 X35.459 Y7.972 Z0.075 F1000
G1 X35.482 Y7.905 Z0.075 F1000
G1 X35.520 Y7.845 Z0.075 F1000
G1 X35.570 Y7.794 Z0.075 F1000
G1 X35.631 Y7.756 Z0.075 F1000
G1 X35.698 Y7.733 Z0.075 F1000
G1 X35.768 Y7.725 Z0.075 F1000
G1 X36.086 Y7.725 Z0.075 F1000
G1 X36.156 Y7.725 Z0.083 F1000
G1 X36.224 Y7.725 Z0.107 F1000
G1 X36.284 Y7.725 Z0.145 F1000
G1 X36.334 Y7.725 Z0.195 F1000
G1 X36.372 Y7.725 Z0.255 F1000
G1 X36.395 Y7.725 Z0.322 F1000
G1 X36.403 Y7.725 Z0.393 F1000
G1 X36.403 Y7.725 Z6.825 F1000
G1 X36.403 Y8.360 Z6.825 F1000
G1 X36.403 Y8.360 Z0.710 F333.3
G1 X36.403 Y8.360 Z0.143 F333.3
G1 X36.395 Y8.360 Z0.072 F1000
G1 X36.372 Y8.360 Z0.005 F1000
G1 X36.334 Y8.360 Z-0.055 F1000
G1 X36.284 Y8.360 Z-0.105 F1000
G1 X36.224 Y8.360 Z-0.143 F1000
G1 X36.156 Y8.360 Z-0.167 F1000
G1 X36.086 Y8.360 Z-0.175 F1000
G1 X35.768 Y8.360 Z-0.175 F1000
G1 X35.698 Y8.352 Z-0.175 F1000
G1 X35.631 Y8.329 Z-0.175 F1000
G1 X35.570 Y8.291 Z-0.175 F1000
G1 X35.520 Y8.241 Z-0.175 F1000
G1 X35.482 Y8.180 Z-0.175 F1000
G1 X35.459 Y8.113 Z-0.175 F1000
G1 X35.451 Y8.043 Z-0.175 F1000
G1 X35.451 Y0.085 Z-0.175 F1000
G1 X35.443 Y-0.071 Z-0.175 F1000
G1 X35.420 Y-0.225 Z-0.175 F1000
G1 X35.382 Y-0.376 Z-0.175 F1000
G1 X35.330 Y-0.523 Z-0.175 F1000
G1 X35.263 Y-0.664 Z-0.175 F1000
G1 X35.183 Y-0.798 Z-0.175 F1000
G1 X35.090 Y-0.923 Z-0.175 F1000
G1 X34.986 Y-1.038 Z-0.175 F1000
G1 X34.901 Y-1.123 Z-0.175 F1000
G1 X34.785 Y-1.227 Z-0.175 F1000
G1 X34.660 Y-1.320 Z-0.175 F1000
G1 X34.527 Y-1.400 Z-0.175 F1000
G1 X34.386 Y-1.467 Z-0.175 F1000
G1 X34.239 Y-1.519 Z-0.175 F1000
G1 X34.088 Y-1.557 Z-0.175 F1000
G1 X33.934 Y-1.580 Z-0.175 F1000
G1 X33.779 Y-1.587 Z-0.175 F1000
G1 X0.085 Y-1.587 Z-0.175 F1000
G1 X-0.071 Y-1.580 Z-0.175 F1000
G1 X-0.225 Y-1.557 Z-0.175 F1000
G1 X-0.376 Y-1.519 Z-0.175 F1000
G1 X-0.523 Y-1.467 Z-0.175 F1000
G1 X-0.664 Y-1.400 Z-0.175 F1000
G1 X-0.797 Y-1.320 Z-0.175 F1000
G1 X-0.922 Y-1.227 Z-0.175 F1000
G1 X-1.038 Y-1.123 Z-0.175 F1000
G1 X-1.123 Y-1.038 Z-0.175 F1000
G1 X-1.227 Y-0.922 Z-0.175 F1000
G1 X-1.320 Y-0.797 Z-0.175 F1000
G1 X-1.400 Y-0.664 Z-0.175 F1000
G1 X-1.467 Y-0.523 Z-0.175 F1000
G1 X-1.519 Y-0.376 Z-0.175 F1000
G1 X-1.557 Y-0.225 Z-0.175 F1000
G1 X-1.580 Y-0.071 Z-0.175 F1000
G1 X-1.587 Y0.085 Z-0.175 F1000
G1 X-1.587 Y16.000 Z-0.175 F1000
G1 X-1.580 Y16.156 Z-0.175 F1000
G1 X-1.557 Y16.310 Z-0.175 F1000
G1 X-1.519 Y16.461 Z-0.175 F1000
G1 X-1.467 Y16.608 Z-0.175 F1000
G1 X-1.400 Y16.749 Z-0.175 F1000
G1 X-1.320 Y16.882 Z-0.175 F1000
G1 X-1.227 Y17.007 Z-0.175 F1000
G1 X-1.123 Y17.123 Z-0.175 F1000
G1 X-1.038 Y17.207 Z-0.175 F1000
G1 X-0.923 Y17.312 Z-0.175 F1000
G1 X-0.798 Y17.405 Z-0.175 F1000
G1 X-0.664 Y17.485 Z-0.175 F1000
G1 X-0.523 Y17.552 Z-0.175 F1000
G1 X-0.376 Y17.604 Z-0.175 F1000
G1 X-0.225 Y17.642 Z-0.175 F1000
G1 X-0.071 Y17.665 Z-0.175 F1000
G1 X0.085 Y17.673 Z-0.175 F1000
G1 X33.779 Y17.673 Z-0.175 F1000
G1 X33.934 Y17.665 Z-0.175 F1000
G1 X34.088 Y17.642 Z-0.175 F1000
G1 X34.239 Y17.604 Z-0.175 F1000
G1 X34.386 Y17.552 Z-0.175 F1000
G1 X34.527 Y17.485 Z-0.175 F1000
G1 X34.661 Y17.405 Z-0.175 F1000
G1 X34.786 Y17.312 Z-0.175 F1000
G1 X34.901 Y17.208 Z-0.175 F1000
G1 X34.986 Y17.123 Z-0.175 F1000
G1 X35.090 Y17.007 Z-0.175 F1000
G1 X35.183 Y16.882 Z-0.175 F1000
G1 X35.263 Y16.749 Z-0.175 F1000
G1 X35.330 Y16.608 Z-0.175 F1000
G1 X35.382 Y16.461 Z-0.175 F1000
G1 X35.420 Y16.310 Z-0.175 F1000
G1 X35.443 Y16.156 Z-0.175 F1000
G1 X35.451 Y16.000 Z-0.175 F1000
G1 X35.451 Y8.043 Z-0.175 F1000
G1 X35.459 Y7.972 Z-0.175 F1000
G1 X35.482 Y7.905 Z-0.175 F1000
G1 X35.520 Y7.845 Z-0.175 F1000
G1 X35.570 Y7.794 Z-0.175 F1000
G1 X35.631 Y7.756 Z-0.175 F1000
G1 X35.698 Y7.733 Z-0.175 F1000
G1 X35.768 Y7.725 Z-0.175 F1000
G1 X36.086 Y7.725 Z-0.175 F1000
G1 X36.156 Y7.725 Z-0.167 F1000
G1 X36.224 Y7.725 Z-0.143 F1000
G1 X36.284 Y7.725 Z-0.105 F1000
G1 X36.334 Y7.725 Z-0.055 F1000
G1 X36.372 Y7.725 Z0.005 F1000
G1 X36.395 Y7.725 Z0.072 F1000
G1 X36.403 Y7.725 Z0.143 F1000
G1 X36.403 Y7.725 Z6.825 F1000
G1 X36.403 Y8.360 Z6.825 F1000
G1 X36.403 Y8.360 Z0.460 F333.3
G1 X36.403 Y8.360 Z-0.107 F333.3
G1 X36.395 Y8.360 Z-0.178 F1000
G1 X36.372 Y8.360 Z-0.245 F1000
G1 X36.334 Y8.360 Z-0.305 F1000
G1 X36.284 Y8.360 Z-0.355 F1000
G1 X36.224 Y8.360 Z-0.393 F1000
G1 X36.156 Y8.360 Z-0.417 F1000
G1 X36.086 Y8.360 Z-0.425 F1000
G1 X35.768 Y8.360 Z-0.425 F1000
G1 X35.698 Y8.352 Z-0.425 F1000
G1 X35.631 Y8.329 Z-0.425 F1000
G1 X35.570 Y8.291 Z-0.425 F1000
G1 X35.520 Y8.241 Z-0.425 F1000
G1 X35.482 Y8.180 Z-0.425 F1000
G1 X35.459 Y8.113 Z-0.425 F1000
G1 X35.451 Y8.043 Z-0.425 F1000
G1 X35.451 Y0.085 Z-0.425 F1000
G1 X35.443 Y-0.071 Z-0.425 F1000
G1 X35.420 Y-0.225 Z-0.425 F1000
G1 X35.382 Y-0.376 Z-0.425 F1000
G1 X35.330 Y-0.523 Z-0.425 F1000
G1 X35.263 Y-0.664 Z-0.425 F1000
G1 X35.183 Y-0.798 Z-0.425 F1000
G1 X35.090 Y-0.923 Z-0.425 F1000
G1 X34.986 Y-1.038 Z-0.425 F1000
G1 X34.901 Y-1.123 Z-0.425 F1000
G1 X34.785 Y-1.227 Z-0.425 F1000
G1 X34.660 Y-1.320 Z-0.425 F1000
G1 X34.527 Y-1.400 Z-0.425 F1000
G1 X34.386 Y-1.467 Z-0.425 F1000
G1 X34.239 Y-1.519 Z-0.425 F1000
G1 X34.088 Y-1.557 Z-0.425 F1000
G1 X33.934 Y-1.580 Z-0.425 F1000
G1 X33.779 Y-1.587 Z-0.425 F1000
G1 X0.085 Y-1.587 Z-0.425 F1000
G1 X-0.071 Y-1.580 Z-0.425 F1000
G1 X-0.225 Y-1.557 Z-0.425 F1000
G1 X-0.376 Y-1.519 Z-0.425 F1000
G1 X-0.523 Y-1.467 Z-0.425 F1000
G1 X-0.664 Y-1.400 Z-0.425 F1000
G1 X-0.797 Y-1.320 Z-0.425 F1000
G1 X-0.922 Y-1.227 Z-0.425 F1000
G1 X-1.038 Y-1.123 Z-0.425 F1000
G1 X-1.123 Y-1.038 Z-0.425 F1000
G1 X-1.227 Y-0.922 Z-0.425 F1000
G1 X-1.320 Y-0.797 Z-0.425 F1000
G1 X-1.400 Y-0.664 Z-0.425 F1000
G1 X-1.467 Y-0.523 Z-0.425 F1000
G1 X-1.519 Y-0.376 Z-0.425 F1000
G1 X-1.557 Y-0.225 Z-0.425 F1000
G1 X-1.580 Y-0.071 Z-0.425 F1000
G1 X-1.587 Y0.085 Z-0.425 F1000
G1 X-1.587 Y16.000 Z-0.425 F1000
G1 X-1.580 Y16.156 Z-0.425 F1000
G1 X-1.557 Y16.310 Z-0.425 F1000
G1 X-1.519 Y16.461 Z-0.425 F1000
G1 X-1.467 Y16.608 Z-0.425 F1000
G1 X-1.400 Y16.749 Z-0.425 F1000
G1 X-1.320 Y16.882 Z-0.425 F1000
G1 X-1.227 Y17.007 Z-0.425 F1000
G1 X-1.123 Y17.123 Z-0.425 F1000
G1 X-1.038 Y17.207 Z-0.425 F1000
G1 X-0.923 Y17.312 Z-0.425 F1000
G1 X-0.798 Y17.405 Z-0.425 F1000
G1 X-0.664 Y17.485 Z-0.425 F1000
G1 X-0.523 Y17.552 Z-0.425 F1000
G1 X-0.376 Y17.604 Z-0.425 F1000
G1 X-0.225 Y17.642 Z-0.425 F1000
G1 X-0.071 Y17.665 Z-0.425 F1000
G1 X0.085 Y17.673 Z-0.425 F1000
G1 X33.779 Y17.673 Z-0.425 F1000
G1 X33.934 Y17.665 Z-0.425 F1000
G1 X34.088 Y17.642 Z-0.425 F1000
G1 X34.239 Y17.604 Z-0.425 F1000
G1 X34.386 Y17.552 Z-0.425 F1000
G1 X34.527 Y17.485 Z-0.425 F1000
G1 X34.661 Y17.405 Z-0.425 F1000
G1 X34.786 Y17.312 Z-0.425 F1000
G1 X34.901 Y17.208 Z-0.425 F1000
G1 X34.986 Y17.123 Z-0.425 F1000
G1 X35.090 Y17.007 Z-0.425 F1000
G1 X35.183 Y16.882 Z-0.425 F1000
G1 X35.263 Y16.749 Z-0.425 F1000
G1 X35.330 Y16.608 Z-0.425 F1000
G1 X35.382 Y16.461 Z-0.425 F1000
G1 X35.420 Y16.310 Z-0.425 F1000
G1 X35.443 Y16.156 Z-0.425 F1000
G1 X35.451 Y16.000 Z-0.425 F1000
G1 X35.451 Y8.043 Z-0.425 F1000
G1 X35.459 Y7.972 Z-0.425 F1000
G1 X35.482 Y7.905 Z-0.425 F1000
G1 X35.520 Y7.845 Z-0.425 F1000
G1 X35.570 Y7.794 Z-0.425 F1000
G1 X35.631 Y7.756 Z-0.425 F1000
G1 X35.698 Y7.733 Z-0.425 F1000
G1 X35.768 Y7.725 Z-0.425 F1000
G1 X36.086 Y7.725 Z-0.425 F1000
G1 X36.156 Y7.725 Z-0.417 F1000
G1 X36.224 Y7.725 Z-0.393 F1000
G1 X36.284 Y7.725 Z-0.355 F1000
G1 X36.334 Y7.725 Z-0.305 F1000
G1 X36.372 Y7.725 Z-0.245 F1000
G1 X36.395 Y7.725 Z-0.178 F1000
G1 X36.403 Y7.725 Z-0.107 F1000
G1 X36.403 Y7.725 Z6.825 F1000
G1 X36.403 Y8.360 Z6.825 F1000
G1 X36.403 Y8.360 Z0.210 F333.3
G1 X36.403 Y8.360 Z-0.357 F333.3
G1 X36.395 Y8.360 Z-0.428 F1000
G1 X36.372 Y8.360 Z-0.495 F1000
G1 X36.334 Y8.360 Z-0.555 F1000
G1 X36.284 Y8.360 Z-0.605 F1000
G1 X36.224 Y8.360 Z-0.643 F1000
G1 X36.156 Y8.360 Z-0.667 F1000
G1 X36.086 Y8.360 Z-0.675 F1000
G1 X35.768 Y8.360 Z-0.675 F1000
G1 X35.698 Y8.352 Z-0.675 F1000
G1 X35.631 Y8.329 Z-0.675 F1000
G1 X35.570 Y8.291 Z-0.675 F1000
G1 X35.520 Y8.241 Z-0.675 F1000
G1 X35.482 Y8.180 Z-0.675 F1000
G1 X35.459 Y8.113 Z-0.675 F1000
G1 X35.451 Y8.043 Z-0.675 F1000
G1 X35.451 Y0.085 Z-0.675 F1000
G1 X35.443 Y-0.071 Z-0.675 F1000
G1 X35.420 Y-0.225 Z-0.675 F1000
G1 X35.382 Y-0.376 Z-0.675 F1000
G1 X35.330 Y-0.523 Z-0.675 F1000
G1 X35.263 Y-0.664 Z-0.675 F1000
G1 X35.183 Y-0.798 Z-0.675 F1000
G1 X35.090 Y-0.923 Z-0.675 F1000
G1 X34.986 Y-1.038 Z-0.675 F1000
G1 X34.901 Y-1.123 Z-0.675 F1000
G1 X34.785 Y-1.227 Z-0.675 F1000
G1 X34.660 Y-1.320 Z-0.675 F1000
G1 X34.527 Y-1.400 Z-0.675 F1000
G1 X34.386 Y-1.467 Z-0.675 F1000
G1 X34.239 Y-1.519 Z-0.675 F1000
G1 X34.088 Y-1.557 Z-0.675 F1000
G1 X33.934 Y-1.580 Z-0.675 F1000
G1 X33.779 Y-1.587 Z-0.675 F1000
G1 X0.085 Y-1.587 Z-0.675 F1000
G1 X-0.071 Y-1.580 Z-0.675 F1000
G1 X-0.225 Y-1.557 Z-0.675 F1000
G1 X-0.376 Y-1.519 Z-0.675 F1000
G1 X-0.523 Y-1.467 Z-0.675 F1000
G1 X-0.664 Y-1.400 Z-0.675 F1000
G1 X-0.797 Y-1.320 Z-0.675 F1000
G1 X-0.922 Y-1.227 Z-0.675 F1000
G1 X-1.038 Y-1.123 Z-0.675 F1000
G1 X-1.123 Y-1.038 Z-0.675 F1000
G1 X-1.227 Y-0.922 Z-0.675 F1000
G1 X-1.320 Y-0.797 Z-0.675 F1000
G1 X-1.400 Y-0.664 Z-0.675 F1000
G1 X-1.467 Y-0.523 Z-0.675 F1000
G1 X-1.519 Y-0.376 Z-0.675 F1000
G1 X-1.557 Y-0.225 Z-0.675 F1000
G1 X-1.580 Y-0.071 Z-0.675 F1000
G1 X-1.587 Y0.085 Z-0.675 F1000
G1 X-1.587 Y16.000 Z-0.675 F1000
G1 X-1.580 Y16.156 Z-0.675 F1000
G1 X-1.557 Y16.310 Z-0.675 F1000
G1 X-1.519 Y16.461 Z-0.675 F1000
G1 X-1.467 Y16.608 Z-0.675 F1000
G1 X-1.400 Y16.749 Z-0.675 F1000
G1 X-1.320 Y16.882 Z-0.675 F1000
G1 X-1.227 Y17.007 Z-0.675 F1000
G1 X-1.123 Y17.123 Z-0.675 F1000
G1 X-1.038 Y17.207 Z-0.675 F1000
G1 X-0.923 Y17.312 Z-0.675 F1000
G1 X-0.798 Y17.405 Z-0.675 F1000
G1 X-0.664 Y17.485 Z-0.675 F1000
G1 X-0.523 Y17.552 Z-0.675 F1000
G1 X-0.376 Y17.604 Z-0.675 F1000
G1 X-0.225 Y17.642 Z-0.675 F1000
G1 X-0.071 Y17.665 Z-0.675 F1000
G1 X0.085 Y17.673 Z-0.675 F1000
G1 X33.779 Y17.673 Z-0.675 F1000
G1 X33.934 Y17.665 Z-0.675 F1000
G1 X34.088 Y17.642 Z-0.675 F1000
G1 X34.239 Y17.604 Z-0.675 F1000
G1 X34.386 Y17.552 Z-0.675 F1000
G1 X34.527 Y17.485 Z-0.675 F1000
G1 X34.661 Y17.405 Z-0.675 F1000
G1 X34.786 Y17.312 Z-0.675 F1000
G1 X34.901 Y17.208 Z-0.675 F1000
G1 X34.986 Y17.123 Z-0.675 F1000
G1 X35.090 Y17.007 Z-0.675 F1000
G1 X35.183 Y16.882 Z-0.675 F1000
G1 X35.263 Y16.749 Z-0.675 F1000
G1 X35.330 Y16.608 Z-0.675 F1000
G1 X35.382 Y16.461 Z-0.675 F1000
G1 X35.420 Y16.310 Z-0.675 F1000
G1 X35.443 Y16.156 Z-0.675 F1000
G1 X35.451 Y16.000 Z-0.675 F1000
G1 X35.451 Y8.043 Z-0.675 F1000
G1 X35.459 Y7.972 Z-0.675 F1000
G1 X35.482 Y7.905 Z-0.675 F1000
G1 X35.520 Y7.845 Z-0.675 F1000
G1 X35.570 Y7.794 Z-0.675 F1000
G1 X35.631 Y7.756 Z-0.675 F1000
G1 X35.698 Y7.733 Z-0.675 F1000
G1 X35.768 Y7.725 Z-0.675 F1000
G1 X36.086 Y7.725 Z-0.675 F1000
G1 X36.156 Y7.725 Z-0.667 F1000
G1 X36.224 Y7.725 Z-0.643 F1000
G1 X36.284 Y7.725 Z-0.605 F1000
G1 X36.334 Y7.725 Z-0.555 F1000
G1 X36.372 Y7.725 Z-0.495 F1000
G1 X36.395 Y7.725 Z-0.428 F1000
G1 X36.403 Y7.725 Z-0.357 F1000
G1 X36.403 Y7.725 Z6.825 F1000
G1 X36.403 Y8.360 Z6.825 F1000
G1 X36.403 Y8.360 Z-0.040 F333.3
G1 X36.403 Y8.360 Z-0.607 F333.3
G1 X36.395 Y8.360 Z-0.678 F1000
G1 X36.372 Y8.360 Z-0.745 F1000
G1 X36.334 Y8.360 Z-0.805 F1000
G1 X36.284 Y8.360 Z-0.855 F1000
G1 X36.224 Y8.360 Z-0.893 F1000
G1 X36.156 Y8.360 Z-0.917 F1000
G1 X36.086 Y8.360 Z-0.925 F1000
G1 X35.768 Y8.360 Z-0.925 F1000
G1 X35.698 Y8.352 Z-0.925 F1000
G1 X35.631 Y8.329 Z-0.925 F1000
G1 X35.570 Y8.291 Z-0.925 F1000
G1 X35.520 Y8.241 Z-0.925 F1000
G1 X35.482 Y8.180 Z-0.925 F1000
G1 X35.459 Y8.113 Z-0.925 F1000
G1 X35.451 Y8.043 Z-0.925 F1000
G1 X35.451 Y0.085 Z-0.925 F1000
G1 X35.443 Y-0.071 Z-0.925 F1000
G1 X35.420 Y-0.225 Z-0.925 F1000
G1 X35.382 Y-0.376 Z-0.925 F1000
G1 X35.330 Y-0.523 Z-0.925 F1000
G1 X35.263 Y-0.664 Z-0.925 F1000
G1 X35.183 Y-0.798 Z-0.925 F1000
G1 X35.090 Y-0.923 Z-0.925 F1000
G1 X34.986 Y-1.038 Z-0.925 F1000
G1 X34.901 Y-1.123 Z-0.925 F1000
G1 X34.785 Y-1.227 Z-0.925 F1000
G1 X34.660 Y-1.320 Z-0.925 F1000
G1 X34.527 Y-1.400 Z-0.925 F1000
G1 X34.386 Y-1.467 Z-0.925 F1000
G1 X34.239 Y-1.519 Z-0.925 F1000
G1 X34.088 Y-1.557 Z-0.925 F1000
G1 X33.934 Y-1.580 Z-0.925 F1000
G1 X33.779 Y-1.587 Z-0.925 F1000
G1 X0.085 Y-1.587 Z-0.925 F1000
G1 X-0.071 Y-1.580 Z-0.925 F1000
G1 X-0.225 Y-1.557 Z-0.925 F1000
G1 X-0.376 Y-1.519 Z-0.925 F1000
G1 X-0.523 Y-1.467 Z-0.925 F1000
G1 X-0.664 Y-1.400 Z-0.925 F1000
G1 X-0.797 Y-1.320 Z-0.925 F1000
G1 X-0.922 Y-1.227 Z-0.925 F1000
G1 X-1.038 Y-1.123 Z-0.925 F1000
G1 X-1.123 Y-1.038 Z-0.925 F1000
G1 X-1.227 Y-0.922 Z-0.925 F1000
G1 X-1.320 Y-0.797 Z-0.925 F1000
G1 X-1.400 Y-0.664 Z-0.925 F1000
G1 X-1.467 Y-0.523 Z-0.925 F1000
G1 X-1.519 Y-0.376 Z-0.925 F1000
G1 X-1.557 Y-0.225 Z-0.925 F1000
G1 X-1.580 Y-0.071 Z-0.925 F1000
G1 X-1.587 Y0.085 Z-0.925 F1000
G1 X-1.587 Y16.000 Z-0.925 F1000
G1 X-1.580 Y16.156 Z-0.925 F1000
G1 X-1.557 Y16.310 Z-0.925 F1000
G1 X-1.519 Y16.461 Z-0.925 F1000
G1 X-1.467 Y16.608 Z-0.925 F1000
G1 X-1.400 Y16.749 Z-0.925 F1000
G1 X-1.320 Y16.882 Z-0.925 F1000
G1 X-1.227 Y17.007 Z-0.925 F1000
G1 X-1.123 Y17.123 Z-0.925 F1000
G1 X-1.038 Y17.207 Z-0.925 F1000
G1 X-0.923 Y17.312 Z-0.925 F1000
G1 X-0.798 Y17.405 Z-0.925 F1000
G1 X-0.664 Y17.485 Z-0.925 F1000
G1 X-0.523 Y17.552 Z-0.925 F1000
G1 X-0.376 Y17.604 Z-0.925 F1000
G1 X-0.225 Y17.642 Z-0.925 F1000
G1 X-0.071 Y17.665 Z-0.925 F1000
G1 X0.085 Y17.673 Z-0.925 F1000
G1 X33.779 Y17.673 Z-0.925 F1000
G1 X33.934 Y17.665 Z-0.925 F1000
G1 X34.088 Y17.642 Z-0.925 F1000
G1 X34.239 Y17.604 Z-0.925 F1000
G1 X34.386 Y17.552 Z-0.925 F1000
G1 X34.527 Y17.485 Z-0.925 F1000
G1 X34.661 Y17.405 Z-0.925 F1000
G1 X34.786 Y17.312 Z-0.925 F1000
G1 X34.901 Y17.208 Z-0.925 F1000
G1 X34.986 Y17.123 Z-0.925 F1000
G1 X35.090 Y17.007 Z-0.925 F1000
G1 X35.183 Y16.882 Z-0.925 F1000
G1 X35.263 Y16.749 Z-0.925 F1000
G1 X35.330 Y16.608 Z-0.925 F1000
G1 X35.382 Y16.461 Z-0.925 F1000
G1 X35.420 Y16.310 Z-0.925 F1000
G1 X35.443 Y16.156 Z-0.925 F1000
G1 X35.451 Y16.000 Z-0.925 F1000
G1 X35.451 Y8.043 Z-0.925 F1000
G1 X35.459 Y7.972 Z-0.925 F1000
G1 X35.482 Y7.905 Z-0.925 F1000
G1 X35.520 Y7.845 Z-0.925 F1000
G1 X35.570 Y7.794 Z-0.925 F1000
G1 X35.631 Y7.756 Z-0.925 F1000
G1 X35.698 Y7.733 Z-0.925 F1000
G1 X35.768 Y7.725 Z-0.925 F1000
G1 X36.086 Y7.725 Z-0.925 F1000
G1 X36.156 Y7.725 Z-0.917 F1000
G1 X36.224 Y7.725 Z-0.893 F1000
G1 X36.284 Y7.725 Z-0.855 F1000
G1 X36.334 Y7.725 Z-0.805 F1000
G1 X36.372 Y7.725 Z-0.745 F1000
G1 X36.395 Y7.725 Z-0.678 F1000
G1 X36.403 Y7.725 Z-0.607 F1000
G1 X36.403 Y7.725 Z6.825 F1000
G1 X36.403 Y8.360 Z6.825 F1000
G1 X36.403 Y8.360 Z-0.290 F333.3
G1 X36.403 Y8.360 Z-0.857 F333.3
G1 X36.395 Y8.360 Z-0.928 F1000
G1 X36.372 Y8.360 Z-0.995 F1000
G1 X36.334 Y8.360 Z-1.055 F1000
G1 X36.284 Y8.360 Z-1.105 F1000
G1 X36.224 Y8.360 Z-1.143 F1000
G1 X36.156 Y8.360 Z-1.167 F1000
G1 X36.086 Y8.360 Z-1.175 F1000
G1 X35.768 Y8.360 Z-1.175 F1000
G1 X35.698 Y8.352 Z-1.175 F1000
G1 X35.631 Y8.329 Z-1.175 F1000
G1 X35.570 Y8.291 Z-1.175 F1000
G1 X35.520 Y8.241 Z-1.175 F1000
G1 X35.482 Y8.180 Z-1.175 F1000
G1 X35.459 Y8.113 Z-1.175 F1000
G1 X35.451 Y8.043 Z-1.175 F1000
G1 X35.451 Y0.085 Z-1.175 F1000
G1 X35.443 Y-0.071 Z-1.175 F1000
G1 X35.420 Y-0.225 Z-1.175 F1000
G1 X35.382 Y-0.376 Z-1.175 F1000
G1 X35.330 Y-0.523 Z-1.175 F1000
G1 X35.263 Y-0.664 Z-1.175 F1000
G1 X35.183 Y-0.798 Z-1.175 F1000
G1 X35.090 Y-0.923 Z-1.175 F1000
G1 X34.986 Y-1.038 Z-1.175 F1000
G1 X34.901 Y-1.123 Z-1.175 F1000
G1 X34.785 Y-1.227 Z-1.175 F1000
G1 X34.660 Y-1.320 Z-1.175 F1000
G1 X34.527 Y-1.400 Z-1.175 F1000
G1 X34.386 Y-1.467 Z-1.175 F1000
G1 X34.239 Y-1.519 Z-1.175 F1000
G1 X34.088 Y-1.557 Z-1.175 F1000
G1 X33.934 Y-1.580 Z-1.175 F1000
G1 X33.779 Y-1.587 Z-1.175 F1000
G1 X0.085 Y-1.587 Z-1.175 F1000
G1 X-0.071 Y-1.580 Z-1.175 F1000
G1 X-0.225 Y-1.557 Z-1.175 F1000
G1 X-0.376 Y-1.519 Z-1.175 F1000
G1 X-0.523 Y-1.467 Z-1.175 F1000
G1 X-0.664 Y-1.400 Z-1.175 F1000
G1 X-0.797 Y-1.320 Z-1.175 F1000
G1 X-0.922 Y-1.227 Z-1.175 F1000
G1 X-1.038 Y-1.123 Z-1.175 F1000
G1 X-1.123 Y-1.038 Z-1.175 F1000
G1 X-1.227 Y-0.922 Z-1.175 F1000
G1 X-1.320 Y-0.797 Z-1.175 F1000
G1 X-1.400 Y-0.664 Z-1.175 F1000
G1 X-1.467 Y-0.523 Z-1.175 F1000
G1 X-1.519 Y-0.376 Z-1.175 F1000
G1 X-1.557 Y-0.225 Z-1.175 F1000
G1 X-1.580 Y-0.071 Z-1.175 F1000
G1 X-1.587 Y0.085 Z-1.175 F1000
G1 X-1.587 Y16.000 Z-1.175 F1000
G1 X-1.580 Y16.156 Z-1.175 F1000
G1 X-1.557 Y16.310 Z-1.175 F1000
G1 X-1.519 Y16.461 Z-1.175 F1000
G1 X-1.467 Y16.608 Z-1.175 F1000
G1 X-1.400 Y16.749 Z-1.175 F1000
G1 X-1.320 Y16.882 Z-1.175 F1000
G1 X-1.227 Y17.007 Z-1.175 F1000
G1 X-1.123 Y17.123 Z-1.175 F1000
G1 X-1.038 Y17.207 Z-1.175 F1000
G1 X-0.923 Y17.312 Z-1.175 F1000
G1 X-0.798 Y17.405 Z-1.175 F1000
G1 X-0.664 Y17.485 Z-1.175 F1000
G1 X-0.523 Y17.552 Z-1.175 F1000
G1 X-0.376 Y17.604 Z-1.175 F1000
G1 X-0.225 Y17.642 Z-1.175 F1000
G1 X-0.071 Y17.665 Z-1.175 F1000
G1 X0.085 Y17.673 Z-1.175 F1000
G1 X33.779 Y17.673 Z-1.175 F1000
G1 X33.934 Y17.665 Z-1.175 F1000
G1 X34.088 Y17.642 Z-1.175 F1000
G1 X34.239 Y17.604 Z-1.175 F1000
G1 X34.386 Y17.552 Z-1.175 F1000
G1 X34.527 Y17.485 Z-1.175 F1000
G1 X34.661 Y17.405 Z-1.175 F1000
G1 X34.786 Y17.312 Z-1.175 F1000
G1 X34.901 Y17.208 Z-1.175 F1000
G1 X34.986 Y17.123 Z-1.175 F1000
G1 X35.090 Y17.007 Z-1.175 F1000
G1 X35.183 Y16.882 Z-1.175 F1000
G1 X35.263 Y16.749 Z-1.175 F1000
G1 X35.330 Y16.608 Z-1.175 F1000
G1 X35.382 Y16.461 Z-1.175 F1000
G1 X35.420 Y16.310 Z-1.175 F1000
G1 X35.443 Y16.156 Z-1.175 F1000
G1 X35.451 Y16.000 Z-1.175 F1000
G1 X35.451 Y8.043 Z-1.175 F1000
G1 X35.459 Y7.972 Z-1.175 F1000
G1 X35.482 Y7.905 Z-1.175 F1000
G1 X35.520 Y7.845 Z-1.175 F1000
G1 X35.570 Y7.794 Z-1.175 F1000
G1 X35.631 Y7.756 Z-1.175 F1000
G1 X35.698 Y7.733 Z-1.175 F1000
G1 X35.768 Y7.725 Z-1.175 F1000
G1 X36.086 Y7.725 Z-1.175 F1000
G1 X36.156 Y7.725 Z-1.167 F1000
G1 X36.224 Y7.725 Z-1.143 F1000
G1 X36.284 Y7.725 Z-1.105 F1000
G1 X36.334 Y7.725 Z-1.055 F1000
G1 X36.372 Y7.725 Z-0.995 F1000
G1 X36.395 Y7.725 Z-0.928 F1000
G1 X36.403 Y7.725 Z-0.857 F1000
G1 X36.403 Y7.725 Z6.825 F1000
G1 X36.403 Y8.360 Z6.825 F1000
G1 X36.403 Y8.360 Z-0.540 F333.3
G1 X36.403 Y8.360 Z-1.107 F333.3
G1 X36.395 Y8.360 Z-1.178 F1000
G1 X36.372 Y8.360 Z-1.245 F1000
G1 X36.334 Y8.360 Z-1.305 F1000
G1 X36.284 Y8.360 Z-1.355 F1000
G1 X36.224 Y8.360 Z-1.393 F1000
G1 X36.156 Y8.360 Z-1.417 F1000
G1 X36.086 Y8.360 Z-1.425 F1000
G1 X35.768 Y8.360 Z-1.425 F1000
G1 X35.698 Y8.352 Z-1.425 F1000
G1 X35.631 Y8.329 Z-1.425 F1000
G1 X35.570 Y8.291 Z-1.425 F1000
G1 X35.520 Y8.241 Z-1.425 F1000
G1 X35.482 Y8.180 Z-1.425 F1000
G1 X35.459 Y8.113 Z-1.425 F1000
G1 X35.451 Y8.043 Z-1.425 F1000
G1 X35.451 Y0.085 Z-1.425 F1000
G1 X35.443 Y-0.071 Z-1.425 F1000
G1 X35.420 Y-0.225 Z-1.425 F1000
G1 X35.382 Y-0.376 Z-1.425 F1000
G1 X35.330 Y-0.523 Z-1.425 F1000
G1 X35.263 Y-0.664 Z-1.425 F1000
G1 X35.183 Y-0.798 Z-1.425 F1000
G1 X35.090 Y-0.923 Z-1.425 F1000
G1 X34.986 Y-1.038 Z-1.425 F1000
G1 X34.901 Y-1.123 Z-1.425 F1000
G1 X34.785 Y-1.227 Z-1.425 F1000
G1 X34.660 Y-1.320 Z-1.425 F1000
G1 X34.527 Y-1.400 Z-1.425 F1000
G1 X34.386 Y-1.467 Z-1.425 F1000
G1 X34.239 Y-1.519 Z-1.425 F1000
G1 X34.088 Y-1.557 Z-1.425 F1000
G1 X33.934 Y-1.580 Z-1.425 F1000
G1 X33.779 Y-1.587 Z-1.425 F1000
G1 X0.085 Y-1.587 Z-1.425 F1000
G1 X-0.071 Y-1.580 Z-1.425 F1000
G1 X-0.225 Y-1.557 Z-1.425 F1000
G1 X-0.376 Y-1.519 Z-1.425 F1000
G1 X-0.523 Y-1.467 Z-1.425 F1000
G1 X-0.664 Y-1.400 Z-1.425 F1000
G1 X-0.797 Y-1.320 Z-1.425 F1000
G1 X-0.922 Y-1.227 Z-1.425 F1000
G1 X-1.038 Y-1.123 Z-1.425 F1000
G1 X-1.123 Y-1.038 Z-1.425 F1000
G1 X-1.227 Y-0.922 Z-1.425 F1000
G1 X-1.320 Y-0.797 Z-1.425 F1000
G1 X-1.400 Y-0.664 Z-1.425 F1000
G1 X-1.467 Y-0.523 Z-1.425 F1000
G1 X-1.519 Y-0.376 Z-1.425 F1000
G1 X-1.557 Y-0.225 Z-1.425 F1000
G1 X-1.580 Y-0.071 Z-1.425 F1000
G1 X-1.587 Y0.085 Z-1.425 F1000
G1 X-1.587 Y16.000 Z-1.425 F1000
G1 X-1.580 Y16.156 Z-1.425 F1000
G1 X-1.557 Y16.310 Z-1.425 F1000
G1 X-1.519 Y16.461 Z-1.425 F1000
G1 X-1.467 Y16.608 Z-1.425 F1000
G1 X-1.400 Y16.749 Z-1.425 F1000
G1 X-1.320 Y16.882 Z-1.425 F1000
G1 X-1.227 Y17.007 Z-1.425 F1000
G1 X-1.123 Y17.123 Z-1.425 F1000
G1 X-1.038 Y17.207 Z-1.425 F1000
G1 X-0.923 Y17.312 Z-1.425 F1000
G1 X-0.798 Y17.405 Z-1.425 F1000
G1 X-0.664 Y17.485 Z-1.425 F1000
G1 X-0.523 Y17.552 Z-1.425 F1000
G1 X-0.376 Y17.604 Z-1.425 F1000
G1 X-0.225 Y17.642 Z-1.425 F1000
G1 X-0.071 Y17.665 Z-1.425 F1000
G1 X0.085 Y17.673 Z-1.425 F1000
G1 X33.779 Y17.673 Z-1.425 F1000
G1 X33.934 Y17.665 Z-1.425 F1000
G1 X34.088 Y17.642 Z-1.425 F1000
G1 X34.239 Y17.604 Z-1.425 F1000
G1 X34.386 Y17.552 Z-1.425 F1000
G1 X34.527 Y17.485 Z-1.425 F1000
G1 X34.661 Y17.405 Z-1.425 F1000
G1 X34.786 Y17.312 Z-1.425 F1000
G1 X34.901 Y17.208 Z-1.425 F1000
G1 X34.986 Y17.123 Z-1.425 F1000
G1 X35.090 Y17.007 Z-1.425 F1000
G1 X35.183 Y16.882 Z-1.425 F1000
G1 X35.263 Y16.749 Z-1.425 F1000
G1 X35.330 Y16.608 Z-1.425 F1000
G1 X35.382 Y16.461 Z-1.425 F1000
G1 X35.420 Y16.310 Z-1.425 F1000
G1 X35.443 Y16.156 Z-1.425 F1000
G1 X35.451 Y16.000 Z-1.425 F1000
G1 X35.451 Y8.043 Z-1.425 F1000
G1 X35.459 Y7.972 Z-1.425 F1000
G1 X35.482 Y7.905 Z-1.425 F1000
G1 X35.520 Y7.845 Z-1.425 F1000
G1 X35.570 Y7.794 Z-1.425 F1000
G1 X35.631 Y7.756 Z-1.425 F1000
G1 X35.698 Y7.733 Z-1.425 F1000
G1 X35.768 Y7.725 Z-1.425 F1000
G1 X36.086 Y7.725 Z-1.425 F1000
G1 X36.156 Y7.725 Z-1.417 F1000
G1 X36.224 Y7.725 Z-1.393 F1000
G1 X36.284 Y7.725 Z-1.355 F1000
G1 X36.334 Y7.725 Z-1.305 F1000
G1 X36.372 Y7.725 Z-1.245 F1000
G1 X36.395 Y7.725 Z-1.178 F1000
G1 X36.403 Y7.725 Z-1.107 F1000
G1 X36.403 Y7.725 Z6.825 F1000
G1 X36.403 Y8.360 Z6.825 F1000
G1 X36.403 Y8.360 Z-0.790 F333.3
G1 X36.403 Y8.360 Z-1.357 F333.3
G1 X36.395 Y8.360 Z-1.428 F1000
G1 X36.372 Y8.360 Z-1.495 F1000
G1 X36.334 Y8.360 Z-1.555 F1000
G1 X36.284 Y8.360 Z-1.605 F1000
G1 X36.224 Y8.360 Z-1.643 F1000
G1 X36.156 Y8.360 Z-1.667 F1000
G1 X36.086 Y8.360 Z-1.675 F1000
G1 X35.768 Y8.360 Z-1.675 F1000
G1 X35.698 Y8.352 Z-1.675 F1000
G1 X35.631 Y8.329 Z-1.675 F1000
G1 X35.570 Y8.291 Z-1.675 F1000
G1 X35.520 Y8.241 Z-1.675 F1000
G1 X35.482 Y8.180 Z-1.675 F1000
G1 X35.459 Y8.113 Z-1.675 F1000
G1 X35.451 Y8.043 Z-1.675 F1000
G1 X35.451 Y0.085 Z-1.675 F1000
G1 X35.443 Y-0.071 Z-1.675 F1000
G1 X35.420 Y-0.225 Z-1.675 F1000
G1 X35.382 Y-0.376 Z-1.675 F1000
G1 X35.330 Y-0.523 Z-1.675 F1000
G1 X35.263 Y-0.664 Z-1.675 F1000
G1 X35.183 Y-0.798 Z-1.675 F1000
G1 X35.090 Y-0.923 Z-1.675 F1000
G1 X34.986 Y-1.038 Z-1.675 F1000
G1 X34.901 Y-1.123 Z-1.675 F1000
G1 X34.785 Y-1.227 Z-1.675 F1000
G1 X34.660 Y-1.320 Z-1.675 F1000
G1 X34.527 Y-1.400 Z-1.675 F1000
G1 X34.386 Y-1.467 Z-1.675 F1000
G1 X34.239 Y-1.519 Z-1.675 F1000
G1 X34.088 Y-1.557 Z-1.675 F1000
G1 X33.934 Y-1.580 Z-1.675 F1000
G1 X33.779 Y-1.587 Z-1.675 F1000
G1 X0.085 Y-1.587 Z-1.675 F1000
G1 X-0.071 Y-1.580 Z-1.675 F1000
G1 X-0.225 Y-1.557 Z-1.675 F1000
G1 X-0.376 Y-1.519 Z-1.675 F1000
G1 X-0.523 Y-1.467 Z-1.675 F1000
G1 X-0.664 Y-1.400 Z-1.675 F1000
G1 X-0.797 Y-1.320 Z-1.675 F1000
G1 X-0.922 Y-1.227 Z-1.675 F1000
G1 X-1.038 Y-1.123 Z-1.675 F1000
G1 X-1.123 Y-1.038 Z-1.675 F1000
G1 X-1.227 Y-0.922 Z-1.675 F1000
G1 X-1.320 Y-0.797 Z-1.675 F1000
G1 X-1.400 Y-0.664 Z-1.675 F1000
G1 X-1.467 Y-0.523 Z-1.675 F1000
G1 X-1.519 Y-0.376 Z-1.675 F1000
G1 X-1.557 Y-0.225 Z-1.675 F1000
G1 X-1.580 Y-0.071 Z-1.675 F1000
G1 X-1.587 Y0.085 Z-1.675 F1000
G1 X-1.587 Y16.000 Z-1.675 F1000
G1 X-1.580 Y16.156 Z-1.675 F1000
G1 X-1.557 Y16.310 Z-1.675 F1000
G1 X-1.519 Y16.461 Z-1.675 F1000
G1 X-1.467 Y16.608 Z-1.675 F1000
G1 X-1.400 Y16.749 Z-1.675 F1000
G1 X-1.320 Y16.882 Z-1.675 F1000
G1 X-1.227 Y17.007 Z-1.675 F1000
G1 X-1.123 Y17.123 Z-1.675 F1000
G1 X-1.038 Y17.207 Z-1.675 F1000
G1 X-0.923 Y17.312 Z-1.675 F1000
G1 X-0.798 Y17.405 Z-1.675 F1000
G1 X-0.664 Y17.485 Z-1.675 F1000
G1 X-0.523 Y17.552 Z-1.675 F1000
G1 X-0.376 Y17.604 Z-1.675 F1000
G1 X-0.225 Y17.642 Z-1.675 F1000
G1 X-0.071 Y17.665 Z-1.675 F1000
G1 X0.085 Y17.673 Z-1.675 F1000
G1 X33.779 Y17.673 Z-1.675 F1000
G1 X33.934 Y17.665 Z-1.675 F1000
G1 X34.088 Y17.642 Z-1.675 F1000
G1 X34.239 Y17.604 Z-1.675 F1000
G1 X34.386 Y17.552 Z-1.675 F1000
G1 X34.527 Y17.485 Z-1.675 F1000
G1 X34.661 Y17.405 Z-1.675 F1000
G1 X34.786 Y17.312 Z-1.675 F1000
G1 X34.901 Y17.208 Z-1.675 F1000
G1 X34.986 Y17.123 Z-1.675 F1000
G1 X35.090 Y17.007 Z-1.675 F1000
G1 X35.183 Y16.882 Z-1.675 F1000
G1 X35.263 Y16.749 Z-1.675 F1000
G1 X35.330 Y16.608 Z-1.675 F1000
G1 X35.382 Y16.461 Z-1.675 F1000
G1 X35.420 Y16.310 Z-1.675 F1000
G1 X35.443 Y16.156 Z-1.675 F1000
G1 X35.451 Y16.000 Z-1.675 F1000
G1 X35.451 Y8.043 Z-1.675 F1000
G1 X35.459 Y7.972 Z-1.675 F1000
G1 X35.482 Y7.905 Z-1.675 F1000
G1 X35.520 Y7.845 Z-1.675 F1000
G1 X35.570 Y7.794 Z-1.675 F1000
G1 X35.631 Y7.756 Z-1.675 F1000
G1 X35.698 Y7.733 Z-1.675 F1000
G1 X35.768 Y7.725 Z-1.675 F1000
G1 X36.086 Y7.725 Z-1.675 F1000
G1 X36.156 Y7.725 Z-1.667 F1000
G1 X36.224 Y7.725 Z-1.643 F1000
G1 X36.284 Y7.725 Z-1.605 F1000
G1 X36.334 Y7.725 Z-1.555 F1000
G1 X36.372 Y7.725 Z-1.495 F1000
G1 X36.395 Y7.725 Z-1.428 F1000
G1 X36.403 Y7.725 Z-1.357 F1000
G1 X36.403 Y7.725 Z6.825 F1000
G1 X36.403 Y8.360 Z6.825 F1000
G1 X36.403 Y8.360 Z-1.040 F333.3
G1 X36.403 Y8.360 Z-1.607 F333.3
G1 X36.395 Y8.360 Z-1.678 F1000
G1 X36.372 Y8.360 Z-1.745 F1000
G1 X36.334 Y8.360 Z-1.805 F1000
G1 X36.284 Y8.360 Z-1.855 F1000
G1 X36.224 Y8.360 Z-1.893 F1000
G1 X36.156 Y8.360 Z-1.917 F1000
G1 X36.086 Y8.360 Z-1.925 F1000
G1 X35.768 Y8.360 Z-1.925 F1000
G1 X35.698 Y8.352 Z-1.925 F1000
G1 X35.631 Y8.329 Z-1.925 F1000
G1 X35.570 Y8.291 Z-1.925 F1000
G1 X35.520 Y8.241 Z-1.925 F1000
G1 X35.482 Y8.180 Z-1.925 F1000
G1 X35.459 Y8.113 Z-1.925 F1000
G1 X35.451 Y8.043 Z-1.925 F1000
G1 X35.451 Y0.085 Z-1.925 F1000
G1 X35.443 Y-0.071 Z-1.925 F1000
G1 X35.420 Y-0.225 Z-1.925 F1000
G1 X35.382 Y-0.376 Z-1.925 F1000
G1 X35.330 Y-0.523 Z-1.925 F1000
G1 X35.263 Y-0.664 Z-1.925 F1000
G1 X35.183 Y-0.798 Z-1.925 F1000
G1 X35.090 Y-0.923 Z-1.925 F1000
G1 X34.986 Y-1.038 Z-1.925 F1000
G1 X34.901 Y-1.123 Z-1.925 F1000
G1 X34.785 Y-1.227 Z-1.925 F1000
G1 X34.660 Y-1.320 Z-1.925 F1000
G1 X34.527 Y-1.400 Z-1.925 F1000
G1 X34.386 Y-1.467 Z-1.925 F1000
G1 X34.239 Y-1.519 Z-1.925 F1000
G1 X34.088 Y-1.557 Z-1.925 F1000
G1 X33.934 Y-1.580 Z-1.925 F1000
G1 X33.779 Y-1.587 Z-1.925 F1000
G1 X0.085 Y-1.587 Z-1.925 F1000
G1 X-0.071 Y-1.580 Z-1.925 F1000
G1 X-0.225 Y-1.557 Z-1.925 F1000
G1 X-0.376 Y-1.519 Z-1.925 F1000
G1 X-0.523 Y-1.467 Z-1.925 F1000
G1 X-0.664 Y-1.400 Z-1.925 F1000
G1 X-0.797 Y-1.320 Z-1.925 F1000
G1 X-0.922 Y-1.227 Z-1.925 F1000
G1 X-1.038 Y-1.123 Z-1.925 F1000
G1 X-1.123 Y-1.038 Z-1.925 F1000
G1 X-1.227 Y-0.922 Z-1.925 F1000
G1 X-1.320 Y-0.797 Z-1.925 F1000
G1 X-1.400 Y-0.664 Z-1.925 F1000
G1 X-1.467 Y-0.523 Z-1.925 F1000
G1 X-1.519 Y-0.376 Z-1.925 F1000
G1 X-1.557 Y-0.225 Z-1.925 F1000
G1 X-1.580 Y-0.071 Z-1.925 F1000
G1 X-1.587 Y0.085 Z-1.925 F1000
G1 X-1.587 Y16.000 Z-1.925 F1000
G1 X-1.580 Y16.156 Z-1.925 F1000
G1 X-1.557 Y16.310 Z-1.925 F1000
G1 X-1.519 Y16.461 Z-1.925 F1000
G1 X-1.467 Y16.608 Z-1.925 F1000
G1 X-1.400 Y16.749 Z-1.925 F1000
G1 X-1.320 Y16.882 Z-1.925 F1000
G1 X-1.227 Y17.007 Z-1.925 F1000
G1 X-1.123 Y17.123 Z-1.925 F1000
G1 X-1.038 Y17.207 Z-1.925 F1000
G1 X-0.923 Y17.312 Z-1.925 F1000
G1 X-0.798 Y17.405 Z-1.925 F1000
G1 X-0.664 Y17.485 Z-1.925 F1000
G1 X-0.523 Y17.552 Z-1.925 F1000
G1 X-0.376 Y17.604 Z-1.925 F1000
G1 X-0.225 Y17.642 Z-1.925 F1000
G1 X-0.071 Y17.665 Z-1.925 F1000
G1 X0.085 Y17.673 Z-1.925 F1000
G1 X33.779 Y17.673 Z-1.925 F1000
G1 X33.934 Y17.665 Z-1.925 F1000
G1 X34.088 Y17.642 Z-1.925 F1000
G1 X34.239 Y17.604 Z-1.925 F1000
G1 X34.386 Y17.552 Z-1.925 F1000
G1 X34.527 Y17.485 Z-1.925 F1000
G1 X34.661 Y17.405 Z-1.925 F1000
G1 X34.786 Y17.312 Z-1.925 F1000
G1 X34.901 Y17.208 Z-1.925 F1000
G1 X34.986 Y17.123 Z-1.925 F1000
G1 X35.090 Y17.007 Z-1.925 F1000
G1 X35.183 Y16.882 Z-1.925 F1000
G1 X35.263 Y16.749 Z-1.925 F1000
G1 X35.330 Y16.608 Z-1.925 F1000
G1 X35.382 Y16.461 Z-1.925 F1000
G1 X35.420 Y16.310 Z-1.925 F1000
G1 X35.443 Y16.156 Z-1.925 F1000
G1 X35.451 Y16.000 Z-1.925 F1000
G1 X35.451 Y8.043 Z-1.925 F1000
G1 X35.459 Y7.972 Z-1.925 F1000
G1 X35.482 Y7.905 Z-1.925 F1000
G1 X35.520 Y7.845 Z-1.925 F1000
G1 X35.570 Y7.794 Z-1.925 F1000
G1 X35.631 Y7.756 Z-1.925 F1000
G1 X35.698 Y7.733 Z-1.925 F1000
G1 X35.768 Y7.725 Z-1.925 F1000
G1 X36.086 Y7.725 Z-1.925 F1000
G1 X36.156 Y7.725 Z-1.917 F1000
G1 X36.224 Y7.725 Z-1.893 F1000
G1 X36.284 Y7.725 Z-1.855 F1000
G1 X36.334 Y7.725 Z-1.805 F1000
G1 X36.372 Y7.725 Z-1.745 F1000
G1 X36.395 Y7.725 Z-1.678 F1000
G1 X36.403 Y7.725 Z-1.607 F1000
G1 X36.403 Y7.725 Z6.825 F1000
G1 X36.403 Y8.360 Z6.825 F1000
G1 X36.403 Y8.360 Z-1.290 F333.3
G1 X36.403 Y8.360 Z-1.857 F333.3
G1 X36.395 Y8.360 Z-1.928 F1000
G1 X36.372 Y8.360 Z-1.995 F1000
G1 X36.334 Y8.360 Z-2.055 F1000
G1 X36.284 Y8.360 Z-2.105 F1000
G1 X36.224 Y8.360 Z-2.143 F1000
G1 X36.156 Y8.360 Z-2.167 F1000
G1 X36.086 Y8.360 Z-2.175 F1000
G1 X35.768 Y8.360 Z-2.175 F1000
G1 X35.698 Y8.352 Z-2.175 F1000
G1 X35.631 Y8.329 Z-2.175 F1000
G1 X35.570 Y8.291 Z-2.175 F1000
G1 X35.520 Y8.241 Z-2.175 F1000
G1 X35.482 Y8.180 Z-2.175 F1000
G1 X35.459 Y8.113 Z-2.175 F1000
G1 X35.451 Y8.043 Z-2.175 F1000
G1 X35.451 Y0.085 Z-2.175 F1000
G1 X35.443 Y-0.071 Z-2.175 F1000
G1 X35.420 Y-0.225 Z-2.175 F1000
G1 X35.382 Y-0.376 Z-2.175 F1000
G1 X35.330 Y-0.523 Z-2.175 F1000
G1 X35.263 Y-0.664 Z-2.175 F1000
G1 X35.183 Y-0.798 Z-2.175 F1000
G1 X35.090 Y-0.923 Z-2.175 F1000
G1 X34.986 Y-1.038 Z-2.175 F1000
G1 X34.901 Y-1.123 Z-2.175 F1000
G1 X34.785 Y-1.227 Z-2.175 F1000
G1 X34.660 Y-1.320 Z-2.175 F1000
G1 X34.527 Y-1.400 Z-2.175 F1000
G1 X34.386 Y-1.467 Z-2.175 F1000
G1 X34.239 Y-1.519 Z-2.175 F1000
G1 X34.088 Y-1.557 Z-2.175 F1000
G1 X33.934 Y-1.580 Z-2.175 F1000
G1 X33.779 Y-1.587 Z-2.175 F1000
G1 X0.085 Y-1.587 Z-2.175 F1000
G1 X-0.071 Y-1.580 Z-2.175 F1000
G1 X-0.225 Y-1.557 Z-2.175 F1000
G1 X-0.376 Y-1.519 Z-2.175 F1000
G1 X-0.523 Y-1.467 Z-2.175 F1000
G1 X-0.664 Y-1.400 Z-2.175 F1000
G1 X-0.797 Y-1.320 Z-2.175 F1000
G1 X-0.922 Y-1.227 Z-2.175 F1000
G1 X-1.038 Y-1.123 Z-2.175 F1000
G1 X-1.123 Y-1.038 Z-2.175 F1000
G1 X-1.227 Y-0.922 Z-2.175 F1000
G1 X-1.320 Y-0.797 Z-2.175 F1000
G1 X-1.400 Y-0.664 Z-2.175 F1000
G1 X-1.467 Y-0.523 Z-2.175 F1000
G1 X-1.519 Y-0.376 Z-2.175 F1000
G1 X-1.557 Y-0.225 Z-2.175 F1000
G1 X-1.580 Y-0.071 Z-2.175 F1000
G1 X-1.587 Y0.085 Z-2.175 F1000
G1 X-1.587 Y16.000 Z-2.175 F1000
G1 X-1.580 Y16.156 Z-2.175 F1000
G1 X-1.557 Y16.310 Z-2.175 F1000
G1 X-1.519 Y16.461 Z-2.175 F1000
G1 X-1.467 Y16.608 Z-2.175 F1000
G1 X-1.400 Y16.749 Z-2.175 F1000
G1 X-1.320 Y16.882 Z-2.175 F1000
G1 X-1.227 Y17.007 Z-2.175 F1000
G1 X-1.123 Y17.123 Z-2.175 F1000
G1 X-1.038 Y17.207 Z-2.175 F1000
G1 X-0.923 Y17.312 Z-2.175 F1000
G1 X-0.798 Y17.405 Z-2.175 F1000
G1 X-0.664 Y17.485 Z-2.175 F1000
G1 X-0.523 Y17.552 Z-2.175 F1000
G1 X-0.376 Y17.604 Z-2.175 F1000
G1 X-0.225 Y17.642 Z-2.175 F1000
G1 X-0.071 Y17.665 Z-2.175 F1000
G1 X0.085 Y17.673 Z-2.175 F1000
G1 X33.779 Y17.673 Z-2.175 F1000
G1 X33.934 Y17.665 Z-2.175 F1000
G1 X34.088 Y17.642 Z-2.175 F1000
G1 X34.239 Y17.604 Z-2.175 F1000
G1 X34.386 Y17.552 Z-2.175 F1000
G1 X34.527 Y17.485 Z-2.175 F1000
G1 X34.661 Y17.405 Z-2.175 F1000
G1 X34.786 Y17.312 Z-2.175 F1000
G1 X34.901 Y17.208 Z-2.175 F1000
G1 X34.986 Y17.123 Z-2.175 F1000
G1 X35.090 Y17.007 Z-2.175 F1000
G1 X35.183 Y16.882 Z-2.175 F1000
G1 X35.263 Y16.749 Z-2.175 F1000
G1 X35.330 Y16.608 Z-2.175 F1000
G1 X35.382 Y16.461 Z-2.175 F1000
G1 X35.420 Y16.310 Z-2.175 F1000
G1 X35.443 Y16.156 Z-2.175 F1000
G1 X35.451 Y16.000 Z-2.175 F1000
G1 X35.451 Y8.043 Z-2.175 F1000
G1 X35.459 Y7.972 Z-2.175 F1000
G1 X35.482 Y7.905 Z-2.175 F1000
G1 X35.520 Y7.845 Z-2.175 F1000
G1 X35.570 Y7.794 Z-2.175 F1000
G1 X35.631 Y7.756 Z-2.175 F1000
G1 X35.698 Y7.733 Z-2.175 F1000
G1 X35.768 Y7.725 Z-2.175 F1000
G1 X36.086 Y7.725 Z-2.175 F1000
G1 X36.156 Y7.725 Z-2.167 F1000
G1 X36.224 Y7.725 Z-2.143 F1000
G1 X36.284 Y7.725 Z-2.105 F1000
G1 X36.334 Y7.725 Z-2.055 F1000
G1 X36.372 Y7.725 Z-1.995 F1000
G1 X36.395 Y7.725 Z-1.928 F1000
G1 X36.403 Y7.725 Z-1.857 F1000
G1 X36.403 Y7.725 Z6.825 F1000
G1 X36.403 Y8.360 Z6.825 F1000
G1 X36.403 Y8.360 Z-1.540 F333.3
G1 X36.403 Y8.360 Z-2.107 F333.3
G1 X36.395 Y8.360 Z-2.178 F1000
G1 X36.372 Y8.360 Z-2.245 F1000
G1 X36.334 Y8.360 Z-2.305 F1000
G1 X36.284 Y8.360 Z-2.355 F1000
G1 X36.224 Y8.360 Z-2.393 F1000
G1 X36.156 Y8.360 Z-2.417 F1000
G1 X36.086 Y8.360 Z-2.425 F1000
G1 X35.768 Y8.360 Z-2.425 F1000
G1 X35.698 Y8.352 Z-2.425 F1000
G1 X35.631 Y8.329 Z-2.425 F1000
G1 X35.570 Y8.291 Z-2.425 F1000
G1 X35.520 Y8.241 Z-2.425 F1000
G1 X35.482 Y8.180 Z-2.425 F1000
G1 X35.459 Y8.113 Z-2.425 F1000
G1 X35.451 Y8.043 Z-2.425 F1000
G1 X35.451 Y0.085 Z-2.425 F1000
G1 X35.443 Y-0.071 Z-2.425 F1000
G1 X35.420 Y-0.225 Z-2.425 F1000
G1 X35.382 Y-0.376 Z-2.425 F1000
G1 X35.330 Y-0.523 Z-2.425 F1000
G1 X35.263 Y-0.664 Z-2.425 F1000
G1 X35.183 Y-0.798 Z-2.425 F1000
G1 X35.090 Y-0.923 Z-2.425 F1000
G1 X34.986 Y-1.038 Z-2.425 F1000
G1 X34.901 Y-1.123 Z-2.425 F1000
G1 X34.785 Y-1.227 Z-2.425 F1000
G1 X34.660 Y-1.320 Z-2.425 F1000
G1 X34.527 Y-1.400 Z-2.425 F1000
G1 X34.386 Y-1.467 Z-2.425 F1000
G1 X34.239 Y-1.519 Z-2.425 F1000
G1 X34.088 Y-1.557 Z-2.425 F1000
G1 X33.934 Y-1.580 Z-2.425 F1000
G1 X33.779 Y-1.587 Z-2.425 F1000
G1 X0.085 Y-1.587 Z-2.425 F1000
G1 X-0.071 Y-1.580 Z-2.425 F1000
G1 X-0.225 Y-1.557 Z-2.425 F1000
G1 X-0.376 Y-1.519 Z-2.425 F1000
G1 X-0.523 Y-1.467 Z-2.425 F1000
G1 X-0.664 Y-1.400 Z-2.425 F1000
G1 X-0.797 Y-1.320 Z-2.425 F1000
G1 X-0.922 Y-1.227 Z-2.425 F1000
G1 X-1.038 Y-1.123 Z-2.425 F1000
G1 X-1.123 Y-1.038 Z-2.425 F1000
G1 X-1.227 Y-0.922 Z-2.425 F1000
G1 X-1.320 Y-0.797 Z-2.425 F1000
G1 X-1.400 Y-0.664 Z-2.425 F1000
G1 X-1.467 Y-0.523 Z-2.425 F1000
G1 X-1.519 Y-0.376 Z-2.425 F1000
G1 X-1.557 Y-0.225 Z-2.425 F1000
G1 X-1.580 Y-0.071 Z-2.425 F1000
G1 X-1.587 Y0.085 Z-2.425 F1000
G1 X-1.587 Y16.000 Z-2.425 F1000
G1 X-1.580 Y16.156 Z-2.425 F1000
G1 X-1.557 Y16.310 Z-2.425 F1000
G1 X-1.519 Y16.461 Z-2.425 F1000
G1 X-1.467 Y16.608 Z-2.425 F1000
G1 X-1.400 Y16.749 Z-2.425 F1000
G1 X-1.320 Y16.882 Z-2.425 F1000
G1 X-1.227 Y17.007 Z-2.425 F1000
G1 X-1.123 Y17.123 Z-2.425 F1000
G1 X-1.038 Y17.207 Z-2.425 F1000
G1 X-0.923 Y17.312 Z-2.425 F1000
G1 X-0.798 Y17.405 Z-2.425 F1000
G1 X-0.664 Y17.485 Z-2.425 F1000
G1 X-0.523 Y17.552 Z-2.425 F1000
G1 X-0.376 Y17.604 Z-2.425 F1000
G1 X-0.225 Y17.642 Z-2.425 F1000
G1 X-0.071 Y17.665 Z-2.425 F1000
G1 X0.085 Y17.673 Z-2.425 F1000
G1 X33.779 Y17.673 Z-2.425 F1000
G1 X33.934 Y17.665 Z-2.425 F1000
G1 X34.088 Y17.642 Z-2.425 F1000
G1 X34.239 Y17.604 Z-2.425 F1000
G1 X34.386 Y17.552 Z-2.425 F1000
G1 X34.527 Y17.485 Z-2.425 F1000
G1 X34.661 Y17.405 Z-2.425 F1000
G1 X34.786 Y17.312 Z-2.425 F1000
G1 X34.901 Y17.208 Z-2.425 F1000
G1 X34.986 Y17.123 Z-2.425 F1000
G1 X35.090 Y17.007 Z-2.425 F1000
G1 X35.183 Y16.882 Z-2.425 F1000
G1 X35.263 Y16.749 Z-2.425 F1000
G1 X35.330 Y16.608 Z-2.425 F1000
G1 X35.382 Y16.461 Z-2.425 F1000
G1 X35.420 Y16.310 Z-2.425 F1000
G1 X35.443 Y16.156 Z-2.425 F1000
G1 X35.451 Y16.000 Z-2.425 F1000
G1 X35.451 Y8.043 Z-2.425 F1000
G1 X35.459 Y7.972 Z-2.425 F1000
G1 X35.482 Y7.905 Z-2.425 F1000
G1 X35.520 Y7.845 Z-2.425 F1000
G1 X35.570 Y7.794 Z-2.425 F1000
G1 X35.631 Y7.756 Z-2.425 F1000
G1 X35.698 Y7.733 Z-2.425 F1000
G1 X35.768 Y7.725 Z-2.425 F1000
G1 X36.086 Y7.725 Z-2.425 F1000
G1 X36.156 Y7.725 Z-2.417 F1000
G1 X36.224 Y7.725 Z-2.393 F1000
G1 X36.284 Y7.725 Z-2.355 F1000
G1 X36.334 Y7.725 Z-2.305 F1000
G1 X36.372 Y7.725 Z-2.245 F1000
G1 X36.395 Y7.725 Z-2.178 F1000
G1 X36.403 Y7.725 Z-2.107 F1000
G1 X36.403 Y7.725 Z6.825 F1000
G1 X36.403 Y8.360 Z6.825 F1000
G1 X36.403 Y8.360 Z-1.790 F333.3
G1 X36.403 Y8.360 Z-2.357 F333.3
G1 X36.395 Y8.360 Z-2.428 F1000
G1 X36.372 Y8.360 Z-2.495 F1000
G1 X36.334 Y8.360 Z-2.555 F1000
G1 X36.284 Y8.360 Z-2.605 F1000
G1 X36.224 Y8.360 Z-2.643 F1000
G1 X36.156 Y8.360 Z-2.667 F1000
G1 X36.086 Y8.360 Z-2.675 F1000
G1 X35.768 Y8.360 Z-2.675 F1000
G1 X35.698 Y8.352 Z-2.675 F1000
G1 X35.631 Y8.329 Z-2.675 F1000
G1 X35.570 Y8.291 Z-2.675 F1000
G1 X35.520 Y8.241 Z-2.675 F1000
G1 X35.482 Y8.180 Z-2.675 F1000
G1 X35.459 Y8.113 Z-2.675 F1000
G1 X35.451 Y8.043 Z-2.675 F1000
G1 X35.451 Y0.085 Z-2.675 F1000
G1 X35.443 Y-0.071 Z-2.675 F1000
G1 X35.420 Y-0.225 Z-2.675 F1000
G1 X35.382 Y-0.376 Z-2.675 F1000
G1 X35.330 Y-0.523 Z-2.675 F1000
G1 X35.263 Y-0.664 Z-2.675 F1000
G1 X35.183 Y-0.798 Z-2.675 F1000
G1 X35.090 Y-0.923 Z-2.675 F1000
G1 X34.986 Y-1.038 Z-2.675 F1000
G1 X34.901 Y-1.123 Z-2.675 F1000
G1 X34.785 Y-1.227 Z-2.675 F1000
G1 X34.660 Y-1.320 Z-2.675 F1000
G1 X34.527 Y-1.400 Z-2.675 F1000
G1 X34.386 Y-1.467 Z-2.675 F1000
G1 X34.239 Y-1.519 Z-2.675 F1000
G1 X34.088 Y-1.557 Z-2.675 F1000
G1 X33.934 Y-1.580 Z-2.675 F1000
G1 X33.779 Y-1.587 Z-2.675 F1000
G1 X0.085 Y-1.587 Z-2.675 F1000
G1 X-0.071 Y-1.580 Z-2.675 F1000
G1 X-0.225 Y-1.557 Z-2.675 F1000
G1 X-0.376 Y-1.519 Z-2.675 F1000
G1 X-0.523 Y-1.467 Z-2.675 F1000
G1 X-0.664 Y-1.400 Z-2.675 F1000
G1 X-0.797 Y-1.320 Z-2.675 F1000
G1 X-0.922 Y-1.227 Z-2.675 F1000
G1 X-1.038 Y-1.123 Z-2.675 F1000
G1 X-1.123 Y-1.038 Z-2.675 F1000
G1 X-1.227 Y-0.922 Z-2.675 F1000
G1 X-1.320 Y-0.797 Z-2.675 F1000
G1 X-1.400 Y-0.664 Z-2.675 F1000
G1 X-1.467 Y-0.523 Z-2.675 F1000
G1 X-1.519 Y-0.376 Z-2.675 F1000
G1 X-1.557 Y-0.225 Z-2.675 F1000
G1 X-1.580 Y-0.071 Z-2.675 F1000
G1 X-1.587 Y0.085 Z-2.675 F1000
G1 X-1.587 Y16.000 Z-2.675 F1000
G1 X-1.580 Y16.156 Z-2.675 F1000
G1 X-1.557 Y16.310 Z-2.675 F1000
G1 X-1.519 Y16.461 Z-2.675 F1000
G1 X-1.467 Y16.608 Z-2.675 F1000
G1 X-1.400 Y16.749 Z-2.675 F1000
G1 X-1.320 Y16.882 Z-2.675 F1000
G1 X-1.227 Y17.007 Z-2.675 F1000
G1 X-1.123 Y17.123 Z-2.675 F1000
G1 X-1.038 Y17.207 Z-2.675 F1000
G1 X-0.923 Y17.312 Z-2.675 F1000
G1 X-0.798 Y17.405 Z-2.675 F1000
G1 X-0.664 Y17.485 Z-2.675 F1000
G1 X-0.523 Y17.552 Z-2.675 F1000
G1 X-0.376 Y17.604 Z-2.675 F1000
G1 X-0.225 Y17.642 Z-2.675 F1000
G1 X-0.071 Y17.665 Z-2.675 F1000
G1 X0.085 Y17.673 Z-2.675 F1000
G1 X33.779 Y17.673 Z-2.675 F1000
G1 X33.934 Y17.665 Z-2.675 F1000
G1 X34.088 Y17.642 Z-2.675 F1000
G1 X34.239 Y17.604 Z-2.675 F1000
G1 X34.386 Y17.552 Z-2.675 F1000
G1 X34.527 Y17.485 Z-2.675 F1000
G1 X34.661 Y17.405 Z-2.675 F1000
G1 X34.786 Y17.312 Z-2.675 F1000
G1 X34.901 Y17.208 Z-2.675 F1000
G1 X34.986 Y17.123 Z-2.675 F1000
G1 X35.090 Y17.007 Z-2.675 F1000
G1 X35.183 Y16.882 Z-2.675 F1000
G1 X35.263 Y16.749 Z-2.675 F1000
G1 X35.330 Y16.608 Z-2.675 F1000
G1 X35.382 Y16.461 Z-2.675 F1000
G1 X35.420 Y16.310 Z-2.675 F1000
G1 X35.443 Y16.156 Z-2.675 F1000
G1 X35.451 Y16.000 Z-2.675 F1000
G1 X35.451 Y8.043 Z-2.675 F1000
G1 X35.459 Y7.972 Z-2.675 F1000
G1 X35.482 Y7.905 Z-2.675 F1000
G1 X35.520 Y7.845 Z-2.675 F1000
G1 X35.570 Y7.794 Z-2.675 F1000
G1 X35.631 Y7.756 Z-2.675 F1000
G1 X35.698 Y7.733 Z-2.675 F1000
G1 X35.768 Y7.725 Z-2.675 F1000
G1 X36.086 Y7.725 Z-2.675 F1000
G1 X36.156 Y7.725 Z-2.667 F1000
G1 X36.224 Y7.725 Z-2.643 F1000
G1 X36.284 Y7.725 Z-2.605 F1000
G1 X36.334 Y7.725 Z-2.555 F1000
G1 X36.372 Y7.725 Z-2.495 F1000
G1 X36.395 Y7.725 Z-2.428 F1000
G1 X36.403 Y7.725 Z-2.357 F1000
G1 X36.403 Y7.725 Z6.825 F1000
G1 X36.403 Y8.360 Z6.825 F1000
G1 X36.403 Y8.360 Z-2.040 F333.3
G1 X36.403 Y8.360 Z-2.607 F333.3
G1 X36.395 Y8.360 Z-2.678 F1000
G1 X36.372 Y8.360 Z-2.745 F1000
G1 X36.334 Y8.360 Z-2.805 F1000
G1 X36.284 Y8.360 Z-2.855 F1000
G1 X36.224 Y8.360 Z-2.893 F1000
G1 X36.156 Y8.360 Z-2.917 F1000
G1 X36.086 Y8.360 Z-2.925 F1000
G1 X35.768 Y8.360 Z-2.925 F1000
G1 X35.698 Y8.352 Z-2.925 F1000
G1 X35.631 Y8.329 Z-2.925 F1000
G1 X35.570 Y8.291 Z-2.925 F1000
G1 X35.520 Y8.241 Z-2.925 F1000
G1 X35.482 Y8.180 Z-2.925 F1000
G1 X35.459 Y8.113 Z-2.925 F1000
G1 X35.451 Y8.043 Z-2.925 F1000
G1 X35.451 Y0.085 Z-2.925 F1000
G1 X35.443 Y-0.071 Z-2.925 F1000
G1 X35.420 Y-0.225 Z-2.925 F1000
G1 X35.382 Y-0.376 Z-2.925 F1000
G1 X35.330 Y-0.523 Z-2.925 F1000
G1 X35.263 Y-0.664 Z-2.925 F1000
G1 X35.183 Y-0.798 Z-2.925 F1000
G1 X35.090 Y-0.923 Z-2.925 F1000
G1 X34.986 Y-1.038 Z-2.925 F1000
G1 X34.901 Y-1.123 Z-2.925 F1000
G1 X34.785 Y-1.227 Z-2.925 F1000
G1 X34.660 Y-1.320 Z-2.925 F1000
G1 X34.527 Y-1.400 Z-2.925 F1000
G1 X34.386 Y-1.467 Z-2.925 F1000
G1 X34.239 Y-1.519 Z-2.925 F1000
G1 X34.088 Y-1.557 Z-2.925 F1000
G1 X33.934 Y-1.580 Z-2.925 F1000
G1 X33.779 Y-1.587 Z-2.925 F1000
G1 X0.085 Y-1.587 Z-2.925 F1000
G1 X-0.071 Y-1.580 Z-2.925 F1000
G1 X-0.225 Y-1.557 Z-2.925 F1000
G1 X-0.376 Y-1.519 Z-2.925 F1000
G1 X-0.523 Y-1.467 Z-2.925 F1000
G1 X-0.664 Y-1.400 Z-2.925 F1000
G1 X-0.797 Y-1.320 Z-2.925 F1000
G1 X-0.922 Y-1.227 Z-2.925 F1000
G1 X-1.038 Y-1.123 Z-2.925 F1000
G1 X-1.123 Y-1.038 Z-2.925 F1000
G1 X-1.227 Y-0.922 Z-2.925 F1000
G1 X-1.320 Y-0.797 Z-2.925 F1000
G1 X-1.400 Y-0.664 Z-2.925 F1000
G1 X-1.467 Y-0.523 Z-2.925 F1000
G1 X-1.519 Y-0.376 Z-2.925 F1000
G1 X-1.557 Y-0.225 Z-2.925 F1000
G1 X-1.580 Y-0.071 Z-2.925 F1000
G1 X-1.587 Y0.085 Z-2.925 F1000
G1 X-1.587 Y16.000 Z-2.925 F1000
G1 X-1.580 Y16.156 Z-2.925 F1000
G1 X-1.557 Y16.310 Z-2.925 F1000
G1 X-1.519 Y16.461 Z-2.925 F1000
G1 X-1.467 Y16.608 Z-2.925 F1000
G1 X-1.400 Y16.749 Z-2.925 F1000
G1 X-1.320 Y16.882 Z-2.925 F1000
G1 X-1.227 Y17.007 Z-2.925 F1000
G1 X-1.123 Y17.123 Z-2.925 F1000
G1 X-1.038 Y17.207 Z-2.925 F1000
G1 X-0.923 Y17.312 Z-2.925 F1000
G1 X-0.798 Y17.405 Z-2.925 F1000
G1 X-0.664 Y17.485 Z-2.925 F1000
G1 X-0.523 Y17.552 Z-2.925 F1000
G1 X-0.376 Y17.604 Z-2.925 F1000
G1 X-0.225 Y17.642 Z-2.925 F1000
G1 X-0.071 Y17.665 Z-2.925 F1000
G1 X0.085 Y17.673 Z-2.925 F1000
G1 X33.779 Y17.673 Z-2.925 F1000
G1 X33.934 Y17.665 Z-2.925 F1000
G1 X34.088 Y17.642 Z-2.925 F1000
G1 X34.239 Y17.604 Z-2.925 F1000
G1 X34.386 Y17.552 Z-2.925 F1000
G1 X34.527 Y17.485 Z-2.925 F1000
G1 X34.661 Y17.405 Z-2.925 F1000
G1 X34.786 Y17.312 Z-2.925 F1000
G1 X34.901 Y17.208 Z-2.925 F1000
G1 X34.986 Y17.123 Z-2.925 F1000
G1 X35.090 Y17.007 Z-2.925 F1000
G1 X35.183 Y16.882 Z-2.925 F1000
G1 X35.263 Y16.749 Z-2.925 F1000
G1 X35.330 Y16.608 Z-2.925 F1000
G1 X35.382 Y16.461 Z-2.925 F1000
G1 X35.420 Y16.310 Z-2.925 F1000
G1 X35.443 Y16.156 Z-2.925 F1000
G1 X35.451 Y16.000 Z-2.925 F1000
G1 X35.451 Y8.043 Z-2.925 F1000
G1 X35.459 Y7.972 Z-2.925 F1000
G1 X35.482 Y7.905 Z-2.925 F1000
G1 X35.520 Y7.845 Z-2.925 F1000
G1 X35.570 Y7.794 Z-2.925 F1000
G1 X35.631 Y7.756 Z-2.925 F1000
G1 X35.698 Y7.733 Z-2.925 F1000
G1 X35.768 Y7.725 Z-2.925 F1000
G1 X36.086 Y7.725 Z-2.925 F1000
G1 X36.156 Y7.725 Z-2.917 F1000
G1 X36.224 Y7.725 Z-2.893 F1000
G1 X36.284 Y7.725 Z-2.855 F1000
G1 X36.334 Y7.725 Z-2.805 F1000
G1 X36.372 Y7.725 Z-2.745 F1000
G1 X36.395 Y7.725 Z-2.678 F1000
G1 X36.403 Y7.725 Z-2.607 F1000
G1 X36.403 Y7.725 Z6.825 F1000
G1 X36.403 Y8.360 Z6.825 F1000
G1 X36.403 Y8.360 Z-2.290 F333.3
G1 X36.403 Y8.360 Z-2.857 F333.3
G1 X36.395 Y8.360 Z-2.928 F1000
G1 X36.372 Y8.360 Z-2.995 F1000
G1 X36.334 Y8.360 Z-3.055 F1000
G1 X36.284 Y8.360 Z-3.105 F1000
G1 X36.224 Y8.360 Z-3.143 F1000
G1 X36.156 Y8.360 Z-3.167 F1000
G1 X36.086 Y8.360 Z-3.175 F1000
G1 X35.768 Y8.360 Z-3.175 F1000
G1 X35.698 Y8.352 Z-3.175 F1000
G1 X35.631 Y8.329 Z-3.175 F1000
G1 X35.570 Y8.291 Z-3.175 F1000
G1 X35.520 Y8.241 Z-3.175 F1000
G1 X35.482 Y8.180 Z-3.175 F1000
G1 X35.459 Y8.113 Z-3.175 F1000
G1 X35.451 Y8.043 Z-3.175 F1000
G1 X35.451 Y0.085 Z-3.175 F1000
G1 X35.443 Y-0.071 Z-3.175 F1000
G1 X35.420 Y-0.225 Z-3.175 F1000
G1 X35.382 Y-0.376 Z-3.175 F1000
G1 X35.330 Y-0.523 Z-3.175 F1000
G1 X35.263 Y-0.664 Z-3.175 F1000
G1 X35.183 Y-0.798 Z-3.175 F1000
G1 X35.090 Y-0.923 Z-3.175 F1000
G1 X34.986 Y-1.038 Z-3.175 F1000
G1 X34.901 Y-1.123 Z-3.175 F1000
G1 X34.785 Y-1.227 Z-3.175 F1000
G1 X34.660 Y-1.320 Z-3.175 F1000
G1 X34.527 Y-1.400 Z-3.175 F1000
G1 X34.386 Y-1.467 Z-3.175 F1000
G1 X34.239 Y-1.519 Z-3.175 F1000
G1 X34.088 Y-1.557 Z-3.175 F1000
G1 X33.934 Y-1.580 Z-3.175 F1000
G1 X33.779 Y-1.587 Z-3.175 F1000
G1 X0.085 Y-1.587 Z-3.175 F1000
G1 X-0.071 Y-1.580 Z-3.175 F1000
G1 X-0.225 Y-1.557 Z-3.175 F1000
G1 X-0.376 Y-1.519 Z-3.175 F1000
G1 X-0.523 Y-1.467 Z-3.175 F1000
G1 X-0.664 Y-1.400 Z-3.175 F1000
G1 X-0.797 Y-1.320 Z-3.175 F1000
G1 X-0.922 Y-1.227 Z-3.175 F1000
G1 X-1.038 Y-1.123 Z-3.175 F1000
G1 X-1.123 Y-1.038 Z-3.175 F1000
G1 X-1.227 Y-0.922 Z-3.175 F1000
G1 X-1.320 Y-0.797 Z-3.175 F1000
G1 X-1.400 Y-0.664 Z-3.175 F1000
G1 X-1.467 Y-0.523 Z-3.175 F1000
G1 X-1.519 Y-0.376 Z-3.175 F1000
G1 X-1.557 Y-0.225 Z-3.175 F1000
G1 X-1.580 Y-0.071 Z-3.175 F1000
G1 X-1.587 Y0.085 Z-3.175 F1000
G1 X-1.587 Y16.000 Z-3.175 F1000
G1 X-1.580 Y16.156 Z-3.175 F1000
G1 X-1.557 Y16.310 Z-3.175 F1000
G1 X-1.519 Y16.461 Z-3.175 F1000
G1 X-1.467 Y16.608 Z-3.175 F1000
G1 X-1.400 Y16.749 Z-3.175 F1000
G1 X-1.320 Y16.882 Z-3.175 F1000
G1 X-1.227 Y17.007 Z-3.175 F1000
G1 X-1.123 Y17.123 Z-3.175 F1000
G1 X-1.038 Y17.207 Z-3.175 F1000
G1 X-0.923 Y17.312 Z-3.175 F1000
G1 X-0.798 Y17.405 Z-3.175 F1000
G1 X-0.664 Y17.485 Z-3.175 F1000
G1 X-0.523 Y17.552 Z-3.175 F1000
G1 X-0.376 Y17.604 Z-3.175 F1000
G1 X-0.225 Y17.642 Z-3.175 F1000
G1 X-0.071 Y17.665 Z-3.175 F1000
G1 X0.085 Y17.673 Z-3.175 F1000
G1 X33.779 Y17.673 Z-3.175 F1000
G1 X33.934 Y17.665 Z-3.175 F1000
G1 X34.088 Y17.642 Z-3.175 F1000
G1 X34.239 Y17.604 Z-3.175 F1000
G1 X34.386 Y17.552 Z-3.175 F1000
G1 X34.527 Y17.485 Z-3.175 F1000
G1 X34.661 Y17.405 Z-3.175 F1000
G1 X34.786 Y17.312 Z-3.175 F1000
G1 X34.901 Y17.208 Z-3.175 F1000
G1 X34.986 Y17.123 Z-3.175 F1000
G1 X35.090 Y17.007 Z-3.175 F1000
G1 X35.183 Y16.882 Z-3.175 F1000
G1 X35.263 Y16.749 Z-3.175 F1000
G1 X35.330 Y16.608 Z-3.175 F1000
G1 X35.382 Y16.461 Z-3.175 F1000
G1 X35.420 Y16.310 Z-3.175 F1000
G1 X35.443 Y16.156 Z-3.175 F1000
G1 X35.451 Y16.000 Z-3.175 F1000
G1 X35.451 Y8.043 Z-3.175 F1000
G1 X35.459 Y7.972 Z-3.175 F1000
G1 X35.482 Y7.905 Z-3.175 F1000
G1 X35.520 Y7.845 Z-3.175 F1000
G1 X35.570 Y7.794 Z-3.175 F1000
G1 X35.631 Y7.756 Z-3.175 F1000
G1 X35.698 Y7.733 Z-3.175 F1000
G1 X35.768 Y7.725 Z-3.175 F1000
G1 X36.086 Y7.725 Z-3.175 F1000
G1 X36.156 Y7.725 Z-3.167 F1000
G1 X36.224 Y7.725 Z-3.143 F1000
G1 X36.284 Y7.725 Z-3.105 F1000
G1 X36.334 Y7.725 Z-3.055 F1000
G1 X36.372 Y7.725 Z-2.995 F1000
G1 X36.395 Y7.725 Z-2.928 F1000
G1 X36.403 Y7.725 Z-2.857 F1000
G1 X36.403 Y7.725 Z6.825 F1000
G1 X36.403 Y8.360 Z6.825 F1000
G1 X36.403 Y8.360 Z-2.540 F333.3
G1 X36.403 Y8.360 Z-3.107 F333.3
G1 X36.395 Y8.360 Z-3.178 F1000
G1 X36.372 Y8.360 Z-3.245 F1000
G1 X36.334 Y8.360 Z-3.305 F1000
G1 X36.284 Y8.360 Z-3.355 F1000
G1 X36.224 Y8.360 Z-3.393 F1000
G1 X36.156 Y8.360 Z-3.417 F1000
G1 X36.086 Y8.360 Z-3.425 F1000
G1 X35.768 Y8.360 Z-3.425 F1000
G1 X35.698 Y8.352 Z-3.425 F1000
G1 X35.631 Y8.329 Z-3.425 F1000
G1 X35.570 Y8.291 Z-3.425 F1000
G1 X35.520 Y8.241 Z-3.425 F1000
G1 X35.482 Y8.180 Z-3.425 F1000
G1 X35.459 Y8.113 Z-3.425 F1000
G1 X35.451 Y8.043 Z-3.425 F1000
G1 X35.451 Y0.085 Z-3.425 F1000
G1 X35.443 Y-0.071 Z-3.425 F1000
G1 X35.420 Y-0.225 Z-3.425 F1000
G1 X35.382 Y-0.376 Z-3.425 F1000
G1 X35.330 Y-0.523 Z-3.425 F1000
G1 X35.263 Y-0.664 Z-3.425 F1000
G1 X35.183 Y-0.798 Z-3.425 F1000
G1 X35.090 Y-0.923 Z-3.425 F1000
G1 X34.986 Y-1.038 Z-3.425 F1000
G1 X34.901 Y-1.123 Z-3.425 F1000
G1 X34.785 Y-1.227 Z-3.425 F1000
G1 X34.660 Y-1.320 Z-3.425 F1000
G1 X34.527 Y-1.400 Z-3.425 F1000
G1 X34.386 Y-1.467 Z-3.425 F1000
G1 X34.239 Y-1.519 Z-3.425 F1000
G1 X34.088 Y-1.557 Z-3.425 F1000
G1 X33.934 Y-1.580 Z-3.425 F1000
G1 X33.779 Y-1.587 Z-3.425 F1000
G1 X0.085 Y-1.587 Z-3.425 F1000
G1 X-0.071 Y-1.580 Z-3.425 F1000
G1 X-0.225 Y-1.557 Z-3.425 F1000
G1 X-0.376 Y-1.519 Z-3.425 F1000
G1 X-0.523 Y-1.467 Z-3.425 F1000
G1 X-0.664 Y-1.400 Z-3.425 F1000
G1 X-0.797 Y-1.320 Z-3.425 F1000
G1 X-0.922 Y-1.227 Z-3.425 F1000
G1 X-1.038 Y-1.123 Z-3.425 F1000
G1 X-1.123 Y-1.038 Z-3.425 F1000
G1 X-1.227 Y-0.922 Z-3.425 F1000
G1 X-1.320 Y-0.797 Z-3.425 F1000
G1 X-1.400 Y-0.664 Z-3.425 F1000
G1 X-1.467 Y-0.523 Z-3.425 F1000
G1 X-1.519 Y-0.376 Z-3.425 F1000
G1 X-1.557 Y-0.225 Z-3.425 F1000
G1 X-1.580 Y-0.071 Z-3.425 F1000
G1 X-1.587 Y0.085 Z-3.425 F1000
G1 X-1.587 Y16.000 Z-3.425 F1000
G1 X-1.580 Y16.156 Z-3.425 F1000
G1 X-1.557 Y16.310 Z-3.425 F1000
G1 X-1.519 Y16.461 Z-3.425 F1000
G1 X-1.467 Y16.608 Z-3.425 F1000
G1 X-1.400 Y16.749 Z-3.425 F1000
G1 X-1.320 Y16.882 Z-3.425 F1000
G1 X-1.227 Y17.007 Z-3.425 F1000
G1 X-1.123 Y17.123 Z-3.425 F1000
G1 X-1.038 Y17.207 Z-3.425 F1000
G1 X-0.923 Y17.312 Z-3.425 F1000
G1 X-0.798 Y17.405 Z-3.425 F1000
G1 X-0.664 Y17.485 Z-3.425 F1000
G1 X-0.523 Y17.552 Z-3.425 F1000
G1 X-0.376 Y17.604 Z-3.425 F1000
G1 X-0.225 Y17.642 Z-3.425 F1000
G1 X-0.071 Y17.665 Z-3.425 F1000
G1 X0.085 Y17.673 Z-3.425 F1000
G1 X33.779 Y17.673 Z-3.425 F1000
G1 X33.934 Y17.665 Z-3.425 F1000
G1 X34.088 Y17.642 Z-3.425 F1000
G1 X34.239 Y17.604 Z-3.425 F1000
G1 X34.386 Y17.552 Z-3.425 F1000
G1 X34.527 Y17.485 Z-3.425 F1000
G1 X34.661 Y17.405 Z-3.425 F1000
G1 X34.786 Y17.312 Z-3.425 F1000
G1 X34.901 Y17.208 Z-3.425 F1000
G1 X34.986 Y17.123 Z-3.425 F1000
G1 X35.090 Y17.007 Z-3.425 F1000
G1 X35.183 Y16.882 Z-3.425 F1000
G1 X35.263 Y16.749 Z-3.425 F1000
G1 X35.330 Y16.608 Z-3.425 F1000
G1 X35.382 Y16.461 Z-3.425 F1000
G1 X35.420 Y16.310 Z-3.425 F1000
G1 X35.443 Y16.156 Z-3.425 F1000
G1 X35.451 Y16.000 Z-3.425 F1000
G1 X35.451 Y8.043 Z-3.425 F1000
G1 X35.459 Y7.972 Z-3.425 F1000
G1 X35.482 Y7.905 Z-3.425 F1000
G1 X35.520 Y7.845 Z-3.425 F1000
G1 X35.570 Y7.794 Z-3.425 F1000
G1 X35.631 Y7.756 Z-3.425 F1000
G1 X35.698 Y7.733 Z-3.425 F1000
G1 X35.768 Y7.725 Z-3.425 F1000
G1 X36.086 Y7.725 Z-3.425 F1000
G1 X36.156 Y7.725 Z-3.417 F1000
G1 X36.224 Y7.725 Z-3.393 F1000
G1 X36.284 Y7.725 Z-3.355 F1000
G1 X36.334 Y7.725 Z-3.305 F1000
G1 X36.372 Y7.725 Z-3.245 F1000
G1 X36.395 Y7.725 Z-3.178 F1000
G1 X36.403 Y7.725 Z-3.107 F1000
G1 X36.403 Y7.725 Z6.825 F1000
G1 X36.403 Y8.360 Z6.825 F1000
G1 X36.403 Y8.360 Z-2.790 F333.3
G1 X36.403 Y8.360 Z-3.357 F333.3
G1 X36.395 Y8.360 Z-3.428 F1000
G1 X36.372 Y8.360 Z-3.495 F1000
G1 X36.334 Y8.360 Z-3.555 F1000
G1 X36.284 Y8.360 Z-3.605 F1000
G1 X36.224 Y8.360 Z-3.643 F1000
G1 X36.156 Y8.360 Z-3.667 F1000
G1 X36.086 Y8.360 Z-3.675 F1000
G1 X35.768 Y8.360 Z-3.675 F1000
G1 X35.698 Y8.352 Z-3.675 F1000
G1 X35.631 Y8.329 Z-3.675 F1000
G1 X35.570 Y8.291 Z-3.675 F1000
G1 X35.520 Y8.241 Z-3.675 F1000
G1 X35.482 Y8.180 Z-3.675 F1000
G1 X35.459 Y8.113 Z-3.675 F1000
G1 X35.451 Y8.043 Z-3.675 F1000
G1 X35.451 Y0.085 Z-3.675 F1000
G1 X35.443 Y-0.071 Z-3.675 F1000
G1 X35.420 Y-0.225 Z-3.675 F1000
G1 X35.382 Y-0.376 Z-3.675 F1000
G1 X35.330 Y-0.523 Z-3.675 F1000
G1 X35.263 Y-0.664 Z-3.675 F1000
G1 X35.183 Y-0.798 Z-3.675 F1000
G1 X35.090 Y-0.923 Z-3.675 F1000
G1 X34.986 Y-1.038 Z-3.675 F1000
G1 X34.901 Y-1.123 Z-3.675 F1000
G1 X34.785 Y-1.227 Z-3.675 F1000
G1 X34.660 Y-1.320 Z-3.675 F1000
G1 X34.527 Y-1.400 Z-3.675 F1000
G1 X34.386 Y-1.467 Z-3.675 F1000
G1 X34.239 Y-1.519 Z-3.675 F1000
G1 X34.088 Y-1.557 Z-3.675 F1000
G1 X33.934 Y-1.580 Z-3.675 F1000
G1 X33.779 Y-1.587 Z-3.675 F1000
G1 X0.085 Y-1.587 Z-3.675 F1000
G1 X-0.071 Y-1.580 Z-3.675 F1000
G1 X-0.225 Y-1.557 Z-3.675 F1000
G1 X-0.376 Y-1.519 Z-3.675 F1000
G1 X-0.523 Y-1.467 Z-3.675 F1000
G1 X-0.664 Y-1.400 Z-3.675 F1000
G1 X-0.797 Y-1.320 Z-3.675 F1000
G1 X-0.922 Y-1.227 Z-3.675 F1000
G1 X-1.038 Y-1.123 Z-3.675 F1000
G1 X-1.123 Y-1.038 Z-3.675 F1000
G1 X-1.227 Y-0.922 Z-3.675 F1000
G1 X-1.320 Y-0.797 Z-3.675 F1000
G1 X-1.400 Y-0.664 Z-3.675 F1000
G1 X-1.467 Y-0.523 Z-3.675 F1000
G1 X-1.519 Y-0.376 Z-3.675 F1000
G1 X-1.557 Y-0.225 Z-3.675 F1000
G1 X-1.580 Y-0.071 Z-3.675 F1000
G1 X-1.587 Y0.085 Z-3.675 F1000
G1 X-1.587 Y16.000 Z-3.675 F1000
G1 X-1.580 Y16.156 Z-3.675 F1000
G1 X-1.557 Y16.310 Z-3.675 F1000
G1 X-1.519 Y16.461 Z-3.675 F1000
G1 X-1.467 Y16.608 Z-3.675 F1000
G1 X-1.400 Y16.749 Z-3.675 F1000
G1 X-1.320 Y16.882 Z-3.675 F1000
G1 X-1.227 Y17.007 Z-3.675 F1000
G1 X-1.123 Y17.123 Z-3.675 F1000
G1 X-1.038 Y17.207 Z-3.675 F1000
G1 X-0.923 Y17.312 Z-3.675 F1000
G1 X-0.798 Y17.405 Z-3.675 F1000
G1 X-0.664 Y17.485 Z-3.675 F1000
G1 X-0.523 Y17.552 Z-3.675 F1000
G1 X-0.376 Y17.604 Z-3.675 F1000
G1 X-0.225 Y17.642 Z-3.675 F1000
G1 X-0.071 Y17.665 Z-3.675 F1000
G1 X0.085 Y17.673 Z-3.675 F1000
G1 X33.779 Y17.673 Z-3.675 F1000
G1 X33.934 Y17.665 Z-3.675 F1000
G1 X34.088 Y17.642 Z-3.675 F1000
G1 X34.239 Y17.604 Z-3.675 F1000
G1 X34.386 Y17.552 Z-3.675 F1000
G1 X34.527 Y17.485 Z-3.675 F1000
G1 X34.661 Y17.405 Z-3.675 F1000
G1 X34.786 Y17.312 Z-3.675 F1000
G1 X34.901 Y17.208 Z-3.675 F1000
G1 X34.986 Y17.123 Z-3.675 F1000
G1 X35.090 Y17.007 Z-3.675 F1000
G1 X35.183 Y16.882 Z-3.675 F1000
G1 X35.263 Y16.749 Z-3.675 F1000
G1 X35.330 Y16.608 Z-3.675 F1000
G1 X35.382 Y16.461 Z-3.675 F1000
G1 X35.420 Y16.310 Z-3.675 F1000
G1 X35.443 Y16.156 Z-3.675 F1000
G1 X35.451 Y16.000 Z-3.675 F1000
G1 X35.451 Y8.043 Z-3.675 F1000
G1 X35.459 Y7.972 Z-3.675 F1000
G1 X35.482 Y7.905 Z-3.675 F1000
G1 X35.520 Y7.845 Z-3.675 F1000
G1 X35.570 Y7.794 Z-3.675 F1000
G1 X35.631 Y7.756 Z-3.675 F1000
G1 X35.698 Y7.733 Z-3.675 F1000
G1 X35.768 Y7.725 Z-3.675 F1000
G1 X36.086 Y7.725 Z-3.675 F1000
G1 X36.156 Y7.725 Z-3.667 F1000
G1 X36.224 Y7.725 Z-3.643 F1000
G1 X36.284 Y7.725 Z-3.605 F1000
G1 X36.334 Y7.725 Z-3.555 F1000
G1 X36.372 Y7.725 Z-3.495 F1000
G1 X36.395 Y7.725 Z-3.428 F1000
G1 X36.403 Y7.725 Z-3.357 F1000
G1 X36.403 Y7.725 Z6.825 F1000
G1 X36.403 Y8.360 Z6.825 F1000
G1 X36.403 Y8.360 Z-3.040 F333.3
G1 X36.403 Y8.360 Z-3.607 F333.3
G1 X36.395 Y8.360 Z-3.678 F1000
G1 X36.372 Y8.360 Z-3.745 F1000
G1 X36.334 Y8.360 Z-3.805 F1000
G1 X36.284 Y8.360 Z-3.855 F1000
G1 X36.224 Y8.360 Z-3.893 F1000
G1 X36.156 Y8.360 Z-3.917 F1000
G1 X36.086 Y8.360 Z-3.925 F1000
G1 X35.768 Y8.360 Z-3.925 F1000
G1 X35.698 Y8.352 Z-3.925 F1000
G1 X35.631 Y8.329 Z-3.925 F1000
G1 X35.570 Y8.291 Z-3.925 F1000
G1 X35.520 Y8.241 Z-3.925 F1000
G1 X35.482 Y8.180 Z-3.925 F1000
G1 X35.459 Y8.113 Z-3.925 F1000
G1 X35.451 Y8.043 Z-3.925 F1000
G1 X35.451 Y0.085 Z-3.925 F1000
G1 X35.443 Y-0.071 Z-3.925 F1000
G1 X35.420 Y-0.225 Z-3.925 F1000
G1 X35.382 Y-0.376 Z-3.925 F1000
G1 X35.330 Y-0.523 Z-3.925 F1000
G1 X35.263 Y-0.664 Z-3.925 F1000
G1 X35.183 Y-0.798 Z-3.925 F1000
G1 X35.090 Y-0.923 Z-3.925 F1000
G1 X34.986 Y-1.038 Z-3.925 F1000
G1 X34.901 Y-1.123 Z-3.925 F1000
G1 X34.785 Y-1.227 Z-3.925 F1000
G1 X34.660 Y-1.320 Z-3.925 F1000
G1 X34.527 Y-1.400 Z-3.925 F1000
G1 X34.386 Y-1.467 Z-3.925 F1000
G1 X34.239 Y-1.519 Z-3.925 F1000
G1 X34.088 Y-1.557 Z-3.925 F1000
G1 X33.934 Y-1.580 Z-3.925 F1000
G1 X33.779 Y-1.587 Z-3.925 F1000
G1 X0.085 Y-1.587 Z-3.925 F1000
G1 X-0.071 Y-1.580 Z-3.925 F1000
G1 X-0.225 Y-1.557 Z-3.925 F1000
G1 X-0.376 Y-1.519 Z-3.925 F1000
G1 X-0.523 Y-1.467 Z-3.925 F1000
G1 X-0.664 Y-1.400 Z-3.925 F1000
G1 X-0.797 Y-1.320 Z-3.925 F1000
G1 X-0.922 Y-1.227 Z-3.925 F1000
G1 X-1.038 Y-1.123 Z-3.925 F1000
G1 X-1.123 Y-1.038 Z-3.925 F1000
G1 X-1.227 Y-0.922 Z-3.925 F1000
G1 X-1.320 Y-0.797 Z-3.925 F1000
G1 X-1.400 Y-0.664 Z-3.925 F1000
G1 X-1.467 Y-0.523 Z-3.925 F1000
G1 X-1.519 Y-0.376 Z-3.925 F1000
G1 X-1.557 Y-0.225 Z-3.925 F1000
G1 X-1.580 Y-0.071 Z-3.925 F1000
G1 X-1.587 Y0.085 Z-3.925 F1000
G1 X-1.587 Y16.000 Z-3.925 F1000
G1 X-1.580 Y16.156 Z-3.925 F1000
G1 X-1.557 Y16.310 Z-3.925 F1000
G1 X-1.519 Y16.461 Z-3.925 F1000
G1 X-1.467 Y16.608 Z-3.925 F1000
G1 X-1.400 Y16.749 Z-3.925 F1000
G1 X-1.320 Y16.882 Z-3.925 F1000
G1 X-1.227 Y17.007 Z-3.925 F1000
G1 X-1.123 Y17.123 Z-3.925 F1000
G1 X-1.038 Y17.207 Z-3.925 F1000
G1 X-0.923 Y17.312 Z-3.925 F1000
G1 X-0.798 Y17.405 Z-3.925 F1000
G1 X-0.664 Y17.485 Z-3.925 F1000
G1 X-0.523 Y17.552 Z-3.925 F1000
G1 X-0.376 Y17.604 Z-3.925 F1000
G1 X-0.225 Y17.642 Z-3.925 F1000
G1 X-0.071 Y17.665 Z-3.925 F1000
G1 X0.085 Y17.673 Z-3.925 F1000
G1 X33.779 Y17.673 Z-3.925 F1000
G1 X33.934 Y17.665 Z-3.925 F1000
G1 X34.088 Y17.642 Z-3.925 F1000
G1 X34.239 Y17.604 Z-3.925 F1000
G1 X34.386 Y17.552 Z-3.925 F1000
G1 X34.527 Y17.485 Z-3.925 F1000
G1 X34.661 Y17.405 Z-3.925 F1000
G1 X34.786 Y17.312 Z-3.925 F1000
G1 X34.901 Y17.208 Z-3.925 F1000
G1 X34.986 Y17.123 Z-3.925 F1000
G1 X35.090 Y17.007 Z-3.925 F1000
G1 X35.183 Y16.882 Z-3.925 F1000
G1 X35.263 Y16.749 Z-3.925 F1000
G1 X35.330 Y16.608 Z-3.925 F1000
G1 X35.382 Y16.461 Z-3.925 F1000
G1 X35.420 Y16.310 Z-3.925 F1000
G1 X35.443 Y16.156 Z-3.925 F1000
G1 X35.451 Y16.000 Z-3.925 F1000
G1 X35.451 Y8.043 Z-3.925 F1000
G1 X35.459 Y7.972 Z-3.925 F1000
G1 X35.482 Y7.905 Z-3.925 F1000
G1 X35.520 Y7.845 Z-3.925 F1000
G1 X35.570 Y7.794 Z-3.925 F1000
G1 X35.631 Y7.756 Z-3.925 F1000
G1 X35.698 Y7.733 Z-3.925 F1000
G1 X35.768 Y7.725 Z-3.925 F1000
G1 X36.086 Y7.725 Z-3.925 F1000
G1 X36.156 Y7.725 Z-3.917 F1000
G1 X36.224 Y7.725 Z-3.893 F1000
G1 X36.284 Y7.725 Z-3.855 F1000
G1 X36.334 Y7.725 Z-3.805 F1000
G1 X36.372 Y7.725 Z-3.745 F1000
G1 X36.395 Y7.725 Z-3.678 F1000
G1 X36.403 Y7.725 Z-3.607 F1000
G1 X36.403 Y7.725 Z6.825 F1000
G1 X36.403 Y8.360 Z6.825 F1000
G1 X36.403 Y8.360 Z-3.290 F333.3
G1 X36.403 Y8.360 Z-3.857 F333.3
G1 X36.395 Y8.360 Z-3.928 F1000
G1 X36.372 Y8.360 Z-3.995 F1000
G1 X36.334 Y8.360 Z-4.055 F1000
G1 X36.284 Y8.360 Z-4.105 F1000
G1 X36.224 Y8.360 Z-4.143 F1000
G1 X36.156 Y8.360 Z-4.167 F1000
G1 X36.086 Y8.360 Z-4.175 F1000
G1 X35.768 Y8.360 Z-4.175 F1000
G1 X35.698 Y8.352 Z-4.175 F1000
G1 X35.631 Y8.329 Z-4.175 F1000
G1 X35.570 Y8.291 Z-4.175 F1000
G1 X35.520 Y8.241 Z-4.175 F1000
G1 X35.482 Y8.180 Z-4.175 F1000
G1 X35.459 Y8.113 Z-4.175 F1000
G1 X35.451 Y8.043 Z-4.175 F1000
G1 X35.451 Y0.085 Z-4.175 F1000
G1 X35.443 Y-0.071 Z-4.175 F1000
G1 X35.420 Y-0.225 Z-4.175 F1000
G1 X35.382 Y-0.376 Z-4.175 F1000
G1 X35.330 Y-0.523 Z-4.175 F1000
G1 X35.263 Y-0.664 Z-4.175 F1000
G1 X35.183 Y-0.798 Z-4.175 F1000
G1 X35.090 Y-0.923 Z-4.175 F1000
G1 X34.986 Y-1.038 Z-4.175 F1000
G1 X34.901 Y-1.123 Z-4.175 F1000
G1 X34.785 Y-1.227 Z-4.175 F1000
G1 X34.660 Y-1.320 Z-4.175 F1000
G1 X34.527 Y-1.400 Z-4.175 F1000
G1 X34.386 Y-1.467 Z-4.175 F1000
G1 X34.239 Y-1.519 Z-4.175 F1000
G1 X34.088 Y-1.557 Z-4.175 F1000
G1 X33.934 Y-1.580 Z-4.175 F1000
G1 X33.779 Y-1.587 Z-4.175 F1000
G1 X0.085 Y-1.587 Z-4.175 F1000
G1 X-0.071 Y-1.580 Z-4.175 F1000
G1 X-0.225 Y-1.557 Z-4.175 F1000
G1 X-0.376 Y-1.519 Z-4.175 F1000
G1 X-0.523 Y-1.467 Z-4.175 F1000
G1 X-0.664 Y-1.400 Z-4.175 F1000
G1 X-0.797 Y-1.320 Z-4.175 F1000
G1 X-0.922 Y-1.227 Z-4.175 F1000
G1 X-1.038 Y-1.123 Z-4.175 F1000
G1 X-1.123 Y-1.038 Z-4.175 F1000
G1 X-1.227 Y-0.922 Z-4.175 F1000
G1 X-1.320 Y-0.797 Z-4.175 F1000
G1 X-1.400 Y-0.664 Z-4.175 F1000
G1 X-1.467 Y-0.523 Z-4.175 F1000
G1 X-1.519 Y-0.376 Z-4.175 F1000
G1 X-1.557 Y-0.225 Z-4.175 F1000
G1 X-1.580 Y-0.071 Z-4.175 F1000
G1 X-1.587 Y0.085 Z-4.175 F1000
G1 X-1.587 Y16.000 Z-4.175 F1000
G1 X-1.580 Y16.156 Z-4.175 F1000
G1 X-1.557 Y16.310 Z-4.175 F1000
G1 X-1.519 Y16.461 Z-4.175 F1000
G1 X-1.467 Y16.608 Z-4.175 F1000
G1 X-1.400 Y16.749 Z-4.175 F1000
G1 X-1.320 Y16.882 Z-4.175 F1000
G1 X-1.227 Y17.007 Z-4.175 F1000
G1 X-1.123 Y17.123 Z-4.175 F1000
G1 X-1.038 Y17.207 Z-4.175 F1000
G1 X-0.923 Y17.312 Z-4.175 F1000
G1 X-0.798 Y17.405 Z-4.175 F1000
G1 X-0.664 Y17.485 Z-4.175 F1000
G1 X-0.523 Y17.552 Z-4.175 F1000
G1 X-0.376 Y17.604 Z-4.175 F1000
G1 X-0.225 Y17.642 Z-4.175 F1000
G1 X-0.071 Y17.665 Z-4.175 F1000
G1 X0.085 Y17.673 Z-4.175 F1000
G1 X33.779 Y17.673 Z-4.175 F1000
G1 X33.934 Y17.665 Z-4.175 F1000
G1 X34.088 Y17.642 Z-4.175 F1000
G1 X34.239 Y17.604 Z-4.175 F1000
G1 X34.386 Y17.552 Z-4.175 F1000
G1 X34.527 Y17.485 Z-4.175 F1000
G1 X34.661 Y17.405 Z-4.175 F1000
G1 X34.786 Y17.312 Z-4.175 F1000
G1 X34.901 Y17.208 Z-4.175 F1000
G1 X34.986 Y17.123 Z-4.175 F1000
G1 X35.090 Y17.007 Z-4.175 F1000
G1 X35.183 Y16.882 Z-4.175 F1000
G1 X35.263 Y16.749 Z-4.175 F1000
G1 X35.330 Y16.608 Z-4.175 F1000
G1 X35.382 Y16.461 Z-4.175 F1000
G1 X35.420 Y16.310 Z-4.175 F1000
G1 X35.443 Y16.156 Z-4.175 F1000
G1 X35.451 Y16.000 Z-4.175 F1000
G1 X35.451 Y8.043 Z-4.175 F1000
G1 X35.459 Y7.972 Z-4.175 F1000
G1 X35.482 Y7.905 Z-4.175 F1000
G1 X35.520 Y7.845 Z-4.175 F1000
G1 X35.570 Y7.794 Z-4.175 F1000
G1 X35.631 Y7.756 Z-4.175 F1000
G1 X35.698 Y7.733 Z-4.175 F1000
G1 X35.768 Y7.725 Z-4.175 F1000
G1 X36.086 Y7.725 Z-4.175 F1000
G1 X36.156 Y7.725 Z-4.167 F1000
G1 X36.224 Y7.725 Z-4.143 F1000
G1 X36.284 Y7.725 Z-4.105 F1000
G1 X36.334 Y7.725 Z-4.055 F1000
G1 X36.372 Y7.725 Z-3.995 F1000
G1 X36.395 Y7.725 Z-3.928 F1000
G1 X36.403 Y7.725 Z-3.857 F1000
G1 X36.403 Y7.725 Z6.825 F1000
G1 X36.403 Y8.360 Z6.825 F1000
G1 X36.403 Y8.360 Z-3.540 F333.3
G1 X36.403 Y8.360 Z-4.107 F333.3
G1 X36.395 Y8.360 Z-4.178 F1000
G1 X36.372 Y8.360 Z-4.245 F1000
G1 X36.334 Y8.360 Z-4.305 F1000
G1 X36.284 Y8.360 Z-4.355 F1000
G1 X36.224 Y8.360 Z-4.393 F1000
G1 X36.156 Y8.360 Z-4.417 F1000
G1 X36.086 Y8.360 Z-4.425 F1000
G1 X35.768 Y8.360 Z-4.425 F1000
G1 X35.698 Y8.352 Z-4.425 F1000
G1 X35.631 Y8.329 Z-4.425 F1000
G1 X35.570 Y8.291 Z-4.425 F1000
G1 X35.520 Y8.241 Z-4.425 F1000
G1 X35.482 Y8.180 Z-4.425 F1000
G1 X35.459 Y8.113 Z-4.425 F1000
G1 X35.451 Y8.043 Z-4.425 F1000
G1 X35.451 Y0.085 Z-4.425 F1000
G1 X35.443 Y-0.071 Z-4.425 F1000
G1 X35.420 Y-0.225 Z-4.425 F1000
G1 X35.382 Y-0.376 Z-4.425 F1000
G1 X35.330 Y-0.523 Z-4.425 F1000
G1 X35.263 Y-0.664 Z-4.425 F1000
G1 X35.183 Y-0.798 Z-4.425 F1000
G1 X35.090 Y-0.923 Z-4.425 F1000
G1 X34.986 Y-1.038 Z-4.425 F1000
G1 X34.901 Y-1.123 Z-4.425 F1000
G1 X34.785 Y-1.227 Z-4.425 F1000
G1 X34.660 Y-1.320 Z-4.425 F1000
G1 X34.527 Y-1.400 Z-4.425 F1000
G1 X34.386 Y-1.467 Z-4.425 F1000
G1 X34.239 Y-1.519 Z-4.425 F1000
G1 X34.088 Y-1.557 Z-4.425 F1000
G1 X33.934 Y-1.580 Z-4.425 F1000
G1 X33.779 Y-1.587 Z-4.425 F1000
G1 X0.085 Y-1.587 Z-4.425 F1000
G1 X-0.071 Y-1.580 Z-4.425 F1000
G1 X-0.225 Y-1.557 Z-4.425 F1000
G1 X-0.376 Y-1.519 Z-4.425 F1000
G1 X-0.523 Y-1.467 Z-4.425 F1000
G1 X-0.664 Y-1.400 Z-4.425 F1000
G1 X-0.797 Y-1.320 Z-4.425 F1000
G1 X-0.922 Y-1.227 Z-4.425 F1000
G1 X-1.038 Y-1.123 Z-4.425 F1000
G1 X-1.123 Y-1.038 Z-4.425 F1000
G1 X-1.227 Y-0.922 Z-4.425 F1000
G1 X-1.320 Y-0.797 Z-4.425 F1000
G1 X-1.400 Y-0.664 Z-4.425 F1000
G1 X-1.467 Y-0.523 Z-4.425 F1000
G1 X-1.519 Y-0.376 Z-4.425 F1000
G1 X-1.557 Y-0.225 Z-4.425 F1000
G1 X-1.580 Y-0.071 Z-4.425 F1000
G1 X-1.587 Y0.085 Z-4.425 F1000
G1 X-1.587 Y16.000 Z-4.425 F1000
G1 X-1.580 Y16.156 Z-4.425 F1000
G1 X-1.557 Y16.310 Z-4.425 F1000
G1 X-1.519 Y16.461 Z-4.425 F1000
G1 X-1.467 Y16.608 Z-4.425 F1000
G1 X-1.400 Y16.749 Z-4.425 F1000
G1 X-1.320 Y16.882 Z-4.425 F1000
G1 X-1.227 Y17.007 Z-4.425 F1000
G1 X-1.123 Y17.123 Z-4.425 F1000
G1 X-1.038 Y17.207 Z-4.425 F1000
G1 X-0.923 Y17.312 Z-4.425 F1000
G1 X-0.798 Y17.405 Z-4.425 F1000
G1 X-0.664 Y17.485 Z-4.425 F1000
G1 X-0.523 Y17.552 Z-4.425 F1000
G1 X-0.376 Y17.604 Z-4.425 F1000
G1 X-0.225 Y17.642 Z-4.425 F1000
G1 X-0.071 Y17.665 Z-4.425 F1000
G1 X0.085 Y17.673 Z-4.425 F1000
G1 X33.779 Y17.673 Z-4.425 F1000
G1 X33.934 Y17.665 Z-4.425 F1000
G1 X34.088 Y17.642 Z-4.425 F1000
G1 X34.239 Y17.604 Z-4.425 F1000
G1 X34.386 Y17.552 Z-4.425 F1000
G1 X34.527 Y17.485 Z-4.425 F1000
G1 X34.661 Y17.405 Z-4.425 F1000
G1 X34.786 Y17.312 Z-4.425 F1000
G1 X34.901 Y17.208 Z-4.425 F1000
G1 X34.986 Y17.123 Z-4.425 F1000
G1 X35.090 Y17.007 Z-4.425 F1000
G1 X35.183 Y16.882 Z-4.425 F1000
G1 X35.263 Y16.749 Z-4.425 F1000
G1 X35.330 Y16.608 Z-4.425 F1000
G1 X35.382 Y16.461 Z-4.425 F1000
G1 X35.420 Y16.310 Z-4.425 F1000
G1 X35.443 Y16.156 Z-4.425 F1000
G1 X35.451 Y16.000 Z-4.425 F1000
G1 X35.451 Y8.043 Z-4.425 F1000
G1 X35.459 Y7.972 Z-4.425 F1000
G1 X35.482 Y7.905 Z-4.425 F1000
G1 X35.520 Y7.845 Z-4.425 F1000
G1 X35.570 Y7.794 Z-4.425 F1000
G1 X35.631 Y7.756 Z-4.425 F1000
G1 X35.698 Y7.733 Z-4.425 F1000
G1 X35.768 Y7.725 Z-4.425 F1000
G1 X36.086 Y7.725 Z-4.425 F1000
G1 X36.156 Y7.725 Z-4.417 F1000
G1 X36.224 Y7.725 Z-4.393 F1000
G1 X36.284 Y7.725 Z-4.355 F1000
G1 X36.334 Y7.725 Z-4.305 F1000
G1 X36.372 Y7.725 Z-4.245 F1000
G1 X36.395 Y7.725 Z-4.178 F1000
G1 X36.403 Y7.725 Z-4.107 F1000
G1 X36.403 Y7.725 Z6.825 F1000
G1 X36.403 Y8.360 Z6.825 F1000
G1 X36.403 Y8.360 Z-3.790 F333.3
G1 X36.403 Y8.360 Z-4.357 F333.3
G1 X36.395 Y8.360 Z-4.428 F1000
G1 X36.372 Y8.360 Z-4.495 F1000
G1 X36.334 Y8.360 Z-4.555 F1000
G1 X36.284 Y8.360 Z-4.605 F1000
G1 X36.224 Y8.360 Z-4.643 F1000
G1 X36.156 Y8.360 Z-4.667 F1000
G1 X36.086 Y8.360 Z-4.675 F1000
G1 X35.768 Y8.360 Z-4.675 F1000
G1 X35.698 Y8.352 Z-4.675 F1000
G1 X35.631 Y8.329 Z-4.675 F1000
G1 X35.570 Y8.291 Z-4.675 F1000
G1 X35.520 Y8.241 Z-4.675 F1000
G1 X35.482 Y8.180 Z-4.675 F1000
G1 X35.459 Y8.113 Z-4.675 F1000
G1 X35.451 Y8.043 Z-4.675 F1000
G1 X35.451 Y0.085 Z-4.675 F1000
G1 X35.443 Y-0.071 Z-4.675 F1000
G1 X35.420 Y-0.225 Z-4.675 F1000
G1 X35.382 Y-0.376 Z-4.675 F1000
G1 X35.330 Y-0.523 Z-4.675 F1000
G1 X35.263 Y-0.664 Z-4.675 F1000
G1 X35.183 Y-0.798 Z-4.675 F1000
G1 X35.090 Y-0.923 Z-4.675 F1000
G1 X34.986 Y-1.038 Z-4.675 F1000
G1 X34.901 Y-1.123 Z-4.675 F1000
G1 X34.785 Y-1.227 Z-4.675 F1000
G1 X34.660 Y-1.320 Z-4.675 F1000
G1 X34.527 Y-1.400 Z-4.675 F1000
G1 X34.386 Y-1.467 Z-4.675 F1000
G1 X34.239 Y-1.519 Z-4.675 F1000
G1 X34.088 Y-1.557 Z-4.675 F1000
G1 X33.934 Y-1.580 Z-4.675 F1000
G1 X33.779 Y-1.587 Z-4.675 F1000
G1 X0.085 Y-1.587 Z-4.675 F1000
G1 X-0.071 Y-1.580 Z-4.675 F1000
G1 X-0.225 Y-1.557 Z-4.675 F1000
G1 X-0.376 Y-1.519 Z-4.675 F1000
G1 X-0.523 Y-1.467 Z-4.675 F1000
G1 X-0.664 Y-1.400 Z-4.675 F1000
G1 X-0.797 Y-1.320 Z-4.675 F1000
G1 X-0.922 Y-1.227 Z-4.675 F1000
G1 X-1.038 Y-1.123 Z-4.675 F1000
G1 X-1.123 Y-1.038 Z-4.675 F1000
G1 X-1.227 Y-0.922 Z-4.675 F1000
G1 X-1.320 Y-0.797 Z-4.675 F1000
G1 X-1.400 Y-0.664 Z-4.675 F1000
G1 X-1.467 Y-0.523 Z-4.675 F1000
G1 X-1.519 Y-0.376 Z-4.675 F1000
G1 X-1.557 Y-0.225 Z-4.675 F1000
G1 X-1.580 Y-0.071 Z-4.675 F1000
G1 X-1.587 Y0.085 Z-4.675 F1000
G1 X-1.587 Y16.000 Z-4.675 F1000
G1 X-1.580 Y16.156 Z-4.675 F1000
G1 X-1.557 Y16.310 Z-4.675 F1000
G1 X-1.519 Y16.461 Z-4.675 F1000
G1 X-1.467 Y16.608 Z-4.675 F1000
G1 X-1.400 Y16.749 Z-4.675 F1000
G1 X-1.320 Y16.882 Z-4.675 F1000
G1 X-1.227 Y17.007 Z-4.675 F1000
G1 X-1.123 Y17.123 Z-4.675 F1000
G1 X-1.038 Y17.207 Z-4.675 F1000
G1 X-0.923 Y17.312 Z-4.675 F1000
G1 X-0.798 Y17.405 Z-4.675 F1000
G1 X-0.664 Y17.485 Z-4.675 F1000
G1 X-0.523 Y17.552 Z-4.675 F1000
G1 X-0.376 Y17.604 Z-4.675 F1000
G1 X-0.225 Y17.642 Z-4.675 F1000
G1 X-0.071 Y17.665 Z-4.675 F1000
G1 X0.085 Y17.673 Z-4.675 F1000
G1 X33.779 Y17.673 Z-4.675 F1000
G1 X33.934 Y17.665 Z-4.675 F1000
G1 X34.088 Y17.642 Z-4.675 F1000
G1 X34.239 Y17.604 Z-4.675 F1000
G1 X34.386 Y17.552 Z-4.675 F1000
G1 X34.527 Y17.485 Z-4.675 F1000
G1 X34.661 Y17.405 Z-4.675 F1000
G1 X34.786 Y17.312 Z-4.675 F1000
G1 X34.901 Y17.208 Z-4.675 F1000
G1 X34.986 Y17.123 Z-4.675 F1000
G1 X35.090 Y17.007 Z-4.675 F1000
G1 X35.183 Y16.882 Z-4.675 F1000
G1 X35.263 Y16.749 Z-4.675 F1000
G1 X35.330 Y16.608 Z-4.675 F1000
G1 X35.382 Y16.461 Z-4.675 F1000
G1 X35.420 Y16.310 Z-4.675 F1000
G1 X35.443 Y16.156 Z-4.675 F1000
G1 X35.451 Y16.000 Z-4.675 F1000
G1 X35.451 Y8.043 Z-4.675 F1000
G1 X35.459 Y7.972 Z-4.675 F1000
G1 X35.482 Y7.905 Z-4.675 F1000
G1 X35.520 Y7.845 Z-4.675 F1000
G1 X35.570 Y7.794 Z-4.675 F1000
G1 X35.631 Y7.756 Z-4.675 F1000
G1 X35.698 Y7.733 Z-4.675 F1000
G1 X35.768 Y7.725 Z-4.675 F1000
G1 X36.086 Y7.725 Z-4.675 F1000
G1 X36.156 Y7.725 Z-4.667 F1000
G1 X36.224 Y7.725 Z-4.643 F1000
G1 X36.284 Y7.725 Z-4.605 F1000
G1 X36.334 Y7.725 Z-4.555 F1000
G1 X36.372 Y7.725 Z-4.495 F1000
G1 X36.395 Y7.725 Z-4.428 F1000
G1 X36.403 Y7.725 Z-4.357 F1000
G1 X36.403 Y7.725 Z6.825 F1000
G1 X36.403 Y8.360 Z6.825 F1000
G1 X36.403 Y8.360 Z-4.040 F333.3
G1 X36.403 Y8.360 Z-4.607 F333.3
G1 X36.395 Y8.360 Z-4.678 F1000
G1 X36.372 Y8.360 Z-4.745 F1000
G1 X36.334 Y8.360 Z-4.805 F1000
G1 X36.284 Y8.360 Z-4.855 F1000
G1 X36.224 Y8.360 Z-4.893 F1000
G1 X36.156 Y8.360 Z-4.917 F1000
G1 X36.086 Y8.360 Z-4.925 F1000
G1 X35.768 Y8.360 Z-4.925 F1000
G1 X35.698 Y8.352 Z-4.925 F1000
G1 X35.631 Y8.329 Z-4.925 F1000
G1 X35.570 Y8.291 Z-4.925 F1000
G1 X35.520 Y8.241 Z-4.925 F1000
G1 X35.482 Y8.180 Z-4.925 F1000
G1 X35.459 Y8.113 Z-4.925 F1000
G1 X35.451 Y8.043 Z-4.925 F1000
G1 X35.451 Y0.085 Z-4.925 F1000
G1 X35.443 Y-0.071 Z-4.925 F1000
G1 X35.420 Y-0.225 Z-4.925 F1000
G1 X35.382 Y-0.376 Z-4.925 F1000
G1 X35.330 Y-0.523 Z-4.925 F1000
G1 X35.263 Y-0.664 Z-4.925 F1000
G1 X35.183 Y-0.798 Z-4.925 F1000
G1 X35.090 Y-0.923 Z-4.925 F1000
G1 X34.986 Y-1.038 Z-4.925 F1000
G1 X34.901 Y-1.123 Z-4.925 F1000
G1 X34.785 Y-1.227 Z-4.925 F1000
G1 X34.660 Y-1.320 Z-4.925 F1000
G1 X34.527 Y-1.400 Z-4.925 F1000
G1 X34.386 Y-1.467 Z-4.925 F1000
G1 X34.239 Y-1.519 Z-4.925 F1000
G1 X34.088 Y-1.557 Z-4.925 F1000
G1 X33.934 Y-1.580 Z-4.925 F1000
G1 X33.779 Y-1.587 Z-4.925 F1000
G1 X0.085 Y-1.587 Z-4.925 F1000
G1 X-0.071 Y-1.580 Z-4.925 F1000
G1 X-0.225 Y-1.557 Z-4.925 F1000
G1 X-0.376 Y-1.519 Z-4.925 F1000
G1 X-0.523 Y-1.467 Z-4.925 F1000
G1 X-0.664 Y-1.400 Z-4.925 F1000
G1 X-0.797 Y-1.320 Z-4.925 F1000
G1 X-0.922 Y-1.227 Z-4.925 F1000
G1 X-1.038 Y-1.123 Z-4.925 F1000
G1 X-1.123 Y-1.038 Z-4.925 F1000
G1 X-1.227 Y-0.922 Z-4.925 F1000
G1 X-1.320 Y-0.797 Z-4.925 F1000
G1 X-1.400 Y-0.664 Z-4.925 F1000
G1 X-1.467 Y-0.523 Z-4.925 F1000
G1 X-1.519 Y-0.376 Z-4.925 F1000
G1 X-1.557 Y-0.225 Z-4.925 F1000
G1 X-1.580 Y-0.071 Z-4.925 F1000
G1 X-1.587 Y0.085 Z-4.925 F1000
G1 X-1.587 Y16.000 Z-4.925 F1000
G1 X-1.580 Y16.156 Z-4.925 F1000
G1 X-1.557 Y16.310 Z-4.925 F1000
G1 X-1.519 Y16.461 Z-4.925 F1000
G1 X-1.467 Y16.608 Z-4.925 F1000
G1 X-1.400 Y16.749 Z-4.925 F1000
G1 X-1.320 Y16.882 Z-4.925 F1000
G1 X-1.227 Y17.007 Z-4.925 F1000
G1 X-1.123 Y17.123 Z-4.925 F1000
G1 X-1.038 Y17.207 Z-4.925 F1000
G1 X-0.923 Y17.312 Z-4.925 F1000
G1 X-0.798 Y17.405 Z-4.925 F1000
G1 X-0.664 Y17.485 Z-4.925 F1000
G1 X-0.523 Y17.552 Z-4.925 F1000
G1 X-0.376 Y17.604 Z-4.925 F1000
G1 X-0.225 Y17.642 Z-4.925 F1000
G1 X-0.071 Y17.665 Z-4.925 F1000
G1 X0.085 Y17.673 Z-4.925 F1000
G1 X33.779 Y17.673 Z-4.925 F1000
G1 X33.934 Y17.665 Z-4.925 F1000
G1 X34.088 Y17.642 Z-4.925 F1000
G1 X34.239 Y17.604 Z-4.925 F1000
G1 X34.386 Y17.552 Z-4.925 F1000
G1 X34.527 Y17.485 Z-4.925 F1000
G1 X34.661 Y17.405 Z-4.925 F1000
G1 X34.786 Y17.312 Z-4.925 F1000
G1 X34.901 Y17.208 Z-4.925 F1000
G1 X34.986 Y17.123 Z-4.925 F1000
G1 X35.090 Y17.007 Z-4.925 F1000
G1 X35.183 Y16.882 Z-4.925 F1000
G1 X35.263 Y16.749 Z-4.925 F1000
G1 X35.330 Y16.608 Z-4.925 F1000
G1 X35.382 Y16.461 Z-4.925 F1000
G1 X35.420 Y16.310 Z-4.925 F1000
G1 X35.443 Y16.156 Z-4.925 F1000
G1 X35.451 Y16.000 Z-4.925 F1000
G1 X35.451 Y8.043 Z-4.925 F1000
G1 X35.459 Y7.972 Z-4.925 F1000
G1 X35.482 Y7.905 Z-4.925 F1000
G1 X35.520 Y7.845 Z-4.925 F1000
G1 X35.570 Y7.794 Z-4.925 F1000
G1 X35.631 Y7.756 Z-4.925 F1000
G1 X35.698 Y7.733 Z-4.925 F1000
G1 X35.768 Y7.725 Z-4.925 F1000
G1 X36.086 Y7.725 Z-4.925 F1000
G1 X36.156 Y7.725 Z-4.917 F1000
G1 X36.224 Y7.725 Z-4.893 F1000
G1 X36.284 Y7.725 Z-4.855 F1000
G1 X36.334 Y7.725 Z-4.805 F1000
G1 X36.372 Y7.725 Z-4.745 F1000
G1 X36.395 Y7.725 Z-4.678 F1000
G1 X36.403 Y7.725 Z-4.607 F1000
G1 X36.403 Y7.725 Z6.825 F1000
G1 X36.403 Y8.360 Z6.825 F1000
G1 X36.403 Y8.360 Z-4.290 F333.3
G1 X36.403 Y8.360 Z-4.857 F333.3
G1 X36.395 Y8.360 Z-4.928 F1000
G1 X36.372 Y8.360 Z-4.995 F1000
G1 X36.334 Y8.360 Z-5.055 F1000
G1 X36.284 Y8.360 Z-5.105 F1000
G1 X36.224 Y8.360 Z-5.143 F1000
G1 X36.156 Y8.360 Z-5.167 F1000
G1 X36.086 Y8.360 Z-5.175 F1000
G1 X35.768 Y8.360 Z-5.175 F1000
G1 X35.698 Y8.352 Z-5.175 F1000
G1 X35.631 Y8.329 Z-5.175 F1000
G1 X35.570 Y8.291 Z-5.175 F1000
G1 X35.520 Y8.241 Z-5.175 F1000
G1 X35.482 Y8.180 Z-5.175 F1000
G1 X35.459 Y8.113 Z-5.175 F1000
G1 X35.451 Y8.043 Z-5.175 F1000
G1 X35.451 Y0.085 Z-5.175 F1000
G1 X35.443 Y-0.071 Z-5.175 F1000
G1 X35.420 Y-0.225 Z-5.175 F1000
G1 X35.382 Y-0.376 Z-5.175 F1000
G1 X35.330 Y-0.523 Z-5.175 F1000
G1 X35.263 Y-0.664 Z-5.175 F1000
G1 X35.183 Y-0.798 Z-5.175 F1000
G1 X35.090 Y-0.923 Z-5.175 F1000
G1 X34.986 Y-1.038 Z-5.175 F1000
G1 X34.901 Y-1.123 Z-5.175 F1000
G1 X34.785 Y-1.227 Z-5.175 F1000
G1 X34.660 Y-1.320 Z-5.175 F1000
G1 X34.527 Y-1.400 Z-5.175 F1000
G1 X34.386 Y-1.467 Z-5.175 F1000
G1 X34.239 Y-1.519 Z-5.175 F1000
G1 X34.088 Y-1.557 Z-5.175 F1000
G1 X33.934 Y-1.580 Z-5.175 F1000
G1 X33.779 Y-1.587 Z-5.175 F1000
G1 X0.085 Y-1.587 Z-5.175 F1000
G1 X-0.071 Y-1.580 Z-5.175 F1000
G1 X-0.225 Y-1.557 Z-5.175 F1000
G1 X-0.376 Y-1.519 Z-5.175 F1000
G1 X-0.523 Y-1.467 Z-5.175 F1000
G1 X-0.664 Y-1.400 Z-5.175 F1000
G1 X-0.797 Y-1.320 Z-5.175 F1000
G1 X-0.922 Y-1.227 Z-5.175 F1000
G1 X-1.038 Y-1.123 Z-5.175 F1000
G1 X-1.123 Y-1.038 Z-5.175 F1000
G1 X-1.227 Y-0.922 Z-5.175 F1000
G1 X-1.320 Y-0.797 Z-5.175 F1000
G1 X-1.400 Y-0.664 Z-5.175 F1000
G1 X-1.467 Y-0.523 Z-5.175 F1000
G1 X-1.519 Y-0.376 Z-5.175 F1000
G1 X-1.557 Y-0.225 Z-5.175 F1000
G1 X-1.580 Y-0.071 Z-5.175 F1000
G1 X-1.587 Y0.085 Z-5.175 F1000
G1 X-1.587 Y16.000 Z-5.175 F1000
G1 X-1.580 Y16.156 Z-5.175 F1000
G1 X-1.557 Y16.310 Z-5.175 F1000
G1 X-1.519 Y16.461 Z-5.175 F1000
G1 X-1.467 Y16.608 Z-5.175 F1000
G1 X-1.400 Y16.749 Z-5.175 F1000
G1 X-1.320 Y16.882 Z-5.175 F1000
G1 X-1.227 Y17.007 Z-5.175 F1000
G1 X-1.123 Y17.123 Z-5.175 F1000
G1 X-1.038 Y17.207 Z-5.175 F1000
G1 X-0.923 Y17.312 Z-5.175 F1000
G1 X-0.798 Y17.405 Z-5.175 F1000
G1 X-0.664 Y17.485 Z-5.175 F1000
G1 X-0.523 Y17.552 Z-5.175 F1000
G1 X-0.376 Y17.604 Z-5.175 F1000
G1 X-0.225 Y17.642 Z-5.175 F1000
G1 X-0.071 Y17.665 Z-5.175 F1000
G1 X0.085 Y17.673 Z-5.175 F1000
G1 X33.779 Y17.673 Z-5.175 F1000
G1 X33.934 Y17.665 Z-5.175 F1000
G1 X34.088 Y17.642 Z-5.175 F1000
G1 X34.239 Y17.604 Z-5.175 F1000
G1 X34.386 Y17.552 Z-5.175 F1000
G1 X34.527 Y17.485 Z-5.175 F1000
G1 X34.661 Y17.405 Z-5.175 F1000
G1 X34.786 Y17.312 Z-5.175 F1000
G1 X34.901 Y17.208 Z-5.175 F1000
G1 X34.986 Y17.123 Z-5.175 F1000
G1 X35.090 Y17.007 Z-5.175 F1000
G1 X35.183 Y16.882 Z-5.175 F1000
G1 X35.263 Y16.749 Z-5.175 F1000
G1 X35.330 Y16.608 Z-5.175 F1000
G1 X35.382 Y16.461 Z-5.175 F1000
G1 X35.420 Y16.310 Z-5.175 F1000
G1 X35.443 Y16.156 Z-5.175 F1000
G1 X35.451 Y16.000 Z-5.175 F1000
G1 X35.451 Y8.043 Z-5.175 F1000
