;Titan-1-Nomad-PROFILE-NO-TABS
;Now at Henrietta Hankin!
;Machine
;vendor: Snapmaker
;model: Desktop CNC
;description: Generic Snapmaker Marlin v20180725
M3 S10000
G4 S2 P2
G21
G90
;When using Fusion for Personal Use, the feedrate of rapid
;moves is reduced to match the feedrate of cutting moves,
;which can increase machining time. Unrestricted rapid moves
;are available with a Fusion Subscription.

;Titan-1-Nomad-Profile
G0 X36.403 Y8.360 Z15.000
G1 X36.403 Y8.360 Z15.000 F300
G1 X36.403 Y8.360 Z0.835 F300
G1 X36.403 Y8.360 Z0.017 F200
G1 X36.395 Y8.360 Z-0.053 F300
G1 X36.372 Y8.360 Z-0.120 F300
G1 X36.334 Y8.360 Z-0.180 F300
G1 X36.284 Y8.360 Z-0.231 F300
G1 X36.224 Y8.360 Z-0.269 F300
G1 X36.156 Y8.360 Z-0.292 F300
G1 X36.086 Y8.360 Z-0.300 F300
G1 X35.768 Y8.360 Z-0.300 F300
G1 X35.698 Y8.352 Z-0.300 F300
G1 X35.631 Y8.329 Z-0.300 F300
G1 X35.570 Y8.291 Z-0.300 F300
G1 X35.520 Y8.241 Z-0.300 F300
G1 X35.482 Y8.180 Z-0.300 F300
G1 X35.459 Y8.113 Z-0.300 F300
G1 X35.451 Y8.043 Z-0.300 F300
G1 X35.451 Y0.085 Z-0.300 F300
G1 X35.443 Y-0.071 Z-0.300 F300
G1 X35.420 Y-0.225 Z-0.300 F300
G1 X35.382 Y-0.376 Z-0.300 F300
G1 X35.330 Y-0.523 Z-0.300 F300
G1 X35.263 Y-0.664 Z-0.300 F300
G1 X35.183 Y-0.798 Z-0.300 F300
G1 X35.090 Y-0.923 Z-0.300 F300
G1 X34.986 Y-1.038 Z-0.300 F300
G1 X34.901 Y-1.123 Z-0.300 F300
G1 X34.785 Y-1.227 Z-0.300 F300
G1 X34.660 Y-1.320 Z-0.300 F300
G1 X34.527 Y-1.400 Z-0.300 F300
G1 X34.386 Y-1.467 Z-0.300 F300
G1 X34.239 Y-1.519 Z-0.300 F300
G1 X34.088 Y-1.557 Z-0.300 F300
G1 X33.934 Y-1.580 Z-0.300 F300
G1 X33.779 Y-1.587 Z-0.300 F300
G1 X0.085 Y-1.587 Z-0.300 F300
G1 X-0.071 Y-1.580 Z-0.300 F300
G1 X-0.225 Y-1.557 Z-0.300 F300
G1 X-0.376 Y-1.519 Z-0.300 F300
G1 X-0.523 Y-1.467 Z-0.300 F300
G1 X-0.664 Y-1.400 Z-0.300 F300
G1 X-0.797 Y-1.320 Z-0.300 F300
G1 X-0.922 Y-1.227 Z-0.300 F300
G1 X-1.038 Y-1.123 Z-0.300 F300
G1 X-1.123 Y-1.038 Z-0.300 F300
G1 X-1.227 Y-0.922 Z-0.300 F300
G1 X-1.320 Y-0.797 Z-0.300 F300
G1 X-1.400 Y-0.664 Z-0.300 F300
G1 X-1.467 Y-0.523 Z-0.300 F300
G1 X-1.519 Y-0.376 Z-0.300 F300
G1 X-1.557 Y-0.225 Z-0.300 F300
G1 X-1.580 Y-0.071 Z-0.300 F300
G1 X-1.587 Y0.085 Z-0.300 F300
G1 X-1.587 Y16.000 Z-0.300 F300
G1 X-1.580 Y16.156 Z-0.300 F300
G1 X-1.557 Y16.310 Z-0.300 F300
G1 X-1.519 Y16.461 Z-0.300 F300
G1 X-1.467 Y16.608 Z-0.300 F300
G1 X-1.400 Y16.749 Z-0.300 F300
G1 X-1.320 Y16.882 Z-0.300 F300
G1 X-1.227 Y17.007 Z-0.300 F300
G1 X-1.123 Y17.123 Z-0.300 F300
G1 X-1.038 Y17.207 Z-0.300 F300
G1 X-0.923 Y17.312 Z-0.300 F300
G1 X-0.798 Y17.405 Z-0.300 F300
G1 X-0.664 Y17.485 Z-0.300 F300
G1 X-0.523 Y17.552 Z-0.300 F300
G1 X-0.376 Y17.604 Z-0.300 F300
G1 X-0.225 Y17.642 Z-0.300 F300
G1 X-0.071 Y17.665 Z-0.300 F300
G1 X0.085 Y17.673 Z-0.300 F300
G1 X33.779 Y17.673 Z-0.300 F300
G1 X33.934 Y17.665 Z-0.300 F300
G1 X34.088 Y17.642 Z-0.300 F300
G1 X34.239 Y17.604 Z-0.300 F300
G1 X34.386 Y17.552 Z-0.300 F300
G1 X34.527 Y17.485 Z-0.300 F300
G1 X34.661 Y17.405 Z-0.300 F300
G1 X34.786 Y17.312 Z-0.300 F300
G1 X34.901 Y17.208 Z-0.300 F300
G1 X34.986 Y17.123 Z-0.300 F300
G1 X35.090 Y17.007 Z-0.300 F300
G1 X35.183 Y16.882 Z-0.300 F300
G1 X35.263 Y16.749 Z-0.300 F300
G1 X35.330 Y16.608 Z-0.300 F300
G1 X35.382 Y16.461 Z-0.300 F300
G1 X35.420 Y16.310 Z-0.300 F300
G1 X35.443 Y16.156 Z-0.300 F300
G1 X35.451 Y16.000 Z-0.300 F300
G1 X35.451 Y8.043 Z-0.300 F300
G1 X35.459 Y7.972 Z-0.300 F1500
G1 X35.482 Y7.905 Z-0.300 F1500
G1 X35.520 Y7.845 Z-0.300 F1500
G1 X35.570 Y7.794 Z-0.300 F1500
G1 X35.631 Y7.756 Z-0.300 F1500
G1 X35.698 Y7.733 Z-0.300 F1500
G1 X35.768 Y7.725 Z-0.300 F1500
G1 X36.086 Y7.725 Z-0.300 F1500
G1 X36.156 Y7.725 Z-0.292 F1500
G1 X36.224 Y7.725 Z-0.269 F1500
G1 X36.284 Y7.725 Z-0.231 F1500
G1 X36.334 Y7.725 Z-0.180 F1500
G1 X36.372 Y7.725 Z-0.120 F1500
G1 X36.395 Y7.725 Z-0.053 F1500
G1 X36.403 Y7.725 Z0.017 F1500
G1 X36.403 Y7.725 Z5.000 F300
G1 X36.403 Y8.360 Z5.000 F300
G1 X36.403 Y8.360 Z0.335 F300
G1 X36.403 Y8.360 Z-0.483 F200
G1 X36.395 Y8.360 Z-0.553 F300
G1 X36.372 Y8.360 Z-0.620 F300
G1 X36.334 Y8.360 Z-0.680 F300
G1 X36.284 Y8.360 Z-0.731 F300
G1 X36.224 Y8.360 Z-0.769 F300
G1 X36.156 Y8.360 Z-0.792 F300
G1 X36.086 Y8.360 Z-0.800 F300
G1 X35.768 Y8.360 Z-0.800 F300
G1 X35.698 Y8.352 Z-0.800 F300
G1 X35.631 Y8.329 Z-0.800 F300
G1 X35.570 Y8.291 Z-0.800 F300
G1 X35.520 Y8.241 Z-0.800 F300
G1 X35.482 Y8.180 Z-0.800 F300
G1 X35.459 Y8.113 Z-0.800 F300
G1 X35.451 Y8.043 Z-0.800 F300
G1 X35.451 Y0.085 Z-0.800 F300
G1 X35.443 Y-0.071 Z-0.800 F300
G1 X35.420 Y-0.225 Z-0.800 F300
G1 X35.382 Y-0.376 Z-0.800 F300
G1 X35.330 Y-0.523 Z-0.800 F300
G1 X35.263 Y-0.664 Z-0.800 F300
G1 X35.183 Y-0.798 Z-0.800 F300
G1 X35.090 Y-0.923 Z-0.800 F300
G1 X34.986 Y-1.038 Z-0.800 F300
G1 X34.901 Y-1.123 Z-0.800 F300
G1 X34.785 Y-1.227 Z-0.800 F300
G1 X34.660 Y-1.320 Z-0.800 F300
G1 X34.527 Y-1.400 Z-0.800 F300
G1 X34.386 Y-1.467 Z-0.800 F300
G1 X34.239 Y-1.519 Z-0.800 F300
G1 X34.088 Y-1.557 Z-0.800 F300
G1 X33.934 Y-1.580 Z-0.800 F300
G1 X33.779 Y-1.587 Z-0.800 F300
G1 X0.085 Y-1.587 Z-0.800 F300
G1 X-0.071 Y-1.580 Z-0.800 F300
G1 X-0.225 Y-1.557 Z-0.800 F300
G1 X-0.376 Y-1.519 Z-0.800 F300
G1 X-0.523 Y-1.467 Z-0.800 F300
G1 X-0.664 Y-1.400 Z-0.800 F300
G1 X-0.797 Y-1.320 Z-0.800 F300
G1 X-0.922 Y-1.227 Z-0.800 F300
G1 X-1.038 Y-1.123 Z-0.800 F300
G1 X-1.123 Y-1.038 Z-0.800 F300
G1 X-1.227 Y-0.922 Z-0.800 F300
G1 X-1.320 Y-0.797 Z-0.800 F300
G1 X-1.400 Y-0.664 Z-0.800 F300
G1 X-1.467 Y-0.523 Z-0.800 F300
G1 X-1.519 Y-0.376 Z-0.800 F300
G1 X-1.557 Y-0.225 Z-0.800 F300
G1 X-1.580 Y-0.071 Z-0.800 F300
G1 X-1.587 Y0.085 Z-0.800 F300
G1 X-1.587 Y16.000 Z-0.800 F300
G1 X-1.580 Y16.156 Z-0.800 F300
G1 X-1.557 Y16.310 Z-0.800 F300
G1 X-1.519 Y16.461 Z-0.800 F300
G1 X-1.467 Y16.608 Z-0.800 F300
G1 X-1.400 Y16.749 Z-0.800 F300
G1 X-1.320 Y16.882 Z-0.800 F300
G1 X-1.227 Y17.007 Z-0.800 F300
G1 X-1.123 Y17.123 Z-0.800 F300
G1 X-1.038 Y17.207 Z-0.800 F300
G1 X-0.923 Y17.312 Z-0.800 F300
G1 X-0.798 Y17.405 Z-0.800 F300
G1 X-0.664 Y17.485 Z-0.800 F300
G1 X-0.523 Y17.552 Z-0.800 F300
G1 X-0.376 Y17.604 Z-0.800 F300
G1 X-0.225 Y17.642 Z-0.800 F300
G1 X-0.071 Y17.665 Z-0.800 F300
G1 X0.085 Y17.673 Z-0.800 F300
G1 X33.779 Y17.673 Z-0.800 F300
G1 X33.934 Y17.665 Z-0.800 F300
G1 X34.088 Y17.642 Z-0.800 F300
G1 X34.239 Y17.604 Z-0.800 F300
G1 X34.386 Y17.552 Z-0.800 F300
G1 X34.527 Y17.485 Z-0.800 F300
G1 X34.661 Y17.405 Z-0.800 F300
G1 X34.786 Y17.312 Z-0.800 F300
G1 X34.901 Y17.208 Z-0.800 F300
G1 X34.986 Y17.123 Z-0.800 F300
G1 X35.090 Y17.007 Z-0.800 F300
G1 X35.183 Y16.882 Z-0.800 F300
G1 X35.263 Y16.749 Z-0.800 F300
G1 X35.330 Y16.608 Z-0.800 F300
G1 X35.382 Y16.461 Z-0.800 F300
G1 X35.420 Y16.310 Z-0.800 F300
G1 X35.443 Y16.156 Z-0.800 F300
G1 X35.451 Y16.000 Z-0.800 F300
G1 X35.451 Y8.043 Z-0.800 F300
G1 X35.459 Y7.972 Z-0.800 F1500
G1 X35.482 Y7.905 Z-0.800 F1500
G1 X35.520 Y7.845 Z-0.800 F1500
G1 X35.570 Y7.794 Z-0.800 F1500
G1 X35.631 Y7.756 Z-0.800 F1500
G1 X35.698 Y7.733 Z-0.800 F1500
G1 X35.768 Y7.725 Z-0.800 F1500
G1 X36.086 Y7.725 Z-0.800 F1500
G1 X36.156 Y7.725 Z-0.792 F1500
G1 X36.224 Y7.725 Z-0.769 F1500
G1 X36.284 Y7.725 Z-0.731 F1500
G1 X36.334 Y7.725 Z-0.680 F1500
G1 X36.372 Y7.725 Z-0.620 F1500
G1 X36.395 Y7.725 Z-0.553 F1500
G1 X36.403 Y7.725 Z-0.483 F1500
G1 X36.403 Y7.725 Z5.000 F300
G1 X36.403 Y8.360 Z5.000 F300
G1 X36.403 Y8.360 Z0.200 F300
G1 X36.403 Y8.360 Z-0.165 F200
G1 X36.403 Y8.360 Z-0.983 F200
G1 X36.395 Y8.360 Z-1.053 F300
G1 X36.372 Y8.360 Z-1.120 F300
G1 X36.334 Y8.360 Z-1.180 F300
G1 X36.284 Y8.360 Z-1.231 F300
G1 X36.224 Y8.360 Z-1.269 F300
G1 X36.156 Y8.360 Z-1.292 F300
G1 X36.086 Y8.360 Z-1.300 F300
G1 X35.768 Y8.360 Z-1.300 F300
G1 X35.698 Y8.352 Z-1.300 F300
G1 X35.631 Y8.329 Z-1.300 F300
G1 X35.570 Y8.291 Z-1.300 F300
G1 X35.520 Y8.241 Z-1.300 F300
G1 X35.482 Y8.180 Z-1.300 F300
G1 X35.459 Y8.113 Z-1.300 F300
G1 X35.451 Y8.043 Z-1.300 F300
G1 X35.451 Y0.085 Z-1.300 F300
G1 X35.443 Y-0.071 Z-1.300 F300
G1 X35.420 Y-0.225 Z-1.300 F300
G1 X35.382 Y-0.376 Z-1.300 F300
G1 X35.330 Y-0.523 Z-1.300 F300
G1 X35.263 Y-0.664 Z-1.300 F300
G1 X35.183 Y-0.798 Z-1.300 F300
G1 X35.090 Y-0.923 Z-1.300 F300
G1 X34.986 Y-1.038 Z-1.300 F300
G1 X34.901 Y-1.123 Z-1.300 F300
G1 X34.785 Y-1.227 Z-1.300 F300
G1 X34.660 Y-1.320 Z-1.300 F300
G1 X34.527 Y-1.400 Z-1.300 F300
G1 X34.386 Y-1.467 Z-1.300 F300
G1 X34.239 Y-1.519 Z-1.300 F300
G1 X34.088 Y-1.557 Z-1.300 F300
G1 X33.934 Y-1.580 Z-1.300 F300
G1 X33.779 Y-1.587 Z-1.300 F300
G1 X0.085 Y-1.587 Z-1.300 F300
G1 X-0.071 Y-1.580 Z-1.300 F300
G1 X-0.225 Y-1.557 Z-1.300 F300
G1 X-0.376 Y-1.519 Z-1.300 F300
G1 X-0.523 Y-1.467 Z-1.300 F300
G1 X-0.664 Y-1.400 Z-1.300 F300
G1 X-0.797 Y-1.320 Z-1.300 F300
G1 X-0.922 Y-1.227 Z-1.300 F300
G1 X-1.038 Y-1.123 Z-1.300 F300
G1 X-1.123 Y-1.038 Z-1.300 F300
G1 X-1.227 Y-0.922 Z-1.300 F300
G1 X-1.320 Y-0.797 Z-1.300 F300
G1 X-1.400 Y-0.664 Z-1.300 F300
G1 X-1.467 Y-0.523 Z-1.300 F300
G1 X-1.519 Y-0.376 Z-1.300 F300
G1 X-1.557 Y-0.225 Z-1.300 F300
G1 X-1.580 Y-0.071 Z-1.300 F300
G1 X-1.587 Y0.085 Z-1.300 F300
G1 X-1.587 Y16.000 Z-1.300 F300
G1 X-1.580 Y16.156 Z-1.300 F300
G1 X-1.557 Y16.310 Z-1.300 F300
G1 X-1.519 Y16.461 Z-1.300 F300
G1 X-1.467 Y16.608 Z-1.300 F300
G1 X-1.400 Y16.749 Z-1.300 F300
G1 X-1.320 Y16.882 Z-1.300 F300
G1 X-1.227 Y17.007 Z-1.300 F300
G1 X-1.123 Y17.123 Z-1.300 F300
G1 X-1.038 Y17.207 Z-1.300 F300
G1 X-0.923 Y17.312 Z-1.300 F300
G1 X-0.798 Y17.405 Z-1.300 F300
G1 X-0.664 Y17.485 Z-1.300 F300
G1 X-0.523 Y17.552 Z-1.300 F300
G1 X-0.376 Y17.604 Z-1.300 F300
G1 X-0.225 Y17.642 Z-1.300 F300
G1 X-0.071 Y17.665 Z-1.300 F300
G1 X0.085 Y17.673 Z-1.300 F300
G1 X33.779 Y17.673 Z-1.300 F300
G1 X33.934 Y17.665 Z-1.300 F300
G1 X34.088 Y17.642 Z-1.300 F300
G1 X34.239 Y17.604 Z-1.300 F300
G1 X34.386 Y17.552 Z-1.300 F300
G1 X34.527 Y17.485 Z-1.300 F300
G1 X34.661 Y17.405 Z-1.300 F300
G1 X34.786 Y17.312 Z-1.300 F300
G1 X34.901 Y17.208 Z-1.300 F300
G1 X34.986 Y17.123 Z-1.300 F300
G1 X35.090 Y17.007 Z-1.300 F300
G1 X35.183 Y16.882 Z-1.300 F300
G1 X35.263 Y16.749 Z-1.300 F300
G1 X35.330 Y16.608 Z-1.300 F300
G1 X35.382 Y16.461 Z-1.300 F300
G1 X35.420 Y16.310 Z-1.300 F300
G1 X35.443 Y16.156 Z-1.300 F300
G1 X35.451 Y16.000 Z-1.300 F300
G1 X35.451 Y8.043 Z-1.300 F300
G1 X35.459 Y7.972 Z-1.300 F1500
G1 X35.482 Y7.905 Z-1.300 F1500
G1 X35.520 Y7.845 Z-1.300 F1500
G1 X35.570 Y7.794 Z-1.300 F1500
G1 X35.631 Y7.756 Z-1.300 F1500
G1 X35.698 Y7.733 Z-1.300 F1500
G1 X35.768 Y7.725 Z-1.300 F1500
G1 X36.086 Y7.725 Z-1.300 F1500
G1 X36.156 Y7.725 Z-1.292 F1500
G1 X36.224 Y7.725 Z-1.269 F1500
G1 X36.284 Y7.725 Z-1.231 F1500
G1 X36.334 Y7.725 Z-1.180 F1500
G1 X36.372 Y7.725 Z-1.120 F1500
G1 X36.395 Y7.725 Z-1.053 F1500
G1 X36.403 Y7.725 Z-0.983 F1500
G1 X36.403 Y7.725 Z5.000 F300
G1 X36.403 Y8.360 Z5.000 F300
G1 X36.403 Y8.360 Z0.200 F300
G1 X36.403 Y8.360 Z-0.665 F200
G1 X36.403 Y8.360 Z-1.483 F200
G1 X36.395 Y8.360 Z-1.553 F300
G1 X36.372 Y8.360 Z-1.620 F300
G1 X36.334 Y8.360 Z-1.680 F300
G1 X36.284 Y8.360 Z-1.731 F300
G1 X36.224 Y8.360 Z-1.769 F300
G1 X36.156 Y8.360 Z-1.792 F300
G1 X36.086 Y8.360 Z-1.800 F300
G1 X35.768 Y8.360 Z-1.800 F300
G1 X35.698 Y8.352 Z-1.800 F300
G1 X35.631 Y8.329 Z-1.800 F300
G1 X35.570 Y8.291 Z-1.800 F300
G1 X35.520 Y8.241 Z-1.800 F300
G1 X35.482 Y8.180 Z-1.800 F300
G1 X35.459 Y8.113 Z-1.800 F300
G1 X35.451 Y8.043 Z-1.800 F300
G1 X35.451 Y0.085 Z-1.800 F300
G1 X35.443 Y-0.071 Z-1.800 F300
G1 X35.420 Y-0.225 Z-1.800 F300
G1 X35.382 Y-0.376 Z-1.800 F300
G1 X35.330 Y-0.523 Z-1.800 F300
G1 X35.263 Y-0.664 Z-1.800 F300
G1 X35.183 Y-0.798 Z-1.800 F300
G1 X35.090 Y-0.923 Z-1.800 F300
G1 X34.986 Y-1.038 Z-1.800 F300
G1 X34.901 Y-1.123 Z-1.800 F300
G1 X34.785 Y-1.227 Z-1.800 F300
G1 X34.660 Y-1.320 Z-1.800 F300
G1 X34.527 Y-1.400 Z-1.800 F300
G1 X34.386 Y-1.467 Z-1.800 F300
G1 X34.239 Y-1.519 Z-1.800 F300
G1 X34.088 Y-1.557 Z-1.800 F300
G1 X33.934 Y-1.580 Z-1.800 F300
G1 X33.779 Y-1.587 Z-1.800 F300
G1 X0.085 Y-1.587 Z-1.800 F300
G1 X-0.071 Y-1.580 Z-1.800 F300
G1 X-0.225 Y-1.557 Z-1.800 F300
G1 X-0.376 Y-1.519 Z-1.800 F300
G1 X-0.523 Y-1.467 Z-1.800 F300
G1 X-0.664 Y-1.400 Z-1.800 F300
G1 X-0.797 Y-1.320 Z-1.800 F300
G1 X-0.922 Y-1.227 Z-1.800 F300
G1 X-1.038 Y-1.123 Z-1.800 F300
G1 X-1.123 Y-1.038 Z-1.800 F300
G1 X-1.227 Y-0.922 Z-1.800 F300
G1 X-1.320 Y-0.797 Z-1.800 F300
G1 X-1.400 Y-0.664 Z-1.800 F300
G1 X-1.467 Y-0.523 Z-1.800 F300
G1 X-1.519 Y-0.376 Z-1.800 F300
G1 X-1.557 Y-0.225 Z-1.800 F300
G1 X-1.580 Y-0.071 Z-1.800 F300
G1 X-1.587 Y0.085 Z-1.800 F300
G1 X-1.587 Y16.000 Z-1.800 F300
G1 X-1.580 Y16.156 Z-1.800 F300
G1 X-1.557 Y16.310 Z-1.800 F300
G1 X-1.519 Y16.461 Z-1.800 F300
G1 X-1.467 Y16.608 Z-1.800 F300
G1 X-1.400 Y16.749 Z-1.800 F300
G1 X-1.320 Y16.882 Z-1.800 F300
G1 X-1.227 Y17.007 Z-1.800 F300
G1 X-1.123 Y17.123 Z-1.800 F300
G1 X-1.038 Y17.207 Z-1.800 F300
G1 X-0.923 Y17.312 Z-1.800 F300
G1 X-0.798 Y17.405 Z-1.800 F300
G1 X-0.664 Y17.485 Z-1.800 F300
G1 X-0.523 Y17.552 Z-1.800 F300
G1 X-0.376 Y17.604 Z-1.800 F300
G1 X-0.225 Y17.642 Z-1.800 F300
G1 X-0.071 Y17.665 Z-1.800 F300
G1 X0.085 Y17.673 Z-1.800 F300
G1 X33.779 Y17.673 Z-1.800 F300
G1 X33.934 Y17.665 Z-1.800 F300
G1 X34.088 Y17.642 Z-1.800 F300
G1 X34.239 Y17.604 Z-1.800 F300
G1 X34.386 Y17.552 Z-1.800 F300
G1 X34.527 Y17.485 Z-1.800 F300
G1 X34.661 Y17.405 Z-1.800 F300
G1 X34.786 Y17.312 Z-1.800 F300
G1 X34.901 Y17.208 Z-1.800 F300
G1 X34.986 Y17.123 Z-1.800 F300
G1 X35.090 Y17.007 Z-1.800 F300
G1 X35.183 Y16.882 Z-1.800 F300
G1 X35.263 Y16.749 Z-1.800 F300
G1 X35.330 Y16.608 Z-1.800 F300
G1 X35.382 Y16.461 Z-1.800 F300
G1 X35.420 Y16.310 Z-1.800 F300
G1 X35.443 Y16.156 Z-1.800 F300
G1 X35.451 Y16.000 Z-1.800 F300
G1 X35.451 Y8.043 Z-1.800 F300
G1 X35.459 Y7.972 Z-1.800 F1500
G1 X35.482 Y7.905 Z-1.800 F1500
G1 X35.520 Y7.845 Z-1.800 F1500
G1 X35.570 Y7.794 Z-1.800 F1500
G1 X35.631 Y7.756 Z-1.800 F1500
G1 X35.698 Y7.733 Z-1.800 F1500
G1 X35.768 Y7.725 Z-1.800 F1500
G1 X36.086 Y7.725 Z-1.800 F1500
G1 X36.156 Y7.725 Z-1.792 F1500
G1 X36.224 Y7.725 Z-1.769 F1500
G1 X36.284 Y7.725 Z-1.731 F1500
G1 X36.334 Y7.725 Z-1.680 F1500
G1 X36.372 Y7.725 Z-1.620 F1500
G1 X36.395 Y7.725 Z-1.553 F1500
G1 X36.403 Y7.725 Z-1.483 F1500
G1 X36.403 Y7.725 Z5.000 F300
G1 X36.403 Y8.360 Z5.000 F300
G1 X36.403 Y8.360 Z0.200 F300
G1 X36.403 Y8.360 Z-1.165 F200
G1 X36.403 Y8.360 Z-1.983 F200
G1 X36.395 Y8.360 Z-2.053 F300
G1 X36.372 Y8.360 Z-2.120 F300
G1 X36.334 Y8.360 Z-2.180 F300
G1 X36.284 Y8.360 Z-2.231 F300
G1 X36.224 Y8.360 Z-2.269 F300
G1 X36.156 Y8.360 Z-2.292 F300
G1 X36.086 Y8.360 Z-2.300 F300
G1 X35.768 Y8.360 Z-2.300 F300
G1 X35.698 Y8.352 Z-2.300 F300
G1 X35.631 Y8.329 Z-2.300 F300
G1 X35.570 Y8.291 Z-2.300 F300
G1 X35.520 Y8.241 Z-2.300 F300
G1 X35.482 Y8.180 Z-2.300 F300
G1 X35.459 Y8.113 Z-2.300 F300
G1 X35.451 Y8.043 Z-2.300 F300
G1 X35.451 Y0.085 Z-2.300 F300
G1 X35.443 Y-0.071 Z-2.300 F300
G1 X35.420 Y-0.225 Z-2.300 F300
G1 X35.382 Y-0.376 Z-2.300 F300
G1 X35.330 Y-0.523 Z-2.300 F300
G1 X35.263 Y-0.664 Z-2.300 F300
G1 X35.183 Y-0.798 Z-2.300 F300
G1 X35.090 Y-0.923 Z-2.300 F300
G1 X34.986 Y-1.038 Z-2.300 F300
G1 X34.901 Y-1.123 Z-2.300 F300
G1 X34.785 Y-1.227 Z-2.300 F300
G1 X34.660 Y-1.320 Z-2.300 F300
G1 X34.527 Y-1.400 Z-2.300 F300
G1 X34.386 Y-1.467 Z-2.300 F300
G1 X34.239 Y-1.519 Z-2.300 F300
G1 X34.088 Y-1.557 Z-2.300 F300
G1 X33.934 Y-1.580 Z-2.300 F300
G1 X33.779 Y-1.587 Z-2.300 F300
G1 X0.085 Y-1.587 Z-2.300 F300
G1 X-0.071 Y-1.580 Z-2.300 F300
G1 X-0.225 Y-1.557 Z-2.300 F300
G1 X-0.376 Y-1.519 Z-2.300 F300
G1 X-0.523 Y-1.467 Z-2.300 F300
G1 X-0.664 Y-1.400 Z-2.300 F300
G1 X-0.797 Y-1.320 Z-2.300 F300
G1 X-0.922 Y-1.227 Z-2.300 F300
G1 X-1.038 Y-1.123 Z-2.300 F300
G1 X-1.123 Y-1.038 Z-2.300 F300
G1 X-1.227 Y-0.922 Z-2.300 F300
G1 X-1.320 Y-0.797 Z-2.300 F300
G1 X-1.400 Y-0.664 Z-2.300 F300
G1 X-1.467 Y-0.523 Z-2.300 F300
G1 X-1.519 Y-0.376 Z-2.300 F300
G1 X-1.557 Y-0.225 Z-2.300 F300
G1 X-1.580 Y-0.071 Z-2.300 F300
G1 X-1.587 Y0.085 Z-2.300 F300
G1 X-1.587 Y16.000 Z-2.300 F300
G1 X-1.580 Y16.156 Z-2.300 F300
G1 X-1.557 Y16.310 Z-2.300 F300
G1 X-1.519 Y16.461 Z-2.300 F300
G1 X-1.467 Y16.608 Z-2.300 F300
G1 X-1.400 Y16.749 Z-2.300 F300
G1 X-1.320 Y16.882 Z-2.300 F300
G1 X-1.227 Y17.007 Z-2.300 F300
G1 X-1.123 Y17.123 Z-2.300 F300
G1 X-1.038 Y17.207 Z-2.300 F300
G1 X-0.923 Y17.312 Z-2.300 F300
G1 X-0.798 Y17.405 Z-2.300 F300
G1 X-0.664 Y17.485 Z-2.300 F300
G1 X-0.523 Y17.552 Z-2.300 F300
G1 X-0.376 Y17.604 Z-2.300 F300
G1 X-0.225 Y17.642 Z-2.300 F300
G1 X-0.071 Y17.665 Z-2.300 F300
G1 X0.085 Y17.673 Z-2.300 F300
G1 X33.779 Y17.673 Z-2.300 F300
G1 X33.934 Y17.665 Z-2.300 F300
G1 X34.088 Y17.642 Z-2.300 F300
G1 X34.239 Y17.604 Z-2.300 F300
G1 X34.386 Y17.552 Z-2.300 F300
G1 X34.527 Y17.485 Z-2.300 F300
G1 X34.661 Y17.405 Z-2.300 F300
G1 X34.786 Y17.312 Z-2.300 F300
G1 X34.901 Y17.208 Z-2.300 F300
G1 X34.986 Y17.123 Z-2.300 F300
G1 X35.090 Y17.007 Z-2.300 F300
G1 X35.183 Y16.882 Z-2.300 F300
G1 X35.263 Y16.749 Z-2.300 F300
G1 X35.330 Y16.608 Z-2.300 F300
G1 X35.382 Y16.461 Z-2.300 F300
G1 X35.420 Y16.310 Z-2.300 F300
G1 X35.443 Y16.156 Z-2.300 F300
G1 X35.451 Y16.000 Z-2.300 F300
G1 X35.451 Y8.043 Z-2.300 F300
G1 X35.459 Y7.972 Z-2.300 F1500
G1 X35.482 Y7.905 Z-2.300 F1500
G1 X35.520 Y7.845 Z-2.300 F1500
G1 X35.570 Y7.794 Z-2.300 F1500
G1 X35.631 Y7.756 Z-2.300 F1500
G1 X35.698 Y7.733 Z-2.300 F1500
G1 X35.768 Y7.725 Z-2.300 F1500
G1 X36.086 Y7.725 Z-2.300 F1500
G1 X36.156 Y7.725 Z-2.292 F1500
G1 X36.224 Y7.725 Z-2.269 F1500
G1 X36.284 Y7.725 Z-2.231 F1500
G1 X36.334 Y7.725 Z-2.180 F1500
G1 X36.372 Y7.725 Z-2.120 F1500
G1 X36.395 Y7.725 Z-2.053 F1500
G1 X36.403 Y7.725 Z-1.983 F1500
G1 X36.403 Y7.725 Z5.000 F300
G1 X36.403 Y8.360 Z5.000 F300
G1 X36.403 Y8.360 Z0.200 F300
G1 X36.403 Y8.360 Z-1.665 F200
G1 X36.403 Y8.360 Z-2.483 F200
G1 X36.395 Y8.360 Z-2.553 F300
G1 X36.372 Y8.360 Z-2.620 F300
G1 X36.334 Y8.360 Z-2.680 F300
G1 X36.284 Y8.360 Z-2.731 F300
G1 X36.224 Y8.360 Z-2.769 F300
G1 X36.156 Y8.360 Z-2.792 F300
G1 X36.086 Y8.360 Z-2.800 F300
G1 X35.768 Y8.360 Z-2.800 F300
G1 X35.698 Y8.352 Z-2.800 F300
G1 X35.631 Y8.329 Z-2.800 F300
G1 X35.570 Y8.291 Z-2.800 F300
G1 X35.520 Y8.241 Z-2.800 F300
G1 X35.482 Y8.180 Z-2.800 F300
G1 X35.459 Y8.113 Z-2.800 F300
G1 X35.451 Y8.043 Z-2.800 F300
G1 X35.451 Y0.085 Z-2.800 F300
G1 X35.443 Y-0.071 Z-2.800 F300
G1 X35.420 Y-0.225 Z-2.800 F300
G1 X35.382 Y-0.376 Z-2.800 F300
G1 X35.330 Y-0.523 Z-2.800 F300
G1 X35.263 Y-0.664 Z-2.800 F300
G1 X35.183 Y-0.798 Z-2.800 F300
G1 X35.090 Y-0.923 Z-2.800 F300
G1 X34.986 Y-1.038 Z-2.800 F300
G1 X34.901 Y-1.123 Z-2.800 F300
G1 X34.785 Y-1.227 Z-2.800 F300
G1 X34.660 Y-1.320 Z-2.800 F300
G1 X34.527 Y-1.400 Z-2.800 F300
G1 X34.386 Y-1.467 Z-2.800 F300
G1 X34.239 Y-1.519 Z-2.800 F300
G1 X34.088 Y-1.557 Z-2.800 F300
G1 X33.934 Y-1.580 Z-2.800 F300
G1 X33.779 Y-1.587 Z-2.800 F300
G1 X0.085 Y-1.587 Z-2.800 F300
G1 X-0.071 Y-1.580 Z-2.800 F300
G1 X-0.225 Y-1.557 Z-2.800 F300
G1 X-0.376 Y-1.519 Z-2.800 F300
G1 X-0.523 Y-1.467 Z-2.800 F300
G1 X-0.664 Y-1.400 Z-2.800 F300
G1 X-0.797 Y-1.320 Z-2.800 F300
G1 X-0.922 Y-1.227 Z-2.800 F300
G1 X-1.038 Y-1.123 Z-2.800 F300
G1 X-1.123 Y-1.038 Z-2.800 F300
G1 X-1.227 Y-0.922 Z-2.800 F300
G1 X-1.320 Y-0.797 Z-2.800 F300
G1 X-1.400 Y-0.664 Z-2.800 F300
G1 X-1.467 Y-0.523 Z-2.800 F300
G1 X-1.519 Y-0.376 Z-2.800 F300
G1 X-1.557 Y-0.225 Z-2.800 F300
G1 X-1.580 Y-0.071 Z-2.800 F300
G1 X-1.587 Y0.085 Z-2.800 F300
G1 X-1.587 Y16.000 Z-2.800 F300
G1 X-1.580 Y16.156 Z-2.800 F300
G1 X-1.557 Y16.310 Z-2.800 F300
G1 X-1.519 Y16.461 Z-2.800 F300
G1 X-1.467 Y16.608 Z-2.800 F300
G1 X-1.400 Y16.749 Z-2.800 F300
G1 X-1.320 Y16.882 Z-2.800 F300
G1 X-1.227 Y17.007 Z-2.800 F300
G1 X-1.123 Y17.123 Z-2.800 F300
G1 X-1.038 Y17.207 Z-2.800 F300
G1 X-0.923 Y17.312 Z-2.800 F300
G1 X-0.798 Y17.405 Z-2.800 F300
G1 X-0.664 Y17.485 Z-2.800 F300
G1 X-0.523 Y17.552 Z-2.800 F300
G1 X-0.376 Y17.604 Z-2.800 F300
G1 X-0.225 Y17.642 Z-2.800 F300
G1 X-0.071 Y17.665 Z-2.800 F300
G1 X0.085 Y17.673 Z-2.800 F300
G1 X33.779 Y17.673 Z-2.800 F300
G1 X33.934 Y17.665 Z-2.800 F300
G1 X34.088 Y17.642 Z-2.800 F300
G1 X34.239 Y17.604 Z-2.800 F300
G1 X34.386 Y17.552 Z-2.800 F300
G1 X34.527 Y17.485 Z-2.800 F300
G1 X34.661 Y17.405 Z-2.800 F300
G1 X34.786 Y17.312 Z-2.800 F300
G1 X34.901 Y17.208 Z-2.800 F300
G1 X34.986 Y17.123 Z-2.800 F300
G1 X35.090 Y17.007 Z-2.800 F300
G1 X35.183 Y16.882 Z-2.800 F300
G1 X35.263 Y16.749 Z-2.800 F300
G1 X35.330 Y16.608 Z-2.800 F300
G1 X35.382 Y16.461 Z-2.800 F300
G1 X35.420 Y16.310 Z-2.800 F300
G1 X35.443 Y16.156 Z-2.800 F300
G1 X35.451 Y16.000 Z-2.800 F300
G1 X35.451 Y8.043 Z-2.800 F300
G1 X35.459 Y7.972 Z-2.800 F1500
G1 X35.482 Y7.905 Z-2.800 F1500
G1 X35.520 Y7.845 Z-2.800 F1500
G1 X35.570 Y7.794 Z-2.800 F1500
G1 X35.631 Y7.756 Z-2.800 F1500
G1 X35.698 Y7.733 Z-2.800 F1500
G1 X35.768 Y7.725 Z-2.800 F1500
G1 X36.086 Y7.725 Z-2.800 F1500
G1 X36.156 Y7.725 Z-2.792 F1500
G1 X36.224 Y7.725 Z-2.769 F1500
G1 X36.284 Y7.725 Z-2.731 F1500
G1 X36.334 Y7.725 Z-2.680 F1500
G1 X36.372 Y7.725 Z-2.620 F1500
G1 X36.395 Y7.725 Z-2.553 F1500
G1 X36.403 Y7.725 Z-2.483 F1500
G1 X36.403 Y7.725 Z5.000 F300
G1 X36.403 Y8.360 Z5.000 F300
G1 X36.403 Y8.360 Z0.200 F300
G1 X36.403 Y8.360 Z-2.165 F200
G1 X36.403 Y8.360 Z-2.983 F200
G1 X36.395 Y8.360 Z-3.053 F300
G1 X36.372 Y8.360 Z-3.120 F300
G1 X36.334 Y8.360 Z-3.180 F300
G1 X36.284 Y8.360 Z-3.231 F300
G1 X36.224 Y8.360 Z-3.269 F300
G1 X36.156 Y8.360 Z-3.292 F300
G1 X36.086 Y8.360 Z-3.300 F300
G1 X35.768 Y8.360 Z-3.300 F300
G1 X35.698 Y8.352 Z-3.300 F300
G1 X35.631 Y8.329 Z-3.300 F300
G1 X35.570 Y8.291 Z-3.300 F300
G1 X35.520 Y8.241 Z-3.300 F300
G1 X35.482 Y8.180 Z-3.300 F300
G1 X35.459 Y8.113 Z-3.300 F300
G1 X35.451 Y8.043 Z-3.300 F300
G1 X35.451 Y0.085 Z-3.300 F300
G1 X35.443 Y-0.071 Z-3.300 F300
G1 X35.420 Y-0.225 Z-3.300 F300
G1 X35.382 Y-0.376 Z-3.300 F300
G1 X35.330 Y-0.523 Z-3.300 F300
G1 X35.263 Y-0.664 Z-3.300 F300
G1 X35.183 Y-0.798 Z-3.300 F300
G1 X35.090 Y-0.923 Z-3.300 F300
G1 X34.986 Y-1.038 Z-3.300 F300
G1 X34.901 Y-1.123 Z-3.300 F300
G1 X34.785 Y-1.227 Z-3.300 F300
G1 X34.660 Y-1.320 Z-3.300 F300
G1 X34.527 Y-1.400 Z-3.300 F300
G1 X34.386 Y-1.467 Z-3.300 F300
G1 X34.239 Y-1.519 Z-3.300 F300
G1 X34.088 Y-1.557 Z-3.300 F300
G1 X33.934 Y-1.580 Z-3.300 F300
G1 X33.779 Y-1.587 Z-3.300 F300
G1 X0.085 Y-1.587 Z-3.300 F300
G1 X-0.071 Y-1.580 Z-3.300 F300
G1 X-0.225 Y-1.557 Z-3.300 F300
G1 X-0.376 Y-1.519 Z-3.300 F300
G1 X-0.523 Y-1.467 Z-3.300 F300
G1 X-0.664 Y-1.400 Z-3.300 F300
G1 X-0.797 Y-1.320 Z-3.300 F300
G1 X-0.922 Y-1.227 Z-3.300 F300
G1 X-1.038 Y-1.123 Z-3.300 F300
G1 X-1.123 Y-1.038 Z-3.300 F300
G1 X-1.227 Y-0.922 Z-3.300 F300
G1 X-1.320 Y-0.797 Z-3.300 F300
G1 X-1.400 Y-0.664 Z-3.300 F300
G1 X-1.467 Y-0.523 Z-3.300 F300
G1 X-1.519 Y-0.376 Z-3.300 F300
G1 X-1.557 Y-0.225 Z-3.300 F300
G1 X-1.580 Y-0.071 Z-3.300 F300
G1 X-1.587 Y0.085 Z-3.300 F300
G1 X-1.587 Y16.000 Z-3.300 F300
G1 X-1.580 Y16.156 Z-3.300 F300
G1 X-1.557 Y16.310 Z-3.300 F300
G1 X-1.519 Y16.461 Z-3.300 F300
G1 X-1.467 Y16.608 Z-3.300 F300
G1 X-1.400 Y16.749 Z-3.300 F300
G1 X-1.320 Y16.882 Z-3.300 F300
G1 X-1.227 Y17.007 Z-3.300 F300
G1 X-1.123 Y17.123 Z-3.300 F300
G1 X-1.038 Y17.207 Z-3.300 F300
G1 X-0.923 Y17.312 Z-3.300 F300
G1 X-0.798 Y17.405 Z-3.300 F300
G1 X-0.664 Y17.485 Z-3.300 F300
G1 X-0.523 Y17.552 Z-3.300 F300
G1 X-0.376 Y17.604 Z-3.300 F300
G1 X-0.225 Y17.642 Z-3.300 F300
G1 X-0.071 Y17.665 Z-3.300 F300
G1 X0.085 Y17.673 Z-3.300 F300
G1 X33.779 Y17.673 Z-3.300 F300
G1 X33.934 Y17.665 Z-3.300 F300
G1 X34.088 Y17.642 Z-3.300 F300
G1 X34.239 Y17.604 Z-3.300 F300
G1 X34.386 Y17.552 Z-3.300 F300
G1 X34.527 Y17.485 Z-3.300 F300
G1 X34.661 Y17.405 Z-3.300 F300
G1 X34.786 Y17.312 Z-3.300 F300
G1 X34.901 Y17.208 Z-3.300 F300
G1 X34.986 Y17.123 Z-3.300 F300
G1 X35.090 Y17.007 Z-3.300 F300
G1 X35.183 Y16.882 Z-3.300 F300
G1 X35.263 Y16.749 Z-3.300 F300
G1 X35.330 Y16.608 Z-3.300 F300
G1 X35.382 Y16.461 Z-3.300 F300
G1 X35.420 Y16.310 Z-3.300 F300
G1 X35.443 Y16.156 Z-3.300 F300
G1 X35.451 Y16.000 Z-3.300 F300
G1 X35.451 Y8.043 Z-3.300 F300
G1 X35.459 Y7.972 Z-3.300 F1500
G1 X35.482 Y7.905 Z-3.300 F1500
G1 X35.520 Y7.845 Z-3.300 F1500
G1 X35.570 Y7.794 Z-3.300 F1500
G1 X35.631 Y7.756 Z-3.300 F1500
G1 X35.698 Y7.733 Z-3.300 F1500
G1 X35.768 Y7.725 Z-3.300 F1500
G1 X36.086 Y7.725 Z-3.300 F1500
G1 X36.156 Y7.725 Z-3.292 F1500
G1 X36.224 Y7.725 Z-3.269 F1500
G1 X36.284 Y7.725 Z-3.231 F1500
G1 X36.334 Y7.725 Z-3.180 F1500
G1 X36.372 Y7.725 Z-3.120 F1500
G1 X36.395 Y7.725 Z-3.053 F1500
G1 X36.403 Y7.725 Z-2.983 F1500
G1 X36.403 Y7.725 Z5.000 F300
G1 X36.403 Y8.360 Z5.000 F300
G1 X36.403 Y8.360 Z0.200 F300
G1 X36.403 Y8.360 Z-2.665 F200
G1 X36.403 Y8.360 Z-3.483 F200
G1 X36.395 Y8.360 Z-3.553 F300
G1 X36.372 Y8.360 Z-3.620 F300
G1 X36.334 Y8.360 Z-3.680 F300
G1 X36.284 Y8.360 Z-3.731 F300
G1 X36.224 Y8.360 Z-3.769 F300
G1 X36.156 Y8.360 Z-3.792 F300
G1 X36.086 Y8.360 Z-3.800 F300
G1 X35.768 Y8.360 Z-3.800 F300
G1 X35.698 Y8.352 Z-3.800 F300
G1 X35.631 Y8.329 Z-3.800 F300
G1 X35.570 Y8.291 Z-3.800 F300
G1 X35.520 Y8.241 Z-3.800 F300
G1 X35.482 Y8.180 Z-3.800 F300
G1 X35.459 Y8.113 Z-3.800 F300
G1 X35.451 Y8.043 Z-3.800 F300
G1 X35.451 Y0.085 Z-3.800 F300
G1 X35.443 Y-0.071 Z-3.800 F300
G1 X35.420 Y-0.225 Z-3.800 F300
G1 X35.382 Y-0.376 Z-3.800 F300
G1 X35.330 Y-0.523 Z-3.800 F300
G1 X35.263 Y-0.664 Z-3.800 F300
G1 X35.183 Y-0.798 Z-3.800 F300
G1 X35.090 Y-0.923 Z-3.800 F300
G1 X34.986 Y-1.038 Z-3.800 F300
G1 X34.901 Y-1.123 Z-3.800 F300
G1 X34.785 Y-1.227 Z-3.800 F300
G1 X34.660 Y-1.320 Z-3.800 F300
G1 X34.527 Y-1.400 Z-3.800 F300
G1 X34.386 Y-1.467 Z-3.800 F300
G1 X34.239 Y-1.519 Z-3.800 F300
G1 X34.088 Y-1.557 Z-3.800 F300
G1 X33.934 Y-1.580 Z-3.800 F300
G1 X33.779 Y-1.587 Z-3.800 F300
G1 X0.085 Y-1.587 Z-3.800 F300
G1 X-0.071 Y-1.580 Z-3.800 F300
G1 X-0.225 Y-1.557 Z-3.800 F300
G1 X-0.376 Y-1.519 Z-3.800 F300
G1 X-0.523 Y-1.467 Z-3.800 F300
G1 X-0.664 Y-1.400 Z-3.800 F300
G1 X-0.797 Y-1.320 Z-3.800 F300
G1 X-0.922 Y-1.227 Z-3.800 F300
G1 X-1.038 Y-1.123 Z-3.800 F300
G1 X-1.123 Y-1.038 Z-3.800 F300
G1 X-1.227 Y-0.922 Z-3.800 F300
G1 X-1.320 Y-0.797 Z-3.800 F300
G1 X-1.400 Y-0.664 Z-3.800 F300
G1 X-1.467 Y-0.523 Z-3.800 F300
G1 X-1.519 Y-0.376 Z-3.800 F300
G1 X-1.557 Y-0.225 Z-3.800 F300
G1 X-1.580 Y-0.071 Z-3.800 F300
G1 X-1.587 Y0.085 Z-3.800 F300
G1 X-1.587 Y16.000 Z-3.800 F300
G1 X-1.580 Y16.156 Z-3.800 F300
G1 X-1.557 Y16.310 Z-3.800 F300
G1 X-1.519 Y16.461 Z-3.800 F300
G1 X-1.467 Y16.608 Z-3.800 F300
G1 X-1.400 Y16.749 Z-3.800 F300
G1 X-1.320 Y16.882 Z-3.800 F300
G1 X-1.227 Y17.007 Z-3.800 F300
G1 X-1.123 Y17.123 Z-3.800 F300
G1 X-1.038 Y17.207 Z-3.800 F300
G1 X-0.923 Y17.312 Z-3.800 F300
G1 X-0.798 Y17.405 Z-3.800 F300
G1 X-0.664 Y17.485 Z-3.800 F300
G1 X-0.523 Y17.552 Z-3.800 F300
G1 X-0.376 Y17.604 Z-3.800 F300
G1 X-0.225 Y17.642 Z-3.800 F300
G1 X-0.071 Y17.665 Z-3.800 F300
G1 X0.085 Y17.673 Z-3.800 F300
G1 X33.779 Y17.673 Z-3.800 F300
G1 X33.934 Y17.665 Z-3.800 F300
G1 X34.088 Y17.642 Z-3.800 F300
G1 X34.239 Y17.604 Z-3.800 F300
G1 X34.386 Y17.552 Z-3.800 F300
G1 X34.527 Y17.485 Z-3.800 F300
G1 X34.661 Y17.405 Z-3.800 F300
G1 X34.786 Y17.312 Z-3.800 F300
G1 X34.901 Y17.208 Z-3.800 F300
G1 X34.986 Y17.123 Z-3.800 F300
G1 X35.090 Y17.007 Z-3.800 F300
G1 X35.183 Y16.882 Z-3.800 F300
G1 X35.263 Y16.749 Z-3.800 F300
G1 X35.330 Y16.608 Z-3.800 F300
G1 X35.382 Y16.461 Z-3.800 F300
G1 X35.420 Y16.310 Z-3.800 F300
G1 X35.443 Y16.156 Z-3.800 F300
G1 X35.451 Y16.000 Z-3.800 F300
G1 X35.451 Y8.043 Z-3.800 F300
G1 X35.459 Y7.972 Z-3.800 F1500
G1 X35.482 Y7.905 Z-3.800 F1500
G1 X35.520 Y7.845 Z-3.800 F1500
G1 X35.570 Y7.794 Z-3.800 F1500
G1 X35.631 Y7.756 Z-3.800 F1500
G1 X35.698 Y7.733 Z-3.800 F1500
G1 X35.768 Y7.725 Z-3.800 F1500
G1 X36.086 Y7.725 Z-3.800 F1500
G1 X36.156 Y7.725 Z-3.792 F1500
G1 X36.224 Y7.725 Z-3.769 F1500
G1 X36.284 Y7.725 Z-3.731 F1500
G1 X36.334 Y7.725 Z-3.680 F1500
G1 X36.372 Y7.725 Z-3.620 F1500
G1 X36.395 Y7.725 Z-3.553 F1500
G1 X36.403 Y7.725 Z-3.483 F1500
G1 X36.403 Y7.725 Z5.000 F300
G1 X36.403 Y8.360 Z5.000 F300
G1 X36.403 Y8.360 Z0.200 F300
G1 X36.403 Y8.360 Z-3.165 F200
G1 X36.403 Y8.360 Z-3.983 F200
G1 X36.395 Y8.360 Z-4.053 F300
G1 X36.372 Y8.360 Z-4.120 F300
G1 X36.334 Y8.360 Z-4.180 F300
G1 X36.284 Y8.360 Z-4.231 F300
G1 X36.224 Y8.360 Z-4.269 F300
G1 X36.156 Y8.360 Z-4.292 F300
G1 X36.086 Y8.360 Z-4.300 F300
G1 X35.768 Y8.360 Z-4.300 F300
G1 X35.698 Y8.352 Z-4.300 F300
G1 X35.631 Y8.329 Z-4.300 F300
G1 X35.570 Y8.291 Z-4.300 F300
G1 X35.520 Y8.241 Z-4.300 F300
G1 X35.482 Y8.180 Z-4.300 F300
G1 X35.459 Y8.113 Z-4.300 F300
G1 X35.451 Y8.043 Z-4.300 F300
G1 X35.451 Y0.085 Z-4.300 F300
G1 X35.443 Y-0.071 Z-4.300 F300
G1 X35.420 Y-0.225 Z-4.300 F300
G1 X35.382 Y-0.376 Z-4.300 F300
G1 X35.330 Y-0.523 Z-4.300 F300
G1 X35.263 Y-0.664 Z-4.300 F300
G1 X35.183 Y-0.798 Z-4.300 F300
G1 X35.090 Y-0.923 Z-4.300 F300
G1 X34.986 Y-1.038 Z-4.300 F300
G1 X34.901 Y-1.123 Z-4.300 F300
G1 X34.785 Y-1.227 Z-4.300 F300
G1 X34.660 Y-1.320 Z-4.300 F300
G1 X34.527 Y-1.400 Z-4.300 F300
G1 X34.386 Y-1.467 Z-4.300 F300
G1 X34.239 Y-1.519 Z-4.300 F300
G1 X34.088 Y-1.557 Z-4.300 F300
G1 X33.934 Y-1.580 Z-4.300 F300
G1 X33.779 Y-1.587 Z-4.300 F300
G1 X0.085 Y-1.587 Z-4.300 F300
G1 X-0.071 Y-1.580 Z-4.300 F300
G1 X-0.225 Y-1.557 Z-4.300 F300
G1 X-0.376 Y-1.519 Z-4.300 F300
G1 X-0.523 Y-1.467 Z-4.300 F300
G1 X-0.664 Y-1.400 Z-4.300 F300
G1 X-0.797 Y-1.320 Z-4.300 F300
G1 X-0.922 Y-1.227 Z-4.300 F300
G1 X-1.038 Y-1.123 Z-4.300 F300
G1 X-1.123 Y-1.038 Z-4.300 F300
G1 X-1.227 Y-0.922 Z-4.300 F300
G1 X-1.320 Y-0.797 Z-4.300 F300
G1 X-1.400 Y-0.664 Z-4.300 F300
G1 X-1.467 Y-0.523 Z-4.300 F300
G1 X-1.519 Y-0.376 Z-4.300 F300
G1 X-1.557 Y-0.225 Z-4.300 F300
G1 X-1.580 Y-0.071 Z-4.300 F300
G1 X-1.587 Y0.085 Z-4.300 F300
G1 X-1.587 Y16.000 Z-4.300 F300
G1 X-1.580 Y16.156 Z-4.300 F300
G1 X-1.557 Y16.310 Z-4.300 F300
G1 X-1.519 Y16.461 Z-4.300 F300
G1 X-1.467 Y16.608 Z-4.300 F300
G1 X-1.400 Y16.749 Z-4.300 F300
G1 X-1.320 Y16.882 Z-4.300 F300
G1 X-1.227 Y17.007 Z-4.300 F300
G1 X-1.123 Y17.123 Z-4.300 F300
G1 X-1.038 Y17.207 Z-4.300 F300
G1 X-0.923 Y17.312 Z-4.300 F300
G1 X-0.798 Y17.405 Z-4.300 F300
G1 X-0.664 Y17.485 Z-4.300 F300
G1 X-0.523 Y17.552 Z-4.300 F300
G1 X-0.376 Y17.604 Z-4.300 F300
G1 X-0.225 Y17.642 Z-4.300 F300
G1 X-0.071 Y17.665 Z-4.300 F300
G1 X0.085 Y17.673 Z-4.300 F300
G1 X33.779 Y17.673 Z-4.300 F300
G1 X33.934 Y17.665 Z-4.300 F300
G1 X34.088 Y17.642 Z-4.300 F300
G1 X34.239 Y17.604 Z-4.300 F300
G1 X34.386 Y17.552 Z-4.300 F300
G1 X34.527 Y17.485 Z-4.300 F300
G1 X34.661 Y17.405 Z-4.300 F300
G1 X34.786 Y17.312 Z-4.300 F300
G1 X34.901 Y17.208 Z-4.300 F300
G1 X34.986 Y17.123 Z-4.300 F300
G1 X35.090 Y17.007 Z-4.300 F300
G1 X35.183 Y16.882 Z-4.300 F300
G1 X35.263 Y16.749 Z-4.300 F300
G1 X35.330 Y16.608 Z-4.300 F300
G1 X35.382 Y16.461 Z-4.300 F300
G1 X35.420 Y16.310 Z-4.300 F300
G1 X35.443 Y16.156 Z-4.300 F300
G1 X35.451 Y16.000 Z-4.300 F300
G1 X35.451 Y8.043 Z-4.300 F300
G1 X35.459 Y7.972 Z-4.300 F1500
G1 X35.482 Y7.905 Z-4.300 F1500
G1 X35.520 Y7.845 Z-4.300 F1500
G1 X35.570 Y7.794 Z-4.300 F1500
G1 X35.631 Y7.756 Z-4.300 F1500
G1 X35.698 Y7.733 Z-4.300 F1500
G1 X35.768 Y7.725 Z-4.300 F1500
G1 X36.086 Y7.725 Z-4.300 F1500
G1 X36.156 Y7.725 Z-4.292 F1500
G1 X36.224 Y7.725 Z-4.269 F1500
G1 X36.284 Y7.725 Z-4.231 F1500
G1 X36.334 Y7.725 Z-4.180 F1500
G1 X36.372 Y7.725 Z-4.120 F1500
G1 X36.395 Y7.725 Z-4.053 F1500
G1 X36.403 Y7.725 Z-3.983 F1500
G1 X36.403 Y7.725 Z5.000 F300
G1 X36.403 Y8.360 Z5.000 F300
G1 X36.403 Y8.360 Z0.200 F300
G1 X36.403 Y8.360 Z-3.665 F200
G1 X36.403 Y8.360 Z-4.483 F200
G1 X36.395 Y8.360 Z-4.553 F300
G1 X36.372 Y8.360 Z-4.620 F300
G1 X36.334 Y8.360 Z-4.680 F300
G1 X36.284 Y8.360 Z-4.731 F300
G1 X36.224 Y8.360 Z-4.769 F300
G1 X36.156 Y8.360 Z-4.792 F300
G1 X36.086 Y8.360 Z-4.800 F300
G1 X35.768 Y8.360 Z-4.800 F300
G1 X35.698 Y8.352 Z-4.800 F300
G1 X35.631 Y8.329 Z-4.800 F300
G1 X35.570 Y8.291 Z-4.800 F300
G1 X35.520 Y8.241 Z-4.800 F300
G1 X35.482 Y8.180 Z-4.800 F300
G1 X35.459 Y8.113 Z-4.800 F300
G1 X35.451 Y8.043 Z-4.800 F300
G1 X35.451 Y0.085 Z-4.800 F300
G1 X35.443 Y-0.071 Z-4.800 F300
G1 X35.420 Y-0.225 Z-4.800 F300
G1 X35.382 Y-0.376 Z-4.800 F300
G1 X35.330 Y-0.523 Z-4.800 F300
G1 X35.263 Y-0.664 Z-4.800 F300
G1 X35.183 Y-0.798 Z-4.800 F300
G1 X35.090 Y-0.923 Z-4.800 F300
G1 X34.986 Y-1.038 Z-4.800 F300
G1 X34.901 Y-1.123 Z-4.800 F300
G1 X34.785 Y-1.227 Z-4.800 F300
G1 X34.660 Y-1.320 Z-4.800 F300
G1 X34.527 Y-1.400 Z-4.800 F300
G1 X34.386 Y-1.467 Z-4.800 F300
G1 X34.239 Y-1.519 Z-4.800 F300
G1 X34.088 Y-1.557 Z-4.800 F300
G1 X33.934 Y-1.580 Z-4.800 F300
G1 X33.779 Y-1.587 Z-4.800 F300
G1 X0.085 Y-1.587 Z-4.800 F300
G1 X-0.071 Y-1.580 Z-4.800 F300
G1 X-0.225 Y-1.557 Z-4.800 F300
G1 X-0.376 Y-1.519 Z-4.800 F300
G1 X-0.523 Y-1.467 Z-4.800 F300
G1 X-0.664 Y-1.400 Z-4.800 F300
G1 X-0.797 Y-1.320 Z-4.800 F300
G1 X-0.922 Y-1.227 Z-4.800 F300
G1 X-1.038 Y-1.123 Z-4.800 F300
G1 X-1.123 Y-1.038 Z-4.800 F300
G1 X-1.227 Y-0.922 Z-4.800 F300
G1 X-1.320 Y-0.797 Z-4.800 F300
G1 X-1.400 Y-0.664 Z-4.800 F300
G1 X-1.467 Y-0.523 Z-4.800 F300
G1 X-1.519 Y-0.376 Z-4.800 F300
G1 X-1.557 Y-0.225 Z-4.800 F300
G1 X-1.580 Y-0.071 Z-4.800 F300
G1 X-1.587 Y0.085 Z-4.800 F300
G1 X-1.587 Y16.000 Z-4.800 F300
G1 X-1.580 Y16.156 Z-4.800 F300
G1 X-1.557 Y16.310 Z-4.800 F300
G1 X-1.519 Y16.461 Z-4.800 F300
G1 X-1.467 Y16.608 Z-4.800 F300
G1 X-1.400 Y16.749 Z-4.800 F300
G1 X-1.320 Y16.882 Z-4.800 F300
G1 X-1.227 Y17.007 Z-4.800 F300
G1 X-1.123 Y17.123 Z-4.800 F300
G1 X-1.038 Y17.207 Z-4.800 F300
G1 X-0.923 Y17.312 Z-4.800 F300
G1 X-0.798 Y17.405 Z-4.800 F300
G1 X-0.664 Y17.485 Z-4.800 F300
G1 X-0.523 Y17.552 Z-4.800 F300
G1 X-0.376 Y17.604 Z-4.800 F300
G1 X-0.225 Y17.642 Z-4.800 F300
G1 X-0.071 Y17.665 Z-4.800 F300
G1 X0.085 Y17.673 Z-4.800 F300
G1 X33.779 Y17.673 Z-4.800 F300
G1 X33.934 Y17.665 Z-4.800 F300
G1 X34.088 Y17.642 Z-4.800 F300
G1 X34.239 Y17.604 Z-4.800 F300
G1 X34.386 Y17.552 Z-4.800 F300
G1 X34.527 Y17.485 Z-4.800 F300
G1 X34.661 Y17.405 Z-4.800 F300
G1 X34.786 Y17.312 Z-4.800 F300
G1 X34.901 Y17.208 Z-4.800 F300
G1 X34.986 Y17.123 Z-4.800 F300
G1 X35.090 Y17.007 Z-4.800 F300
G1 X35.183 Y16.882 Z-4.800 F300
G1 X35.263 Y16.749 Z-4.800 F300
G1 X35.330 Y16.608 Z-4.800 F300
G1 X35.382 Y16.461 Z-4.800 F300
G1 X35.420 Y16.310 Z-4.800 F300
G1 X35.443 Y16.156 Z-4.800 F300
G1 X35.451 Y16.000 Z-4.800 F300
G1 X35.451 Y8.043 Z-4.800 F300
G1 X35.459 Y7.972 Z-4.800 F1500
G1 X35.482 Y7.905 Z-4.800 F1500
G1 X35.520 Y7.845 Z-4.800 F1500
G1 X35.570 Y7.794 Z-4.800 F1500
G1 X35.631 Y7.756 Z-4.800 F1500
G1 X35.698 Y7.733 Z-4.800 F1500
G1 X35.768 Y7.725 Z-4.800 F1500
G1 X36.086 Y7.725 Z-4.800 F1500
G1 X36.156 Y7.725 Z-4.792 F1500
G1 X36.224 Y7.725 Z-4.769 F1500
G1 X36.284 Y7.725 Z-4.731 F1500
G1 X36.334 Y7.725 Z-4.680 F1500
G1 X36.372 Y7.725 Z-4.620 F1500
G1 X36.395 Y7.725 Z-4.553 F1500
G1 X36.403 Y7.725 Z-4.483 F1500
G1 X36.403 Y7.725 Z5.000 F300
G1 X36.403 Y8.360 Z5.000 F300
G1 X36.403 Y8.360 Z0.200 F300
G1 X36.403 Y8.360 Z-4.165 F200
G1 X36.403 Y8.360 Z-4.983 F200
G1 X36.395 Y8.360 Z-5.053 F300
G1 X36.372 Y8.360 Z-5.120 F300
G1 X36.334 Y8.360 Z-5.180 F300
G1 X36.284 Y8.360 Z-5.231 F300
G1 X36.224 Y8.360 Z-5.269 F300
G1 X36.156 Y8.360 Z-5.292 F300
G1 X36.086 Y8.360 Z-5.300 F300
G1 X35.768 Y8.360 Z-5.300 F300
G1 X35.698 Y8.352 Z-5.300 F300
G1 X35.631 Y8.329 Z-5.300 F300
G1 X35.570 Y8.291 Z-5.300 F300
G1 X35.520 Y8.241 Z-5.300 F300
G1 X35.482 Y8.180 Z-5.300 F300
G1 X35.459 Y8.113 Z-5.300 F300
G1 X35.451 Y8.043 Z-5.300 F300
G1 X35.451 Y0.085 Z-5.300 F300
G1 X35.443 Y-0.071 Z-5.300 F300
G1 X35.420 Y-0.225 Z-5.300 F300
G1 X35.382 Y-0.376 Z-5.300 F300
G1 X35.330 Y-0.523 Z-5.300 F300
G1 X35.263 Y-0.664 Z-5.300 F300
G1 X35.183 Y-0.798 Z-5.300 F300
G1 X35.090 Y-0.923 Z-5.300 F300
G1 X34.986 Y-1.038 Z-5.300 F300
G1 X34.901 Y-1.123 Z-5.300 F300
G1 X34.785 Y-1.227 Z-5.300 F300
G1 X34.660 Y-1.320 Z-5.300 F300
G1 X34.527 Y-1.400 Z-5.300 F300
G1 X34.386 Y-1.467 Z-5.300 F300
G1 X34.239 Y-1.519 Z-5.300 F300
G1 X34.088 Y-1.557 Z-5.300 F300
G1 X33.934 Y-1.580 Z-5.300 F300
G1 X33.779 Y-1.587 Z-5.300 F300
G1 X0.085 Y-1.587 Z-5.300 F300
G1 X-0.071 Y-1.580 Z-5.300 F300
G1 X-0.225 Y-1.557 Z-5.300 F300
G1 X-0.376 Y-1.519 Z-5.300 F300
G1 X-0.523 Y-1.467 Z-5.300 F300
G1 X-0.664 Y-1.400 Z-5.300 F300
G1 X-0.797 Y-1.320 Z-5.300 F300
G1 X-0.922 Y-1.227 Z-5.300 F300
G1 X-1.038 Y-1.123 Z-5.300 F300
G1 X-1.123 Y-1.038 Z-5.300 F300
G1 X-1.227 Y-0.922 Z-5.300 F300
G1 X-1.320 Y-0.797 Z-5.300 F300
G1 X-1.400 Y-0.664 Z-5.300 F300
G1 X-1.467 Y-0.523 Z-5.300 F300
G1 X-1.519 Y-0.376 Z-5.300 F300
G1 X-1.557 Y-0.225 Z-5.300 F300
G1 X-1.580 Y-0.071 Z-5.300 F300
G1 X-1.587 Y0.085 Z-5.300 F300
G1 X-1.587 Y16.000 Z-5.300 F300
G1 X-1.580 Y16.156 Z-5.300 F300
G1 X-1.557 Y16.310 Z-5.300 F300
G1 X-1.519 Y16.461 Z-5.300 F300
G1 X-1.467 Y16.608 Z-5.300 F300
G1 X-1.400 Y16.749 Z-5.300 F300
G1 X-1.320 Y16.882 Z-5.300 F300
G1 X-1.227 Y17.007 Z-5.300 F300
G1 X-1.123 Y17.123 Z-5.300 F300
G1 X-1.038 Y17.207 Z-5.300 F300
G1 X-0.923 Y17.312 Z-5.300 F300
G1 X-0.798 Y17.405 Z-5.300 F300
G1 X-0.664 Y17.485 Z-5.300 F300
G1 X-0.523 Y17.552 Z-5.300 F300
G1 X-0.376 Y17.604 Z-5.300 F300
G1 X-0.225 Y17.642 Z-5.300 F300
G1 X-0.071 Y17.665 Z-5.300 F300
G1 X0.085 Y17.673 Z-5.300 F300
G1 X33.779 Y17.673 Z-5.300 F300
G1 X33.934 Y17.665 Z-5.300 F300
G1 X34.088 Y17.642 Z-5.300 F300
G1 X34.239 Y17.604 Z-5.300 F300
G1 X34.386 Y17.552 Z-5.300 F300
G1 X34.527 Y17.485 Z-5.300 F300
G1 X34.661 Y17.405 Z-5.300 F300
G1 X34.786 Y17.312 Z-5.300 F300
G1 X34.901 Y17.208 Z-5.300 F300
G1 X34.986 Y17.123 Z-5.300 F300
G1 X35.090 Y17.007 Z-5.300 F300
G1 X35.183 Y16.882 Z-5.300 F300
G1 X35.263 Y16.749 Z-5.300 F300
G1 X35.330 Y16.608 Z-5.300 F300
G1 X35.382 Y16.461 Z-5.300 F300
G1 X35.420 Y16.310 Z-5.300 F300
G1 X35.443 Y16.156 Z-5.300 F300
G1 X35.451 Y16.000 Z-5.300 F300
G1 X35.451 Y8.043 Z-5.300 F300
G1 X35.459 Y7.972 Z-5.300 F1500
G1 X35.482 Y7.905 Z-5.300 F1500
G1 X35.520 Y7.845 Z-5.300 F1500
G1 X35.570 Y7.794 Z-5.300 F1500
G1 X35.631 Y7.756 Z-5.300 F1500
G1 X35.698 Y7.733 Z-5.300 F1500
G1 X35.768 Y7.725 Z-5.300 F1500
G1 X36.086 Y7.725 Z-5.300 F1500
G1 X36.156 Y7.725 Z-5.292 F1500
G1 X36.224 Y7.725 Z-5.269 F1500
G1 X36.284 Y7.725 Z-5.231 F1500
G1 X36.334 Y7.725 Z-5.180 F1500
G1 X36.372 Y7.725 Z-5.120 F1500
G1 X36.395 Y7.725 Z-5.053 F1500
G1 X36.403 Y7.725 Z-4.983 F1500
G1 X36.403 Y7.725 Z5.000 F300
G1 X36.403 Y8.360 Z5.000 F300
G1 X36.403 Y8.360 Z0.200 F300
G1 X36.403 Y8.360 Z-4.665 F200
G1 X36.403 Y8.360 Z-5.483 F200
G1 X36.395 Y8.360 Z-5.553 F300
G1 X36.372 Y8.360 Z-5.620 F300
G1 X36.334 Y8.360 Z-5.680 F300
G1 X36.284 Y8.360 Z-5.731 F300
G1 X36.224 Y8.360 Z-5.769 F300
G1 X36.156 Y8.360 Z-5.792 F300
G1 X36.086 Y8.360 Z-5.800 F300
G1 X35.768 Y8.360 Z-5.800 F300
G1 X35.698 Y8.352 Z-5.800 F300
G1 X35.631 Y8.329 Z-5.800 F300
G1 X35.570 Y8.291 Z-5.800 F300
G1 X35.520 Y8.241 Z-5.800 F300
G1 X35.482 Y8.180 Z-5.800 F300
G1 X35.459 Y8.113 Z-5.800 F300
G1 X35.451 Y8.043 Z-5.800 F300
G1 X35.451 Y0.085 Z-5.800 F300
G1 X35.443 Y-0.071 Z-5.800 F300
G1 X35.420 Y-0.225 Z-5.800 F300
G1 X35.382 Y-0.376 Z-5.800 F300
G1 X35.330 Y-0.523 Z-5.800 F300
G1 X35.263 Y-0.664 Z-5.800 F300
G1 X35.183 Y-0.798 Z-5.800 F300
G1 X35.090 Y-0.923 Z-5.800 F300
G1 X34.986 Y-1.038 Z-5.800 F300
G1 X34.901 Y-1.123 Z-5.800 F300
G1 X34.785 Y-1.227 Z-5.800 F300
G1 X34.660 Y-1.320 Z-5.800 F300
G1 X34.527 Y-1.400 Z-5.800 F300
G1 X34.386 Y-1.467 Z-5.800 F300
G1 X34.239 Y-1.519 Z-5.800 F300
G1 X34.088 Y-1.557 Z-5.800 F300
G1 X33.934 Y-1.580 Z-5.800 F300
G1 X33.779 Y-1.587 Z-5.800 F300
G1 X0.085 Y-1.587 Z-5.800 F300
G1 X-0.071 Y-1.580 Z-5.800 F300
G1 X-0.225 Y-1.557 Z-5.800 F300
G1 X-0.376 Y-1.519 Z-5.800 F300
G1 X-0.523 Y-1.467 Z-5.800 F300
G1 X-0.664 Y-1.400 Z-5.800 F300
G1 X-0.797 Y-1.320 Z-5.800 F300
G1 X-0.922 Y-1.227 Z-5.800 F300
G1 X-1.038 Y-1.123 Z-5.800 F300
G1 X-1.123 Y-1.038 Z-5.800 F300
G1 X-1.227 Y-0.922 Z-5.800 F300
G1 X-1.320 Y-0.797 Z-5.800 F300
G1 X-1.400 Y-0.664 Z-5.800 F300
G1 X-1.467 Y-0.523 Z-5.800 F300
G1 X-1.519 Y-0.376 Z-5.800 F300
G1 X-1.557 Y-0.225 Z-5.800 F300
G1 X-1.580 Y-0.071 Z-5.800 F300
G1 X-1.587 Y0.085 Z-5.800 F300
G1 X-1.587 Y16.000 Z-5.800 F300
G1 X-1.580 Y16.156 Z-5.800 F300
G1 X-1.557 Y16.310 Z-5.800 F300
G1 X-1.519 Y16.461 Z-5.800 F300
G1 X-1.467 Y16.608 Z-5.800 F300
G1 X-1.400 Y16.749 Z-5.800 F300
G1 X-1.320 Y16.882 Z-5.800 F300
G1 X-1.227 Y17.007 Z-5.800 F300
G1 X-1.123 Y17.123 Z-5.800 F300
G1 X-1.038 Y17.207 Z-5.800 F300
G1 X-0.923 Y17.312 Z-5.800 F300
G1 X-0.798 Y17.405 Z-5.800 F300
G1 X-0.664 Y17.485 Z-5.800 F300
G1 X-0.523 Y17.552 Z-5.800 F300
G1 X-0.376 Y17.604 Z-5.800 F300
G1 X-0.225 Y17.642 Z-5.800 F300
G1 X-0.071 Y17.665 Z-5.800 F300
G1 X0.085 Y17.673 Z-5.800 F300
G1 X33.779 Y17.673 Z-5.800 F300
G1 X33.934 Y17.665 Z-5.800 F300
G1 X34.088 Y17.642 Z-5.800 F300
G1 X34.239 Y17.604 Z-5.800 F300
G1 X34.386 Y17.552 Z-5.800 F300
G1 X34.527 Y17.485 Z-5.800 F300
G1 X34.661 Y17.405 Z-5.800 F300
G1 X34.786 Y17.312 Z-5.800 F300
G1 X34.901 Y17.208 Z-5.800 F300
G1 X34.986 Y17.123 Z-5.800 F300
G1 X35.090 Y17.007 Z-5.800 F300
G1 X35.183 Y16.882 Z-5.800 F300
G1 X35.263 Y16.749 Z-5.800 F300
G1 X35.330 Y16.608 Z-5.800 F300
G1 X35.382 Y16.461 Z-5.800 F300
G1 X35.420 Y16.310 Z-5.800 F300
G1 X35.443 Y16.156 Z-5.800 F300
G1 X35.451 Y16.000 Z-5.800 F300
G1 X35.451 Y8.043 Z-5.800 F300
G1 X35.459 Y7.972 Z-5.800 F1500
G1 X35.482 Y7.905 Z-5.800 F1500
G1 X35.520 Y7.845 Z-5.800 F1500
G1 X35.570 Y7.794 Z-5.800 F1500
G1 X35.631 Y7.756 Z-5.800 F1500
G1 X35.698 Y7.733 Z-5.800 F1500
G1 X35.768 Y7.725 Z-5.800 F1500
G1 X36.086 Y7.725 Z-5.800 F1500
G1 X36.156 Y7.725 Z-5.792 F1500
G1 X36.224 Y7.725 Z-5.769 F1500
G1 X36.284 Y7.725 Z-5.731 F1500
G1 X36.334 Y7.725 Z-5.680 F1500
G1 X36.372 Y7.725 Z-5.620 F1500
G1 X36.395 Y7.725 Z-5.553 F1500
G1 X36.403 Y7.725 Z-5.483 F1500
G1 X36.403 Y7.725 Z5.000 F300
G1 X36.403 Y8.360 Z5.000 F300
G1 X36.403 Y8.360 Z0.200 F300
G1 X36.403 Y8.360 Z-5.165 F200
G1 X36.403 Y8.360 Z-5.983 F200
G1 X36.395 Y8.360 Z-6.053 F300
G1 X36.372 Y8.360 Z-6.120 F300
G1 X36.334 Y8.360 Z-6.180 F300
G1 X36.284 Y8.360 Z-6.231 F300
G1 X36.224 Y8.360 Z-6.269 F300
G1 X36.156 Y8.360 Z-6.292 F300
G1 X36.086 Y8.360 Z-6.300 F300
G1 X35.768 Y8.360 Z-6.300 F300
G1 X35.698 Y8.352 Z-6.300 F300
G1 X35.631 Y8.329 Z-6.300 F300
G1 X35.570 Y8.291 Z-6.300 F300
G1 X35.520 Y8.241 Z-6.300 F300
G1 X35.482 Y8.180 Z-6.300 F300
G1 X35.459 Y8.113 Z-6.300 F300
G1 X35.451 Y8.043 Z-6.300 F300
G1 X35.451 Y0.085 Z-6.300 F300
G1 X35.443 Y-0.071 Z-6.300 F300
G1 X35.420 Y-0.225 Z-6.300 F300
G1 X35.382 Y-0.376 Z-6.300 F300
G1 X35.330 Y-0.523 Z-6.300 F300
G1 X35.263 Y-0.664 Z-6.300 F300
G1 X35.183 Y-0.798 Z-6.300 F300
G1 X35.090 Y-0.923 Z-6.300 F300
G1 X34.986 Y-1.038 Z-6.300 F300
G1 X34.901 Y-1.123 Z-6.300 F300
G1 X34.785 Y-1.227 Z-6.300 F300
G1 X34.660 Y-1.320 Z-6.300 F300
G1 X34.527 Y-1.400 Z-6.300 F300
G1 X34.386 Y-1.467 Z-6.300 F300
G1 X34.239 Y-1.519 Z-6.300 F300
G1 X34.088 Y-1.557 Z-6.300 F300
G1 X33.934 Y-1.580 Z-6.300 F300
G1 X33.779 Y-1.587 Z-6.300 F300
G1 X0.085 Y-1.587 Z-6.300 F300
G1 X-0.071 Y-1.580 Z-6.300 F300
G1 X-0.225 Y-1.557 Z-6.300 F300
G1 X-0.376 Y-1.519 Z-6.300 F300
G1 X-0.523 Y-1.467 Z-6.300 F300
G1 X-0.664 Y-1.400 Z-6.300 F300
G1 X-0.797 Y-1.320 Z-6.300 F300
G1 X-0.922 Y-1.227 Z-6.300 F300
G1 X-1.038 Y-1.123 Z-6.300 F300
G1 X-1.123 Y-1.038 Z-6.300 F300
G1 X-1.227 Y-0.922 Z-6.300 F300
G1 X-1.320 Y-0.797 Z-6.300 F300
G1 X-1.400 Y-0.664 Z-6.300 F300
G1 X-1.467 Y-0.523 Z-6.300 F300
G1 X-1.519 Y-0.376 Z-6.300 F300
G1 X-1.557 Y-0.225 Z-6.300 F300
G1 X-1.580 Y-0.071 Z-6.300 F300
G1 X-1.587 Y0.085 Z-6.300 F300
G1 X-1.587 Y16.000 Z-6.300 F300
G1 X-1.580 Y16.156 Z-6.300 F300
G1 X-1.557 Y16.310 Z-6.300 F300
G1 X-1.519 Y16.461 Z-6.300 F300
G1 X-1.467 Y16.608 Z-6.300 F300
G1 X-1.400 Y16.749 Z-6.300 F300
G1 X-1.320 Y16.882 Z-6.300 F300
G1 X-1.227 Y17.007 Z-6.300 F300
G1 X-1.123 Y17.123 Z-6.300 F300
G1 X-1.038 Y17.207 Z-6.300 F300
G1 X-0.923 Y17.312 Z-6.300 F300
G1 X-0.798 Y17.405 Z-6.300 F300
G1 X-0.664 Y17.485 Z-6.300 F300
G1 X-0.523 Y17.552 Z-6.300 F300
G1 X-0.376 Y17.604 Z-6.300 F300
G1 X-0.225 Y17.642 Z-6.300 F300
G1 X-0.071 Y17.665 Z-6.300 F300
G1 X0.085 Y17.673 Z-6.300 F300
G1 X33.779 Y17.673 Z-6.300 F300
G1 X33.934 Y17.665 Z-6.300 F300
G1 X34.088 Y17.642 Z-6.300 F300
G1 X34.239 Y17.604 Z-6.300 F300
G1 X34.386 Y17.552 Z-6.300 F300
G1 X34.527 Y17.485 Z-6.300 F300
G1 X34.661 Y17.405 Z-6.300 F300
G1 X34.786 Y17.312 Z-6.300 F300
G1 X34.901 Y17.208 Z-6.300 F300
G1 X34.986 Y17.123 Z-6.300 F300
G1 X35.090 Y17.007 Z-6.300 F300
G1 X35.183 Y16.882 Z-6.300 F300
G1 X35.263 Y16.749 Z-6.300 F300
G1 X35.330 Y16.608 Z-6.300 F300
G1 X35.382 Y16.461 Z-6.300 F300
G1 X35.420 Y16.310 Z-6.300 F300
G1 X35.443 Y16.156 Z-6.300 F300
G1 X35.451 Y16.000 Z-6.300 F300
G1 X35.451 Y8.043 Z-6.300 F300
G1 X35.459 Y7.972 Z-6.300 F1500
G1 X35.482 Y7.905 Z-6.300 F1500
G1 X35.520 Y7.845 Z-6.300 F1500
G1 X35.570 Y7.794 Z-6.300 F1500
G1 X35.631 Y7.756 Z-6.300 F1500
G1 X35.698 Y7.733 Z-6.300 F1500
G1 X35.768 Y7.725 Z-6.300 F1500
G1 X36.086 Y7.725 Z-6.300 F1500
G1 X36.156 Y7.725 Z-6.292 F1500
G1 X36.224 Y7.725 Z-6.269 F1500
G1 X36.284 Y7.725 Z-6.231 F1500
G1 X36.334 Y7.725 Z-6.180 F1500
G1 X36.372 Y7.725 Z-6.120 F1500
G1 X36.395 Y7.725 Z-6.053 F1500
G1 X36.403 Y7.725 Z-5.983 F1500
G1 X36.403 Y7.725 Z5.000 F300
G1 X36.403 Y8.360 Z5.000 F300
G1 X36.403 Y8.360 Z0.200 F300
G1 X36.403 Y8.360 Z-5.665 F200
G1 X36.403 Y8.360 Z-6.257 F200
G1 X36.395 Y8.360 Z-6.328 F300
G1 X36.372 Y8.360 Z-6.395 F300
G1 X36.334 Y8.360 Z-6.455 F300
G1 X36.284 Y8.360 Z-6.505 F300
G1 X36.224 Y8.360 Z-6.543 F300
G1 X36.156 Y8.360 Z-6.567 F300
G1 X36.086 Y8.360 Z-6.575 F300
G1 X35.768 Y8.360 Z-6.575 F300
G1 X35.698 Y8.352 Z-6.575 F300
G1 X35.631 Y8.329 Z-6.575 F300
G1 X35.570 Y8.291 Z-6.575 F300
G1 X35.520 Y8.241 Z-6.575 F300
G1 X35.482 Y8.180 Z-6.575 F300
G1 X35.459 Y8.113 Z-6.575 F300
G1 X35.451 Y8.043 Z-6.575 F300
G1 X35.451 Y0.085 Z-6.575 F300
G1 X35.443 Y-0.071 Z-6.575 F300
G1 X35.420 Y-0.225 Z-6.575 F300
G1 X35.382 Y-0.376 Z-6.575 F300
G1 X35.330 Y-0.523 Z-6.575 F300
G1 X35.263 Y-0.664 Z-6.575 F300
G1 X35.183 Y-0.798 Z-6.575 F300
G1 X35.090 Y-0.923 Z-6.575 F300
G1 X34.986 Y-1.038 Z-6.575 F300
G1 X34.901 Y-1.123 Z-6.575 F300
G1 X34.785 Y-1.227 Z-6.575 F300
G1 X34.660 Y-1.320 Z-6.575 F300
G1 X34.527 Y-1.400 Z-6.575 F300
G1 X34.386 Y-1.467 Z-6.575 F300
G1 X34.239 Y-1.519 Z-6.575 F300
G1 X34.088 Y-1.557 Z-6.575 F300
G1 X33.934 Y-1.580 Z-6.575 F300
G1 X33.779 Y-1.587 Z-6.575 F300
G1 X0.085 Y-1.587 Z-6.575 F300
G1 X-0.071 Y-1.580 Z-6.575 F300
G1 X-0.225 Y-1.557 Z-6.575 F300
G1 X-0.376 Y-1.519 Z-6.575 F300
G1 X-0.523 Y-1.467 Z-6.575 F300
G1 X-0.664 Y-1.400 Z-6.575 F300
G1 X-0.797 Y-1.320 Z-6.575 F300
G1 X-0.922 Y-1.227 Z-6.575 F300
G1 X-1.038 Y-1.123 Z-6.575 F300
G1 X-1.123 Y-1.038 Z-6.575 F300
G1 X-1.227 Y-0.922 Z-6.575 F300
G1 X-1.320 Y-0.797 Z-6.575 F300
G1 X-1.400 Y-0.664 Z-6.575 F300
G1 X-1.467 Y-0.523 Z-6.575 F300
G1 X-1.519 Y-0.376 Z-6.575 F300
G1 X-1.557 Y-0.225 Z-6.575 F300
G1 X-1.580 Y-0.071 Z-6.575 F300
G1 X-1.587 Y0.085 Z-6.575 F300
G1 X-1.587 Y16.000 Z-6.575 F300
G1 X-1.580 Y16.156 Z-6.575 F300
G1 X-1.557 Y16.310 Z-6.575 F300
G1 X-1.519 Y16.461 Z-6.575 F300
G1 X-1.467 Y16.608 Z-6.575 F300
G1 X-1.400 Y16.749 Z-6.575 F300
G1 X-1.320 Y16.882 Z-6.575 F300
G1 X-1.227 Y17.007 Z-6.575 F300
G1 X-1.123 Y17.123 Z-6.575 F300
G1 X-1.038 Y17.207 Z-6.575 F300
G1 X-0.923 Y17.312 Z-6.575 F300
G1 X-0.798 Y17.405 Z-6.575 F300
G1 X-0.664 Y17.485 Z-6.575 F300
G1 X-0.523 Y17.552 Z-6.575 F300
G1 X-0.376 Y17.604 Z-6.575 F300
G1 X-0.225 Y17.642 Z-6.575 F300
G1 X-0.071 Y17.665 Z-6.575 F300
G1 X0.085 Y17.673 Z-6.575 F300
G1 X33.779 Y17.673 Z-6.575 F300
G1 X33.934 Y17.665 Z-6.575 F300
G1 X34.088 Y17.642 Z-6.575 F300
G1 X34.239 Y17.604 Z-6.575 F300
G1 X34.386 Y17.552 Z-6.575 F300
G1 X34.527 Y17.485 Z-6.575 F300
G1 X34.661 Y17.405 Z-6.575 F300
G1 X34.786 Y17.312 Z-6.575 F300
G1 X34.901 Y17.208 Z-6.575 F300
G1 X34.986 Y17.123 Z-6.575 F300
G1 X35.090 Y17.007 Z-6.575 F300
G1 X35.183 Y16.882 Z-6.575 F300
G1 X35.263 Y16.749 Z-6.575 F300
G1 X35.330 Y16.608 Z-6.575 F300
G1 X35.382 Y16.461 Z-6.575 F300
G1 X35.420 Y16.310 Z-6.575 F300
G1 X35.443 Y16.156 Z-6.575 F300
G1 X35.451 Y16.000 Z-6.575 F300
G1 X35.451 Y8.043 Z-6.575 F300
G1 X35.459 Y7.972 Z-6.575 F1500
G1 X35.482 Y7.905 Z-6.575 F1500
G1 X35.520 Y7.845 Z-6.575 F1500
G1 X35.570 Y7.794 Z-6.575 F1500
G1 X35.631 Y7.756 Z-6.575 F1500
G1 X35.698 Y7.733 Z-6.575 F1500
G1 X35.768 Y7.725 Z-6.575 F1500
G1 X36.086 Y7.725 Z-6.575 F1500
G1 X36.156 Y7.725 Z-6.567 F1500
G1 X36.224 Y7.725 Z-6.543 F1500
G1 X36.284 Y7.725 Z-6.505 F1500
G1 X36.334 Y7.725 Z-6.455 F1500
G1 X36.372 Y7.725 Z-6.395 F1500
G1 X36.395 Y7.725 Z-6.328 F1500
G1 X36.403 Y7.725 Z-6.257 F1500
G1 X36.403 Y7.725 Z5.000 F300
G1 X36.403 Y8.360 Z5.000 F300
G1 X36.403 Y8.360 Z0.200 F300
G1 X36.403 Y8.360 Z-5.940 F200
G1 X36.403 Y8.360 Z-6.532 F200
G1 X36.395 Y8.360 Z-6.603 F300
G1 X36.372 Y8.360 Z-6.670 F300
G1 X36.334 Y8.360 Z-6.730 F300
G1 X36.284 Y8.360 Z-6.780 F300
G1 X36.224 Y8.360 Z-6.818 F300
G1 X36.156 Y8.360 Z-6.841 F300
G1 X36.086 Y8.360 Z-6.849 F300
G1 X35.768 Y8.360 Z-6.849 F300
G1 X35.698 Y8.352 Z-6.849 F300
G1 X35.631 Y8.329 Z-6.849 F300
G1 X35.570 Y8.291 Z-6.849 F300
G1 X35.520 Y8.241 Z-6.849 F300
G1 X35.482 Y8.180 Z-6.849 F300
G1 X35.459 Y8.113 Z-6.849 F300
G1 X35.451 Y8.043 Z-6.849 F300
G1 X35.451 Y0.085 Z-6.849 F300
G1 X35.443 Y-0.071 Z-6.849 F300
G1 X35.420 Y-0.225 Z-6.849 F300
G1 X35.382 Y-0.376 Z-6.849 F300
G1 X35.330 Y-0.523 Z-6.849 F300
G1 X35.263 Y-0.664 Z-6.849 F300
G1 X35.183 Y-0.798 Z-6.849 F300
G1 X35.090 Y-0.923 Z-6.849 F300
G1 X34.986 Y-1.038 Z-6.849 F300
G1 X34.901 Y-1.123 Z-6.849 F300
G1 X34.785 Y-1.227 Z-6.849 F300
G1 X34.660 Y-1.320 Z-6.849 F300
G1 X34.527 Y-1.400 Z-6.849 F300
G1 X34.386 Y-1.467 Z-6.849 F300
G1 X34.239 Y-1.519 Z-6.849 F300
G1 X34.088 Y-1.557 Z-6.849 F300
G1 X33.934 Y-1.580 Z-6.849 F300
G1 X33.779 Y-1.587 Z-6.849 F300
G1 X0.085 Y-1.587 Z-6.849 F300
G1 X-0.071 Y-1.580 Z-6.849 F300
G1 X-0.225 Y-1.557 Z-6.849 F300
G1 X-0.376 Y-1.519 Z-6.849 F300
G1 X-0.523 Y-1.467 Z-6.849 F300
G1 X-0.664 Y-1.400 Z-6.849 F300
G1 X-0.797 Y-1.320 Z-6.849 F300
G1 X-0.922 Y-1.227 Z-6.849 F300
G1 X-1.038 Y-1.123 Z-6.849 F300
G1 X-1.123 Y-1.038 Z-6.849 F300
G1 X-1.227 Y-0.922 Z-6.849 F300
G1 X-1.320 Y-0.797 Z-6.849 F300
G1 X-1.400 Y-0.664 Z-6.849 F300
G1 X-1.467 Y-0.523 Z-6.849 F300
G1 X-1.519 Y-0.376 Z-6.849 F300
G1 X-1.557 Y-0.225 Z-6.849 F300
G1 X-1.580 Y-0.071 Z-6.849 F300
G1 X-1.587 Y0.085 Z-6.849 F300
G1 X-1.587 Y16.000 Z-6.849 F300
G1 X-1.580 Y16.156 Z-6.849 F300
G1 X-1.557 Y16.310 Z-6.849 F300
G1 X-1.519 Y16.461 Z-6.849 F300
G1 X-1.467 Y16.608 Z-6.849 F300
G1 X-1.400 Y16.749 Z-6.849 F300
G1 X-1.320 Y16.882 Z-6.849 F300
G1 X-1.227 Y17.007 Z-6.849 F300
G1 X-1.123 Y17.123 Z-6.849 F300
G1 X-1.038 Y17.207 Z-6.849 F300
G1 X-0.923 Y17.312 Z-6.849 F300
G1 X-0.798 Y17.405 Z-6.849 F300
G1 X-0.664 Y17.485 Z-6.849 F300
G1 X-0.523 Y17.552 Z-6.849 F300
G1 X-0.376 Y17.604 Z-6.849 F300
G1 X-0.225 Y17.642 Z-6.849 F300
G1 X-0.071 Y17.665 Z-6.849 F300
G1 X0.085 Y17.673 Z-6.849 F300
G1 X33.779 Y17.673 Z-6.849 F300
G1 X33.934 Y17.665 Z-6.849 F300
G1 X34.088 Y17.642 Z-6.849 F300
G1 X34.239 Y17.604 Z-6.849 F300
G1 X34.386 Y17.552 Z-6.849 F300
G1 X34.527 Y17.485 Z-6.849 F300
G1 X34.661 Y17.405 Z-6.849 F300
G1 X34.786 Y17.312 Z-6.849 F300
G1 X34.901 Y17.208 Z-6.849 F300
G1 X34.986 Y17.123 Z-6.849 F300
G1 X35.090 Y17.007 Z-6.849 F300
G1 X35.183 Y16.882 Z-6.849 F300
G1 X35.263 Y16.749 Z-6.849 F300
G1 X35.330 Y16.608 Z-6.849 F300
G1 X35.382 Y16.461 Z-6.849 F300
G1 X35.420 Y16.310 Z-6.849 F300
G1 X35.443 Y16.156 Z-6.849 F300
G1 X35.451 Y16.000 Z-6.849 F300
G1 X35.451 Y8.043 Z-6.849 F300
G1 X35.459 Y7.972 Z-6.849 F1500
G1 X35.482 Y7.905 Z-6.849 F1500
G1 X35.520 Y7.845 Z-6.849 F1500
G1 X35.570 Y7.794 Z-6.849 F1500
G1 X35.631 Y7.756 Z-6.849 F1500
G1 X35.698 Y7.733 Z-6.849 F1500
G1 X35.768 Y7.725 Z-6.849 F1500
G1 X36.086 Y7.725 Z-6.849 F1500
G1 X36.156 Y7.725 Z-6.841 F1500
G1 X36.224 Y7.725 Z-6.818 F1500
G1 X36.284 Y7.725 Z-6.780 F1500
G1 X36.334 Y7.725 Z-6.730 F1500
G1 X36.372 Y7.725 Z-6.670 F1500
G1 X36.395 Y7.725 Z-6.603 F1500
G1 X36.403 Y7.725 Z-6.532 F1500
G1 X36.403 Y7.725 Z15.000 F300
G0 X0.000 Y0.000
M5
