;Titan-1-Nomad-Facing-0.1
;Now at Henrietta Hankin!
;Machine
;vendor: Snapmaker
;model: Desktop CNC
;description: Generic Snapmaker Marlin v20180725
M3 S10000
G4 S2 P2
G21
G90
;When using Fusion for Personal Use, the feedrate of rapid
;moves is reduced to match the feedrate of cutting moves,
;which can increase machining time. Unrestricted rapid moves
;are available with a Fusion Subscription.

;Titan-1-Nomad-Facing
G0 X35.915 Y-2.164 Z16.825
G1 X35.915 Y-2.164 Z16.825 F500
G1 X35.915 Y-2.164 Z6.525 F500
G1 X35.915 Y-2.164 Z1.817 F100
G1 X35.907 Y-2.164 Z1.747 F500
G1 X35.884 Y-2.164 Z1.680 F500
G1 X35.846 Y-2.164 Z1.620 F500
G1 X35.796 Y-2.164 Z1.569 F500
G1 X35.736 Y-2.164 Z1.531 F500
G1 X35.668 Y-2.164 Z1.508 F500
G1 X35.598 Y-2.164 Z1.500 F500
G1 X35.461 Y-2.164 Z1.500 F500
G1 X-1.597 Y-2.164 Z1.500 F500
G1 X-1.702 Y-2.156 Z1.500 F500
G1 X-1.805 Y-2.132 Z1.500 F500
G1 X-1.903 Y-2.094 Z1.500 F500
G1 X-1.994 Y-2.041 Z1.500 F500
G1 X-2.077 Y-1.975 Z1.500 F500
G1 X-2.148 Y-1.898 Z1.500 F500
G1 X-2.208 Y-1.811 Z1.500 F500
G1 X-2.253 Y-1.716 Z1.500 F500
G1 X-2.284 Y-1.616 Z1.500 F500
G1 X-2.300 Y-1.512 Z1.500 F500
G1 X-2.300 Y-1.406 Z1.500 F500
G1 X-2.284 Y-1.302 Z1.500 F500
G1 X-2.253 Y-1.202 Z1.500 F500
G1 X-2.208 Y-1.107 Z1.500 F500
G1 X-2.148 Y-1.020 Z1.500 F500
G1 X-2.077 Y-0.943 Z1.500 F500
G1 X-1.994 Y-0.877 Z1.500 F500
G1 X-1.903 Y-0.824 Z1.500 F500
G1 X-1.805 Y-0.786 Z1.500 F500
G1 X-1.702 Y-0.762 Z1.500 F500
G1 X-1.597 Y-0.755 Z1.500 F500
G1 X35.461 Y-0.755 Z1.500 F500
G1 X35.566 Y-0.747 Z1.500 F500
G1 X35.668 Y-0.723 Z1.500 F500
G1 X35.766 Y-0.685 Z1.500 F500
G1 X35.858 Y-0.632 Z1.500 F500
G1 X35.940 Y-0.567 Z1.500 F500
G1 X36.012 Y-0.489 Z1.500 F500
G1 X36.071 Y-0.402 Z1.500 F500
G1 X36.117 Y-0.307 Z1.500 F500
G1 X36.148 Y-0.207 Z1.500 F500
G1 X36.163 Y-0.103 Z1.500 F500
G1 X36.163 Y0.003 Z1.500 F500
G1 X36.148 Y0.107 Z1.500 F500
G1 X36.117 Y0.207 Z1.500 F500
G1 X36.071 Y0.302 Z1.500 F500
G1 X36.012 Y0.389 Z1.500 F500
G1 X35.940 Y0.466 Z1.500 F500
G1 X35.858 Y0.532 Z1.500 F500
G1 X35.766 Y0.585 Z1.500 F500
G1 X35.668 Y0.623 Z1.500 F500
G1 X35.566 Y0.647 Z1.500 F500
G1 X35.461 Y0.654 Z1.500 F500
G1 X-1.597 Y0.654 Z1.500 F500
G1 X-1.702 Y0.662 Z1.500 F500
G1 X-1.805 Y0.686 Z1.500 F500
G1 X-1.903 Y0.724 Z1.500 F500
G1 X-1.994 Y0.777 Z1.500 F500
G1 X-2.077 Y0.842 Z1.500 F500
G1 X-2.148 Y0.920 Z1.500 F500
G1 X-2.208 Y1.007 Z1.500 F500
G1 X-2.253 Y1.101 Z1.500 F500
G1 X-2.284 Y1.202 Z1.500 F500
G1 X-2.300 Y1.306 Z1.500 F500
G1 X-2.300 Y1.412 Z1.500 F500
G1 X-2.284 Y1.516 Z1.500 F500
G1 X-2.253 Y1.616 Z1.500 F500
G1 X-2.208 Y1.711 Z1.500 F500
G1 X-2.148 Y1.798 Z1.500 F500
G1 X-2.077 Y1.875 Z1.500 F500
G1 X-1.994 Y1.941 Z1.500 F500
G1 X-1.903 Y1.994 Z1.500 F500
G1 X-1.805 Y2.032 Z1.500 F500
G1 X-1.702 Y2.055 Z1.500 F500
G1 X-1.597 Y2.063 Z1.500 F500
G1 X35.461 Y2.063 Z1.500 F500
G1 X35.566 Y2.071 Z1.500 F500
G1 X35.668 Y2.095 Z1.500 F500
G1 X35.766 Y2.133 Z1.500 F500
G1 X35.858 Y2.186 Z1.500 F500
G1 X35.940 Y2.251 Z1.500 F500
G1 X36.012 Y2.329 Z1.500 F500
G1 X36.071 Y2.416 Z1.500 F500
G1 X36.117 Y2.510 Z1.500 F500
G1 X36.148 Y2.611 Z1.500 F500
G1 X36.163 Y2.715 Z1.500 F500
G1 X36.163 Y2.820 Z1.500 F500
G1 X36.148 Y2.925 Z1.500 F500
G1 X36.117 Y3.025 Z1.500 F500
G1 X36.071 Y3.120 Z1.500 F500
G1 X36.012 Y3.207 Z1.500 F500
G1 X35.940 Y3.284 Z1.500 F500
G1 X35.858 Y3.350 Z1.500 F500
G1 X35.766 Y3.403 Z1.500 F500
G1 X35.668 Y3.441 Z1.500 F500
G1 X35.566 Y3.464 Z1.500 F500
G1 X35.461 Y3.472 Z1.500 F500
G1 X-1.597 Y3.472 Z1.500 F500
G1 X-1.702 Y3.480 Z1.500 F500
G1 X-1.805 Y3.504 Z1.500 F500
G1 X-1.903 Y3.542 Z1.500 F500
G1 X-1.994 Y3.595 Z1.500 F500
G1 X-2.077 Y3.660 Z1.500 F500
G1 X-2.148 Y3.738 Z1.500 F500
G1 X-2.208 Y3.825 Z1.500 F500
G1 X-2.253 Y3.919 Z1.500 F500
G1 X-2.284 Y4.020 Z1.500 F500
G1 X-2.300 Y4.124 Z1.500 F500
G1 X-2.300 Y4.229 Z1.500 F500
G1 X-2.284 Y4.334 Z1.500 F500
G1 X-2.253 Y4.434 Z1.500 F500
G1 X-2.208 Y4.529 Z1.500 F500
G1 X-2.148 Y4.616 Z1.500 F500
G1 X-2.077 Y4.693 Z1.500 F500
G1 X-1.994 Y4.759 Z1.500 F500
G1 X-1.903 Y4.812 Z1.500 F500
G1 X-1.805 Y4.850 Z1.500 F500
G1 X-1.702 Y4.873 Z1.500 F500
G1 X-1.597 Y4.881 Z1.500 F500
G1 X35.461 Y4.881 Z1.500 F500
G1 X35.566 Y4.889 Z1.500 F500
G1 X35.668 Y4.913 Z1.500 F500
G1 X35.766 Y4.951 Z1.500 F500
G1 X35.858 Y5.004 Z1.500 F500
G1 X35.940 Y5.069 Z1.500 F500
G1 X36.012 Y5.147 Z1.500 F500
G1 X36.071 Y5.234 Z1.500 F500
G1 X36.117 Y5.328 Z1.500 F500
G1 X36.148 Y5.429 Z1.500 F500
G1 X36.163 Y5.533 Z1.500 F500
G1 X36.163 Y5.638 Z1.500 F500
G1 X36.148 Y5.743 Z1.500 F500
G1 X36.117 Y5.843 Z1.500 F500
G1 X36.071 Y5.938 Z1.500 F500
G1 X36.012 Y6.025 Z1.500 F500
G1 X35.940 Y6.102 Z1.500 F500
G1 X35.858 Y6.168 Z1.500 F500
G1 X35.766 Y6.220 Z1.500 F500
G1 X35.668 Y6.259 Z1.500 F500
G1 X35.566 Y6.282 Z1.500 F500
G1 X35.461 Y6.290 Z1.500 F500
G1 X-1.597 Y6.290 Z1.500 F500
G1 X-1.702 Y6.298 Z1.500 F500
G1 X-1.805 Y6.322 Z1.500 F500
G1 X-1.903 Y6.360 Z1.500 F500
G1 X-1.994 Y6.413 Z1.500 F500
G1 X-2.077 Y6.478 Z1.500 F500
G1 X-2.148 Y6.555 Z1.500 F500
G1 X-2.208 Y6.642 Z1.500 F500
G1 X-2.253 Y6.737 Z1.500 F500
G1 X-2.284 Y6.838 Z1.500 F500
G1 X-2.300 Y6.942 Z1.500 F500
G1 X-2.300 Y7.047 Z1.500 F500
G1 X-2.284 Y7.151 Z1.500 F500
G1 X-2.253 Y7.252 Z1.500 F500
G1 X-2.208 Y7.347 Z1.500 F500
G1 X-2.148 Y7.434 Z1.500 F500
G1 X-2.077 Y7.511 Z1.500 F500
G1 X-1.994 Y7.577 Z1.500 F500
G1 X-1.903 Y7.629 Z1.500 F500
G1 X-1.805 Y7.668 Z1.500 F500
G1 X-1.702 Y7.691 Z1.500 F500
G1 X-1.597 Y7.699 Z1.500 F500
G1 X35.461 Y7.699 Z1.500 F500
G1 X35.566 Y7.707 Z1.500 F500
G1 X35.668 Y7.730 Z1.500 F500
G1 X35.766 Y7.769 Z1.500 F500
G1 X35.858 Y7.822 Z1.500 F500
G1 X35.940 Y7.887 Z1.500 F500
G1 X36.012 Y7.964 Z1.500 F500
G1 X36.071 Y8.051 Z1.500 F500
G1 X36.117 Y8.146 Z1.500 F500
G1 X36.148 Y8.247 Z1.500 F500
G1 X36.163 Y8.351 Z1.500 F500
G1 X36.163 Y8.456 Z1.500 F500
G1 X36.148 Y8.560 Z1.500 F500
G1 X36.117 Y8.661 Z1.500 F500
G1 X36.071 Y8.756 Z1.500 F500
G1 X36.012 Y8.843 Z1.500 F500
G1 X35.940 Y8.920 Z1.500 F500
G1 X35.858 Y8.986 Z1.500 F500
G1 X35.766 Y9.038 Z1.500 F500
G1 X35.668 Y9.077 Z1.500 F500
G1 X35.566 Y9.100 Z1.500 F500
G1 X35.461 Y9.108 Z1.500 F500
G1 X-1.597 Y9.108 Z1.500 F500
G1 X-1.702 Y9.116 Z1.500 F500
G1 X-1.805 Y9.139 Z1.500 F500
G1 X-1.903 Y9.178 Z1.500 F500
G1 X-1.994 Y9.231 Z1.500 F500
G1 X-2.077 Y9.296 Z1.500 F500
G1 X-2.148 Y9.373 Z1.500 F500
G1 X-2.208 Y9.460 Z1.500 F500
G1 X-2.253 Y9.555 Z1.500 F500
G1 X-2.284 Y9.656 Z1.500 F500
G1 X-2.300 Y9.760 Z1.500 F500
G1 X-2.300 Y9.865 Z1.500 F500
G1 X-2.284 Y9.969 Z1.500 F500
G1 X-2.253 Y10.070 Z1.500 F500
G1 X-2.208 Y10.165 Z1.500 F500
G1 X-2.148 Y10.252 Z1.500 F500
G1 X-2.077 Y10.329 Z1.500 F500
G1 X-1.994 Y10.395 Z1.500 F500
G1 X-1.903 Y10.447 Z1.500 F500
G1 X-1.805 Y10.486 Z1.500 F500
G1 X-1.702 Y10.509 Z1.500 F500
G1 X-1.597 Y10.517 Z1.500 F500
G1 X35.461 Y10.517 Z1.500 F500
G1 X35.566 Y10.525 Z1.500 F500
G1 X35.668 Y10.548 Z1.500 F500
G1 X35.766 Y10.587 Z1.500 F500
G1 X35.858 Y10.640 Z1.500 F500
G1 X35.940 Y10.705 Z1.500 F500
G1 X36.012 Y10.782 Z1.500 F500
G1 X36.071 Y10.869 Z1.500 F500
G1 X36.117 Y10.964 Z1.500 F500
G1 X36.148 Y11.065 Z1.500 F500
G1 X36.163 Y11.169 Z1.500 F500
G1 X36.163 Y11.274 Z1.500 F500
G1 X36.148 Y11.378 Z1.500 F500
G1 X36.117 Y11.479 Z1.500 F500
G1 X36.071 Y11.574 Z1.500 F500
G1 X36.012 Y11.661 Z1.500 F500
G1 X35.940 Y11.738 Z1.500 F500
G1 X35.858 Y11.804 Z1.500 F500
G1 X35.766 Y11.856 Z1.500 F500
G1 X35.668 Y11.895 Z1.500 F500
G1 X35.566 Y11.918 Z1.500 F500
G1 X35.461 Y11.926 Z1.500 F500
G1 X-1.597 Y11.926 Z1.500 F500
G1 X-1.702 Y11.934 Z1.500 F500
G1 X-1.805 Y11.957 Z1.500 F500
G1 X-1.903 Y11.996 Z1.500 F500
G1 X-1.994 Y12.048 Z1.500 F500
G1 X-2.077 Y12.114 Z1.500 F500
G1 X-2.148 Y12.191 Z1.500 F500
G1 X-2.208 Y12.278 Z1.500 F500
G1 X-2.253 Y12.373 Z1.500 F500
G1 X-2.284 Y12.474 Z1.500 F500
G1 X-2.300 Y12.578 Z1.500 F500
G1 X-2.300 Y12.683 Z1.500 F500
G1 X-2.284 Y12.787 Z1.500 F500
G1 X-2.253 Y12.888 Z1.500 F500
G1 X-2.208 Y12.983 Z1.500 F500
G1 X-2.148 Y13.070 Z1.500 F500
G1 X-2.077 Y13.147 Z1.500 F500
G1 X-1.994 Y13.213 Z1.500 F500
G1 X-1.903 Y13.265 Z1.500 F500
G1 X-1.805 Y13.304 Z1.500 F500
G1 X-1.702 Y13.327 Z1.500 F500
G1 X-1.597 Y13.335 Z1.500 F500
G1 X35.461 Y13.335 Z1.500 F500
G1 X35.566 Y13.343 Z1.500 F500
G1 X35.668 Y13.366 Z1.500 F500
G1 X35.766 Y13.405 Z1.500 F500
G1 X35.858 Y13.457 Z1.500 F500
G1 X35.940 Y13.523 Z1.500 F500
G1 X36.012 Y13.600 Z1.500 F500
G1 X36.071 Y13.687 Z1.500 F500
G1 X36.117 Y13.782 Z1.500 F500
G1 X36.148 Y13.883 Z1.500 F500
G1 X36.163 Y13.987 Z1.500 F500
G1 X36.163 Y14.092 Z1.500 F500
G1 X36.148 Y14.196 Z1.500 F500
G1 X36.117 Y14.297 Z1.500 F500
G1 X36.071 Y14.392 Z1.500 F500
G1 X36.012 Y14.479 Z1.500 F500
G1 X35.940 Y14.556 Z1.500 F500
G1 X35.858 Y14.622 Z1.500 F500
G1 X35.766 Y14.674 Z1.500 F500
G1 X35.668 Y14.713 Z1.500 F500
G1 X35.566 Y14.736 Z1.500 F500
G1 X35.461 Y14.744 Z1.500 F500
G1 X-1.597 Y14.744 Z1.500 F500
G1 X-1.702 Y14.752 Z1.500 F500
G1 X-1.805 Y14.775 Z1.500 F500
G1 X-1.903 Y14.814 Z1.500 F500
G1 X-1.994 Y14.866 Z1.500 F500
G1 X-2.077 Y14.932 Z1.500 F500
G1 X-2.148 Y15.009 Z1.500 F500
G1 X-2.208 Y15.096 Z1.500 F500
G1 X-2.253 Y15.191 Z1.500 F500
G1 X-2.284 Y15.292 Z1.500 F500
G1 X-2.300 Y15.396 Z1.500 F500
G1 X-2.300 Y15.501 Z1.500 F500
G1 X-2.284 Y15.605 Z1.500 F500
G1 X-2.253 Y15.706 Z1.500 F500
G1 X-2.208 Y15.801 Z1.500 F500
G1 X-2.148 Y15.888 Z1.500 F500
G1 X-2.077 Y15.965 Z1.500 F500
G1 X-1.994 Y16.031 Z1.500 F500
G1 X-1.903 Y16.083 Z1.500 F500
G1 X-1.805 Y16.122 Z1.500 F500
G1 X-1.702 Y16.145 Z1.500 F500
G1 X-1.597 Y16.153 Z1.500 F500
G1 X35.461 Y16.153 Z1.500 F500
G1 X35.566 Y16.161 Z1.500 F500
G1 X35.668 Y16.184 Z1.500 F500
G1 X35.766 Y16.223 Z1.500 F500
G1 X35.858 Y16.275 Z1.500 F500
G1 X35.940 Y16.341 Z1.500 F500
G1 X36.012 Y16.418 Z1.500 F500
G1 X36.071 Y16.505 Z1.500 F500
G1 X36.117 Y16.600 Z1.500 F500
G1 X36.148 Y16.701 Z1.500 F500
G1 X36.163 Y16.805 Z1.500 F500
G1 X36.163 Y16.910 Z1.500 F500
G1 X36.148 Y17.014 Z1.500 F500
G1 X36.117 Y17.115 Z1.500 F500
G1 X36.071 Y17.210 Z1.500 F500
G1 X36.012 Y17.297 Z1.500 F500
G1 X35.940 Y17.374 Z1.500 F500
G1 X35.858 Y17.440 Z1.500 F500
G1 X35.766 Y17.492 Z1.500 F500
G1 X35.668 Y17.531 Z1.500 F500
G1 X35.566 Y17.554 Z1.500 F500
G1 X35.461 Y17.562 Z1.500 F500
G1 X-1.597 Y17.562 Z1.500 F500
G1 X-1.668 Y17.562 Z1.508 F500
G1 X-1.735 Y17.562 Z1.531 F500
G1 X-1.795 Y17.562 Z1.569 F500
G1 X-1.846 Y17.562 Z1.620 F500
G1 X-1.884 Y17.562 Z1.680 F500
G1 X-1.907 Y17.562 Z1.747 F500
G1 X-1.915 Y17.562 Z1.817 F500
G1 X-1.915 Y17.562 Z6.825 F500
G1 X-2.052 Y-2.164 Z6.825 F500
G1 X-2.052 Y-2.164 Z6.525 F500
G1 X-2.052 Y-2.164 Z1.717 F100
G1 X-2.044 Y-2.164 Z1.647 F500
G1 X-2.021 Y-2.164 Z1.580 F500
G1 X-1.983 Y-2.164 Z1.520 F500
G1 X-1.933 Y-2.164 Z1.469 F500
G1 X-1.872 Y-2.164 Z1.431 F500
G1 X-1.805 Y-2.164 Z1.408 F500
G1 X-1.735 Y-2.164 Z1.400 F500
G1 X-1.597 Y-2.164 Z1.400 F500
G1 X35.461 Y-2.164 Z1.400 F500
G1 X35.566 Y-2.156 Z1.400 F500
G1 X35.668 Y-2.132 Z1.400 F500
G1 X35.766 Y-2.094 Z1.400 F500
G1 X35.858 Y-2.041 Z1.400 F500
G1 X35.940 Y-1.975 Z1.400 F500
G1 X36.012 Y-1.898 Z1.400 F500
G1 X36.071 Y-1.811 Z1.400 F500
G1 X36.117 Y-1.716 Z1.400 F500
G1 X36.148 Y-1.616 Z1.400 F500
G1 X36.163 Y-1.512 Z1.400 F500
G1 X36.163 Y-1.406 Z1.400 F500
G1 X36.148 Y-1.302 Z1.400 F500
G1 X36.117 Y-1.202 Z1.400 F500
G1 X36.071 Y-1.107 Z1.400 F500
G1 X36.012 Y-1.020 Z1.400 F500
G1 X35.940 Y-0.943 Z1.400 F500
G1 X35.858 Y-0.877 Z1.400 F500
G1 X35.766 Y-0.824 Z1.400 F500
G1 X35.668 Y-0.786 Z1.400 F500
G1 X35.566 Y-0.762 Z1.400 F500
G1 X35.461 Y-0.755 Z1.400 F500
G1 X-1.597 Y-0.755 Z1.400 F500
G1 X-1.702 Y-0.747 Z1.400 F500
G1 X-1.805 Y-0.723 Z1.400 F500
G1 X-1.903 Y-0.685 Z1.400 F500
G1 X-1.994 Y-0.632 Z1.400 F500
G1 X-2.077 Y-0.567 Z1.400 F500
G1 X-2.148 Y-0.489 Z1.400 F500
G1 X-2.208 Y-0.402 Z1.400 F500
G1 X-2.253 Y-0.307 Z1.400 F500
G1 X-2.284 Y-0.207 Z1.400 F500
G1 X-2.300 Y-0.103 Z1.400 F500
G1 X-2.300 Y0.003 Z1.400 F500
G1 X-2.284 Y0.107 Z1.400 F500
G1 X-2.253 Y0.207 Z1.400 F500
G1 X-2.208 Y0.302 Z1.400 F500
G1 X-2.148 Y0.389 Z1.400 F500
G1 X-2.077 Y0.466 Z1.400 F500
G1 X-1.994 Y0.532 Z1.400 F500
G1 X-1.903 Y0.585 Z1.400 F500
G1 X-1.805 Y0.623 Z1.400 F500
G1 X-1.702 Y0.647 Z1.400 F500
G1 X-1.597 Y0.654 Z1.400 F500
G1 X35.461 Y0.654 Z1.400 F500
G1 X35.566 Y0.662 Z1.400 F500
G1 X35.668 Y0.686 Z1.400 F500
G1 X35.766 Y0.724 Z1.400 F500
G1 X35.858 Y0.777 Z1.400 F500
G1 X35.940 Y0.842 Z1.400 F500
G1 X36.012 Y0.920 Z1.400 F500
G1 X36.071 Y1.007 Z1.400 F500
G1 X36.117 Y1.101 Z1.400 F500
G1 X36.148 Y1.202 Z1.400 F500
G1 X36.163 Y1.306 Z1.400 F500
G1 X36.163 Y1.412 Z1.400 F500
G1 X36.148 Y1.516 Z1.400 F500
G1 X36.117 Y1.616 Z1.400 F500
G1 X36.071 Y1.711 Z1.400 F500
G1 X36.012 Y1.798 Z1.400 F500
G1 X35.940 Y1.875 Z1.400 F500
G1 X35.858 Y1.941 Z1.400 F500
G1 X35.766 Y1.994 Z1.400 F500
G1 X35.668 Y2.032 Z1.400 F500
G1 X35.566 Y2.055 Z1.400 F500
G1 X35.461 Y2.063 Z1.400 F500
G1 X-1.597 Y2.063 Z1.400 F500
G1 X-1.702 Y2.071 Z1.400 F500
G1 X-1.805 Y2.095 Z1.400 F500
G1 X-1.903 Y2.133 Z1.400 F500
G1 X-1.994 Y2.186 Z1.400 F500
G1 X-2.077 Y2.251 Z1.400 F500
G1 X-2.148 Y2.329 Z1.400 F500
G1 X-2.208 Y2.416 Z1.400 F500
G1 X-2.253 Y2.510 Z1.400 F500
G1 X-2.284 Y2.611 Z1.400 F500
G1 X-2.300 Y2.715 Z1.400 F500
G1 X-2.300 Y2.820 Z1.400 F500
G1 X-2.284 Y2.925 Z1.400 F500
G1 X-2.253 Y3.025 Z1.400 F500
G1 X-2.208 Y3.120 Z1.400 F500
G1 X-2.148 Y3.207 Z1.400 F500
G1 X-2.077 Y3.284 Z1.400 F500
G1 X-1.994 Y3.350 Z1.400 F500
G1 X-1.903 Y3.403 Z1.400 F500
G1 X-1.805 Y3.441 Z1.400 F500
G1 X-1.702 Y3.464 Z1.400 F500
G1 X-1.597 Y3.472 Z1.400 F500
G1 X35.461 Y3.472 Z1.400 F500
G1 X35.566 Y3.480 Z1.400 F500
G1 X35.668 Y3.504 Z1.400 F500
G1 X35.766 Y3.542 Z1.400 F500
G1 X35.858 Y3.595 Z1.400 F500
G1 X35.940 Y3.660 Z1.400 F500
G1 X36.012 Y3.738 Z1.400 F500
G1 X36.071 Y3.825 Z1.400 F500
G1 X36.117 Y3.919 Z1.400 F500
G1 X36.148 Y4.020 Z1.400 F500
G1 X36.163 Y4.124 Z1.400 F500
G1 X36.163 Y4.229 Z1.400 F500
G1 X36.148 Y4.334 Z1.400 F500
G1 X36.117 Y4.434 Z1.400 F500
G1 X36.071 Y4.529 Z1.400 F500
G1 X36.012 Y4.616 Z1.400 F500
G1 X35.940 Y4.693 Z1.400 F500
G1 X35.858 Y4.759 Z1.400 F500
G1 X35.766 Y4.812 Z1.400 F500
G1 X35.668 Y4.850 Z1.400 F500
G1 X35.566 Y4.873 Z1.400 F500
G1 X35.461 Y4.881 Z1.400 F500
G1 X-1.597 Y4.881 Z1.400 F500
G1 X-1.702 Y4.889 Z1.400 F500
G1 X-1.805 Y4.913 Z1.400 F500
G1 X-1.903 Y4.951 Z1.400 F500
G1 X-1.994 Y5.004 Z1.400 F500
G1 X-2.077 Y5.069 Z1.400 F500
G1 X-2.148 Y5.147 Z1.400 F500
G1 X-2.208 Y5.234 Z1.400 F500
G1 X-2.253 Y5.328 Z1.400 F500
G1 X-2.284 Y5.429 Z1.400 F500
G1 X-2.300 Y5.533 Z1.400 F500
G1 X-2.300 Y5.638 Z1.400 F500
G1 X-2.284 Y5.743 Z1.400 F500
G1 X-2.253 Y5.843 Z1.400 F500
G1 X-2.208 Y5.938 Z1.400 F500
G1 X-2.148 Y6.025 Z1.400 F500
G1 X-2.077 Y6.102 Z1.400 F500
G1 X-1.994 Y6.168 Z1.400 F500
G1 X-1.903 Y6.220 Z1.400 F500
G1 X-1.805 Y6.259 Z1.400 F500
G1 X-1.702 Y6.282 Z1.400 F500
G1 X-1.597 Y6.290 Z1.400 F500
G1 X35.461 Y6.290 Z1.400 F500
G1 X35.566 Y6.298 Z1.400 F500
G1 X35.668 Y6.322 Z1.400 F500
G1 X35.766 Y6.360 Z1.400 F500
G1 X35.858 Y6.413 Z1.400 F500
G1 X35.940 Y6.478 Z1.400 F500
G1 X36.012 Y6.555 Z1.400 F500
G1 X36.071 Y6.642 Z1.400 F500
G1 X36.117 Y6.737 Z1.400 F500
G1 X36.148 Y6.838 Z1.400 F500
G1 X36.163 Y6.942 Z1.400 F500
G1 X36.163 Y7.047 Z1.400 F500
G1 X36.148 Y7.151 Z1.400 F500
G1 X36.117 Y7.252 Z1.400 F500
G1 X36.071 Y7.347 Z1.400 F500
G1 X36.012 Y7.434 Z1.400 F500
G1 X35.940 Y7.511 Z1.400 F500
G1 X35.858 Y7.577 Z1.400 F500
G1 X35.766 Y7.629 Z1.400 F500
G1 X35.668 Y7.668 Z1.400 F500
G1 X35.566 Y7.691 Z1.400 F500
G1 X35.461 Y7.699 Z1.400 F500
G1 X-1.597 Y7.699 Z1.400 F500
G1 X-1.702 Y7.707 Z1.400 F500
G1 X-1.805 Y7.730 Z1.400 F500
G1 X-1.903 Y7.769 Z1.400 F500
G1 X-1.994 Y7.822 Z1.400 F500
G1 X-2.077 Y7.887 Z1.400 F500
G1 X-2.148 Y7.964 Z1.400 F500
G1 X-2.208 Y8.051 Z1.400 F500
G1 X-2.253 Y8.146 Z1.400 F500
G1 X-2.284 Y8.247 Z1.400 F500
G1 X-2.300 Y8.351 Z1.400 F500
G1 X-2.300 Y8.456 Z1.400 F500
G1 X-2.284 Y8.560 Z1.400 F500
G1 X-2.253 Y8.661 Z1.400 F500
G1 X-2.208 Y8.756 Z1.400 F500
G1 X-2.148 Y8.843 Z1.400 F500
G1 X-2.077 Y8.920 Z1.400 F500
G1 X-1.994 Y8.986 Z1.400 F500
G1 X-1.903 Y9.038 Z1.400 F500
G1 X-1.805 Y9.077 Z1.400 F500
G1 X-1.702 Y9.100 Z1.400 F500
G1 X-1.597 Y9.108 Z1.400 F500
G1 X35.461 Y9.108 Z1.400 F500
G1 X35.566 Y9.116 Z1.400 F500
G1 X35.668 Y9.139 Z1.400 F500
G1 X35.766 Y9.178 Z1.400 F500
G1 X35.858 Y9.231 Z1.400 F500
G1 X35.940 Y9.296 Z1.400 F500
G1 X36.012 Y9.373 Z1.400 F500
G1 X36.071 Y9.460 Z1.400 F500
G1 X36.117 Y9.555 Z1.400 F500
G1 X36.148 Y9.656 Z1.400 F500
G1 X36.163 Y9.760 Z1.400 F500
G1 X36.163 Y9.865 Z1.400 F500
G1 X36.148 Y9.969 Z1.400 F500
G1 X36.117 Y10.070 Z1.400 F500
G1 X36.071 Y10.165 Z1.400 F500
G1 X36.012 Y10.252 Z1.400 F500
G1 X35.940 Y10.329 Z1.400 F500
G1 X35.858 Y10.395 Z1.400 F500
G1 X35.766 Y10.447 Z1.400 F500
G1 X35.668 Y10.486 Z1.400 F500
G1 X35.566 Y10.509 Z1.400 F500
G1 X35.461 Y10.517 Z1.400 F500
G1 X-1.597 Y10.517 Z1.400 F500
G1 X-1.702 Y10.525 Z1.400 F500
G1 X-1.805 Y10.548 Z1.400 F500
G1 X-1.903 Y10.587 Z1.400 F500
G1 X-1.994 Y10.640 Z1.400 F500
G1 X-2.077 Y10.705 Z1.400 F500
G1 X-2.148 Y10.782 Z1.400 F500
G1 X-2.208 Y10.869 Z1.400 F500
G1 X-2.253 Y10.964 Z1.400 F500
G1 X-2.284 Y11.065 Z1.400 F500
G1 X-2.300 Y11.169 Z1.400 F500
G1 X-2.300 Y11.274 Z1.400 F500
G1 X-2.284 Y11.378 Z1.400 F500
G1 X-2.253 Y11.479 Z1.400 F500
G1 X-2.208 Y11.574 Z1.400 F500
G1 X-2.148 Y11.661 Z1.400 F500
G1 X-2.077 Y11.738 Z1.400 F500
G1 X-1.994 Y11.804 Z1.400 F500
G1 X-1.903 Y11.856 Z1.400 F500
G1 X-1.805 Y11.895 Z1.400 F500
G1 X-1.702 Y11.918 Z1.400 F500
G1 X-1.597 Y11.926 Z1.400 F500
G1 X35.461 Y11.926 Z1.400 F500
G1 X35.566 Y11.934 Z1.400 F500
G1 X35.668 Y11.957 Z1.400 F500
G1 X35.766 Y11.996 Z1.400 F500
G1 X35.858 Y12.048 Z1.400 F500
G1 X35.940 Y12.114 Z1.400 F500
G1 X36.012 Y12.191 Z1.400 F500
G1 X36.071 Y12.278 Z1.400 F500
G1 X36.117 Y12.373 Z1.400 F500
G1 X36.148 Y12.474 Z1.400 F500
G1 X36.163 Y12.578 Z1.400 F500
G1 X36.163 Y12.683 Z1.400 F500
G1 X36.148 Y12.787 Z1.400 F500
G1 X36.117 Y12.888 Z1.400 F500
G1 X36.071 Y12.983 Z1.400 F500
G1 X36.012 Y13.070 Z1.400 F500
G1 X35.940 Y13.147 Z1.400 F500
G1 X35.858 Y13.213 Z1.400 F500
G1 X35.766 Y13.265 Z1.400 F500
G1 X35.668 Y13.304 Z1.400 F500
G1 X35.566 Y13.327 Z1.400 F500
G1 X35.461 Y13.335 Z1.400 F500
G1 X-1.597 Y13.335 Z1.400 F500
G1 X-1.702 Y13.343 Z1.400 F500
G1 X-1.805 Y13.366 Z1.400 F500
G1 X-1.903 Y13.405 Z1.400 F500
G1 X-1.994 Y13.457 Z1.400 F500
G1 X-2.077 Y13.523 Z1.400 F500
G1 X-2.148 Y13.600 Z1.400 F500
G1 X-2.208 Y13.687 Z1.400 F500
G1 X-2.253 Y13.782 Z1.400 F500
G1 X-2.284 Y13.883 Z1.400 F500
G1 X-2.300 Y13.987 Z1.400 F500
G1 X-2.300 Y14.092 Z1.400 F500
G1 X-2.284 Y14.196 Z1.400 F500
G1 X-2.253 Y14.297 Z1.400 F500
G1 X-2.208 Y14.392 Z1.400 F500
G1 X-2.148 Y14.479 Z1.400 F500
G1 X-2.077 Y14.556 Z1.400 F500
G1 X-1.994 Y14.622 Z1.400 F500
G1 X-1.903 Y14.674 Z1.400 F500
G1 X-1.805 Y14.713 Z1.400 F500
G1 X-1.702 Y14.736 Z1.400 F500
G1 X-1.597 Y14.744 Z1.400 F500
G1 X35.461 Y14.744 Z1.400 F500
G1 X35.566 Y14.752 Z1.400 F500
G1 X35.668 Y14.775 Z1.400 F500
G1 X35.766 Y14.814 Z1.400 F500
G1 X35.858 Y14.866 Z1.400 F500
G1 X35.940 Y14.932 Z1.400 F500
G1 X36.012 Y15.009 Z1.400 F500
G1 X36.071 Y15.096 Z1.400 F500
G1 X36.117 Y15.191 Z1.400 F500
G1 X36.148 Y15.292 Z1.400 F500
G1 X36.163 Y15.396 Z1.400 F500
G1 X36.163 Y15.501 Z1.400 F500
G1 X36.148 Y15.605 Z1.400 F500
G1 X36.117 Y15.706 Z1.400 F500
G1 X36.071 Y15.801 Z1.400 F500
G1 X36.012 Y15.888 Z1.400 F500
G1 X35.940 Y15.965 Z1.400 F500
G1 X35.858 Y16.031 Z1.400 F500
G1 X35.766 Y16.083 Z1.400 F500
G1 X35.668 Y16.122 Z1.400 F500
G1 X35.566 Y16.145 Z1.400 F500
G1 X35.461 Y16.153 Z1.400 F500
G1 X-1.597 Y16.153 Z1.400 F500
G1 X-1.702 Y16.161 Z1.400 F500
G1 X-1.805 Y16.184 Z1.400 F500
G1 X-1.903 Y16.223 Z1.400 F500
G1 X-1.994 Y16.275 Z1.400 F500
G1 X-2.077 Y16.341 Z1.400 F500
G1 X-2.148 Y16.418 Z1.400 F500
G1 X-2.208 Y16.505 Z1.400 F500
G1 X-2.253 Y16.600 Z1.400 F500
G1 X-2.284 Y16.701 Z1.400 F500
G1 X-2.300 Y16.805 Z1.400 F500
G1 X-2.300 Y16.910 Z1.400 F500
G1 X-2.284 Y17.014 Z1.400 F500
G1 X-2.253 Y17.115 Z1.400 F500
G1 X-2.208 Y17.210 Z1.400 F500
G1 X-2.148 Y17.297 Z1.400 F500
G1 X-2.077 Y17.374 Z1.400 F500
G1 X-1.994 Y17.440 Z1.400 F500
G1 X-1.903 Y17.492 Z1.400 F500
G1 X-1.805 Y17.531 Z1.400 F500
G1 X-1.702 Y17.554 Z1.400 F500
G1 X-1.597 Y17.562 Z1.400 F500
G1 X35.461 Y17.562 Z1.400 F500
G1 X35.531 Y17.562 Z1.408 F500
G1 X35.599 Y17.562 Z1.431 F500
G1 X35.659 Y17.562 Z1.469 F500
G1 X35.709 Y17.562 Z1.520 F500
G1 X35.747 Y17.562 Z1.580 F500
G1 X35.770 Y17.562 Z1.647 F500
G1 X35.778 Y17.562 Z1.717 F500
G1 X35.778 Y17.562 Z6.825 F500
G1 X35.915 Y-2.164 Z6.825 F500
G1 X35.915 Y-2.164 Z6.525 F500
G1 X35.915 Y-2.164 Z1.617 F100
G1 X35.907 Y-2.164 Z1.547 F500
G1 X35.884 Y-2.164 Z1.480 F500
G1 X35.846 Y-2.164 Z1.420 F500
G1 X35.796 Y-2.164 Z1.369 F500
G1 X35.736 Y-2.164 Z1.331 F500
G1 X35.668 Y-2.164 Z1.308 F500
G1 X35.598 Y-2.164 Z1.300 F500
G1 X35.461 Y-2.164 Z1.300 F500
G1 X-1.597 Y-2.164 Z1.300 F500
G1 X-1.702 Y-2.156 Z1.300 F500
G1 X-1.805 Y-2.132 Z1.300 F500
G1 X-1.903 Y-2.094 Z1.300 F500
G1 X-1.994 Y-2.041 Z1.300 F500
G1 X-2.077 Y-1.975 Z1.300 F500
G1 X-2.148 Y-1.898 Z1.300 F500
G1 X-2.208 Y-1.811 Z1.300 F500
G1 X-2.253 Y-1.716 Z1.300 F500
G1 X-2.284 Y-1.616 Z1.300 F500
G1 X-2.300 Y-1.512 Z1.300 F500
G1 X-2.300 Y-1.406 Z1.300 F500
G1 X-2.284 Y-1.302 Z1.300 F500
G1 X-2.253 Y-1.202 Z1.300 F500
G1 X-2.208 Y-1.107 Z1.300 F500
G1 X-2.148 Y-1.020 Z1.300 F500
G1 X-2.077 Y-0.943 Z1.300 F500
G1 X-1.994 Y-0.877 Z1.300 F500
G1 X-1.903 Y-0.824 Z1.300 F500
G1 X-1.805 Y-0.786 Z1.300 F500
G1 X-1.702 Y-0.762 Z1.300 F500
G1 X-1.597 Y-0.755 Z1.300 F500
G1 X35.461 Y-0.755 Z1.300 F500
G1 X35.566 Y-0.747 Z1.300 F500
G1 X35.668 Y-0.723 Z1.300 F500
G1 X35.766 Y-0.685 Z1.300 F500
G1 X35.858 Y-0.632 Z1.300 F500
G1 X35.940 Y-0.567 Z1.300 F500
G1 X36.012 Y-0.489 Z1.300 F500
G1 X36.071 Y-0.402 Z1.300 F500
G1 X36.117 Y-0.307 Z1.300 F500
G1 X36.148 Y-0.207 Z1.300 F500
G1 X36.163 Y-0.103 Z1.300 F500
G1 X36.163 Y0.003 Z1.300 F500
G1 X36.148 Y0.107 Z1.300 F500
G1 X36.117 Y0.207 Z1.300 F500
G1 X36.071 Y0.302 Z1.300 F500
G1 X36.012 Y0.389 Z1.300 F500
G1 X35.940 Y0.466 Z1.300 F500
G1 X35.858 Y0.532 Z1.300 F500
G1 X35.766 Y0.585 Z1.300 F500
G1 X35.668 Y0.623 Z1.300 F500
G1 X35.566 Y0.647 Z1.300 F500
G1 X35.461 Y0.654 Z1.300 F500
G1 X-1.597 Y0.654 Z1.300 F500
G1 X-1.702 Y0.662 Z1.300 F500
G1 X-1.805 Y0.686 Z1.300 F500
G1 X-1.903 Y0.724 Z1.300 F500
G1 X-1.994 Y0.777 Z1.300 F500
G1 X-2.077 Y0.842 Z1.300 F500
G1 X-2.148 Y0.920 Z1.300 F500
G1 X-2.208 Y1.007 Z1.300 F500
G1 X-2.253 Y1.101 Z1.300 F500
G1 X-2.284 Y1.202 Z1.300 F500
G1 X-2.300 Y1.306 Z1.300 F500
G1 X-2.300 Y1.412 Z1.300 F500
G1 X-2.284 Y1.516 Z1.300 F500
G1 X-2.253 Y1.616 Z1.300 F500
G1 X-2.208 Y1.711 Z1.300 F500
G1 X-2.148 Y1.798 Z1.300 F500
G1 X-2.077 Y1.875 Z1.300 F500
G1 X-1.994 Y1.941 Z1.300 F500
G1 X-1.903 Y1.994 Z1.300 F500
G1 X-1.805 Y2.032 Z1.300 F500
G1 X-1.702 Y2.055 Z1.300 F500
G1 X-1.597 Y2.063 Z1.300 F500
G1 X35.461 Y2.063 Z1.300 F500
G1 X35.566 Y2.071 Z1.300 F500
G1 X35.668 Y2.095 Z1.300 F500
G1 X35.766 Y2.133 Z1.300 F500
G1 X35.858 Y2.186 Z1.300 F500
G1 X35.940 Y2.251 Z1.300 F500
G1 X36.012 Y2.329 Z1.300 F500
G1 X36.071 Y2.416 Z1.300 F500
G1 X36.117 Y2.510 Z1.300 F500
G1 X36.148 Y2.611 Z1.300 F500
G1 X36.163 Y2.715 Z1.300 F500
G1 X36.163 Y2.820 Z1.300 F500
G1 X36.148 Y2.925 Z1.300 F500
G1 X36.117 Y3.025 Z1.300 F500
G1 X36.071 Y3.120 Z1.300 F500
G1 X36.012 Y3.207 Z1.300 F500
G1 X35.940 Y3.284 Z1.300 F500
G1 X35.858 Y3.350 Z1.300 F500
G1 X35.766 Y3.403 Z1.300 F500
G1 X35.668 Y3.441 Z1.300 F500
G1 X35.566 Y3.464 Z1.300 F500
G1 X35.461 Y3.472 Z1.300 F500
G1 X-1.597 Y3.472 Z1.300 F500
G1 X-1.702 Y3.480 Z1.300 F500
G1 X-1.805 Y3.504 Z1.300 F500
G1 X-1.903 Y3.542 Z1.300 F500
G1 X-1.994 Y3.595 Z1.300 F500
G1 X-2.077 Y3.660 Z1.300 F500
G1 X-2.148 Y3.738 Z1.300 F500
G1 X-2.208 Y3.825 Z1.300 F500
G1 X-2.253 Y3.919 Z1.300 F500
G1 X-2.284 Y4.020 Z1.300 F500
G1 X-2.300 Y4.124 Z1.300 F500
G1 X-2.300 Y4.229 Z1.300 F500
G1 X-2.284 Y4.334 Z1.300 F500
G1 X-2.253 Y4.434 Z1.300 F500
G1 X-2.208 Y4.529 Z1.300 F500
G1 X-2.148 Y4.616 Z1.300 F500
G1 X-2.077 Y4.693 Z1.300 F500
G1 X-1.994 Y4.759 Z1.300 F500
G1 X-1.903 Y4.812 Z1.300 F500
G1 X-1.805 Y4.850 Z1.300 F500
G1 X-1.702 Y4.873 Z1.300 F500
G1 X-1.597 Y4.881 Z1.300 F500
G1 X35.461 Y4.881 Z1.300 F500
G1 X35.566 Y4.889 Z1.300 F500
G1 X35.668 Y4.913 Z1.300 F500
G1 X35.766 Y4.951 Z1.300 F500
G1 X35.858 Y5.004 Z1.300 F500
G1 X35.940 Y5.069 Z1.300 F500
G1 X36.012 Y5.147 Z1.300 F500
G1 X36.071 Y5.234 Z1.300 F500
G1 X36.117 Y5.328 Z1.300 F500
G1 X36.148 Y5.429 Z1.300 F500
G1 X36.163 Y5.533 Z1.300 F500
G1 X36.163 Y5.638 Z1.300 F500
G1 X36.148 Y5.743 Z1.300 F500
G1 X36.117 Y5.843 Z1.300 F500
G1 X36.071 Y5.938 Z1.300 F500
G1 X36.012 Y6.025 Z1.300 F500
G1 X35.940 Y6.102 Z1.300 F500
G1 X35.858 Y6.168 Z1.300 F500
G1 X35.766 Y6.220 Z1.300 F500
G1 X35.668 Y6.259 Z1.300 F500
G1 X35.566 Y6.282 Z1.300 F500
G1 X35.461 Y6.290 Z1.300 F500
G1 X-1.597 Y6.290 Z1.300 F500
G1 X-1.702 Y6.298 Z1.300 F500
G1 X-1.805 Y6.322 Z1.300 F500
G1 X-1.903 Y6.360 Z1.300 F500
G1 X-1.994 Y6.413 Z1.300 F500
G1 X-2.077 Y6.478 Z1.300 F500
G1 X-2.148 Y6.555 Z1.300 F500
G1 X-2.208 Y6.642 Z1.300 F500
G1 X-2.253 Y6.737 Z1.300 F500
G1 X-2.284 Y6.838 Z1.300 F500
G1 X-2.300 Y6.942 Z1.300 F500
G1 X-2.300 Y7.047 Z1.300 F500
G1 X-2.284 Y7.151 Z1.300 F500
G1 X-2.253 Y7.252 Z1.300 F500
G1 X-2.208 Y7.347 Z1.300 F500
G1 X-2.148 Y7.434 Z1.300 F500
G1 X-2.077 Y7.511 Z1.300 F500
G1 X-1.994 Y7.577 Z1.300 F500
G1 X-1.903 Y7.629 Z1.300 F500
G1 X-1.805 Y7.668 Z1.300 F500
G1 X-1.702 Y7.691 Z1.300 F500
G1 X-1.597 Y7.699 Z1.300 F500
G1 X35.461 Y7.699 Z1.300 F500
G1 X35.566 Y7.707 Z1.300 F500
G1 X35.668 Y7.730 Z1.300 F500
G1 X35.766 Y7.769 Z1.300 F500
G1 X35.858 Y7.822 Z1.300 F500
G1 X35.940 Y7.887 Z1.300 F500
G1 X36.012 Y7.964 Z1.300 F500
G1 X36.071 Y8.051 Z1.300 F500
G1 X36.117 Y8.146 Z1.300 F500
G1 X36.148 Y8.247 Z1.300 F500
G1 X36.163 Y8.351 Z1.300 F500
G1 X36.163 Y8.456 Z1.300 F500
G1 X36.148 Y8.560 Z1.300 F500
G1 X36.117 Y8.661 Z1.300 F500
G1 X36.071 Y8.756 Z1.300 F500
G1 X36.012 Y8.843 Z1.300 F500
G1 X35.940 Y8.920 Z1.300 F500
G1 X35.858 Y8.986 Z1.300 F500
G1 X35.766 Y9.038 Z1.300 F500
G1 X35.668 Y9.077 Z1.300 F500
G1 X35.566 Y9.100 Z1.300 F500
G1 X35.461 Y9.108 Z1.300 F500
G1 X-1.597 Y9.108 Z1.300 F500
G1 X-1.702 Y9.116 Z1.300 F500
G1 X-1.805 Y9.139 Z1.300 F500
G1 X-1.903 Y9.178 Z1.300 F500
G1 X-1.994 Y9.231 Z1.300 F500
G1 X-2.077 Y9.296 Z1.300 F500
G1 X-2.148 Y9.373 Z1.300 F500
G1 X-2.208 Y9.460 Z1.300 F500
G1 X-2.253 Y9.555 Z1.300 F500
G1 X-2.284 Y9.656 Z1.300 F500
G1 X-2.300 Y9.760 Z1.300 F500
G1 X-2.300 Y9.865 Z1.300 F500
G1 X-2.284 Y9.969 Z1.300 F500
G1 X-2.253 Y10.070 Z1.300 F500
G1 X-2.208 Y10.165 Z1.300 F500
G1 X-2.148 Y10.252 Z1.300 F500
G1 X-2.077 Y10.329 Z1.300 F500
G1 X-1.994 Y10.395 Z1.300 F500
G1 X-1.903 Y10.447 Z1.300 F500
G1 X-1.805 Y10.486 Z1.300 F500
G1 X-1.702 Y10.509 Z1.300 F500
G1 X-1.597 Y10.517 Z1.300 F500
G1 X35.461 Y10.517 Z1.300 F500
G1 X35.566 Y10.525 Z1.300 F500
G1 X35.668 Y10.548 Z1.300 F500
G1 X35.766 Y10.587 Z1.300 F500
G1 X35.858 Y10.640 Z1.300 F500
G1 X35.940 Y10.705 Z1.300 F500
G1 X36.012 Y10.782 Z1.300 F500
G1 X36.071 Y10.869 Z1.300 F500
G1 X36.117 Y10.964 Z1.300 F500
G1 X36.148 Y11.065 Z1.300 F500
G1 X36.163 Y11.169 Z1.300 F500
G1 X36.163 Y11.274 Z1.300 F500
G1 X36.148 Y11.378 Z1.300 F500
G1 X36.117 Y11.479 Z1.300 F500
G1 X36.071 Y11.574 Z1.300 F500
G1 X36.012 Y11.661 Z1.300 F500
G1 X35.940 Y11.738 Z1.300 F500
G1 X35.858 Y11.804 Z1.300 F500
G1 X35.766 Y11.856 Z1.300 F500
G1 X35.668 Y11.895 Z1.300 F500
G1 X35.566 Y11.918 Z1.300 F500
G1 X35.461 Y11.926 Z1.300 F500
G1 X-1.597 Y11.926 Z1.300 F500
G1 X-1.702 Y11.934 Z1.300 F500
G1 X-1.805 Y11.957 Z1.300 F500
G1 X-1.903 Y11.996 Z1.300 F500
G1 X-1.994 Y12.048 Z1.300 F500
G1 X-2.077 Y12.114 Z1.300 F500
G1 X-2.148 Y12.191 Z1.300 F500
G1 X-2.208 Y12.278 Z1.300 F500
G1 X-2.253 Y12.373 Z1.300 F500
G1 X-2.284 Y12.474 Z1.300 F500
G1 X-2.300 Y12.578 Z1.300 F500
G1 X-2.300 Y12.683 Z1.300 F500
G1 X-2.284 Y12.787 Z1.300 F500
G1 X-2.253 Y12.888 Z1.300 F500
G1 X-2.208 Y12.983 Z1.300 F500
G1 X-2.148 Y13.070 Z1.300 F500
G1 X-2.077 Y13.147 Z1.300 F500
G1 X-1.994 Y13.213 Z1.300 F500
G1 X-1.903 Y13.265 Z1.300 F500
G1 X-1.805 Y13.304 Z1.300 F500
G1 X-1.702 Y13.327 Z1.300 F500
G1 X-1.597 Y13.335 Z1.300 F500
G1 X35.461 Y13.335 Z1.300 F500
G1 X35.566 Y13.343 Z1.300 F500
G1 X35.668 Y13.366 Z1.300 F500
G1 X35.766 Y13.405 Z1.300 F500
G1 X35.858 Y13.457 Z1.300 F500
G1 X35.940 Y13.523 Z1.300 F500
G1 X36.012 Y13.600 Z1.300 F500
G1 X36.071 Y13.687 Z1.300 F500
G1 X36.117 Y13.782 Z1.300 F500
G1 X36.148 Y13.883 Z1.300 F500
G1 X36.163 Y13.987 Z1.300 F500
G1 X36.163 Y14.092 Z1.300 F500
G1 X36.148 Y14.196 Z1.300 F500
G1 X36.117 Y14.297 Z1.300 F500
G1 X36.071 Y14.392 Z1.300 F500
G1 X36.012 Y14.479 Z1.300 F500
G1 X35.940 Y14.556 Z1.300 F500
G1 X35.858 Y14.622 Z1.300 F500
G1 X35.766 Y14.674 Z1.300 F500
G1 X35.668 Y14.713 Z1.300 F500
G1 X35.566 Y14.736 Z1.300 F500
G1 X35.461 Y14.744 Z1.300 F500
G1 X-1.597 Y14.744 Z1.300 F500
G1 X-1.702 Y14.752 Z1.300 F500
G1 X-1.805 Y14.775 Z1.300 F500
G1 X-1.903 Y14.814 Z1.300 F500
G1 X-1.994 Y14.866 Z1.300 F500
G1 X-2.077 Y14.932 Z1.300 F500
G1 X-2.148 Y15.009 Z1.300 F500
G1 X-2.208 Y15.096 Z1.300 F500
G1 X-2.253 Y15.191 Z1.300 F500
G1 X-2.284 Y15.292 Z1.300 F500
G1 X-2.300 Y15.396 Z1.300 F500
G1 X-2.300 Y15.501 Z1.300 F500
G1 X-2.284 Y15.605 Z1.300 F500
G1 X-2.253 Y15.706 Z1.300 F500
G1 X-2.208 Y15.801 Z1.300 F500
G1 X-2.148 Y15.888 Z1.300 F500
G1 X-2.077 Y15.965 Z1.300 F500
G1 X-1.994 Y16.031 Z1.300 F500
G1 X-1.903 Y16.083 Z1.300 F500
G1 X-1.805 Y16.122 Z1.300 F500
G1 X-1.702 Y16.145 Z1.300 F500
G1 X-1.597 Y16.153 Z1.300 F500
G1 X35.461 Y16.153 Z1.300 F500
G1 X35.566 Y16.161 Z1.300 F500
G1 X35.668 Y16.184 Z1.300 F500
G1 X35.766 Y16.223 Z1.300 F500
G1 X35.858 Y16.275 Z1.300 F500
G1 X35.940 Y16.341 Z1.300 F500
G1 X36.012 Y16.418 Z1.300 F500
G1 X36.071 Y16.505 Z1.300 F500
G1 X36.117 Y16.600 Z1.300 F500
G1 X36.148 Y16.701 Z1.300 F500
G1 X36.163 Y16.805 Z1.300 F500
G1 X36.163 Y16.910 Z1.300 F500
G1 X36.148 Y17.014 Z1.300 F500
G1 X36.117 Y17.115 Z1.300 F500
G1 X36.071 Y17.210 Z1.300 F500
G1 X36.012 Y17.297 Z1.300 F500
G1 X35.940 Y17.374 Z1.300 F500
G1 X35.858 Y17.440 Z1.300 F500
G1 X35.766 Y17.492 Z1.300 F500
G1 X35.668 Y17.531 Z1.300 F500
G1 X35.566 Y17.554 Z1.300 F500
G1 X35.461 Y17.562 Z1.300 F500
G1 X-1.597 Y17.562 Z1.300 F500
G1 X-1.668 Y17.562 Z1.308 F500
G1 X-1.735 Y17.562 Z1.331 F500
G1 X-1.795 Y17.562 Z1.369 F500
G1 X-1.846 Y17.562 Z1.420 F500
G1 X-1.884 Y17.562 Z1.480 F500
G1 X-1.907 Y17.562 Z1.547 F500
G1 X-1.915 Y17.562 Z1.617 F500
G1 X-1.915 Y17.562 Z6.825 F500
G1 X-2.052 Y-2.164 Z6.825 F500
G1 X-2.052 Y-2.164 Z6.525 F500
G1 X-2.052 Y-2.164 Z1.518 F100
G1 X-2.044 Y-2.164 Z1.447 F500
G1 X-2.021 Y-2.164 Z1.380 F500
G1 X-1.983 Y-2.164 Z1.320 F500
G1 X-1.933 Y-2.164 Z1.269 F500
G1 X-1.872 Y-2.164 Z1.231 F500
G1 X-1.805 Y-2.164 Z1.208 F500
G1 X-1.735 Y-2.164 Z1.200 F500
G1 X-1.597 Y-2.164 Z1.200 F500
G1 X35.461 Y-2.164 Z1.200 F500
G1 X35.566 Y-2.156 Z1.200 F500
G1 X35.668 Y-2.132 Z1.200 F500
G1 X35.766 Y-2.094 Z1.200 F500
G1 X35.858 Y-2.041 Z1.200 F500
G1 X35.940 Y-1.975 Z1.200 F500
G1 X36.012 Y-1.898 Z1.200 F500
G1 X36.071 Y-1.811 Z1.200 F500
G1 X36.117 Y-1.716 Z1.200 F500
G1 X36.148 Y-1.616 Z1.200 F500
G1 X36.163 Y-1.512 Z1.200 F500
G1 X36.163 Y-1.406 Z1.200 F500
G1 X36.148 Y-1.302 Z1.200 F500
G1 X36.117 Y-1.202 Z1.200 F500
G1 X36.071 Y-1.107 Z1.200 F500
G1 X36.012 Y-1.020 Z1.200 F500
G1 X35.940 Y-0.943 Z1.200 F500
G1 X35.858 Y-0.877 Z1.200 F500
G1 X35.766 Y-0.824 Z1.200 F500
G1 X35.668 Y-0.786 Z1.200 F500
G1 X35.566 Y-0.762 Z1.200 F500
G1 X35.461 Y-0.755 Z1.200 F500
G1 X-1.597 Y-0.755 Z1.200 F500
G1 X-1.702 Y-0.747 Z1.200 F500
G1 X-1.805 Y-0.723 Z1.200 F500
G1 X-1.903 Y-0.685 Z1.200 F500
G1 X-1.994 Y-0.632 Z1.200 F500
G1 X-2.077 Y-0.567 Z1.200 F500
G1 X-2.148 Y-0.489 Z1.200 F500
G1 X-2.208 Y-0.402 Z1.200 F500
G1 X-2.253 Y-0.307 Z1.200 F500
G1 X-2.284 Y-0.207 Z1.200 F500
G1 X-2.300 Y-0.103 Z1.200 F500
G1 X-2.300 Y0.003 Z1.200 F500
G1 X-2.284 Y0.107 Z1.200 F500
G1 X-2.253 Y0.207 Z1.200 F500
G1 X-2.208 Y0.302 Z1.200 F500
G1 X-2.148 Y0.389 Z1.200 F500
G1 X-2.077 Y0.466 Z1.200 F500
G1 X-1.994 Y0.532 Z1.200 F500
G1 X-1.903 Y0.585 Z1.200 F500
G1 X-1.805 Y0.623 Z1.200 F500
G1 X-1.702 Y0.647 Z1.200 F500
G1 X-1.597 Y0.654 Z1.200 F500
G1 X35.461 Y0.654 Z1.200 F500
G1 X35.566 Y0.662 Z1.200 F500
G1 X35.668 Y0.686 Z1.200 F500
G1 X35.766 Y0.724 Z1.200 F500
G1 X35.858 Y0.777 Z1.200 F500
G1 X35.940 Y0.842 Z1.200 F500
G1 X36.012 Y0.920 Z1.200 F500
G1 X36.071 Y1.007 Z1.200 F500
G1 X36.117 Y1.101 Z1.200 F500
G1 X36.148 Y1.202 Z1.200 F500
G1 X36.163 Y1.306 Z1.200 F500
G1 X36.163 Y1.412 Z1.200 F500
G1 X36.148 Y1.516 Z1.200 F500
G1 X36.117 Y1.616 Z1.200 F500
G1 X36.071 Y1.711 Z1.200 F500
G1 X36.012 Y1.798 Z1.200 F500
G1 X35.940 Y1.875 Z1.200 F500
G1 X35.858 Y1.941 Z1.200 F500
G1 X35.766 Y1.994 Z1.200 F500
G1 X35.668 Y2.032 Z1.200 F500
G1 X35.566 Y2.055 Z1.200 F500
G1 X35.461 Y2.063 Z1.200 F500
G1 X-1.597 Y2.063 Z1.200 F500
G1 X-1.702 Y2.071 Z1.200 F500
G1 X-1.805 Y2.095 Z1.200 F500
G1 X-1.903 Y2.133 Z1.200 F500
G1 X-1.994 Y2.186 Z1.200 F500
G1 X-2.077 Y2.251 Z1.200 F500
G1 X-2.148 Y2.329 Z1.200 F500
G1 X-2.208 Y2.416 Z1.200 F500
G1 X-2.253 Y2.510 Z1.200 F500
G1 X-2.284 Y2.611 Z1.200 F500
G1 X-2.300 Y2.715 Z1.200 F500
G1 X-2.300 Y2.820 Z1.200 F500
G1 X-2.284 Y2.925 Z1.200 F500
G1 X-2.253 Y3.025 Z1.200 F500
G1 X-2.208 Y3.120 Z1.200 F500
G1 X-2.148 Y3.207 Z1.200 F500
G1 X-2.077 Y3.284 Z1.200 F500
G1 X-1.994 Y3.350 Z1.200 F500
G1 X-1.903 Y3.403 Z1.200 F500
G1 X-1.805 Y3.441 Z1.200 F500
G1 X-1.702 Y3.464 Z1.200 F500
G1 X-1.597 Y3.472 Z1.200 F500
G1 X35.461 Y3.472 Z1.200 F500
G1 X35.566 Y3.480 Z1.200 F500
G1 X35.668 Y3.504 Z1.200 F500
G1 X35.766 Y3.542 Z1.200 F500
G1 X35.858 Y3.595 Z1.200 F500
G1 X35.940 Y3.660 Z1.200 F500
G1 X36.012 Y3.738 Z1.200 F500
G1 X36.071 Y3.825 Z1.200 F500
G1 X36.117 Y3.919 Z1.200 F500
G1 X36.148 Y4.020 Z1.200 F500
G1 X36.163 Y4.124 Z1.200 F500
G1 X36.163 Y4.229 Z1.200 F500
G1 X36.148 Y4.334 Z1.200 F500
G1 X36.117 Y4.434 Z1.200 F500
G1 X36.071 Y4.529 Z1.200 F500
G1 X36.012 Y4.616 Z1.200 F500
G1 X35.940 Y4.693 Z1.200 F500
G1 X35.858 Y4.759 Z1.200 F500
G1 X35.766 Y4.812 Z1.200 F500
G1 X35.668 Y4.850 Z1.200 F500
G1 X35.566 Y4.873 Z1.200 F500
G1 X35.461 Y4.881 Z1.200 F500
G1 X-1.597 Y4.881 Z1.200 F500
G1 X-1.702 Y4.889 Z1.200 F500
G1 X-1.805 Y4.913 Z1.200 F500
G1 X-1.903 Y4.951 Z1.200 F500
G1 X-1.994 Y5.004 Z1.200 F500
G1 X-2.077 Y5.069 Z1.200 F500
G1 X-2.148 Y5.147 Z1.200 F500
G1 X-2.208 Y5.234 Z1.200 F500
G1 X-2.253 Y5.328 Z1.200 F500
G1 X-2.284 Y5.429 Z1.200 F500
G1 X-2.300 Y5.533 Z1.200 F500
G1 X-2.300 Y5.638 Z1.200 F500
G1 X-2.284 Y5.743 Z1.200 F500
G1 X-2.253 Y5.843 Z1.200 F500
G1 X-2.208 Y5.938 Z1.200 F500
G1 X-2.148 Y6.025 Z1.200 F500
G1 X-2.077 Y6.102 Z1.200 F500
G1 X-1.994 Y6.168 Z1.200 F500
G1 X-1.903 Y6.220 Z1.200 F500
G1 X-1.805 Y6.259 Z1.200 F500
G1 X-1.702 Y6.282 Z1.200 F500
G1 X-1.597 Y6.290 Z1.200 F500
G1 X35.461 Y6.290 Z1.200 F500
G1 X35.566 Y6.298 Z1.200 F500
G1 X35.668 Y6.322 Z1.200 F500
G1 X35.766 Y6.360 Z1.200 F500
G1 X35.858 Y6.413 Z1.200 F500
G1 X35.940 Y6.478 Z1.200 F500
G1 X36.012 Y6.555 Z1.200 F500
G1 X36.071 Y6.642 Z1.200 F500
G1 X36.117 Y6.737 Z1.200 F500
G1 X36.148 Y6.838 Z1.200 F500
G1 X36.163 Y6.942 Z1.200 F500
G1 X36.163 Y7.047 Z1.200 F500
G1 X36.148 Y7.151 Z1.200 F500
G1 X36.117 Y7.252 Z1.200 F500
G1 X36.071 Y7.347 Z1.200 F500
G1 X36.012 Y7.434 Z1.200 F500
G1 X35.940 Y7.511 Z1.200 F500
G1 X35.858 Y7.577 Z1.200 F500
G1 X35.766 Y7.629 Z1.200 F500
G1 X35.668 Y7.668 Z1.200 F500
G1 X35.566 Y7.691 Z1.200 F500
G1 X35.461 Y7.699 Z1.200 F500
G1 X-1.597 Y7.699 Z1.200 F500
G1 X-1.702 Y7.707 Z1.200 F500
G1 X-1.805 Y7.730 Z1.200 F500
G1 X-1.903 Y7.769 Z1.200 F500
G1 X-1.994 Y7.822 Z1.200 F500
G1 X-2.077 Y7.887 Z1.200 F500
G1 X-2.148 Y7.964 Z1.200 F500
G1 X-2.208 Y8.051 Z1.200 F500
G1 X-2.253 Y8.146 Z1.200 F500
G1 X-2.284 Y8.247 Z1.200 F500
G1 X-2.300 Y8.351 Z1.200 F500
G1 X-2.300 Y8.456 Z1.200 F500
G1 X-2.284 Y8.560 Z1.200 F500
G1 X-2.253 Y8.661 Z1.200 F500
G1 X-2.208 Y8.756 Z1.200 F500
G1 X-2.148 Y8.843 Z1.200 F500
G1 X-2.077 Y8.920 Z1.200 F500
G1 X-1.994 Y8.986 Z1.200 F500
G1 X-1.903 Y9.038 Z1.200 F500
G1 X-1.805 Y9.077 Z1.200 F500
G1 X-1.702 Y9.100 Z1.200 F500
G1 X-1.597 Y9.108 Z1.200 F500
G1 X35.461 Y9.108 Z1.200 F500
G1 X35.566 Y9.116 Z1.200 F500
G1 X35.668 Y9.139 Z1.200 F500
G1 X35.766 Y9.178 Z1.200 F500
G1 X35.858 Y9.231 Z1.200 F500
G1 X35.940 Y9.296 Z1.200 F500
G1 X36.012 Y9.373 Z1.200 F500
G1 X36.071 Y9.460 Z1.200 F500
G1 X36.117 Y9.555 Z1.200 F500
G1 X36.148 Y9.656 Z1.200 F500
G1 X36.163 Y9.760 Z1.200 F500
G1 X36.163 Y9.865 Z1.200 F500
G1 X36.148 Y9.969 Z1.200 F500
G1 X36.117 Y10.070 Z1.200 F500
G1 X36.071 Y10.165 Z1.200 F500
G1 X36.012 Y10.252 Z1.200 F500
G1 X35.940 Y10.329 Z1.200 F500
G1 X35.858 Y10.395 Z1.200 F500
G1 X35.766 Y10.447 Z1.200 F500
G1 X35.668 Y10.486 Z1.200 F500
G1 X35.566 Y10.509 Z1.200 F500
G1 X35.461 Y10.517 Z1.200 F500
G1 X-1.597 Y10.517 Z1.200 F500
G1 X-1.702 Y10.525 Z1.200 F500
G1 X-1.805 Y10.548 Z1.200 F500
G1 X-1.903 Y10.587 Z1.200 F500
G1 X-1.994 Y10.640 Z1.200 F500
G1 X-2.077 Y10.705 Z1.200 F500
G1 X-2.148 Y10.782 Z1.200 F500
G1 X-2.208 Y10.869 Z1.200 F500
G1 X-2.253 Y10.964 Z1.200 F500
G1 X-2.284 Y11.065 Z1.200 F500
G1 X-2.300 Y11.169 Z1.200 F500
G1 X-2.300 Y11.274 Z1.200 F500
G1 X-2.284 Y11.378 Z1.200 F500
G1 X-2.253 Y11.479 Z1.200 F500
G1 X-2.208 Y11.574 Z1.200 F500
G1 X-2.148 Y11.661 Z1.200 F500
G1 X-2.077 Y11.738 Z1.200 F500
G1 X-1.994 Y11.804 Z1.200 F500
G1 X-1.903 Y11.856 Z1.200 F500
G1 X-1.805 Y11.895 Z1.200 F500
G1 X-1.702 Y11.918 Z1.200 F500
G1 X-1.597 Y11.926 Z1.200 F500
G1 X35.461 Y11.926 Z1.200 F500
G1 X35.566 Y11.934 Z1.200 F500
G1 X35.668 Y11.957 Z1.200 F500
G1 X35.766 Y11.996 Z1.200 F500
G1 X35.858 Y12.048 Z1.200 F500
G1 X35.940 Y12.114 Z1.200 F500
G1 X36.012 Y12.191 Z1.200 F500
G1 X36.071 Y12.278 Z1.200 F500
G1 X36.117 Y12.373 Z1.200 F500
G1 X36.148 Y12.474 Z1.200 F500
G1 X36.163 Y12.578 Z1.200 F500
G1 X36.163 Y12.683 Z1.200 F500
G1 X36.148 Y12.787 Z1.200 F500
G1 X36.117 Y12.888 Z1.200 F500
G1 X36.071 Y12.983 Z1.200 F500
G1 X36.012 Y13.070 Z1.200 F500
G1 X35.940 Y13.147 Z1.200 F500
G1 X35.858 Y13.213 Z1.200 F500
G1 X35.766 Y13.265 Z1.200 F500
G1 X35.668 Y13.304 Z1.200 F500
G1 X35.566 Y13.327 Z1.200 F500
G1 X35.461 Y13.335 Z1.200 F500
G1 X-1.597 Y13.335 Z1.200 F500
G1 X-1.702 Y13.343 Z1.200 F500
G1 X-1.805 Y13.366 Z1.200 F500
G1 X-1.903 Y13.405 Z1.200 F500
G1 X-1.994 Y13.457 Z1.200 F500
G1 X-2.077 Y13.523 Z1.200 F500
G1 X-2.148 Y13.600 Z1.200 F500
G1 X-2.208 Y13.687 Z1.200 F500
G1 X-2.253 Y13.782 Z1.200 F500
G1 X-2.284 Y13.883 Z1.200 F500
G1 X-2.300 Y13.987 Z1.200 F500
G1 X-2.300 Y14.092 Z1.200 F500
G1 X-2.284 Y14.196 Z1.200 F500
G1 X-2.253 Y14.297 Z1.200 F500
G1 X-2.208 Y14.392 Z1.200 F500
G1 X-2.148 Y14.479 Z1.200 F500
G1 X-2.077 Y14.556 Z1.200 F500
G1 X-1.994 Y14.622 Z1.200 F500
G1 X-1.903 Y14.674 Z1.200 F500
G1 X-1.805 Y14.713 Z1.200 F500
G1 X-1.702 Y14.736 Z1.200 F500
G1 X-1.597 Y14.744 Z1.200 F500
G1 X35.461 Y14.744 Z1.200 F500
G1 X35.566 Y14.752 Z1.200 F500
G1 X35.668 Y14.775 Z1.200 F500
G1 X35.766 Y14.814 Z1.200 F500
G1 X35.858 Y14.866 Z1.200 F500
G1 X35.940 Y14.932 Z1.200 F500
G1 X36.012 Y15.009 Z1.200 F500
G1 X36.071 Y15.096 Z1.200 F500
G1 X36.117 Y15.191 Z1.200 F500
G1 X36.148 Y15.292 Z1.200 F500
G1 X36.163 Y15.396 Z1.200 F500
G1 X36.163 Y15.501 Z1.200 F500
G1 X36.148 Y15.605 Z1.200 F500
G1 X36.117 Y15.706 Z1.200 F500
G1 X36.071 Y15.801 Z1.200 F500
G1 X36.012 Y15.888 Z1.200 F500
G1 X35.940 Y15.965 Z1.200 F500
G1 X35.858 Y16.031 Z1.200 F500
G1 X35.766 Y16.083 Z1.200 F500
G1 X35.668 Y16.122 Z1.200 F500
G1 X35.566 Y16.145 Z1.200 F500
G1 X35.461 Y16.153 Z1.200 F500
G1 X-1.597 Y16.153 Z1.200 F500
G1 X-1.702 Y16.161 Z1.200 F500
G1 X-1.805 Y16.184 Z1.200 F500
G1 X-1.903 Y16.223 Z1.200 F500
G1 X-1.994 Y16.275 Z1.200 F500
G1 X-2.077 Y16.341 Z1.200 F500
G1 X-2.148 Y16.418 Z1.200 F500
G1 X-2.208 Y16.505 Z1.200 F500
G1 X-2.253 Y16.600 Z1.200 F500
G1 X-2.284 Y16.701 Z1.200 F500
G1 X-2.300 Y16.805 Z1.200 F500
G1 X-2.300 Y16.910 Z1.200 F500
G1 X-2.284 Y17.014 Z1.200 F500
G1 X-2.253 Y17.115 Z1.200 F500
G1 X-2.208 Y17.210 Z1.200 F500
G1 X-2.148 Y17.297 Z1.200 F500
G1 X-2.077 Y17.374 Z1.200 F500
G1 X-1.994 Y17.440 Z1.200 F500
G1 X-1.903 Y17.492 Z1.200 F500
G1 X-1.805 Y17.531 Z1.200 F500
G1 X-1.702 Y17.554 Z1.200 F500
G1 X-1.597 Y17.562 Z1.200 F500
G1 X35.461 Y17.562 Z1.200 F500
G1 X35.531 Y17.562 Z1.208 F500
G1 X35.599 Y17.562 Z1.231 F500
G1 X35.659 Y17.562 Z1.269 F500
G1 X35.709 Y17.562 Z1.320 F500
G1 X35.747 Y17.562 Z1.380 F500
G1 X35.770 Y17.562 Z1.447 F500
G1 X35.778 Y17.562 Z1.518 F500
G1 X35.778 Y17.562 Z6.825 F500
G1 X35.915 Y-2.164 Z6.825 F500
G1 X35.915 Y-2.164 Z6.525 F500
G1 X35.915 Y-2.164 Z1.418 F100
G1 X35.907 Y-2.164 Z1.347 F500
G1 X35.884 Y-2.164 Z1.280 F500
G1 X35.846 Y-2.164 Z1.220 F500
G1 X35.796 Y-2.164 Z1.169 F500
G1 X35.736 Y-2.164 Z1.131 F500
G1 X35.668 Y-2.164 Z1.108 F500
G1 X35.598 Y-2.164 Z1.100 F500
G1 X35.461 Y-2.164 Z1.100 F500
G1 X-1.597 Y-2.164 Z1.100 F500
G1 X-1.702 Y-2.156 Z1.100 F500
G1 X-1.805 Y-2.132 Z1.100 F500
G1 X-1.903 Y-2.094 Z1.100 F500
G1 X-1.994 Y-2.041 Z1.100 F500
G1 X-2.077 Y-1.975 Z1.100 F500
G1 X-2.148 Y-1.898 Z1.100 F500
G1 X-2.208 Y-1.811 Z1.100 F500
G1 X-2.253 Y-1.716 Z1.100 F500
G1 X-2.284 Y-1.616 Z1.100 F500
G1 X-2.300 Y-1.512 Z1.100 F500
G1 X-2.300 Y-1.406 Z1.100 F500
G1 X-2.284 Y-1.302 Z1.100 F500
G1 X-2.253 Y-1.202 Z1.100 F500
G1 X-2.208 Y-1.107 Z1.100 F500
G1 X-2.148 Y-1.020 Z1.100 F500
G1 X-2.077 Y-0.943 Z1.100 F500
G1 X-1.994 Y-0.877 Z1.100 F500
G1 X-1.903 Y-0.824 Z1.100 F500
G1 X-1.805 Y-0.786 Z1.100 F500
G1 X-1.702 Y-0.762 Z1.100 F500
G1 X-1.597 Y-0.755 Z1.100 F500
G1 X35.461 Y-0.755 Z1.100 F500
G1 X35.566 Y-0.747 Z1.100 F500
G1 X35.668 Y-0.723 Z1.100 F500
G1 X35.766 Y-0.685 Z1.100 F500
G1 X35.858 Y-0.632 Z1.100 F500
G1 X35.940 Y-0.567 Z1.100 F500
G1 X36.012 Y-0.489 Z1.100 F500
G1 X36.071 Y-0.402 Z1.100 F500
G1 X36.117 Y-0.307 Z1.100 F500
G1 X36.148 Y-0.207 Z1.100 F500
G1 X36.163 Y-0.103 Z1.100 F500
G1 X36.163 Y0.003 Z1.100 F500
G1 X36.148 Y0.107 Z1.100 F500
G1 X36.117 Y0.207 Z1.100 F500
G1 X36.071 Y0.302 Z1.100 F500
G1 X36.012 Y0.389 Z1.100 F500
G1 X35.940 Y0.466 Z1.100 F500
G1 X35.858 Y0.532 Z1.100 F500
G1 X35.766 Y0.585 Z1.100 F500
G1 X35.668 Y0.623 Z1.100 F500
G1 X35.566 Y0.647 Z1.100 F500
G1 X35.461 Y0.654 Z1.100 F500
G1 X-1.597 Y0.654 Z1.100 F500
G1 X-1.702 Y0.662 Z1.100 F500
G1 X-1.805 Y0.686 Z1.100 F500
G1 X-1.903 Y0.724 Z1.100 F500
G1 X-1.994 Y0.777 Z1.100 F500
G1 X-2.077 Y0.842 Z1.100 F500
G1 X-2.148 Y0.920 Z1.100 F500
G1 X-2.208 Y1.007 Z1.100 F500
G1 X-2.253 Y1.101 Z1.100 F500
G1 X-2.284 Y1.202 Z1.100 F500
G1 X-2.300 Y1.306 Z1.100 F500
G1 X-2.300 Y1.412 Z1.100 F500
G1 X-2.284 Y1.516 Z1.100 F500
G1 X-2.253 Y1.616 Z1.100 F500
G1 X-2.208 Y1.711 Z1.100 F500
G1 X-2.148 Y1.798 Z1.100 F500
G1 X-2.077 Y1.875 Z1.100 F500
G1 X-1.994 Y1.941 Z1.100 F500
G1 X-1.903 Y1.994 Z1.100 F500
G1 X-1.805 Y2.032 Z1.100 F500
G1 X-1.702 Y2.055 Z1.100 F500
G1 X-1.597 Y2.063 Z1.100 F500
G1 X35.461 Y2.063 Z1.100 F500
G1 X35.566 Y2.071 Z1.100 F500
G1 X35.668 Y2.095 Z1.100 F500
G1 X35.766 Y2.133 Z1.100 F500
G1 X35.858 Y2.186 Z1.100 F500
G1 X35.940 Y2.251 Z1.100 F500
G1 X36.012 Y2.329 Z1.100 F500
G1 X36.071 Y2.416 Z1.100 F500
G1 X36.117 Y2.510 Z1.100 F500
G1 X36.148 Y2.611 Z1.100 F500
G1 X36.163 Y2.715 Z1.100 F500
G1 X36.163 Y2.820 Z1.100 F500
G1 X36.148 Y2.925 Z1.100 F500
G1 X36.117 Y3.025 Z1.100 F500
G1 X36.071 Y3.120 Z1.100 F500
G1 X36.012 Y3.207 Z1.100 F500
G1 X35.940 Y3.284 Z1.100 F500
G1 X35.858 Y3.350 Z1.100 F500
G1 X35.766 Y3.403 Z1.100 F500
G1 X35.668 Y3.441 Z1.100 F500
G1 X35.566 Y3.464 Z1.100 F500
G1 X35.461 Y3.472 Z1.100 F500
G1 X-1.597 Y3.472 Z1.100 F500
G1 X-1.702 Y3.480 Z1.100 F500
G1 X-1.805 Y3.504 Z1.100 F500
G1 X-1.903 Y3.542 Z1.100 F500
G1 X-1.994 Y3.595 Z1.100 F500
G1 X-2.077 Y3.660 Z1.100 F500
G1 X-2.148 Y3.738 Z1.100 F500
G1 X-2.208 Y3.825 Z1.100 F500
G1 X-2.253 Y3.919 Z1.100 F500
G1 X-2.284 Y4.020 Z1.100 F500
G1 X-2.300 Y4.124 Z1.100 F500
G1 X-2.300 Y4.229 Z1.100 F500
G1 X-2.284 Y4.334 Z1.100 F500
G1 X-2.253 Y4.434 Z1.100 F500
G1 X-2.208 Y4.529 Z1.100 F500
G1 X-2.148 Y4.616 Z1.100 F500
G1 X-2.077 Y4.693 Z1.100 F500
G1 X-1.994 Y4.759 Z1.100 F500
G1 X-1.903 Y4.812 Z1.100 F500
G1 X-1.805 Y4.850 Z1.100 F500
G1 X-1.702 Y4.873 Z1.100 F500
G1 X-1.597 Y4.881 Z1.100 F500
G1 X35.461 Y4.881 Z1.100 F500
G1 X35.566 Y4.889 Z1.100 F500
G1 X35.668 Y4.913 Z1.100 F500
G1 X35.766 Y4.951 Z1.100 F500
G1 X35.858 Y5.004 Z1.100 F500
G1 X35.940 Y5.069 Z1.100 F500
G1 X36.012 Y5.147 Z1.100 F500
G1 X36.071 Y5.234 Z1.100 F500
G1 X36.117 Y5.328 Z1.100 F500
G1 X36.148 Y5.429 Z1.100 F500
G1 X36.163 Y5.533 Z1.100 F500
G1 X36.163 Y5.638 Z1.100 F500
G1 X36.148 Y5.743 Z1.100 F500
G1 X36.117 Y5.843 Z1.100 F500
G1 X36.071 Y5.938 Z1.100 F500
G1 X36.012 Y6.025 Z1.100 F500
G1 X35.940 Y6.102 Z1.100 F500
G1 X35.858 Y6.168 Z1.100 F500
G1 X35.766 Y6.220 Z1.100 F500
G1 X35.668 Y6.259 Z1.100 F500
G1 X35.566 Y6.282 Z1.100 F500
G1 X35.461 Y6.290 Z1.100 F500
G1 X-1.597 Y6.290 Z1.100 F500
G1 X-1.702 Y6.298 Z1.100 F500
G1 X-1.805 Y6.322 Z1.100 F500
G1 X-1.903 Y6.360 Z1.100 F500
G1 X-1.994 Y6.413 Z1.100 F500
G1 X-2.077 Y6.478 Z1.100 F500
G1 X-2.148 Y6.555 Z1.100 F500
G1 X-2.208 Y6.642 Z1.100 F500
G1 X-2.253 Y6.737 Z1.100 F500
G1 X-2.284 Y6.838 Z1.100 F500
G1 X-2.300 Y6.942 Z1.100 F500
G1 X-2.300 Y7.047 Z1.100 F500
G1 X-2.284 Y7.151 Z1.100 F500
G1 X-2.253 Y7.252 Z1.100 F500
G1 X-2.208 Y7.347 Z1.100 F500
G1 X-2.148 Y7.434 Z1.100 F500
G1 X-2.077 Y7.511 Z1.100 F500
G1 X-1.994 Y7.577 Z1.100 F500
G1 X-1.903 Y7.629 Z1.100 F500
G1 X-1.805 Y7.668 Z1.100 F500
G1 X-1.702 Y7.691 Z1.100 F500
G1 X-1.597 Y7.699 Z1.100 F500
G1 X35.461 Y7.699 Z1.100 F500
G1 X35.566 Y7.707 Z1.100 F500
G1 X35.668 Y7.730 Z1.100 F500
G1 X35.766 Y7.769 Z1.100 F500
G1 X35.858 Y7.822 Z1.100 F500
G1 X35.940 Y7.887 Z1.100 F500
G1 X36.012 Y7.964 Z1.100 F500
G1 X36.071 Y8.051 Z1.100 F500
G1 X36.117 Y8.146 Z1.100 F500
G1 X36.148 Y8.247 Z1.100 F500
G1 X36.163 Y8.351 Z1.100 F500
G1 X36.163 Y8.456 Z1.100 F500
G1 X36.148 Y8.560 Z1.100 F500
G1 X36.117 Y8.661 Z1.100 F500
G1 X36.071 Y8.756 Z1.100 F500
G1 X36.012 Y8.843 Z1.100 F500
G1 X35.940 Y8.920 Z1.100 F500
G1 X35.858 Y8.986 Z1.100 F500
G1 X35.766 Y9.038 Z1.100 F500
G1 X35.668 Y9.077 Z1.100 F500
G1 X35.566 Y9.100 Z1.100 F500
G1 X35.461 Y9.108 Z1.100 F500
G1 X-1.597 Y9.108 Z1.100 F500
G1 X-1.702 Y9.116 Z1.100 F500
G1 X-1.805 Y9.139 Z1.100 F500
G1 X-1.903 Y9.178 Z1.100 F500
G1 X-1.994 Y9.231 Z1.100 F500
G1 X-2.077 Y9.296 Z1.100 F500
G1 X-2.148 Y9.373 Z1.100 F500
G1 X-2.208 Y9.460 Z1.100 F500
G1 X-2.253 Y9.555 Z1.100 F500
G1 X-2.284 Y9.656 Z1.100 F500
G1 X-2.300 Y9.760 Z1.100 F500
G1 X-2.300 Y9.865 Z1.100 F500
G1 X-2.284 Y9.969 Z1.100 F500
G1 X-2.253 Y10.070 Z1.100 F500
G1 X-2.208 Y10.165 Z1.100 F500
G1 X-2.148 Y10.252 Z1.100 F500
G1 X-2.077 Y10.329 Z1.100 F500
G1 X-1.994 Y10.395 Z1.100 F500
G1 X-1.903 Y10.447 Z1.100 F500
G1 X-1.805 Y10.486 Z1.100 F500
G1 X-1.702 Y10.509 Z1.100 F500
G1 X-1.597 Y10.517 Z1.100 F500
G1 X35.461 Y10.517 Z1.100 F500
G1 X35.566 Y10.525 Z1.100 F500
G1 X35.668 Y10.548 Z1.100 F500
G1 X35.766 Y10.587 Z1.100 F500
G1 X35.858 Y10.640 Z1.100 F500
G1 X35.940 Y10.705 Z1.100 F500
G1 X36.012 Y10.782 Z1.100 F500
G1 X36.071 Y10.869 Z1.100 F500
G1 X36.117 Y10.964 Z1.100 F500
G1 X36.148 Y11.065 Z1.100 F500
G1 X36.163 Y11.169 Z1.100 F500
G1 X36.163 Y11.274 Z1.100 F500
G1 X36.148 Y11.378 Z1.100 F500
G1 X36.117 Y11.479 Z1.100 F500
G1 X36.071 Y11.574 Z1.100 F500
G1 X36.012 Y11.661 Z1.100 F500
G1 X35.940 Y11.738 Z1.100 F500
G1 X35.858 Y11.804 Z1.100 F500
G1 X35.766 Y11.856 Z1.100 F500
G1 X35.668 Y11.895 Z1.100 F500
G1 X35.566 Y11.918 Z1.100 F500
G1 X35.461 Y11.926 Z1.100 F500
G1 X-1.597 Y11.926 Z1.100 F500
G1 X-1.702 Y11.934 Z1.100 F500
G1 X-1.805 Y11.957 Z1.100 F500
G1 X-1.903 Y11.996 Z1.100 F500
G1 X-1.994 Y12.048 Z1.100 F500
G1 X-2.077 Y12.114 Z1.100 F500
G1 X-2.148 Y12.191 Z1.100 F500
G1 X-2.208 Y12.278 Z1.100 F500
G1 X-2.253 Y12.373 Z1.100 F500
G1 X-2.284 Y12.474 Z1.100 F500
G1 X-2.300 Y12.578 Z1.100 F500
G1 X-2.300 Y12.683 Z1.100 F500
G1 X-2.284 Y12.787 Z1.100 F500
G1 X-2.253 Y12.888 Z1.100 F500
G1 X-2.208 Y12.983 Z1.100 F500
G1 X-2.148 Y13.070 Z1.100 F500
G1 X-2.077 Y13.147 Z1.100 F500
G1 X-1.994 Y13.213 Z1.100 F500
G1 X-1.903 Y13.265 Z1.100 F500
G1 X-1.805 Y13.304 Z1.100 F500
G1 X-1.702 Y13.327 Z1.100 F500
G1 X-1.597 Y13.335 Z1.100 F500
G1 X35.461 Y13.335 Z1.100 F500
G1 X35.566 Y13.343 Z1.100 F500
G1 X35.668 Y13.366 Z1.100 F500
G1 X35.766 Y13.405 Z1.100 F500
G1 X35.858 Y13.457 Z1.100 F500
G1 X35.940 Y13.523 Z1.100 F500
G1 X36.012 Y13.600 Z1.100 F500
G1 X36.071 Y13.687 Z1.100 F500
G1 X36.117 Y13.782 Z1.100 F500
G1 X36.148 Y13.883 Z1.100 F500
G1 X36.163 Y13.987 Z1.100 F500
G1 X36.163 Y14.092 Z1.100 F500
G1 X36.148 Y14.196 Z1.100 F500
G1 X36.117 Y14.297 Z1.100 F500
G1 X36.071 Y14.392 Z1.100 F500
G1 X36.012 Y14.479 Z1.100 F500
G1 X35.940 Y14.556 Z1.100 F500
G1 X35.858 Y14.622 Z1.100 F500
G1 X35.766 Y14.674 Z1.100 F500
G1 X35.668 Y14.713 Z1.100 F500
G1 X35.566 Y14.736 Z1.100 F500
G1 X35.461 Y14.744 Z1.100 F500
G1 X-1.597 Y14.744 Z1.100 F500
G1 X-1.702 Y14.752 Z1.100 F500
G1 X-1.805 Y14.775 Z1.100 F500
G1 X-1.903 Y14.814 Z1.100 F500
G1 X-1.994 Y14.866 Z1.100 F500
G1 X-2.077 Y14.932 Z1.100 F500
G1 X-2.148 Y15.009 Z1.100 F500
G1 X-2.208 Y15.096 Z1.100 F500
G1 X-2.253 Y15.191 Z1.100 F500
G1 X-2.284 Y15.292 Z1.100 F500
G1 X-2.300 Y15.396 Z1.100 F500
G1 X-2.300 Y15.501 Z1.100 F500
G1 X-2.284 Y15.605 Z1.100 F500
G1 X-2.253 Y15.706 Z1.100 F500
G1 X-2.208 Y15.801 Z1.100 F500
G1 X-2.148 Y15.888 Z1.100 F500
G1 X-2.077 Y15.965 Z1.100 F500
G1 X-1.994 Y16.031 Z1.100 F500
G1 X-1.903 Y16.083 Z1.100 F500
G1 X-1.805 Y16.122 Z1.100 F500
G1 X-1.702 Y16.145 Z1.100 F500
G1 X-1.597 Y16.153 Z1.100 F500
G1 X35.461 Y16.153 Z1.100 F500
G1 X35.566 Y16.161 Z1.100 F500
G1 X35.668 Y16.184 Z1.100 F500
G1 X35.766 Y16.223 Z1.100 F500
G1 X35.858 Y16.275 Z1.100 F500
G1 X35.940 Y16.341 Z1.100 F500
G1 X36.012 Y16.418 Z1.100 F500
G1 X36.071 Y16.505 Z1.100 F500
G1 X36.117 Y16.600 Z1.100 F500
G1 X36.148 Y16.701 Z1.100 F500
G1 X36.163 Y16.805 Z1.100 F500
G1 X36.163 Y16.910 Z1.100 F500
G1 X36.148 Y17.014 Z1.100 F500
G1 X36.117 Y17.115 Z1.100 F500
G1 X36.071 Y17.210 Z1.100 F500
G1 X36.012 Y17.297 Z1.100 F500
G1 X35.940 Y17.374 Z1.100 F500
G1 X35.858 Y17.440 Z1.100 F500
G1 X35.766 Y17.492 Z1.100 F500
G1 X35.668 Y17.531 Z1.100 F500
G1 X35.566 Y17.554 Z1.100 F500
G1 X35.461 Y17.562 Z1.100 F500
G1 X-1.597 Y17.562 Z1.100 F500
G1 X-1.668 Y17.562 Z1.108 F500
G1 X-1.735 Y17.562 Z1.131 F500
G1 X-1.795 Y17.562 Z1.169 F500
G1 X-1.846 Y17.562 Z1.220 F500
G1 X-1.884 Y17.562 Z1.280 F500
G1 X-1.907 Y17.562 Z1.347 F500
G1 X-1.915 Y17.562 Z1.418 F500
G1 X-1.915 Y17.562 Z6.825 F500
G1 X-2.052 Y-2.164 Z6.825 F500
G1 X-2.052 Y-2.164 Z6.525 F500
G1 X-2.052 Y-2.164 Z1.317 F100
G1 X-2.044 Y-2.164 Z1.247 F500
G1 X-2.021 Y-2.164 Z1.180 F500
G1 X-1.983 Y-2.164 Z1.120 F500
G1 X-1.933 Y-2.164 Z1.069 F500
G1 X-1.872 Y-2.164 Z1.031 F500
G1 X-1.805 Y-2.164 Z1.008 F500
G1 X-1.735 Y-2.164 Z1.000 F500
G1 X-1.597 Y-2.164 Z1.000 F500
G1 X35.461 Y-2.164 Z1.000 F500
G1 X35.566 Y-2.156 Z1.000 F500
G1 X35.668 Y-2.132 Z1.000 F500
G1 X35.766 Y-2.094 Z1.000 F500
G1 X35.858 Y-2.041 Z1.000 F500
G1 X35.940 Y-1.975 Z1.000 F500
G1 X36.012 Y-1.898 Z1.000 F500
G1 X36.071 Y-1.811 Z1.000 F500
G1 X36.117 Y-1.716 Z1.000 F500
G1 X36.148 Y-1.616 Z1.000 F500
G1 X36.163 Y-1.512 Z1.000 F500
G1 X36.163 Y-1.406 Z1.000 F500
G1 X36.148 Y-1.302 Z1.000 F500
G1 X36.117 Y-1.202 Z1.000 F500
G1 X36.071 Y-1.107 Z1.000 F500
G1 X36.012 Y-1.020 Z1.000 F500
G1 X35.940 Y-0.943 Z1.000 F500
G1 X35.858 Y-0.877 Z1.000 F500
G1 X35.766 Y-0.824 Z1.000 F500
G1 X35.668 Y-0.786 Z1.000 F500
G1 X35.566 Y-0.762 Z1.000 F500
G1 X35.461 Y-0.755 Z1.000 F500
G1 X-1.597 Y-0.755 Z1.000 F500
G1 X-1.702 Y-0.747 Z1.000 F500
G1 X-1.805 Y-0.723 Z1.000 F500
G1 X-1.903 Y-0.685 Z1.000 F500
G1 X-1.994 Y-0.632 Z1.000 F500
G1 X-2.077 Y-0.567 Z1.000 F500
G1 X-2.148 Y-0.489 Z1.000 F500
G1 X-2.208 Y-0.402 Z1.000 F500
G1 X-2.253 Y-0.307 Z1.000 F500
G1 X-2.284 Y-0.207 Z1.000 F500
G1 X-2.300 Y-0.103 Z1.000 F500
G1 X-2.300 Y0.003 Z1.000 F500
G1 X-2.284 Y0.107 Z1.000 F500
G1 X-2.253 Y0.207 Z1.000 F500
G1 X-2.208 Y0.302 Z1.000 F500
G1 X-2.148 Y0.389 Z1.000 F500
G1 X-2.077 Y0.466 Z1.000 F500
G1 X-1.994 Y0.532 Z1.000 F500
G1 X-1.903 Y0.585 Z1.000 F500
G1 X-1.805 Y0.623 Z1.000 F500
G1 X-1.702 Y0.647 Z1.000 F500
G1 X-1.597 Y0.654 Z1.000 F500
G1 X35.461 Y0.654 Z1.000 F500
G1 X35.566 Y0.662 Z1.000 F500
G1 X35.668 Y0.686 Z1.000 F500
G1 X35.766 Y0.724 Z1.000 F500
G1 X35.858 Y0.777 Z1.000 F500
G1 X35.940 Y0.842 Z1.000 F500
G1 X36.012 Y0.920 Z1.000 F500
G1 X36.071 Y1.007 Z1.000 F500
G1 X36.117 Y1.101 Z1.000 F500
G1 X36.148 Y1.202 Z1.000 F500
G1 X36.163 Y1.306 Z1.000 F500
G1 X36.163 Y1.412 Z1.000 F500
G1 X36.148 Y1.516 Z1.000 F500
G1 X36.117 Y1.616 Z1.000 F500
G1 X36.071 Y1.711 Z1.000 F500
G1 X36.012 Y1.798 Z1.000 F500
G1 X35.940 Y1.875 Z1.000 F500
G1 X35.858 Y1.941 Z1.000 F500
G1 X35.766 Y1.994 Z1.000 F500
G1 X35.668 Y2.032 Z1.000 F500
G1 X35.566 Y2.055 Z1.000 F500
G1 X35.461 Y2.063 Z1.000 F500
G1 X-1.597 Y2.063 Z1.000 F500
G1 X-1.702 Y2.071 Z1.000 F500
G1 X-1.805 Y2.095 Z1.000 F500
G1 X-1.903 Y2.133 Z1.000 F500
G1 X-1.994 Y2.186 Z1.000 F500
G1 X-2.077 Y2.251 Z1.000 F500
G1 X-2.148 Y2.329 Z1.000 F500
G1 X-2.208 Y2.416 Z1.000 F500
G1 X-2.253 Y2.510 Z1.000 F500
G1 X-2.284 Y2.611 Z1.000 F500
G1 X-2.300 Y2.715 Z1.000 F500
G1 X-2.300 Y2.820 Z1.000 F500
G1 X-2.284 Y2.925 Z1.000 F500
G1 X-2.253 Y3.025 Z1.000 F500
G1 X-2.208 Y3.120 Z1.000 F500
G1 X-2.148 Y3.207 Z1.000 F500
G1 X-2.077 Y3.284 Z1.000 F500
G1 X-1.994 Y3.350 Z1.000 F500
G1 X-1.903 Y3.403 Z1.000 F500
G1 X-1.805 Y3.441 Z1.000 F500
G1 X-1.702 Y3.464 Z1.000 F500
G1 X-1.597 Y3.472 Z1.000 F500
G1 X35.461 Y3.472 Z1.000 F500
G1 X35.566 Y3.480 Z1.000 F500
G1 X35.668 Y3.504 Z1.000 F500
G1 X35.766 Y3.542 Z1.000 F500
G1 X35.858 Y3.595 Z1.000 F500
G1 X35.940 Y3.660 Z1.000 F500
G1 X36.012 Y3.738 Z1.000 F500
G1 X36.071 Y3.825 Z1.000 F500
G1 X36.117 Y3.919 Z1.000 F500
G1 X36.148 Y4.020 Z1.000 F500
G1 X36.163 Y4.124 Z1.000 F500
G1 X36.163 Y4.229 Z1.000 F500
G1 X36.148 Y4.334 Z1.000 F500
G1 X36.117 Y4.434 Z1.000 F500
G1 X36.071 Y4.529 Z1.000 F500
G1 X36.012 Y4.616 Z1.000 F500
G1 X35.940 Y4.693 Z1.000 F500
G1 X35.858 Y4.759 Z1.000 F500
G1 X35.766 Y4.812 Z1.000 F500
G1 X35.668 Y4.850 Z1.000 F500
G1 X35.566 Y4.873 Z1.000 F500
G1 X35.461 Y4.881 Z1.000 F500
G1 X-1.597 Y4.881 Z1.000 F500
G1 X-1.702 Y4.889 Z1.000 F500
G1 X-1.805 Y4.913 Z1.000 F500
G1 X-1.903 Y4.951 Z1.000 F500
G1 X-1.994 Y5.004 Z1.000 F500
G1 X-2.077 Y5.069 Z1.000 F500
G1 X-2.148 Y5.147 Z1.000 F500
G1 X-2.208 Y5.234 Z1.000 F500
G1 X-2.253 Y5.328 Z1.000 F500
G1 X-2.284 Y5.429 Z1.000 F500
G1 X-2.300 Y5.533 Z1.000 F500
G1 X-2.300 Y5.638 Z1.000 F500
G1 X-2.284 Y5.743 Z1.000 F500
G1 X-2.253 Y5.843 Z1.000 F500
G1 X-2.208 Y5.938 Z1.000 F500
G1 X-2.148 Y6.025 Z1.000 F500
G1 X-2.077 Y6.102 Z1.000 F500
G1 X-1.994 Y6.168 Z1.000 F500
G1 X-1.903 Y6.220 Z1.000 F500
G1 X-1.805 Y6.259 Z1.000 F500
G1 X-1.702 Y6.282 Z1.000 F500
G1 X-1.597 Y6.290 Z1.000 F500
G1 X35.461 Y6.290 Z1.000 F500
G1 X35.566 Y6.298 Z1.000 F500
G1 X35.668 Y6.322 Z1.000 F500
G1 X35.766 Y6.360 Z1.000 F500
G1 X35.858 Y6.413 Z1.000 F500
G1 X35.940 Y6.478 Z1.000 F500
G1 X36.012 Y6.555 Z1.000 F500
G1 X36.071 Y6.642 Z1.000 F500
G1 X36.117 Y6.737 Z1.000 F500
G1 X36.148 Y6.838 Z1.000 F500
G1 X36.163 Y6.942 Z1.000 F500
G1 X36.163 Y7.047 Z1.000 F500
G1 X36.148 Y7.151 Z1.000 F500
G1 X36.117 Y7.252 Z1.000 F500
G1 X36.071 Y7.347 Z1.000 F500
G1 X36.012 Y7.434 Z1.000 F500
G1 X35.940 Y7.511 Z1.000 F500
G1 X35.858 Y7.577 Z1.000 F500
G1 X35.766 Y7.629 Z1.000 F500
G1 X35.668 Y7.668 Z1.000 F500
G1 X35.566 Y7.691 Z1.000 F500
G1 X35.461 Y7.699 Z1.000 F500
G1 X-1.597 Y7.699 Z1.000 F500
G1 X-1.702 Y7.707 Z1.000 F500
G1 X-1.805 Y7.730 Z1.000 F500
G1 X-1.903 Y7.769 Z1.000 F500
G1 X-1.994 Y7.822 Z1.000 F500
G1 X-2.077 Y7.887 Z1.000 F500
G1 X-2.148 Y7.964 Z1.000 F500
G1 X-2.208 Y8.051 Z1.000 F500
G1 X-2.253 Y8.146 Z1.000 F500
G1 X-2.284 Y8.247 Z1.000 F500
G1 X-2.300 Y8.351 Z1.000 F500
G1 X-2.300 Y8.456 Z1.000 F500
G1 X-2.284 Y8.560 Z1.000 F500
G1 X-2.253 Y8.661 Z1.000 F500
G1 X-2.208 Y8.756 Z1.000 F500
G1 X-2.148 Y8.843 Z1.000 F500
G1 X-2.077 Y8.920 Z1.000 F500
G1 X-1.994 Y8.986 Z1.000 F500
G1 X-1.903 Y9.038 Z1.000 F500
G1 X-1.805 Y9.077 Z1.000 F500
G1 X-1.702 Y9.100 Z1.000 F500
G1 X-1.597 Y9.108 Z1.000 F500
G1 X35.461 Y9.108 Z1.000 F500
G1 X35.566 Y9.116 Z1.000 F500
G1 X35.668 Y9.139 Z1.000 F500
G1 X35.766 Y9.178 Z1.000 F500
G1 X35.858 Y9.231 Z1.000 F500
G1 X35.940 Y9.296 Z1.000 F500
G1 X36.012 Y9.373 Z1.000 F500
G1 X36.071 Y9.460 Z1.000 F500
G1 X36.117 Y9.555 Z1.000 F500
G1 X36.148 Y9.656 Z1.000 F500
G1 X36.163 Y9.760 Z1.000 F500
G1 X36.163 Y9.865 Z1.000 F500
G1 X36.148 Y9.969 Z1.000 F500
G1 X36.117 Y10.070 Z1.000 F500
G1 X36.071 Y10.165 Z1.000 F500
G1 X36.012 Y10.252 Z1.000 F500
G1 X35.940 Y10.329 Z1.000 F500
G1 X35.858 Y10.395 Z1.000 F500
G1 X35.766 Y10.447 Z1.000 F500
G1 X35.668 Y10.486 Z1.000 F500
G1 X35.566 Y10.509 Z1.000 F500
G1 X35.461 Y10.517 Z1.000 F500
G1 X-1.597 Y10.517 Z1.000 F500
G1 X-1.702 Y10.525 Z1.000 F500
G1 X-1.805 Y10.548 Z1.000 F500
G1 X-1.903 Y10.587 Z1.000 F500
G1 X-1.994 Y10.640 Z1.000 F500
G1 X-2.077 Y10.705 Z1.000 F500
G1 X-2.148 Y10.782 Z1.000 F500
G1 X-2.208 Y10.869 Z1.000 F500
G1 X-2.253 Y10.964 Z1.000 F500
G1 X-2.284 Y11.065 Z1.000 F500
G1 X-2.300 Y11.169 Z1.000 F500
G1 X-2.300 Y11.274 Z1.000 F500
G1 X-2.284 Y11.378 Z1.000 F500
G1 X-2.253 Y11.479 Z1.000 F500
G1 X-2.208 Y11.574 Z1.000 F500
G1 X-2.148 Y11.661 Z1.000 F500
G1 X-2.077 Y11.738 Z1.000 F500
G1 X-1.994 Y11.804 Z1.000 F500
G1 X-1.903 Y11.856 Z1.000 F500
G1 X-1.805 Y11.895 Z1.000 F500
G1 X-1.702 Y11.918 Z1.000 F500
G1 X-1.597 Y11.926 Z1.000 F500
G1 X35.461 Y11.926 Z1.000 F500
G1 X35.566 Y11.934 Z1.000 F500
G1 X35.668 Y11.957 Z1.000 F500
G1 X35.766 Y11.996 Z1.000 F500
G1 X35.858 Y12.048 Z1.000 F500
G1 X35.940 Y12.114 Z1.000 F500
G1 X36.012 Y12.191 Z1.000 F500
G1 X36.071 Y12.278 Z1.000 F500
G1 X36.117 Y12.373 Z1.000 F500
G1 X36.148 Y12.474 Z1.000 F500
G1 X36.163 Y12.578 Z1.000 F500
G1 X36.163 Y12.683 Z1.000 F500
G1 X36.148 Y12.787 Z1.000 F500
G1 X36.117 Y12.888 Z1.000 F500
G1 X36.071 Y12.983 Z1.000 F500
G1 X36.012 Y13.070 Z1.000 F500
G1 X35.940 Y13.147 Z1.000 F500
G1 X35.858 Y13.213 Z1.000 F500
G1 X35.766 Y13.265 Z1.000 F500
G1 X35.668 Y13.304 Z1.000 F500
G1 X35.566 Y13.327 Z1.000 F500
G1 X35.461 Y13.335 Z1.000 F500
G1 X-1.597 Y13.335 Z1.000 F500
G1 X-1.702 Y13.343 Z1.000 F500
G1 X-1.805 Y13.366 Z1.000 F500
G1 X-1.903 Y13.405 Z1.000 F500
G1 X-1.994 Y13.457 Z1.000 F500
G1 X-2.077 Y13.523 Z1.000 F500
G1 X-2.148 Y13.600 Z1.000 F500
G1 X-2.208 Y13.687 Z1.000 F500
G1 X-2.253 Y13.782 Z1.000 F500
G1 X-2.284 Y13.883 Z1.000 F500
G1 X-2.300 Y13.987 Z1.000 F500
G1 X-2.300 Y14.092 Z1.000 F500
G1 X-2.284 Y14.196 Z1.000 F500
G1 X-2.253 Y14.297 Z1.000 F500
G1 X-2.208 Y14.392 Z1.000 F500
G1 X-2.148 Y14.479 Z1.000 F500
G1 X-2.077 Y14.556 Z1.000 F500
G1 X-1.994 Y14.622 Z1.000 F500
G1 X-1.903 Y14.674 Z1.000 F500
G1 X-1.805 Y14.713 Z1.000 F500
G1 X-1.702 Y14.736 Z1.000 F500
G1 X-1.597 Y14.744 Z1.000 F500
G1 X35.461 Y14.744 Z1.000 F500
G1 X35.566 Y14.752 Z1.000 F500
G1 X35.668 Y14.775 Z1.000 F500
G1 X35.766 Y14.814 Z1.000 F500
G1 X35.858 Y14.866 Z1.000 F500
G1 X35.940 Y14.932 Z1.000 F500
G1 X36.012 Y15.009 Z1.000 F500
G1 X36.071 Y15.096 Z1.000 F500
G1 X36.117 Y15.191 Z1.000 F500
G1 X36.148 Y15.292 Z1.000 F500
G1 X36.163 Y15.396 Z1.000 F500
G1 X36.163 Y15.501 Z1.000 F500
G1 X36.148 Y15.605 Z1.000 F500
G1 X36.117 Y15.706 Z1.000 F500
G1 X36.071 Y15.801 Z1.000 F500
G1 X36.012 Y15.888 Z1.000 F500
G1 X35.940 Y15.965 Z1.000 F500
G1 X35.858 Y16.031 Z1.000 F500
G1 X35.766 Y16.083 Z1.000 F500
G1 X35.668 Y16.122 Z1.000 F500
G1 X35.566 Y16.145 Z1.000 F500
G1 X35.461 Y16.153 Z1.000 F500
G1 X-1.597 Y16.153 Z1.000 F500
G1 X-1.702 Y16.161 Z1.000 F500
G1 X-1.805 Y16.184 Z1.000 F500
G1 X-1.903 Y16.223 Z1.000 F500
G1 X-1.994 Y16.275 Z1.000 F500
G1 X-2.077 Y16.341 Z1.000 F500
G1 X-2.148 Y16.418 Z1.000 F500
G1 X-2.208 Y16.505 Z1.000 F500
G1 X-2.253 Y16.600 Z1.000 F500
G1 X-2.284 Y16.701 Z1.000 F500
G1 X-2.300 Y16.805 Z1.000 F500
G1 X-2.300 Y16.910 Z1.000 F500
G1 X-2.284 Y17.014 Z1.000 F500
G1 X-2.253 Y17.115 Z1.000 F500
G1 X-2.208 Y17.210 Z1.000 F500
G1 X-2.148 Y17.297 Z1.000 F500
G1 X-2.077 Y17.374 Z1.000 F500
G1 X-1.994 Y17.440 Z1.000 F500
G1 X-1.903 Y17.492 Z1.000 F500
G1 X-1.805 Y17.531 Z1.000 F500
G1 X-1.702 Y17.554 Z1.000 F500
G1 X-1.597 Y17.562 Z1.000 F500
G1 X35.461 Y17.562 Z1.000 F500
G1 X35.531 Y17.562 Z1.008 F500
G1 X35.599 Y17.562 Z1.031 F500
G1 X35.659 Y17.562 Z1.069 F500
G1 X35.709 Y17.562 Z1.120 F500
G1 X35.747 Y17.562 Z1.180 F500
G1 X35.770 Y17.562 Z1.247 F500
G1 X35.778 Y17.562 Z1.317 F500
G1 X35.778 Y17.562 Z6.825 F500
G1 X35.915 Y-2.164 Z6.825 F500
G1 X35.915 Y-2.164 Z6.525 F500
G1 X35.915 Y-2.164 Z1.217 F100
G1 X35.907 Y-2.164 Z1.147 F500
G1 X35.884 Y-2.164 Z1.080 F500
G1 X35.846 Y-2.164 Z1.020 F500
G1 X35.796 Y-2.164 Z0.969 F500
G1 X35.736 Y-2.164 Z0.931 F500
G1 X35.668 Y-2.164 Z0.908 F500
G1 X35.598 Y-2.164 Z0.900 F500
G1 X35.461 Y-2.164 Z0.900 F500
G1 X-1.597 Y-2.164 Z0.900 F500
G1 X-1.702 Y-2.156 Z0.900 F500
G1 X-1.805 Y-2.132 Z0.900 F500
G1 X-1.903 Y-2.094 Z0.900 F500
G1 X-1.994 Y-2.041 Z0.900 F500
G1 X-2.077 Y-1.975 Z0.900 F500
G1 X-2.148 Y-1.898 Z0.900 F500
G1 X-2.208 Y-1.811 Z0.900 F500
G1 X-2.253 Y-1.716 Z0.900 F500
G1 X-2.284 Y-1.616 Z0.900 F500
G1 X-2.300 Y-1.512 Z0.900 F500
G1 X-2.300 Y-1.406 Z0.900 F500
G1 X-2.284 Y-1.302 Z0.900 F500
G1 X-2.253 Y-1.202 Z0.900 F500
G1 X-2.208 Y-1.107 Z0.900 F500
G1 X-2.148 Y-1.020 Z0.900 F500
G1 X-2.077 Y-0.943 Z0.900 F500
G1 X-1.994 Y-0.877 Z0.900 F500
G1 X-1.903 Y-0.824 Z0.900 F500
G1 X-1.805 Y-0.786 Z0.900 F500
G1 X-1.702 Y-0.762 Z0.900 F500
G1 X-1.597 Y-0.755 Z0.900 F500
G1 X35.461 Y-0.755 Z0.900 F500
G1 X35.566 Y-0.747 Z0.900 F500
G1 X35.668 Y-0.723 Z0.900 F500
G1 X35.766 Y-0.685 Z0.900 F500
G1 X35.858 Y-0.632 Z0.900 F500
G1 X35.940 Y-0.567 Z0.900 F500
G1 X36.012 Y-0.489 Z0.900 F500
G1 X36.071 Y-0.402 Z0.900 F500
G1 X36.117 Y-0.307 Z0.900 F500
G1 X36.148 Y-0.207 Z0.900 F500
G1 X36.163 Y-0.103 Z0.900 F500
G1 X36.163 Y0.003 Z0.900 F500
G1 X36.148 Y0.107 Z0.900 F500
G1 X36.117 Y0.207 Z0.900 F500
G1 X36.071 Y0.302 Z0.900 F500
G1 X36.012 Y0.389 Z0.900 F500
G1 X35.940 Y0.466 Z0.900 F500
G1 X35.858 Y0.532 Z0.900 F500
G1 X35.766 Y0.585 Z0.900 F500
G1 X35.668 Y0.623 Z0.900 F500
G1 X35.566 Y0.647 Z0.900 F500
G1 X35.461 Y0.654 Z0.900 F500
G1 X-1.597 Y0.654 Z0.900 F500
G1 X-1.702 Y0.662 Z0.900 F500
G1 X-1.805 Y0.686 Z0.900 F500
G1 X-1.903 Y0.724 Z0.900 F500
G1 X-1.994 Y0.777 Z0.900 F500
G1 X-2.077 Y0.842 Z0.900 F500
G1 X-2.148 Y0.920 Z0.900 F500
G1 X-2.208 Y1.007 Z0.900 F500
G1 X-2.253 Y1.101 Z0.900 F500
G1 X-2.284 Y1.202 Z0.900 F500
G1 X-2.300 Y1.306 Z0.900 F500
G1 X-2.300 Y1.412 Z0.900 F500
G1 X-2.284 Y1.516 Z0.900 F500
G1 X-2.253 Y1.616 Z0.900 F500
G1 X-2.208 Y1.711 Z0.900 F500
G1 X-2.148 Y1.798 Z0.900 F500
G1 X-2.077 Y1.875 Z0.900 F500
G1 X-1.994 Y1.941 Z0.900 F500
G1 X-1.903 Y1.994 Z0.900 F500
G1 X-1.805 Y2.032 Z0.900 F500
G1 X-1.702 Y2.055 Z0.900 F500
G1 X-1.597 Y2.063 Z0.900 F500
G1 X35.461 Y2.063 Z0.900 F500
G1 X35.566 Y2.071 Z0.900 F500
G1 X35.668 Y2.095 Z0.900 F500
G1 X35.766 Y2.133 Z0.900 F500
G1 X35.858 Y2.186 Z0.900 F500
G1 X35.940 Y2.251 Z0.900 F500
G1 X36.012 Y2.329 Z0.900 F500
G1 X36.071 Y2.416 Z0.900 F500
G1 X36.117 Y2.510 Z0.900 F500
G1 X36.148 Y2.611 Z0.900 F500
G1 X36.163 Y2.715 Z0.900 F500
G1 X36.163 Y2.820 Z0.900 F500
G1 X36.148 Y2.925 Z0.900 F500
G1 X36.117 Y3.025 Z0.900 F500
G1 X36.071 Y3.120 Z0.900 F500
G1 X36.012 Y3.207 Z0.900 F500
G1 X35.940 Y3.284 Z0.900 F500
G1 X35.858 Y3.350 Z0.900 F500
G1 X35.766 Y3.403 Z0.900 F500
G1 X35.668 Y3.441 Z0.900 F500
G1 X35.566 Y3.464 Z0.900 F500
G1 X35.461 Y3.472 Z0.900 F500
G1 X-1.597 Y3.472 Z0.900 F500
G1 X-1.702 Y3.480 Z0.900 F500
G1 X-1.805 Y3.504 Z0.900 F500
G1 X-1.903 Y3.542 Z0.900 F500
G1 X-1.994 Y3.595 Z0.900 F500
G1 X-2.077 Y3.660 Z0.900 F500
G1 X-2.148 Y3.738 Z0.900 F500
G1 X-2.208 Y3.825 Z0.900 F500
G1 X-2.253 Y3.919 Z0.900 F500
G1 X-2.284 Y4.020 Z0.900 F500
G1 X-2.300 Y4.124 Z0.900 F500
G1 X-2.300 Y4.229 Z0.900 F500
G1 X-2.284 Y4.334 Z0.900 F500
G1 X-2.253 Y4.434 Z0.900 F500
G1 X-2.208 Y4.529 Z0.900 F500
G1 X-2.148 Y4.616 Z0.900 F500
G1 X-2.077 Y4.693 Z0.900 F500
G1 X-1.994 Y4.759 Z0.900 F500
G1 X-1.903 Y4.812 Z0.900 F500
G1 X-1.805 Y4.850 Z0.900 F500
G1 X-1.702 Y4.873 Z0.900 F500
G1 X-1.597 Y4.881 Z0.900 F500
G1 X35.461 Y4.881 Z0.900 F500
G1 X35.566 Y4.889 Z0.900 F500
G1 X35.668 Y4.913 Z0.900 F500
G1 X35.766 Y4.951 Z0.900 F500
G1 X35.858 Y5.004 Z0.900 F500
G1 X35.940 Y5.069 Z0.900 F500
G1 X36.012 Y5.147 Z0.900 F500
G1 X36.071 Y5.234 Z0.900 F500
G1 X36.117 Y5.328 Z0.900 F500
G1 X36.148 Y5.429 Z0.900 F500
G1 X36.163 Y5.533 Z0.900 F500
G1 X36.163 Y5.638 Z0.900 F500
G1 X36.148 Y5.743 Z0.900 F500
G1 X36.117 Y5.843 Z0.900 F500
G1 X36.071 Y5.938 Z0.900 F500
G1 X36.012 Y6.025 Z0.900 F500
G1 X35.940 Y6.102 Z0.900 F500
G1 X35.858 Y6.168 Z0.900 F500
G1 X35.766 Y6.220 Z0.900 F500
G1 X35.668 Y6.259 Z0.900 F500
G1 X35.566 Y6.282 Z0.900 F500
G1 X35.461 Y6.290 Z0.900 F500
G1 X-1.597 Y6.290 Z0.900 F500
G1 X-1.702 Y6.298 Z0.900 F500
G1 X-1.805 Y6.322 Z0.900 F500
G1 X-1.903 Y6.360 Z0.900 F500
G1 X-1.994 Y6.413 Z0.900 F500
G1 X-2.077 Y6.478 Z0.900 F500
G1 X-2.148 Y6.555 Z0.900 F500
G1 X-2.208 Y6.642 Z0.900 F500
G1 X-2.253 Y6.737 Z0.900 F500
G1 X-2.284 Y6.838 Z0.900 F500
G1 X-2.300 Y6.942 Z0.900 F500
G1 X-2.300 Y7.047 Z0.900 F500
G1 X-2.284 Y7.151 Z0.900 F500
G1 X-2.253 Y7.252 Z0.900 F500
G1 X-2.208 Y7.347 Z0.900 F500
G1 X-2.148 Y7.434 Z0.900 F500
G1 X-2.077 Y7.511 Z0.900 F500
G1 X-1.994 Y7.577 Z0.900 F500
G1 X-1.903 Y7.629 Z0.900 F500
G1 X-1.805 Y7.668 Z0.900 F500
G1 X-1.702 Y7.691 Z0.900 F500
G1 X-1.597 Y7.699 Z0.900 F500
G1 X35.461 Y7.699 Z0.900 F500
G1 X35.566 Y7.707 Z0.900 F500
G1 X35.668 Y7.730 Z0.900 F500
G1 X35.766 Y7.769 Z0.900 F500
G1 X35.858 Y7.822 Z0.900 F500
G1 X35.940 Y7.887 Z0.900 F500
G1 X36.012 Y7.964 Z0.900 F500
G1 X36.071 Y8.051 Z0.900 F500
G1 X36.117 Y8.146 Z0.900 F500
G1 X36.148 Y8.247 Z0.900 F500
G1 X36.163 Y8.351 Z0.900 F500
G1 X36.163 Y8.456 Z0.900 F500
G1 X36.148 Y8.560 Z0.900 F500
G1 X36.117 Y8.661 Z0.900 F500
G1 X36.071 Y8.756 Z0.900 F500
G1 X36.012 Y8.843 Z0.900 F500
G1 X35.940 Y8.920 Z0.900 F500
G1 X35.858 Y8.986 Z0.900 F500
G1 X35.766 Y9.038 Z0.900 F500
G1 X35.668 Y9.077 Z0.900 F500
G1 X35.566 Y9.100 Z0.900 F500
G1 X35.461 Y9.108 Z0.900 F500
G1 X-1.597 Y9.108 Z0.900 F500
G1 X-1.702 Y9.116 Z0.900 F500
G1 X-1.805 Y9.139 Z0.900 F500
G1 X-1.903 Y9.178 Z0.900 F500
G1 X-1.994 Y9.231 Z0.900 F500
G1 X-2.077 Y9.296 Z0.900 F500
G1 X-2.148 Y9.373 Z0.900 F500
G1 X-2.208 Y9.460 Z0.900 F500
G1 X-2.253 Y9.555 Z0.900 F500
G1 X-2.284 Y9.656 Z0.900 F500
G1 X-2.300 Y9.760 Z0.900 F500
G1 X-2.300 Y9.865 Z0.900 F500
G1 X-2.284 Y9.969 Z0.900 F500
G1 X-2.253 Y10.070 Z0.900 F500
G1 X-2.208 Y10.165 Z0.900 F500
G1 X-2.148 Y10.252 Z0.900 F500
G1 X-2.077 Y10.329 Z0.900 F500
G1 X-1.994 Y10.395 Z0.900 F500
G1 X-1.903 Y10.447 Z0.900 F500
G1 X-1.805 Y10.486 Z0.900 F500
G1 X-1.702 Y10.509 Z0.900 F500
G1 X-1.597 Y10.517 Z0.900 F500
G1 X35.461 Y10.517 Z0.900 F500
G1 X35.566 Y10.525 Z0.900 F500
G1 X35.668 Y10.548 Z0.900 F500
G1 X35.766 Y10.587 Z0.900 F500
G1 X35.858 Y10.640 Z0.900 F500
G1 X35.940 Y10.705 Z0.900 F500
G1 X36.012 Y10.782 Z0.900 F500
G1 X36.071 Y10.869 Z0.900 F500
G1 X36.117 Y10.964 Z0.900 F500
G1 X36.148 Y11.065 Z0.900 F500
G1 X36.163 Y11.169 Z0.900 F500
G1 X36.163 Y11.274 Z0.900 F500
G1 X36.148 Y11.378 Z0.900 F500
G1 X36.117 Y11.479 Z0.900 F500
G1 X36.071 Y11.574 Z0.900 F500
G1 X36.012 Y11.661 Z0.900 F500
G1 X35.940 Y11.738 Z0.900 F500
G1 X35.858 Y11.804 Z0.900 F500
G1 X35.766 Y11.856 Z0.900 F500
G1 X35.668 Y11.895 Z0.900 F500
G1 X35.566 Y11.918 Z0.900 F500
G1 X35.461 Y11.926 Z0.900 F500
G1 X-1.597 Y11.926 Z0.900 F500
G1 X-1.702 Y11.934 Z0.900 F500
G1 X-1.805 Y11.957 Z0.900 F500
G1 X-1.903 Y11.996 Z0.900 F500
G1 X-1.994 Y12.048 Z0.900 F500
G1 X-2.077 Y12.114 Z0.900 F500
G1 X-2.148 Y12.191 Z0.900 F500
G1 X-2.208 Y12.278 Z0.900 F500
G1 X-2.253 Y12.373 Z0.900 F500
G1 X-2.284 Y12.474 Z0.900 F500
G1 X-2.300 Y12.578 Z0.900 F500
G1 X-2.300 Y12.683 Z0.900 F500
G1 X-2.284 Y12.787 Z0.900 F500
G1 X-2.253 Y12.888 Z0.900 F500
G1 X-2.208 Y12.983 Z0.900 F500
G1 X-2.148 Y13.070 Z0.900 F500
G1 X-2.077 Y13.147 Z0.900 F500
G1 X-1.994 Y13.213 Z0.900 F500
G1 X-1.903 Y13.265 Z0.900 F500
G1 X-1.805 Y13.304 Z0.900 F500
G1 X-1.702 Y13.327 Z0.900 F500
G1 X-1.597 Y13.335 Z0.900 F500
G1 X35.461 Y13.335 Z0.900 F500
G1 X35.566 Y13.343 Z0.900 F500
G1 X35.668 Y13.366 Z0.900 F500
G1 X35.766 Y13.405 Z0.900 F500
G1 X35.858 Y13.457 Z0.900 F500
G1 X35.940 Y13.523 Z0.900 F500
G1 X36.012 Y13.600 Z0.900 F500
G1 X36.071 Y13.687 Z0.900 F500
G1 X36.117 Y13.782 Z0.900 F500
G1 X36.148 Y13.883 Z0.900 F500
G1 X36.163 Y13.987 Z0.900 F500
G1 X36.163 Y14.092 Z0.900 F500
G1 X36.148 Y14.196 Z0.900 F500
G1 X36.117 Y14.297 Z0.900 F500
G1 X36.071 Y14.392 Z0.900 F500
G1 X36.012 Y14.479 Z0.900 F500
G1 X35.940 Y14.556 Z0.900 F500
G1 X35.858 Y14.622 Z0.900 F500
G1 X35.766 Y14.674 Z0.900 F500
G1 X35.668 Y14.713 Z0.900 F500
G1 X35.566 Y14.736 Z0.900 F500
G1 X35.461 Y14.744 Z0.900 F500
G1 X-1.597 Y14.744 Z0.900 F500
G1 X-1.702 Y14.752 Z0.900 F500
G1 X-1.805 Y14.775 Z0.900 F500
G1 X-1.903 Y14.814 Z0.900 F500
G1 X-1.994 Y14.866 Z0.900 F500
G1 X-2.077 Y14.932 Z0.900 F500
G1 X-2.148 Y15.009 Z0.900 F500
G1 X-2.208 Y15.096 Z0.900 F500
G1 X-2.253 Y15.191 Z0.900 F500
G1 X-2.284 Y15.292 Z0.900 F500
G1 X-2.300 Y15.396 Z0.900 F500
G1 X-2.300 Y15.501 Z0.900 F500
G1 X-2.284 Y15.605 Z0.900 F500
G1 X-2.253 Y15.706 Z0.900 F500
G1 X-2.208 Y15.801 Z0.900 F500
G1 X-2.148 Y15.888 Z0.900 F500
G1 X-2.077 Y15.965 Z0.900 F500
G1 X-1.994 Y16.031 Z0.900 F500
G1 X-1.903 Y16.083 Z0.900 F500
G1 X-1.805 Y16.122 Z0.900 F500
G1 X-1.702 Y16.145 Z0.900 F500
G1 X-1.597 Y16.153 Z0.900 F500
G1 X35.461 Y16.153 Z0.900 F500
G1 X35.566 Y16.161 Z0.900 F500
G1 X35.668 Y16.184 Z0.900 F500
G1 X35.766 Y16.223 Z0.900 F500
G1 X35.858 Y16.275 Z0.900 F500
G1 X35.940 Y16.341 Z0.900 F500
G1 X36.012 Y16.418 Z0.900 F500
G1 X36.071 Y16.505 Z0.900 F500
G1 X36.117 Y16.600 Z0.900 F500
G1 X36.148 Y16.701 Z0.900 F500
G1 X36.163 Y16.805 Z0.900 F500
G1 X36.163 Y16.910 Z0.900 F500
G1 X36.148 Y17.014 Z0.900 F500
G1 X36.117 Y17.115 Z0.900 F500
G1 X36.071 Y17.210 Z0.900 F500
G1 X36.012 Y17.297 Z0.900 F500
G1 X35.940 Y17.374 Z0.900 F500
G1 X35.858 Y17.440 Z0.900 F500
G1 X35.766 Y17.492 Z0.900 F500
G1 X35.668 Y17.531 Z0.900 F500
G1 X35.566 Y17.554 Z0.900 F500
G1 X35.461 Y17.562 Z0.900 F500
G1 X-1.597 Y17.562 Z0.900 F500
G1 X-1.668 Y17.562 Z0.908 F500
G1 X-1.735 Y17.562 Z0.931 F500
G1 X-1.795 Y17.562 Z0.969 F500
G1 X-1.846 Y17.562 Z1.020 F500
G1 X-1.884 Y17.562 Z1.080 F500
G1 X-1.907 Y17.562 Z1.147 F500
G1 X-1.915 Y17.562 Z1.217 F500
G1 X-1.915 Y17.562 Z6.825 F500
G1 X-2.052 Y-2.164 Z6.825 F500
G1 X-2.052 Y-2.164 Z6.525 F500
G1 X-2.052 Y-2.164 Z1.117 F100
G1 X-2.044 Y-2.164 Z1.047 F500
G1 X-2.021 Y-2.164 Z0.980 F500
G1 X-1.983 Y-2.164 Z0.920 F500
G1 X-1.933 Y-2.164 Z0.869 F500
G1 X-1.872 Y-2.164 Z0.831 F500
G1 X-1.805 Y-2.164 Z0.808 F500
G1 X-1.735 Y-2.164 Z0.800 F500
G1 X-1.597 Y-2.164 Z0.800 F500
G1 X35.461 Y-2.164 Z0.800 F500
G1 X35.566 Y-2.156 Z0.800 F500
G1 X35.668 Y-2.132 Z0.800 F500
G1 X35.766 Y-2.094 Z0.800 F500
G1 X35.858 Y-2.041 Z0.800 F500
G1 X35.940 Y-1.975 Z0.800 F500
G1 X36.012 Y-1.898 Z0.800 F500
G1 X36.071 Y-1.811 Z0.800 F500
G1 X36.117 Y-1.716 Z0.800 F500
G1 X36.148 Y-1.616 Z0.800 F500
G1 X36.163 Y-1.512 Z0.800 F500
G1 X36.163 Y-1.406 Z0.800 F500
G1 X36.148 Y-1.302 Z0.800 F500
G1 X36.117 Y-1.202 Z0.800 F500
G1 X36.071 Y-1.107 Z0.800 F500
G1 X36.012 Y-1.020 Z0.800 F500
G1 X35.940 Y-0.943 Z0.800 F500
G1 X35.858 Y-0.877 Z0.800 F500
G1 X35.766 Y-0.824 Z0.800 F500
G1 X35.668 Y-0.786 Z0.800 F500
G1 X35.566 Y-0.762 Z0.800 F500
G1 X35.461 Y-0.755 Z0.800 F500
G1 X-1.597 Y-0.755 Z0.800 F500
G1 X-1.702 Y-0.747 Z0.800 F500
G1 X-1.805 Y-0.723 Z0.800 F500
G1 X-1.903 Y-0.685 Z0.800 F500
G1 X-1.994 Y-0.632 Z0.800 F500
G1 X-2.077 Y-0.567 Z0.800 F500
G1 X-2.148 Y-0.489 Z0.800 F500
G1 X-2.208 Y-0.402 Z0.800 F500
G1 X-2.253 Y-0.307 Z0.800 F500
G1 X-2.284 Y-0.207 Z0.800 F500
G1 X-2.300 Y-0.103 Z0.800 F500
G1 X-2.300 Y0.003 Z0.800 F500
G1 X-2.284 Y0.107 Z0.800 F500
G1 X-2.253 Y0.207 Z0.800 F500
G1 X-2.208 Y0.302 Z0.800 F500
G1 X-2.148 Y0.389 Z0.800 F500
G1 X-2.077 Y0.466 Z0.800 F500
G1 X-1.994 Y0.532 Z0.800 F500
G1 X-1.903 Y0.585 Z0.800 F500
G1 X-1.805 Y0.623 Z0.800 F500
G1 X-1.702 Y0.647 Z0.800 F500
G1 X-1.597 Y0.654 Z0.800 F500
G1 X35.461 Y0.654 Z0.800 F500
G1 X35.566 Y0.662 Z0.800 F500
G1 X35.668 Y0.686 Z0.800 F500
G1 X35.766 Y0.724 Z0.800 F500
G1 X35.858 Y0.777 Z0.800 F500
G1 X35.940 Y0.842 Z0.800 F500
G1 X36.012 Y0.920 Z0.800 F500
G1 X36.071 Y1.007 Z0.800 F500
G1 X36.117 Y1.101 Z0.800 F500
G1 X36.148 Y1.202 Z0.800 F500
G1 X36.163 Y1.306 Z0.800 F500
G1 X36.163 Y1.412 Z0.800 F500
G1 X36.148 Y1.516 Z0.800 F500
G1 X36.117 Y1.616 Z0.800 F500
G1 X36.071 Y1.711 Z0.800 F500
G1 X36.012 Y1.798 Z0.800 F500
G1 X35.940 Y1.875 Z0.800 F500
G1 X35.858 Y1.941 Z0.800 F500
G1 X35.766 Y1.994 Z0.800 F500
G1 X35.668 Y2.032 Z0.800 F500
G1 X35.566 Y2.055 Z0.800 F500
G1 X35.461 Y2.063 Z0.800 F500
G1 X-1.597 Y2.063 Z0.800 F500
G1 X-1.702 Y2.071 Z0.800 F500
G1 X-1.805 Y2.095 Z0.800 F500
G1 X-1.903 Y2.133 Z0.800 F500
G1 X-1.994 Y2.186 Z0.800 F500
G1 X-2.077 Y2.251 Z0.800 F500
G1 X-2.148 Y2.329 Z0.800 F500
G1 X-2.208 Y2.416 Z0.800 F500
G1 X-2.253 Y2.510 Z0.800 F500
G1 X-2.284 Y2.611 Z0.800 F500
G1 X-2.300 Y2.715 Z0.800 F500
G1 X-2.300 Y2.820 Z0.800 F500
G1 X-2.284 Y2.925 Z0.800 F500
G1 X-2.253 Y3.025 Z0.800 F500
G1 X-2.208 Y3.120 Z0.800 F500
G1 X-2.148 Y3.207 Z0.800 F500
G1 X-2.077 Y3.284 Z0.800 F500
G1 X-1.994 Y3.350 Z0.800 F500
G1 X-1.903 Y3.403 Z0.800 F500
G1 X-1.805 Y3.441 Z0.800 F500
G1 X-1.702 Y3.464 Z0.800 F500
G1 X-1.597 Y3.472 Z0.800 F500
G1 X35.461 Y3.472 Z0.800 F500
G1 X35.566 Y3.480 Z0.800 F500
G1 X35.668 Y3.504 Z0.800 F500
G1 X35.766 Y3.542 Z0.800 F500
G1 X35.858 Y3.595 Z0.800 F500
G1 X35.940 Y3.660 Z0.800 F500
G1 X36.012 Y3.738 Z0.800 F500
G1 X36.071 Y3.825 Z0.800 F500
G1 X36.117 Y3.919 Z0.800 F500
G1 X36.148 Y4.020 Z0.800 F500
G1 X36.163 Y4.124 Z0.800 F500
G1 X36.163 Y4.229 Z0.800 F500
G1 X36.148 Y4.334 Z0.800 F500
G1 X36.117 Y4.434 Z0.800 F500
G1 X36.071 Y4.529 Z0.800 F500
G1 X36.012 Y4.616 Z0.800 F500
G1 X35.940 Y4.693 Z0.800 F500
G1 X35.858 Y4.759 Z0.800 F500
G1 X35.766 Y4.812 Z0.800 F500
G1 X35.668 Y4.850 Z0.800 F500
G1 X35.566 Y4.873 Z0.800 F500
G1 X35.461 Y4.881 Z0.800 F500
G1 X-1.597 Y4.881 Z0.800 F500
G1 X-1.702 Y4.889 Z0.800 F500
G1 X-1.805 Y4.913 Z0.800 F500
G1 X-1.903 Y4.951 Z0.800 F500
G1 X-1.994 Y5.004 Z0.800 F500
G1 X-2.077 Y5.069 Z0.800 F500
G1 X-2.148 Y5.147 Z0.800 F500
G1 X-2.208 Y5.234 Z0.800 F500
G1 X-2.253 Y5.328 Z0.800 F500
G1 X-2.284 Y5.429 Z0.800 F500
G1 X-2.300 Y5.533 Z0.800 F500
G1 X-2.300 Y5.638 Z0.800 F500
G1 X-2.284 Y5.743 Z0.800 F500
G1 X-2.253 Y5.843 Z0.800 F500
G1 X-2.208 Y5.938 Z0.800 F500
G1 X-2.148 Y6.025 Z0.800 F500
G1 X-2.077 Y6.102 Z0.800 F500
G1 X-1.994 Y6.168 Z0.800 F500
G1 X-1.903 Y6.220 Z0.800 F500
G1 X-1.805 Y6.259 Z0.800 F500
G1 X-1.702 Y6.282 Z0.800 F500
G1 X-1.597 Y6.290 Z0.800 F500
G1 X35.461 Y6.290 Z0.800 F500
G1 X35.566 Y6.298 Z0.800 F500
G1 X35.668 Y6.322 Z0.800 F500
G1 X35.766 Y6.360 Z0.800 F500
G1 X35.858 Y6.413 Z0.800 F500
G1 X35.940 Y6.478 Z0.800 F500
G1 X36.012 Y6.555 Z0.800 F500
G1 X36.071 Y6.642 Z0.800 F500
G1 X36.117 Y6.737 Z0.800 F500
G1 X36.148 Y6.838 Z0.800 F500
G1 X36.163 Y6.942 Z0.800 F500
G1 X36.163 Y7.047 Z0.800 F500
G1 X36.148 Y7.151 Z0.800 F500
G1 X36.117 Y7.252 Z0.800 F500
G1 X36.071 Y7.347 Z0.800 F500
G1 X36.012 Y7.434 Z0.800 F500
G1 X35.940 Y7.511 Z0.800 F500
G1 X35.858 Y7.577 Z0.800 F500
G1 X35.766 Y7.629 Z0.800 F500
G1 X35.668 Y7.668 Z0.800 F500
G1 X35.566 Y7.691 Z0.800 F500
G1 X35.461 Y7.699 Z0.800 F500
G1 X-1.597 Y7.699 Z0.800 F500
G1 X-1.702 Y7.707 Z0.800 F500
G1 X-1.805 Y7.730 Z0.800 F500
G1 X-1.903 Y7.769 Z0.800 F500
G1 X-1.994 Y7.822 Z0.800 F500
G1 X-2.077 Y7.887 Z0.800 F500
G1 X-2.148 Y7.964 Z0.800 F500
G1 X-2.208 Y8.051 Z0.800 F500
G1 X-2.253 Y8.146 Z0.800 F500
G1 X-2.284 Y8.247 Z0.800 F500
G1 X-2.300 Y8.351 Z0.800 F500
G1 X-2.300 Y8.456 Z0.800 F500
G1 X-2.284 Y8.560 Z0.800 F500
G1 X-2.253 Y8.661 Z0.800 F500
G1 X-2.208 Y8.756 Z0.800 F500
G1 X-2.148 Y8.843 Z0.800 F500
G1 X-2.077 Y8.920 Z0.800 F500
G1 X-1.994 Y8.986 Z0.800 F500
G1 X-1.903 Y9.038 Z0.800 F500
G1 X-1.805 Y9.077 Z0.800 F500
G1 X-1.702 Y9.100 Z0.800 F500
G1 X-1.597 Y9.108 Z0.800 F500
G1 X35.461 Y9.108 Z0.800 F500
G1 X35.566 Y9.116 Z0.800 F500
G1 X35.668 Y9.139 Z0.800 F500
G1 X35.766 Y9.178 Z0.800 F500
G1 X35.858 Y9.231 Z0.800 F500
G1 X35.940 Y9.296 Z0.800 F500
G1 X36.012 Y9.373 Z0.800 F500
G1 X36.071 Y9.460 Z0.800 F500
G1 X36.117 Y9.555 Z0.800 F500
G1 X36.148 Y9.656 Z0.800 F500
G1 X36.163 Y9.760 Z0.800 F500
G1 X36.163 Y9.865 Z0.800 F500
G1 X36.148 Y9.969 Z0.800 F500
G1 X36.117 Y10.070 Z0.800 F500
G1 X36.071 Y10.165 Z0.800 F500
G1 X36.012 Y10.252 Z0.800 F500
G1 X35.940 Y10.329 Z0.800 F500
G1 X35.858 Y10.395 Z0.800 F500
G1 X35.766 Y10.447 Z0.800 F500
G1 X35.668 Y10.486 Z0.800 F500
G1 X35.566 Y10.509 Z0.800 F500
G1 X35.461 Y10.517 Z0.800 F500
G1 X-1.597 Y10.517 Z0.800 F500
G1 X-1.702 Y10.525 Z0.800 F500
G1 X-1.805 Y10.548 Z0.800 F500
G1 X-1.903 Y10.587 Z0.800 F500
G1 X-1.994 Y10.640 Z0.800 F500
G1 X-2.077 Y10.705 Z0.800 F500
G1 X-2.148 Y10.782 Z0.800 F500
G1 X-2.208 Y10.869 Z0.800 F500
G1 X-2.253 Y10.964 Z0.800 F500
G1 X-2.284 Y11.065 Z0.800 F500
G1 X-2.300 Y11.169 Z0.800 F500
G1 X-2.300 Y11.274 Z0.800 F500
G1 X-2.284 Y11.378 Z0.800 F500
G1 X-2.253 Y11.479 Z0.800 F500
G1 X-2.208 Y11.574 Z0.800 F500
G1 X-2.148 Y11.661 Z0.800 F500
G1 X-2.077 Y11.738 Z0.800 F500
G1 X-1.994 Y11.804 Z0.800 F500
G1 X-1.903 Y11.856 Z0.800 F500
G1 X-1.805 Y11.895 Z0.800 F500
G1 X-1.702 Y11.918 Z0.800 F500
G1 X-1.597 Y11.926 Z0.800 F500
G1 X35.461 Y11.926 Z0.800 F500
G1 X35.566 Y11.934 Z0.800 F500
G1 X35.668 Y11.957 Z0.800 F500
G1 X35.766 Y11.996 Z0.800 F500
G1 X35.858 Y12.048 Z0.800 F500
G1 X35.940 Y12.114 Z0.800 F500
G1 X36.012 Y12.191 Z0.800 F500
G1 X36.071 Y12.278 Z0.800 F500
G1 X36.117 Y12.373 Z0.800 F500
G1 X36.148 Y12.474 Z0.800 F500
G1 X36.163 Y12.578 Z0.800 F500
G1 X36.163 Y12.683 Z0.800 F500
G1 X36.148 Y12.787 Z0.800 F500
G1 X36.117 Y12.888 Z0.800 F500
G1 X36.071 Y12.983 Z0.800 F500
G1 X36.012 Y13.070 Z0.800 F500
G1 X35.940 Y13.147 Z0.800 F500
G1 X35.858 Y13.213 Z0.800 F500
G1 X35.766 Y13.265 Z0.800 F500
G1 X35.668 Y13.304 Z0.800 F500
G1 X35.566 Y13.327 Z0.800 F500
G1 X35.461 Y13.335 Z0.800 F500
G1 X-1.597 Y13.335 Z0.800 F500
G1 X-1.702 Y13.343 Z0.800 F500
G1 X-1.805 Y13.366 Z0.800 F500
G1 X-1.903 Y13.405 Z0.800 F500
G1 X-1.994 Y13.457 Z0.800 F500
G1 X-2.077 Y13.523 Z0.800 F500
G1 X-2.148 Y13.600 Z0.800 F500
G1 X-2.208 Y13.687 Z0.800 F500
G1 X-2.253 Y13.782 Z0.800 F500
G1 X-2.284 Y13.883 Z0.800 F500
G1 X-2.300 Y13.987 Z0.800 F500
G1 X-2.300 Y14.092 Z0.800 F500
G1 X-2.284 Y14.196 Z0.800 F500
G1 X-2.253 Y14.297 Z0.800 F500
G1 X-2.208 Y14.392 Z0.800 F500
G1 X-2.148 Y14.479 Z0.800 F500
G1 X-2.077 Y14.556 Z0.800 F500
G1 X-1.994 Y14.622 Z0.800 F500
G1 X-1.903 Y14.674 Z0.800 F500
G1 X-1.805 Y14.713 Z0.800 F500
G1 X-1.702 Y14.736 Z0.800 F500
G1 X-1.597 Y14.744 Z0.800 F500
G1 X35.461 Y14.744 Z0.800 F500
G1 X35.566 Y14.752 Z0.800 F500
G1 X35.668 Y14.775 Z0.800 F500
G1 X35.766 Y14.814 Z0.800 F500
G1 X35.858 Y14.866 Z0.800 F500
G1 X35.940 Y14.932 Z0.800 F500
G1 X36.012 Y15.009 Z0.800 F500
G1 X36.071 Y15.096 Z0.800 F500
G1 X36.117 Y15.191 Z0.800 F500
G1 X36.148 Y15.292 Z0.800 F500
G1 X36.163 Y15.396 Z0.800 F500
G1 X36.163 Y15.501 Z0.800 F500
G1 X36.148 Y15.605 Z0.800 F500
G1 X36.117 Y15.706 Z0.800 F500
G1 X36.071 Y15.801 Z0.800 F500
G1 X36.012 Y15.888 Z0.800 F500
G1 X35.940 Y15.965 Z0.800 F500
G1 X35.858 Y16.031 Z0.800 F500
G1 X35.766 Y16.083 Z0.800 F500
G1 X35.668 Y16.122 Z0.800 F500
G1 X35.566 Y16.145 Z0.800 F500
G1 X35.461 Y16.153 Z0.800 F500
G1 X-1.597 Y16.153 Z0.800 F500
G1 X-1.702 Y16.161 Z0.800 F500
G1 X-1.805 Y16.184 Z0.800 F500
G1 X-1.903 Y16.223 Z0.800 F500
G1 X-1.994 Y16.275 Z0.800 F500
G1 X-2.077 Y16.341 Z0.800 F500
G1 X-2.148 Y16.418 Z0.800 F500
G1 X-2.208 Y16.505 Z0.800 F500
G1 X-2.253 Y16.600 Z0.800 F500
G1 X-2.284 Y16.701 Z0.800 F500
G1 X-2.300 Y16.805 Z0.800 F500
G1 X-2.300 Y16.910 Z0.800 F500
G1 X-2.284 Y17.014 Z0.800 F500
G1 X-2.253 Y17.115 Z0.800 F500
G1 X-2.208 Y17.210 Z0.800 F500
G1 X-2.148 Y17.297 Z0.800 F500
G1 X-2.077 Y17.374 Z0.800 F500
G1 X-1.994 Y17.440 Z0.800 F500
G1 X-1.903 Y17.492 Z0.800 F500
G1 X-1.805 Y17.531 Z0.800 F500
G1 X-1.702 Y17.554 Z0.800 F500
G1 X-1.597 Y17.562 Z0.800 F500
G1 X35.461 Y17.562 Z0.800 F500
G1 X35.531 Y17.562 Z0.808 F500
G1 X35.599 Y17.562 Z0.831 F500
G1 X35.659 Y17.562 Z0.869 F500
G1 X35.709 Y17.562 Z0.920 F500
G1 X35.747 Y17.562 Z0.980 F500
G1 X35.770 Y17.562 Z1.047 F500
G1 X35.778 Y17.562 Z1.117 F500
G1 X35.778 Y17.562 Z6.825 F500
G1 X35.915 Y-2.164 Z6.825 F500
G1 X35.915 Y-2.164 Z6.525 F500
G1 X35.915 Y-2.164 Z1.018 F100
G1 X35.907 Y-2.164 Z0.947 F500
G1 X35.884 Y-2.164 Z0.880 F500
G1 X35.846 Y-2.164 Z0.820 F500
G1 X35.796 Y-2.164 Z0.769 F500
G1 X35.736 Y-2.164 Z0.731 F500
G1 X35.668 Y-2.164 Z0.708 F500
G1 X35.598 Y-2.164 Z0.700 F500
G1 X35.461 Y-2.164 Z0.700 F500
G1 X-1.597 Y-2.164 Z0.700 F500
G1 X-1.702 Y-2.156 Z0.700 F500
G1 X-1.805 Y-2.132 Z0.700 F500
G1 X-1.903 Y-2.094 Z0.700 F500
G1 X-1.994 Y-2.041 Z0.700 F500
G1 X-2.077 Y-1.975 Z0.700 F500
G1 X-2.148 Y-1.898 Z0.700 F500
G1 X-2.208 Y-1.811 Z0.700 F500
G1 X-2.253 Y-1.716 Z0.700 F500
G1 X-2.284 Y-1.616 Z0.700 F500
G1 X-2.300 Y-1.512 Z0.700 F500
G1 X-2.300 Y-1.406 Z0.700 F500
G1 X-2.284 Y-1.302 Z0.700 F500
G1 X-2.253 Y-1.202 Z0.700 F500
G1 X-2.208 Y-1.107 Z0.700 F500
G1 X-2.148 Y-1.020 Z0.700 F500
G1 X-2.077 Y-0.943 Z0.700 F500
G1 X-1.994 Y-0.877 Z0.700 F500
G1 X-1.903 Y-0.824 Z0.700 F500
G1 X-1.805 Y-0.786 Z0.700 F500
G1 X-1.702 Y-0.762 Z0.700 F500
G1 X-1.597 Y-0.755 Z0.700 F500
G1 X35.461 Y-0.755 Z0.700 F500
G1 X35.566 Y-0.747 Z0.700 F500
G1 X35.668 Y-0.723 Z0.700 F500
G1 X35.766 Y-0.685 Z0.700 F500
G1 X35.858 Y-0.632 Z0.700 F500
G1 X35.940 Y-0.567 Z0.700 F500
G1 X36.012 Y-0.489 Z0.700 F500
G1 X36.071 Y-0.402 Z0.700 F500
G1 X36.117 Y-0.307 Z0.700 F500
G1 X36.148 Y-0.207 Z0.700 F500
G1 X36.163 Y-0.103 Z0.700 F500
G1 X36.163 Y0.003 Z0.700 F500
G1 X36.148 Y0.107 Z0.700 F500
G1 X36.117 Y0.207 Z0.700 F500
G1 X36.071 Y0.302 Z0.700 F500
G1 X36.012 Y0.389 Z0.700 F500
G1 X35.940 Y0.466 Z0.700 F500
G1 X35.858 Y0.532 Z0.700 F500
G1 X35.766 Y0.585 Z0.700 F500
G1 X35.668 Y0.623 Z0.700 F500
G1 X35.566 Y0.647 Z0.700 F500
G1 X35.461 Y0.654 Z0.700 F500
G1 X-1.597 Y0.654 Z0.700 F500
G1 X-1.702 Y0.662 Z0.700 F500
G1 X-1.805 Y0.686 Z0.700 F500
G1 X-1.903 Y0.724 Z0.700 F500
G1 X-1.994 Y0.777 Z0.700 F500
G1 X-2.077 Y0.842 Z0.700 F500
G1 X-2.148 Y0.920 Z0.700 F500
G1 X-2.208 Y1.007 Z0.700 F500
G1 X-2.253 Y1.101 Z0.700 F500
G1 X-2.284 Y1.202 Z0.700 F500
G1 X-2.300 Y1.306 Z0.700 F500
G1 X-2.300 Y1.412 Z0.700 F500
G1 X-2.284 Y1.516 Z0.700 F500
G1 X-2.253 Y1.616 Z0.700 F500
G1 X-2.208 Y1.711 Z0.700 F500
G1 X-2.148 Y1.798 Z0.700 F500
G1 X-2.077 Y1.875 Z0.700 F500
G1 X-1.994 Y1.941 Z0.700 F500
G1 X-1.903 Y1.994 Z0.700 F500
G1 X-1.805 Y2.032 Z0.700 F500
G1 X-1.702 Y2.055 Z0.700 F500
G1 X-1.597 Y2.063 Z0.700 F500
G1 X35.461 Y2.063 Z0.700 F500
G1 X35.566 Y2.071 Z0.700 F500
G1 X35.668 Y2.095 Z0.700 F500
G1 X35.766 Y2.133 Z0.700 F500
G1 X35.858 Y2.186 Z0.700 F500
G1 X35.940 Y2.251 Z0.700 F500
G1 X36.012 Y2.329 Z0.700 F500
G1 X36.071 Y2.416 Z0.700 F500
G1 X36.117 Y2.510 Z0.700 F500
G1 X36.148 Y2.611 Z0.700 F500
G1 X36.163 Y2.715 Z0.700 F500
G1 X36.163 Y2.820 Z0.700 F500
G1 X36.148 Y2.925 Z0.700 F500
G1 X36.117 Y3.025 Z0.700 F500
G1 X36.071 Y3.120 Z0.700 F500
G1 X36.012 Y3.207 Z0.700 F500
G1 X35.940 Y3.284 Z0.700 F500
G1 X35.858 Y3.350 Z0.700 F500
G1 X35.766 Y3.403 Z0.700 F500
G1 X35.668 Y3.441 Z0.700 F500
G1 X35.566 Y3.464 Z0.700 F500
G1 X35.461 Y3.472 Z0.700 F500
G1 X-1.597 Y3.472 Z0.700 F500
G1 X-1.702 Y3.480 Z0.700 F500
G1 X-1.805 Y3.504 Z0.700 F500
G1 X-1.903 Y3.542 Z0.700 F500
G1 X-1.994 Y3.595 Z0.700 F500
G1 X-2.077 Y3.660 Z0.700 F500
G1 X-2.148 Y3.738 Z0.700 F500
G1 X-2.208 Y3.825 Z0.700 F500
G1 X-2.253 Y3.919 Z0.700 F500
G1 X-2.284 Y4.020 Z0.700 F500
G1 X-2.300 Y4.124 Z0.700 F500
G1 X-2.300 Y4.229 Z0.700 F500
G1 X-2.284 Y4.334 Z0.700 F500
G1 X-2.253 Y4.434 Z0.700 F500
G1 X-2.208 Y4.529 Z0.700 F500
G1 X-2.148 Y4.616 Z0.700 F500
G1 X-2.077 Y4.693 Z0.700 F500
G1 X-1.994 Y4.759 Z0.700 F500
G1 X-1.903 Y4.812 Z0.700 F500
G1 X-1.805 Y4.850 Z0.700 F500
G1 X-1.702 Y4.873 Z0.700 F500
G1 X-1.597 Y4.881 Z0.700 F500
G1 X35.461 Y4.881 Z0.700 F500
G1 X35.566 Y4.889 Z0.700 F500
G1 X35.668 Y4.913 Z0.700 F500
G1 X35.766 Y4.951 Z0.700 F500
G1 X35.858 Y5.004 Z0.700 F500
G1 X35.940 Y5.069 Z0.700 F500
G1 X36.012 Y5.147 Z0.700 F500
G1 X36.071 Y5.234 Z0.700 F500
G1 X36.117 Y5.328 Z0.700 F500
G1 X36.148 Y5.429 Z0.700 F500
G1 X36.163 Y5.533 Z0.700 F500
G1 X36.163 Y5.638 Z0.700 F500
G1 X36.148 Y5.743 Z0.700 F500
G1 X36.117 Y5.843 Z0.700 F500
G1 X36.071 Y5.938 Z0.700 F500
G1 X36.012 Y6.025 Z0.700 F500
G1 X35.940 Y6.102 Z0.700 F500
G1 X35.858 Y6.168 Z0.700 F500
G1 X35.766 Y6.220 Z0.700 F500
G1 X35.668 Y6.259 Z0.700 F500
G1 X35.566 Y6.282 Z0.700 F500
G1 X35.461 Y6.290 Z0.700 F500
G1 X-1.597 Y6.290 Z0.700 F500
G1 X-1.702 Y6.298 Z0.700 F500
G1 X-1.805 Y6.322 Z0.700 F500
G1 X-1.903 Y6.360 Z0.700 F500
G1 X-1.994 Y6.413 Z0.700 F500
G1 X-2.077 Y6.478 Z0.700 F500
G1 X-2.148 Y6.555 Z0.700 F500
G1 X-2.208 Y6.642 Z0.700 F500
G1 X-2.253 Y6.737 Z0.700 F500
G1 X-2.284 Y6.838 Z0.700 F500
G1 X-2.300 Y6.942 Z0.700 F500
G1 X-2.300 Y7.047 Z0.700 F500
G1 X-2.284 Y7.151 Z0.700 F500
G1 X-2.253 Y7.252 Z0.700 F500
G1 X-2.208 Y7.347 Z0.700 F500
G1 X-2.148 Y7.434 Z0.700 F500
G1 X-2.077 Y7.511 Z0.700 F500
G1 X-1.994 Y7.577 Z0.700 F500
G1 X-1.903 Y7.629 Z0.700 F500
G1 X-1.805 Y7.668 Z0.700 F500
G1 X-1.702 Y7.691 Z0.700 F500
G1 X-1.597 Y7.699 Z0.700 F500
G1 X35.461 Y7.699 Z0.700 F500
G1 X35.566 Y7.707 Z0.700 F500
G1 X35.668 Y7.730 Z0.700 F500
G1 X35.766 Y7.769 Z0.700 F500
G1 X35.858 Y7.822 Z0.700 F500
G1 X35.940 Y7.887 Z0.700 F500
G1 X36.012 Y7.964 Z0.700 F500
G1 X36.071 Y8.051 Z0.700 F500
G1 X36.117 Y8.146 Z0.700 F500
G1 X36.148 Y8.247 Z0.700 F500
G1 X36.163 Y8.351 Z0.700 F500
G1 X36.163 Y8.456 Z0.700 F500
G1 X36.148 Y8.560 Z0.700 F500
G1 X36.117 Y8.661 Z0.700 F500
G1 X36.071 Y8.756 Z0.700 F500
G1 X36.012 Y8.843 Z0.700 F500
G1 X35.940 Y8.920 Z0.700 F500
G1 X35.858 Y8.986 Z0.700 F500
G1 X35.766 Y9.038 Z0.700 F500
G1 X35.668 Y9.077 Z0.700 F500
G1 X35.566 Y9.100 Z0.700 F500
G1 X35.461 Y9.108 Z0.700 F500
G1 X-1.597 Y9.108 Z0.700 F500
G1 X-1.702 Y9.116 Z0.700 F500
G1 X-1.805 Y9.139 Z0.700 F500
G1 X-1.903 Y9.178 Z0.700 F500
G1 X-1.994 Y9.231 Z0.700 F500
G1 X-2.077 Y9.296 Z0.700 F500
G1 X-2.148 Y9.373 Z0.700 F500
G1 X-2.208 Y9.460 Z0.700 F500
G1 X-2.253 Y9.555 Z0.700 F500
G1 X-2.284 Y9.656 Z0.700 F500
G1 X-2.300 Y9.760 Z0.700 F500
G1 X-2.300 Y9.865 Z0.700 F500
G1 X-2.284 Y9.969 Z0.700 F500
G1 X-2.253 Y10.070 Z0.700 F500
G1 X-2.208 Y10.165 Z0.700 F500
G1 X-2.148 Y10.252 Z0.700 F500
G1 X-2.077 Y10.329 Z0.700 F500
G1 X-1.994 Y10.395 Z0.700 F500
G1 X-1.903 Y10.447 Z0.700 F500
G1 X-1.805 Y10.486 Z0.700 F500
G1 X-1.702 Y10.509 Z0.700 F500
G1 X-1.597 Y10.517 Z0.700 F500
G1 X35.461 Y10.517 Z0.700 F500
G1 X35.566 Y10.525 Z0.700 F500
G1 X35.668 Y10.548 Z0.700 F500
G1 X35.766 Y10.587 Z0.700 F500
G1 X35.858 Y10.640 Z0.700 F500
G1 X35.940 Y10.705 Z0.700 F500
G1 X36.012 Y10.782 Z0.700 F500
G1 X36.071 Y10.869 Z0.700 F500
G1 X36.117 Y10.964 Z0.700 F500
G1 X36.148 Y11.065 Z0.700 F500
G1 X36.163 Y11.169 Z0.700 F500
G1 X36.163 Y11.274 Z0.700 F500
G1 X36.148 Y11.378 Z0.700 F500
G1 X36.117 Y11.479 Z0.700 F500
G1 X36.071 Y11.574 Z0.700 F500
G1 X36.012 Y11.661 Z0.700 F500
G1 X35.940 Y11.738 Z0.700 F500
G1 X35.858 Y11.804 Z0.700 F500
G1 X35.766 Y11.856 Z0.700 F500
G1 X35.668 Y11.895 Z0.700 F500
G1 X35.566 Y11.918 Z0.700 F500
G1 X35.461 Y11.926 Z0.700 F500
G1 X-1.597 Y11.926 Z0.700 F500
G1 X-1.702 Y11.934 Z0.700 F500
G1 X-1.805 Y11.957 Z0.700 F500
G1 X-1.903 Y11.996 Z0.700 F500
G1 X-1.994 Y12.048 Z0.700 F500
G1 X-2.077 Y12.114 Z0.700 F500
G1 X-2.148 Y12.191 Z0.700 F500
G1 X-2.208 Y12.278 Z0.700 F500
G1 X-2.253 Y12.373 Z0.700 F500
G1 X-2.284 Y12.474 Z0.700 F500
G1 X-2.300 Y12.578 Z0.700 F500
G1 X-2.300 Y12.683 Z0.700 F500
G1 X-2.284 Y12.787 Z0.700 F500
G1 X-2.253 Y12.888 Z0.700 F500
G1 X-2.208 Y12.983 Z0.700 F500
G1 X-2.148 Y13.070 Z0.700 F500
G1 X-2.077 Y13.147 Z0.700 F500
G1 X-1.994 Y13.213 Z0.700 F500
G1 X-1.903 Y13.265 Z0.700 F500
G1 X-1.805 Y13.304 Z0.700 F500
G1 X-1.702 Y13.327 Z0.700 F500
G1 X-1.597 Y13.335 Z0.700 F500
G1 X35.461 Y13.335 Z0.700 F500
G1 X35.566 Y13.343 Z0.700 F500
G1 X35.668 Y13.366 Z0.700 F500
G1 X35.766 Y13.405 Z0.700 F500
G1 X35.858 Y13.457 Z0.700 F500
G1 X35.940 Y13.523 Z0.700 F500
G1 X36.012 Y13.600 Z0.700 F500
G1 X36.071 Y13.687 Z0.700 F500
G1 X36.117 Y13.782 Z0.700 F500
G1 X36.148 Y13.883 Z0.700 F500
G1 X36.163 Y13.987 Z0.700 F500
G1 X36.163 Y14.092 Z0.700 F500
G1 X36.148 Y14.196 Z0.700 F500
G1 X36.117 Y14.297 Z0.700 F500
G1 X36.071 Y14.392 Z0.700 F500
G1 X36.012 Y14.479 Z0.700 F500
G1 X35.940 Y14.556 Z0.700 F500
G1 X35.858 Y14.622 Z0.700 F500
G1 X35.766 Y14.674 Z0.700 F500
G1 X35.668 Y14.713 Z0.700 F500
G1 X35.566 Y14.736 Z0.700 F500
G1 X35.461 Y14.744 Z0.700 F500
G1 X-1.597 Y14.744 Z0.700 F500
G1 X-1.702 Y14.752 Z0.700 F500
G1 X-1.805 Y14.775 Z0.700 F500
G1 X-1.903 Y14.814 Z0.700 F500
G1 X-1.994 Y14.866 Z0.700 F500
G1 X-2.077 Y14.932 Z0.700 F500
G1 X-2.148 Y15.009 Z0.700 F500
G1 X-2.208 Y15.096 Z0.700 F500
G1 X-2.253 Y15.191 Z0.700 F500
G1 X-2.284 Y15.292 Z0.700 F500
G1 X-2.300 Y15.396 Z0.700 F500
G1 X-2.300 Y15.501 Z0.700 F500
G1 X-2.284 Y15.605 Z0.700 F500
G1 X-2.253 Y15.706 Z0.700 F500
G1 X-2.208 Y15.801 Z0.700 F500
G1 X-2.148 Y15.888 Z0.700 F500
G1 X-2.077 Y15.965 Z0.700 F500
G1 X-1.994 Y16.031 Z0.700 F500
G1 X-1.903 Y16.083 Z0.700 F500
G1 X-1.805 Y16.122 Z0.700 F500
G1 X-1.702 Y16.145 Z0.700 F500
G1 X-1.597 Y16.153 Z0.700 F500
G1 X35.461 Y16.153 Z0.700 F500
G1 X35.566 Y16.161 Z0.700 F500
G1 X35.668 Y16.184 Z0.700 F500
G1 X35.766 Y16.223 Z0.700 F500
G1 X35.858 Y16.275 Z0.700 F500
G1 X35.940 Y16.341 Z0.700 F500
G1 X36.012 Y16.418 Z0.700 F500
G1 X36.071 Y16.505 Z0.700 F500
G1 X36.117 Y16.600 Z0.700 F500
G1 X36.148 Y16.701 Z0.700 F500
G1 X36.163 Y16.805 Z0.700 F500
G1 X36.163 Y16.910 Z0.700 F500
G1 X36.148 Y17.014 Z0.700 F500
G1 X36.117 Y17.115 Z0.700 F500
G1 X36.071 Y17.210 Z0.700 F500
G1 X36.012 Y17.297 Z0.700 F500
G1 X35.940 Y17.374 Z0.700 F500
G1 X35.858 Y17.440 Z0.700 F500
G1 X35.766 Y17.492 Z0.700 F500
G1 X35.668 Y17.531 Z0.700 F500
G1 X35.566 Y17.554 Z0.700 F500
G1 X35.461 Y17.562 Z0.700 F500
G1 X-1.597 Y17.562 Z0.700 F500
G1 X-1.668 Y17.562 Z0.708 F500
G1 X-1.735 Y17.562 Z0.731 F500
G1 X-1.795 Y17.562 Z0.769 F500
G1 X-1.846 Y17.562 Z0.820 F500
G1 X-1.884 Y17.562 Z0.880 F500
G1 X-1.907 Y17.562 Z0.947 F500
G1 X-1.915 Y17.562 Z1.018 F500
G1 X-1.915 Y17.562 Z6.825 F500
G1 X-2.052 Y-2.164 Z6.825 F500
G1 X-2.052 Y-2.164 Z6.525 F500
G1 X-2.052 Y-2.164 Z0.918 F100
G1 X-2.044 Y-2.164 Z0.847 F500
G1 X-2.021 Y-2.164 Z0.780 F500
G1 X-1.983 Y-2.164 Z0.720 F500
G1 X-1.933 Y-2.164 Z0.669 F500
G1 X-1.872 Y-2.164 Z0.631 F500
G1 X-1.805 Y-2.164 Z0.608 F500
G1 X-1.735 Y-2.164 Z0.600 F500
G1 X-1.597 Y-2.164 Z0.600 F500
G1 X35.461 Y-2.164 Z0.600 F500
G1 X35.566 Y-2.156 Z0.600 F500
G1 X35.668 Y-2.132 Z0.600 F500
G1 X35.766 Y-2.094 Z0.600 F500
G1 X35.858 Y-2.041 Z0.600 F500
G1 X35.940 Y-1.975 Z0.600 F500
G1 X36.012 Y-1.898 Z0.600 F500
G1 X36.071 Y-1.811 Z0.600 F500
G1 X36.117 Y-1.716 Z0.600 F500
G1 X36.148 Y-1.616 Z0.600 F500
G1 X36.163 Y-1.512 Z0.600 F500
G1 X36.163 Y-1.406 Z0.600 F500
G1 X36.148 Y-1.302 Z0.600 F500
G1 X36.117 Y-1.202 Z0.600 F500
G1 X36.071 Y-1.107 Z0.600 F500
G1 X36.012 Y-1.020 Z0.600 F500
G1 X35.940 Y-0.943 Z0.600 F500
G1 X35.858 Y-0.877 Z0.600 F500
G1 X35.766 Y-0.824 Z0.600 F500
G1 X35.668 Y-0.786 Z0.600 F500
G1 X35.566 Y-0.762 Z0.600 F500
G1 X35.461 Y-0.755 Z0.600 F500
G1 X-1.597 Y-0.755 Z0.600 F500
G1 X-1.702 Y-0.747 Z0.600 F500
G1 X-1.805 Y-0.723 Z0.600 F500
G1 X-1.903 Y-0.685 Z0.600 F500
G1 X-1.994 Y-0.632 Z0.600 F500
G1 X-2.077 Y-0.567 Z0.600 F500
G1 X-2.148 Y-0.489 Z0.600 F500
G1 X-2.208 Y-0.402 Z0.600 F500
G1 X-2.253 Y-0.307 Z0.600 F500
G1 X-2.284 Y-0.207 Z0.600 F500
G1 X-2.300 Y-0.103 Z0.600 F500
G1 X-2.300 Y0.003 Z0.600 F500
G1 X-2.284 Y0.107 Z0.600 F500
G1 X-2.253 Y0.207 Z0.600 F500
G1 X-2.208 Y0.302 Z0.600 F500
G1 X-2.148 Y0.389 Z0.600 F500
G1 X-2.077 Y0.466 Z0.600 F500
G1 X-1.994 Y0.532 Z0.600 F500
G1 X-1.903 Y0.585 Z0.600 F500
G1 X-1.805 Y0.623 Z0.600 F500
G1 X-1.702 Y0.647 Z0.600 F500
G1 X-1.597 Y0.654 Z0.600 F500
G1 X35.461 Y0.654 Z0.600 F500
G1 X35.566 Y0.662 Z0.600 F500
G1 X35.668 Y0.686 Z0.600 F500
G1 X35.766 Y0.724 Z0.600 F500
G1 X35.858 Y0.777 Z0.600 F500
G1 X35.940 Y0.842 Z0.600 F500
G1 X36.012 Y0.920 Z0.600 F500
G1 X36.071 Y1.007 Z0.600 F500
G1 X36.117 Y1.101 Z0.600 F500
G1 X36.148 Y1.202 Z0.600 F500
G1 X36.163 Y1.306 Z0.600 F500
G1 X36.163 Y1.412 Z0.600 F500
G1 X36.148 Y1.516 Z0.600 F500
G1 X36.117 Y1.616 Z0.600 F500
G1 X36.071 Y1.711 Z0.600 F500
G1 X36.012 Y1.798 Z0.600 F500
G1 X35.940 Y1.875 Z0.600 F500
G1 X35.858 Y1.941 Z0.600 F500
G1 X35.766 Y1.994 Z0.600 F500
G1 X35.668 Y2.032 Z0.600 F500
G1 X35.566 Y2.055 Z0.600 F500
G1 X35.461 Y2.063 Z0.600 F500
G1 X-1.597 Y2.063 Z0.600 F500
G1 X-1.702 Y2.071 Z0.600 F500
G1 X-1.805 Y2.095 Z0.600 F500
G1 X-1.903 Y2.133 Z0.600 F500
G1 X-1.994 Y2.186 Z0.600 F500
G1 X-2.077 Y2.251 Z0.600 F500
G1 X-2.148 Y2.329 Z0.600 F500
G1 X-2.208 Y2.416 Z0.600 F500
G1 X-2.253 Y2.510 Z0.600 F500
G1 X-2.284 Y2.611 Z0.600 F500
G1 X-2.300 Y2.715 Z0.600 F500
G1 X-2.300 Y2.820 Z0.600 F500
G1 X-2.284 Y2.925 Z0.600 F500
G1 X-2.253 Y3.025 Z0.600 F500
G1 X-2.208 Y3.120 Z0.600 F500
G1 X-2.148 Y3.207 Z0.600 F500
G1 X-2.077 Y3.284 Z0.600 F500
G1 X-1.994 Y3.350 Z0.600 F500
G1 X-1.903 Y3.403 Z0.600 F500
G1 X-1.805 Y3.441 Z0.600 F500
G1 X-1.702 Y3.464 Z0.600 F500
G1 X-1.597 Y3.472 Z0.600 F500
G1 X35.461 Y3.472 Z0.600 F500
G1 X35.566 Y3.480 Z0.600 F500
G1 X35.668 Y3.504 Z0.600 F500
G1 X35.766 Y3.542 Z0.600 F500
G1 X35.858 Y3.595 Z0.600 F500
G1 X35.940 Y3.660 Z0.600 F500
G1 X36.012 Y3.738 Z0.600 F500
G1 X36.071 Y3.825 Z0.600 F500
G1 X36.117 Y3.919 Z0.600 F500
G1 X36.148 Y4.020 Z0.600 F500
G1 X36.163 Y4.124 Z0.600 F500
G1 X36.163 Y4.229 Z0.600 F500
G1 X36.148 Y4.334 Z0.600 F500
G1 X36.117 Y4.434 Z0.600 F500
G1 X36.071 Y4.529 Z0.600 F500
G1 X36.012 Y4.616 Z0.600 F500
G1 X35.940 Y4.693 Z0.600 F500
G1 X35.858 Y4.759 Z0.600 F500
G1 X35.766 Y4.812 Z0.600 F500
G1 X35.668 Y4.850 Z0.600 F500
G1 X35.566 Y4.873 Z0.600 F500
G1 X35.461 Y4.881 Z0.600 F500
G1 X-1.597 Y4.881 Z0.600 F500
G1 X-1.702 Y4.889 Z0.600 F500
G1 X-1.805 Y4.913 Z0.600 F500
G1 X-1.903 Y4.951 Z0.600 F500
G1 X-1.994 Y5.004 Z0.600 F500
G1 X-2.077 Y5.069 Z0.600 F500
G1 X-2.148 Y5.147 Z0.600 F500
G1 X-2.208 Y5.234 Z0.600 F500
G1 X-2.253 Y5.328 Z0.600 F500
G1 X-2.284 Y5.429 Z0.600 F500
G1 X-2.300 Y5.533 Z0.600 F500
G1 X-2.300 Y5.638 Z0.600 F500
G1 X-2.284 Y5.743 Z0.600 F500
G1 X-2.253 Y5.843 Z0.600 F500
G1 X-2.208 Y5.938 Z0.600 F500
G1 X-2.148 Y6.025 Z0.600 F500
G1 X-2.077 Y6.102 Z0.600 F500
G1 X-1.994 Y6.168 Z0.600 F500
G1 X-1.903 Y6.220 Z0.600 F500
G1 X-1.805 Y6.259 Z0.600 F500
G1 X-1.702 Y6.282 Z0.600 F500
G1 X-1.597 Y6.290 Z0.600 F500
G1 X35.461 Y6.290 Z0.600 F500
G1 X35.566 Y6.298 Z0.600 F500
G1 X35.668 Y6.322 Z0.600 F500
G1 X35.766 Y6.360 Z0.600 F500
G1 X35.858 Y6.413 Z0.600 F500
G1 X35.940 Y6.478 Z0.600 F500
G1 X36.012 Y6.555 Z0.600 F500
G1 X36.071 Y6.642 Z0.600 F500
G1 X36.117 Y6.737 Z0.600 F500
G1 X36.148 Y6.838 Z0.600 F500
G1 X36.163 Y6.942 Z0.600 F500
G1 X36.163 Y7.047 Z0.600 F500
G1 X36.148 Y7.151 Z0.600 F500
G1 X36.117 Y7.252 Z0.600 F500
G1 X36.071 Y7.347 Z0.600 F500
G1 X36.012 Y7.434 Z0.600 F500
G1 X35.940 Y7.511 Z0.600 F500
G1 X35.858 Y7.577 Z0.600 F500
G1 X35.766 Y7.629 Z0.600 F500
G1 X35.668 Y7.668 Z0.600 F500
G1 X35.566 Y7.691 Z0.600 F500
G1 X35.461 Y7.699 Z0.600 F500
G1 X-1.597 Y7.699 Z0.600 F500
G1 X-1.702 Y7.707 Z0.600 F500
G1 X-1.805 Y7.730 Z0.600 F500
G1 X-1.903 Y7.769 Z0.600 F500
G1 X-1.994 Y7.822 Z0.600 F500
G1 X-2.077 Y7.887 Z0.600 F500
G1 X-2.148 Y7.964 Z0.600 F500
G1 X-2.208 Y8.051 Z0.600 F500
G1 X-2.253 Y8.146 Z0.600 F500
G1 X-2.284 Y8.247 Z0.600 F500
G1 X-2.300 Y8.351 Z0.600 F500
G1 X-2.300 Y8.456 Z0.600 F500
G1 X-2.284 Y8.560 Z0.600 F500
G1 X-2.253 Y8.661 Z0.600 F500
G1 X-2.208 Y8.756 Z0.600 F500
G1 X-2.148 Y8.843 Z0.600 F500
G1 X-2.077 Y8.920 Z0.600 F500
G1 X-1.994 Y8.986 Z0.600 F500
G1 X-1.903 Y9.038 Z0.600 F500
G1 X-1.805 Y9.077 Z0.600 F500
G1 X-1.702 Y9.100 Z0.600 F500
G1 X-1.597 Y9.108 Z0.600 F500
G1 X35.461 Y9.108 Z0.600 F500
G1 X35.566 Y9.116 Z0.600 F500
G1 X35.668 Y9.139 Z0.600 F500
G1 X35.766 Y9.178 Z0.600 F500
G1 X35.858 Y9.231 Z0.600 F500
G1 X35.940 Y9.296 Z0.600 F500
G1 X36.012 Y9.373 Z0.600 F500
G1 X36.071 Y9.460 Z0.600 F500
G1 X36.117 Y9.555 Z0.600 F500
G1 X36.148 Y9.656 Z0.600 F500
G1 X36.163 Y9.760 Z0.600 F500
G1 X36.163 Y9.865 Z0.600 F500
G1 X36.148 Y9.969 Z0.600 F500
G1 X36.117 Y10.070 Z0.600 F500
G1 X36.071 Y10.165 Z0.600 F500
G1 X36.012 Y10.252 Z0.600 F500
G1 X35.940 Y10.329 Z0.600 F500
G1 X35.858 Y10.395 Z0.600 F500
G1 X35.766 Y10.447 Z0.600 F500
G1 X35.668 Y10.486 Z0.600 F500
