;Titan-1-Long-Edge-Squaring
;Machine
;vendor: Snapmaker
;model: Desktop CNC
;description: Generic Snapmaker Marlin v20180725
M3 S18000
G4 S2 P2
G21
G90
;When using Fusion for Personal Use, the feedrate of rapid
;moves is reduced to match the feedrate of cutting moves,
;which can increase machining time. Unrestricted rapid moves
;are available with a Fusion Subscription.

;Long Edge Squaring
G0 X-0.234 Y-2.047 Z16.825
G1 X-0.234 Y-2.047 Z16.825 F200
G1 X-0.234 Y-2.047 Z2.118 F200
G1 X-0.234 Y-2.039 Z2.047 F200
G1 X-0.234 Y-2.016 Z1.980 F200
G1 X-0.234 Y-1.978 Z1.920 F200
G1 X-0.234 Y-1.927 Z1.869 F200
G1 X-0.234 Y-1.867 Z1.831 F200
G1 X-0.234 Y-1.800 Z1.808 F200
G1 X-0.234 Y-1.730 Z1.800 F200
G1 X-0.234 Y-1.597 Z1.800 F200
G1 X-0.234 Y42.597 Z1.800 F200
G1 X-0.226 Y42.697 Z1.800 F200
G1 X-0.204 Y42.795 Z1.800 F200
G1 X-0.167 Y42.888 Z1.800 F200
G1 X-0.117 Y42.975 Z1.800 F200
G1 X-0.055 Y43.053 Z1.800 F200
G1 X0.018 Y43.121 Z1.800 F200
G1 X0.101 Y43.177 Z1.800 F200
G1 X0.191 Y43.221 Z1.800 F200
G1 X0.287 Y43.250 Z1.800 F200
G1 X0.386 Y43.265 Z1.800 F200
G1 X0.486 Y43.265 Z1.800 F200
G1 X0.585 Y43.250 Z1.800 F200
G1 X0.680 Y43.221 Z1.800 F200
G1 X0.770 Y43.177 Z1.800 F200
G1 X0.853 Y43.121 Z1.800 F200
G1 X0.926 Y43.053 Z1.800 F200
G1 X0.989 Y42.975 Z1.800 F200
G1 X1.039 Y42.888 Z1.800 F200
G1 X1.075 Y42.795 Z1.800 F200
G1 X1.098 Y42.697 Z1.800 F200
G1 X1.105 Y42.597 Z1.800 F200
G1 X1.105 Y-1.597 Z1.800 F200
G1 X1.113 Y-1.697 Z1.800 F200
G1 X1.135 Y-1.795 Z1.800 F200
G1 X1.171 Y-1.888 Z1.800 F200
G1 X1.221 Y-1.975 Z1.800 F200
G1 X1.284 Y-2.053 Z1.800 F200
G1 X1.357 Y-2.121 Z1.800 F200
G1 X1.440 Y-2.177 Z1.800 F200
G1 X1.530 Y-2.221 Z1.800 F200
G1 X1.626 Y-2.250 Z1.800 F200
G1 X1.725 Y-2.265 Z1.800 F200
G1 X1.825 Y-2.265 Z1.800 F200
G1 X1.924 Y-2.250 Z1.800 F200
G1 X2.019 Y-2.221 Z1.800 F200
G1 X2.109 Y-2.177 Z1.800 F200
G1 X2.192 Y-2.121 Z1.800 F200
G1 X2.265 Y-2.053 Z1.800 F200
G1 X2.328 Y-1.975 Z1.800 F200
G1 X2.378 Y-1.888 Z1.800 F200
G1 X2.414 Y-1.795 Z1.800 F200
G1 X2.436 Y-1.697 Z1.800 F200
G1 X2.444 Y-1.597 Z1.800 F200
G1 X2.444 Y42.597 Z1.800 F200
G1 X2.451 Y42.697 Z1.800 F200
G1 X2.474 Y42.795 Z1.800 F200
G1 X2.510 Y42.888 Z1.800 F200
G1 X2.560 Y42.975 Z1.800 F200
G1 X2.623 Y43.053 Z1.800 F200
G1 X2.696 Y43.121 Z1.800 F200
G1 X2.779 Y43.177 Z1.800 F200
G1 X2.869 Y43.221 Z1.800 F200
G1 X2.964 Y43.250 Z1.800 F200
G1 X3.063 Y43.265 Z1.800 F200
G1 X3.163 Y43.265 Z1.800 F200
G1 X3.262 Y43.250 Z1.800 F200
G1 X3.358 Y43.221 Z1.800 F200
G1 X3.448 Y43.177 Z1.800 F200
G1 X3.531 Y43.121 Z1.800 F200
G1 X3.604 Y43.053 Z1.800 F200
G1 X3.666 Y42.975 Z1.800 F200
G1 X3.716 Y42.888 Z1.800 F200
G1 X3.753 Y42.795 Z1.800 F200
G1 X3.775 Y42.697 Z1.800 F200
G1 X3.783 Y42.597 Z1.800 F200
G1 X3.783 Y-1.597 Z1.800 F200
G1 X3.790 Y-1.697 Z1.800 F200
G1 X3.813 Y-1.795 Z1.800 F200
G1 X3.849 Y-1.888 Z1.800 F200
G1 X3.899 Y-1.975 Z1.800 F200
G1 X3.961 Y-2.053 Z1.800 F200
G1 X4.035 Y-2.121 Z1.800 F200
G1 X4.117 Y-2.177 Z1.800 F200
G1 X4.208 Y-2.221 Z1.800 F200
G1 X4.303 Y-2.250 Z1.800 F200
G1 X4.402 Y-2.265 Z1.800 F200
G1 X4.502 Y-2.265 Z1.800 F200
G1 X4.601 Y-2.250 Z1.800 F200
G1 X4.697 Y-2.221 Z1.800 F200
G1 X4.787 Y-2.177 Z1.800 F200
G1 X4.870 Y-2.121 Z1.800 F200
G1 X4.943 Y-2.053 Z1.800 F200
G1 X5.005 Y-1.975 Z1.800 F200
G1 X5.055 Y-1.888 Z1.800 F200
G1 X5.092 Y-1.795 Z1.800 F200
G1 X5.114 Y-1.697 Z1.800 F200
G1 X5.122 Y-1.597 Z1.800 F200
G1 X5.122 Y42.597 Z1.800 F200
G1 X5.129 Y42.697 Z1.800 F200
G1 X5.151 Y42.795 Z1.800 F200
G1 X5.188 Y42.888 Z1.800 F200
G1 X5.238 Y42.975 Z1.800 F200
G1 X5.300 Y43.053 Z1.800 F200
G1 X5.374 Y43.121 Z1.800 F200
G1 X5.456 Y43.177 Z1.800 F200
G1 X5.546 Y43.221 Z1.800 F200
G1 X5.642 Y43.250 Z1.800 F200
G1 X5.741 Y43.265 Z1.800 F200
G1 X5.841 Y43.265 Z1.800 F200
G1 X5.940 Y43.250 Z1.800 F200
G1 X6.036 Y43.221 Z1.800 F200
G1 X6.126 Y43.177 Z1.800 F200
G1 X6.208 Y43.121 Z1.800 F200
G1 X6.282 Y43.053 Z1.800 F200
G1 X6.344 Y42.975 Z1.800 F200
G1 X6.394 Y42.888 Z1.800 F200
G1 X6.431 Y42.795 Z1.800 F200
G1 X6.453 Y42.697 Z1.800 F200
G1 X6.460 Y42.597 Z1.800 F200
G1 X6.460 Y-1.597 Z1.800 F200
G1 X6.468 Y-1.697 Z1.800 F200
G1 X6.490 Y-1.795 Z1.800 F200
G1 X6.527 Y-1.888 Z1.800 F200
G1 X6.577 Y-1.975 Z1.800 F200
G1 X6.639 Y-2.053 Z1.800 F200
G1 X6.712 Y-2.121 Z1.800 F200
G1 X6.795 Y-2.177 Z1.800 F200
G1 X6.885 Y-2.221 Z1.800 F200
G1 X6.981 Y-2.250 Z1.800 F200
G1 X7.080 Y-2.265 Z1.800 F200
G1 X7.180 Y-2.265 Z1.800 F200
G1 X7.279 Y-2.250 Z1.800 F200
G1 X7.374 Y-2.221 Z1.800 F200
G1 X7.465 Y-2.177 Z1.800 F200
G1 X7.547 Y-2.121 Z1.800 F200
G1 X7.621 Y-2.053 Z1.800 F200
G1 X7.683 Y-1.975 Z1.800 F200
G1 X7.733 Y-1.888 Z1.800 F200
G1 X7.769 Y-1.795 Z1.800 F200
G1 X7.792 Y-1.697 Z1.800 F200
G1 X7.799 Y-1.597 Z1.800 F200
G1 X7.799 Y42.597 Z1.800 F200
G1 X7.807 Y42.697 Z1.800 F200
G1 X7.829 Y42.795 Z1.800 F200
G1 X7.866 Y42.888 Z1.800 F200
G1 X7.916 Y42.975 Z1.800 F200
G1 X7.978 Y43.053 Z1.800 F200
G1 X8.051 Y43.121 Z1.800 F200
G1 X8.134 Y43.177 Z1.800 F200
G1 X8.224 Y43.221 Z1.800 F200
G1 X8.320 Y43.250 Z1.800 F200
G1 X8.419 Y43.265 Z1.800 F200
G1 X8.519 Y43.265 Z1.800 F200
G1 X8.618 Y43.250 Z1.800 F200
G1 X8.713 Y43.221 Z1.800 F200
G1 X8.803 Y43.177 Z1.800 F200
G1 X8.886 Y43.121 Z1.800 F200
G1 X8.959 Y43.053 Z1.800 F200
G1 X9.022 Y42.975 Z1.800 F200
G1 X9.072 Y42.888 Z1.800 F200
G1 X9.108 Y42.795 Z1.800 F200
G1 X9.131 Y42.697 Z1.800 F200
G1 X9.138 Y42.597 Z1.800 F200
G1 X9.138 Y-1.597 Z1.800 F200
G1 X9.146 Y-1.697 Z1.800 F200
G1 X9.168 Y-1.795 Z1.800 F200
G1 X9.204 Y-1.888 Z1.800 F200
G1 X9.254 Y-1.975 Z1.800 F200
G1 X9.317 Y-2.053 Z1.800 F200
G1 X9.390 Y-2.121 Z1.800 F200
G1 X9.473 Y-2.177 Z1.800 F200
G1 X9.563 Y-2.221 Z1.800 F200
G1 X9.659 Y-2.250 Z1.800 F200
G1 X9.757 Y-2.265 Z1.800 F200
G1 X9.857 Y-2.265 Z1.800 F200
G1 X9.956 Y-2.250 Z1.800 F200
G1 X10.052 Y-2.221 Z1.800 F200
G1 X10.142 Y-2.177 Z1.800 F200
G1 X10.225 Y-2.121 Z1.800 F200
G1 X10.298 Y-2.053 Z1.800 F200
G1 X10.361 Y-1.975 Z1.800 F200
G1 X10.411 Y-1.888 Z1.800 F200
G1 X10.447 Y-1.795 Z1.800 F200
G1 X10.469 Y-1.697 Z1.800 F200
G1 X10.477 Y-1.597 Z1.800 F200
G1 X10.477 Y42.597 Z1.800 F200
G1 X10.477 Y42.668 Z1.808 F200
G1 X10.477 Y42.735 Z1.831 F200
G1 X10.477 Y42.795 Z1.869 F200
G1 X10.477 Y42.846 Z1.920 F200
G1 X10.477 Y42.884 Z1.980 F200
G1 X10.477 Y42.907 Z2.047 F200
G1 X10.477 Y42.915 Z2.118 F200
G1 X10.477 Y42.915 Z6.825 F200
G1 X-0.234 Y43.047 Z6.825 F200
G1 X-0.234 Y43.047 Z2.017 F200
G1 X-0.234 Y43.039 Z1.947 F200
G1 X-0.234 Y43.016 Z1.880 F200
G1 X-0.234 Y42.978 Z1.820 F200
G1 X-0.234 Y42.927 Z1.769 F200
G1 X-0.234 Y42.867 Z1.731 F200
G1 X-0.234 Y42.800 Z1.708 F200
G1 X-0.234 Y42.730 Z1.700 F200
G1 X-0.234 Y42.597 Z1.700 F200
G1 X-0.234 Y-1.597 Z1.700 F200
G1 X-0.226 Y-1.697 Z1.700 F200
G1 X-0.204 Y-1.795 Z1.700 F200
G1 X-0.167 Y-1.888 Z1.700 F200
G1 X-0.117 Y-1.975 Z1.700 F200
G1 X-0.055 Y-2.053 Z1.700 F200
G1 X0.018 Y-2.121 Z1.700 F200
G1 X0.101 Y-2.177 Z1.700 F200
G1 X0.191 Y-2.221 Z1.700 F200
G1 X0.287 Y-2.250 Z1.700 F200
G1 X0.386 Y-2.265 Z1.700 F200
G1 X0.486 Y-2.265 Z1.700 F200
G1 X0.585 Y-2.250 Z1.700 F200
G1 X0.680 Y-2.221 Z1.700 F200
G1 X0.770 Y-2.177 Z1.700 F200
G1 X0.853 Y-2.121 Z1.700 F200
G1 X0.926 Y-2.053 Z1.700 F200
G1 X0.989 Y-1.975 Z1.700 F200
G1 X1.039 Y-1.888 Z1.700 F200
G1 X1.075 Y-1.795 Z1.700 F200
G1 X1.098 Y-1.697 Z1.700 F200
G1 X1.105 Y-1.597 Z1.700 F200
G1 X1.105 Y42.597 Z1.700 F200
G1 X1.113 Y42.697 Z1.700 F200
G1 X1.135 Y42.795 Z1.700 F200
G1 X1.171 Y42.888 Z1.700 F200
G1 X1.221 Y42.975 Z1.700 F200
G1 X1.284 Y43.053 Z1.700 F200
G1 X1.357 Y43.121 Z1.700 F200
G1 X1.440 Y43.177 Z1.700 F200
G1 X1.530 Y43.221 Z1.700 F200
G1 X1.626 Y43.250 Z1.700 F200
G1 X1.725 Y43.265 Z1.700 F200
G1 X1.825 Y43.265 Z1.700 F200
G1 X1.924 Y43.250 Z1.700 F200
G1 X2.019 Y43.221 Z1.700 F200
G1 X2.109 Y43.177 Z1.700 F200
G1 X2.192 Y43.121 Z1.700 F200
G1 X2.265 Y43.053 Z1.700 F200
G1 X2.328 Y42.975 Z1.700 F200
G1 X2.378 Y42.888 Z1.700 F200
G1 X2.414 Y42.795 Z1.700 F200
G1 X2.436 Y42.697 Z1.700 F200
G1 X2.444 Y42.597 Z1.700 F200
G1 X2.444 Y-1.597 Z1.700 F200
G1 X2.451 Y-1.697 Z1.700 F200
G1 X2.474 Y-1.795 Z1.700 F200
G1 X2.510 Y-1.888 Z1.700 F200
G1 X2.560 Y-1.975 Z1.700 F200
G1 X2.623 Y-2.053 Z1.700 F200
G1 X2.696 Y-2.121 Z1.700 F200
G1 X2.779 Y-2.177 Z1.700 F200
G1 X2.869 Y-2.221 Z1.700 F200
G1 X2.964 Y-2.250 Z1.700 F200
G1 X3.063 Y-2.265 Z1.700 F200
G1 X3.163 Y-2.265 Z1.700 F200
G1 X3.262 Y-2.250 Z1.700 F200
G1 X3.358 Y-2.221 Z1.700 F200
G1 X3.448 Y-2.177 Z1.700 F200
G1 X3.531 Y-2.121 Z1.700 F200
G1 X3.604 Y-2.053 Z1.700 F200
G1 X3.666 Y-1.975 Z1.700 F200
G1 X3.716 Y-1.888 Z1.700 F200
G1 X3.753 Y-1.795 Z1.700 F200
G1 X3.775 Y-1.697 Z1.700 F200
G1 X3.783 Y-1.597 Z1.700 F200
G1 X3.783 Y42.597 Z1.700 F200
G1 X3.790 Y42.697 Z1.700 F200
G1 X3.813 Y42.795 Z1.700 F200
G1 X3.849 Y42.888 Z1.700 F200
G1 X3.899 Y42.975 Z1.700 F200
G1 X3.961 Y43.053 Z1.700 F200
G1 X4.035 Y43.121 Z1.700 F200
G1 X4.117 Y43.177 Z1.700 F200
G1 X4.208 Y43.221 Z1.700 F200
G1 X4.303 Y43.250 Z1.700 F200
G1 X4.402 Y43.265 Z1.700 F200
G1 X4.502 Y43.265 Z1.700 F200
G1 X4.601 Y43.250 Z1.700 F200
G1 X4.697 Y43.221 Z1.700 F200
G1 X4.787 Y43.177 Z1.700 F200
G1 X4.870 Y43.121 Z1.700 F200
G1 X4.943 Y43.053 Z1.700 F200
G1 X5.005 Y42.975 Z1.700 F200
G1 X5.055 Y42.888 Z1.700 F200
G1 X5.092 Y42.795 Z1.700 F200
G1 X5.114 Y42.697 Z1.700 F200
G1 X5.122 Y42.597 Z1.700 F200
G1 X5.122 Y-1.597 Z1.700 F200
G1 X5.129 Y-1.697 Z1.700 F200
G1 X5.151 Y-1.795 Z1.700 F200
G1 X5.188 Y-1.888 Z1.700 F200
G1 X5.238 Y-1.975 Z1.700 F200
G1 X5.300 Y-2.053 Z1.700 F200
G1 X5.374 Y-2.121 Z1.700 F200
G1 X5.456 Y-2.177 Z1.700 F200
G1 X5.546 Y-2.221 Z1.700 F200
G1 X5.642 Y-2.250 Z1.700 F200
G1 X5.741 Y-2.265 Z1.700 F200
G1 X5.841 Y-2.265 Z1.700 F200
G1 X5.940 Y-2.250 Z1.700 F200
G1 X6.036 Y-2.221 Z1.700 F200
G1 X6.126 Y-2.177 Z1.700 F200
G1 X6.208 Y-2.121 Z1.700 F200
G1 X6.282 Y-2.053 Z1.700 F200
G1 X6.344 Y-1.975 Z1.700 F200
G1 X6.394 Y-1.888 Z1.700 F200
G1 X6.431 Y-1.795 Z1.700 F200
G1 X6.453 Y-1.697 Z1.700 F200
G1 X6.460 Y-1.597 Z1.700 F200
G1 X6.460 Y42.597 Z1.700 F200
G1 X6.468 Y42.697 Z1.700 F200
G1 X6.490 Y42.795 Z1.700 F200
G1 X6.527 Y42.888 Z1.700 F200
G1 X6.577 Y42.975 Z1.700 F200
G1 X6.639 Y43.053 Z1.700 F200
G1 X6.712 Y43.121 Z1.700 F200
G1 X6.795 Y43.177 Z1.700 F200
G1 X6.885 Y43.221 Z1.700 F200
G1 X6.981 Y43.250 Z1.700 F200
G1 X7.080 Y43.265 Z1.700 F200
G1 X7.180 Y43.265 Z1.700 F200
G1 X7.279 Y43.250 Z1.700 F200
G1 X7.374 Y43.221 Z1.700 F200
G1 X7.465 Y43.177 Z1.700 F200
G1 X7.547 Y43.121 Z1.700 F200
G1 X7.621 Y43.053 Z1.700 F200
G1 X7.683 Y42.975 Z1.700 F200
G1 X7.733 Y42.888 Z1.700 F200
G1 X7.769 Y42.795 Z1.700 F200
G1 X7.792 Y42.697 Z1.700 F200
G1 X7.799 Y42.597 Z1.700 F200
G1 X7.799 Y-1.597 Z1.700 F200
G1 X7.807 Y-1.697 Z1.700 F200
G1 X7.829 Y-1.795 Z1.700 F200
G1 X7.866 Y-1.888 Z1.700 F200
G1 X7.916 Y-1.975 Z1.700 F200
G1 X7.978 Y-2.053 Z1.700 F200
G1 X8.051 Y-2.121 Z1.700 F200
G1 X8.134 Y-2.177 Z1.700 F200
G1 X8.224 Y-2.221 Z1.700 F200
G1 X8.320 Y-2.250 Z1.700 F200
G1 X8.419 Y-2.265 Z1.700 F200
G1 X8.519 Y-2.265 Z1.700 F200
G1 X8.618 Y-2.250 Z1.700 F200
G1 X8.713 Y-2.221 Z1.700 F200
G1 X8.803 Y-2.177 Z1.700 F200
G1 X8.886 Y-2.121 Z1.700 F200
G1 X8.959 Y-2.053 Z1.700 F200
G1 X9.022 Y-1.975 Z1.700 F200
G1 X9.072 Y-1.888 Z1.700 F200
G1 X9.108 Y-1.795 Z1.700 F200
G1 X9.131 Y-1.697 Z1.700 F200
G1 X9.138 Y-1.597 Z1.700 F200
G1 X9.138 Y42.597 Z1.700 F200
G1 X9.146 Y42.697 Z1.700 F200
G1 X9.168 Y42.795 Z1.700 F200
G1 X9.204 Y42.888 Z1.700 F200
G1 X9.254 Y42.975 Z1.700 F200
G1 X9.317 Y43.053 Z1.700 F200
G1 X9.390 Y43.121 Z1.700 F200
G1 X9.473 Y43.177 Z1.700 F200
G1 X9.563 Y43.221 Z1.700 F200
G1 X9.659 Y43.250 Z1.700 F200
G1 X9.757 Y43.265 Z1.700 F200
G1 X9.857 Y43.265 Z1.700 F200
G1 X9.956 Y43.250 Z1.700 F200
G1 X10.052 Y43.221 Z1.700 F200
G1 X10.142 Y43.177 Z1.700 F200
G1 X10.225 Y43.121 Z1.700 F200
G1 X10.298 Y43.053 Z1.700 F200
G1 X10.361 Y42.975 Z1.700 F200
G1 X10.411 Y42.888 Z1.700 F200
G1 X10.447 Y42.795 Z1.700 F200
G1 X10.469 Y42.697 Z1.700 F200
G1 X10.477 Y42.597 Z1.700 F200
G1 X10.477 Y-1.597 Z1.700 F200
G1 X10.477 Y-1.668 Z1.708 F200
G1 X10.477 Y-1.735 Z1.731 F200
G1 X10.477 Y-1.795 Z1.769 F200
G1 X10.477 Y-1.846 Z1.820 F200
G1 X10.477 Y-1.884 Z1.880 F200
G1 X10.477 Y-1.907 Z1.947 F200
G1 X10.477 Y-1.915 Z2.017 F200
G1 X10.477 Y-1.915 Z6.825 F200
G1 X-0.234 Y-2.047 Z6.825 F200
G1 X-0.234 Y-2.047 Z1.925 F200
G1 X-0.234 Y-2.047 Z1.918 F200
G1 X-0.234 Y-2.039 Z1.847 F200
G1 X-0.234 Y-2.016 Z1.780 F200
G1 X-0.234 Y-1.978 Z1.720 F200
G1 X-0.234 Y-1.927 Z1.669 F200
G1 X-0.234 Y-1.867 Z1.631 F200
G1 X-0.234 Y-1.800 Z1.608 F200
G1 X-0.234 Y-1.730 Z1.600 F200
G1 X-0.234 Y-1.597 Z1.600 F200
G1 X-0.234 Y42.597 Z1.600 F200
G1 X-0.226 Y42.697 Z1.600 F200
G1 X-0.204 Y42.795 Z1.600 F200
G1 X-0.167 Y42.888 Z1.600 F200
G1 X-0.117 Y42.975 Z1.600 F200
G1 X-0.055 Y43.053 Z1.600 F200
G1 X0.018 Y43.121 Z1.600 F200
G1 X0.101 Y43.177 Z1.600 F200
G1 X0.191 Y43.221 Z1.600 F200
G1 X0.287 Y43.250 Z1.600 F200
G1 X0.386 Y43.265 Z1.600 F200
G1 X0.486 Y43.265 Z1.600 F200
G1 X0.585 Y43.250 Z1.600 F200
G1 X0.680 Y43.221 Z1.600 F200
G1 X0.770 Y43.177 Z1.600 F200
G1 X0.853 Y43.121 Z1.600 F200
G1 X0.926 Y43.053 Z1.600 F200
G1 X0.989 Y42.975 Z1.600 F200
G1 X1.039 Y42.888 Z1.600 F200
G1 X1.075 Y42.795 Z1.600 F200
G1 X1.098 Y42.697 Z1.600 F200
G1 X1.105 Y42.597 Z1.600 F200
G1 X1.105 Y-1.597 Z1.600 F200
G1 X1.113 Y-1.697 Z1.600 F200
G1 X1.135 Y-1.795 Z1.600 F200
G1 X1.171 Y-1.888 Z1.600 F200
G1 X1.221 Y-1.975 Z1.600 F200
G1 X1.284 Y-2.053 Z1.600 F200
G1 X1.357 Y-2.121 Z1.600 F200
G1 X1.440 Y-2.177 Z1.600 F200
G1 X1.530 Y-2.221 Z1.600 F200
G1 X1.626 Y-2.250 Z1.600 F200
G1 X1.725 Y-2.265 Z1.600 F200
G1 X1.825 Y-2.265 Z1.600 F200
G1 X1.924 Y-2.250 Z1.600 F200
G1 X2.019 Y-2.221 Z1.600 F200
G1 X2.109 Y-2.177 Z1.600 F200
G1 X2.192 Y-2.121 Z1.600 F200
G1 X2.265 Y-2.053 Z1.600 F200
G1 X2.328 Y-1.975 Z1.600 F200
G1 X2.378 Y-1.888 Z1.600 F200
G1 X2.414 Y-1.795 Z1.600 F200
G1 X2.436 Y-1.697 Z1.600 F200
G1 X2.444 Y-1.597 Z1.600 F200
G1 X2.444 Y42.597 Z1.600 F200
G1 X2.451 Y42.697 Z1.600 F200
G1 X2.474 Y42.795 Z1.600 F200
G1 X2.510 Y42.888 Z1.600 F200
G1 X2.560 Y42.975 Z1.600 F200
G1 X2.623 Y43.053 Z1.600 F200
G1 X2.696 Y43.121 Z1.600 F200
G1 X2.779 Y43.177 Z1.600 F200
G1 X2.869 Y43.221 Z1.600 F200
G1 X2.964 Y43.250 Z1.600 F200
G1 X3.063 Y43.265 Z1.600 F200
G1 X3.163 Y43.265 Z1.600 F200
G1 X3.262 Y43.250 Z1.600 F200
G1 X3.358 Y43.221 Z1.600 F200
G1 X3.448 Y43.177 Z1.600 F200
G1 X3.531 Y43.121 Z1.600 F200
G1 X3.604 Y43.053 Z1.600 F200
G1 X3.666 Y42.975 Z1.600 F200
G1 X3.716 Y42.888 Z1.600 F200
G1 X3.753 Y42.795 Z1.600 F200
G1 X3.775 Y42.697 Z1.600 F200
G1 X3.783 Y42.597 Z1.600 F200
G1 X3.783 Y-1.597 Z1.600 F200
G1 X3.790 Y-1.697 Z1.600 F200
G1 X3.813 Y-1.795 Z1.600 F200
G1 X3.849 Y-1.888 Z1.600 F200
G1 X3.899 Y-1.975 Z1.600 F200
G1 X3.961 Y-2.053 Z1.600 F200
G1 X4.035 Y-2.121 Z1.600 F200
G1 X4.117 Y-2.177 Z1.600 F200
G1 X4.208 Y-2.221 Z1.600 F200
G1 X4.303 Y-2.250 Z1.600 F200
G1 X4.402 Y-2.265 Z1.600 F200
G1 X4.502 Y-2.265 Z1.600 F200
G1 X4.601 Y-2.250 Z1.600 F200
G1 X4.697 Y-2.221 Z1.600 F200
G1 X4.787 Y-2.177 Z1.600 F200
G1 X4.870 Y-2.121 Z1.600 F200
G1 X4.943 Y-2.053 Z1.600 F200
G1 X5.005 Y-1.975 Z1.600 F200
G1 X5.055 Y-1.888 Z1.600 F200
G1 X5.092 Y-1.795 Z1.600 F200
G1 X5.114 Y-1.697 Z1.600 F200
G1 X5.122 Y-1.597 Z1.600 F200
G1 X5.122 Y42.597 Z1.600 F200
G1 X5.129 Y42.697 Z1.600 F200
G1 X5.151 Y42.795 Z1.600 F200
G1 X5.188 Y42.888 Z1.600 F200
G1 X5.238 Y42.975 Z1.600 F200
G1 X5.300 Y43.053 Z1.600 F200
G1 X5.374 Y43.121 Z1.600 F200
G1 X5.456 Y43.177 Z1.600 F200
G1 X5.546 Y43.221 Z1.600 F200
G1 X5.642 Y43.250 Z1.600 F200
G1 X5.741 Y43.265 Z1.600 F200
G1 X5.841 Y43.265 Z1.600 F200
G1 X5.940 Y43.250 Z1.600 F200
G1 X6.036 Y43.221 Z1.600 F200
G1 X6.126 Y43.177 Z1.600 F200
G1 X6.208 Y43.121 Z1.600 F200
G1 X6.282 Y43.053 Z1.600 F200
G1 X6.344 Y42.975 Z1.600 F200
G1 X6.394 Y42.888 Z1.600 F200
G1 X6.431 Y42.795 Z1.600 F200
G1 X6.453 Y42.697 Z1.600 F200
G1 X6.460 Y42.597 Z1.600 F200
G1 X6.460 Y-1.597 Z1.600 F200
G1 X6.468 Y-1.697 Z1.600 F200
G1 X6.490 Y-1.795 Z1.600 F200
G1 X6.527 Y-1.888 Z1.600 F200
G1 X6.577 Y-1.975 Z1.600 F200
G1 X6.639 Y-2.053 Z1.600 F200
G1 X6.712 Y-2.121 Z1.600 F200
G1 X6.795 Y-2.177 Z1.600 F200
G1 X6.885 Y-2.221 Z1.600 F200
G1 X6.981 Y-2.250 Z1.600 F200
G1 X7.080 Y-2.265 Z1.600 F200
G1 X7.180 Y-2.265 Z1.600 F200
G1 X7.279 Y-2.250 Z1.600 F200
G1 X7.374 Y-2.221 Z1.600 F200
G1 X7.465 Y-2.177 Z1.600 F200
G1 X7.547 Y-2.121 Z1.600 F200
G1 X7.621 Y-2.053 Z1.600 F200
G1 X7.683 Y-1.975 Z1.600 F200
G1 X7.733 Y-1.888 Z1.600 F200
G1 X7.769 Y-1.795 Z1.600 F200
G1 X7.792 Y-1.697 Z1.600 F200
G1 X7.799 Y-1.597 Z1.600 F200
G1 X7.799 Y42.597 Z1.600 F200
G1 X7.807 Y42.697 Z1.600 F200
G1 X7.829 Y42.795 Z1.600 F200
G1 X7.866 Y42.888 Z1.600 F200
G1 X7.916 Y42.975 Z1.600 F200
G1 X7.978 Y43.053 Z1.600 F200
G1 X8.051 Y43.121 Z1.600 F200
G1 X8.134 Y43.177 Z1.600 F200
G1 X8.224 Y43.221 Z1.600 F200
G1 X8.320 Y43.250 Z1.600 F200
G1 X8.419 Y43.265 Z1.600 F200
G1 X8.519 Y43.265 Z1.600 F200
G1 X8.618 Y43.250 Z1.600 F200
G1 X8.713 Y43.221 Z1.600 F200
G1 X8.803 Y43.177 Z1.600 F200
G1 X8.886 Y43.121 Z1.600 F200
G1 X8.959 Y43.053 Z1.600 F200
G1 X9.022 Y42.975 Z1.600 F200
G1 X9.072 Y42.888 Z1.600 F200
G1 X9.108 Y42.795 Z1.600 F200
G1 X9.131 Y42.697 Z1.600 F200
G1 X9.138 Y42.597 Z1.600 F200
G1 X9.138 Y-1.597 Z1.600 F200
G1 X9.146 Y-1.697 Z1.600 F200
G1 X9.168 Y-1.795 Z1.600 F200
G1 X9.204 Y-1.888 Z1.600 F200
G1 X9.254 Y-1.975 Z1.600 F200
G1 X9.317 Y-2.053 Z1.600 F200
G1 X9.390 Y-2.121 Z1.600 F200
G1 X9.473 Y-2.177 Z1.600 F200
G1 X9.563 Y-2.221 Z1.600 F200
G1 X9.659 Y-2.250 Z1.600 F200
G1 X9.757 Y-2.265 Z1.600 F200
G1 X9.857 Y-2.265 Z1.600 F200
G1 X9.956 Y-2.250 Z1.600 F200
G1 X10.052 Y-2.221 Z1.600 F200
G1 X10.142 Y-2.177 Z1.600 F200
G1 X10.225 Y-2.121 Z1.600 F200
G1 X10.298 Y-2.053 Z1.600 F200
G1 X10.361 Y-1.975 Z1.600 F200
G1 X10.411 Y-1.888 Z1.600 F200
G1 X10.447 Y-1.795 Z1.600 F200
G1 X10.469 Y-1.697 Z1.600 F200
G1 X10.477 Y-1.597 Z1.600 F200
G1 X10.477 Y42.597 Z1.600 F200
G1 X10.477 Y42.668 Z1.608 F200
G1 X10.477 Y42.735 Z1.631 F200
G1 X10.477 Y42.795 Z1.669 F200
G1 X10.477 Y42.846 Z1.720 F200
G1 X10.477 Y42.884 Z1.780 F200
G1 X10.477 Y42.907 Z1.847 F200
G1 X10.477 Y42.915 Z1.918 F200
G1 X10.477 Y42.915 Z6.825 F200
G1 X-0.234 Y43.047 Z6.825 F200
G1 X-0.234 Y43.047 Z1.925 F200
G1 X-0.234 Y43.047 Z1.817 F200
G1 X-0.234 Y43.039 Z1.747 F200
G1 X-0.234 Y43.016 Z1.680 F200
G1 X-0.234 Y42.978 Z1.620 F200
G1 X-0.234 Y42.927 Z1.569 F200
G1 X-0.234 Y42.867 Z1.531 F200
G1 X-0.234 Y42.800 Z1.508 F200
G1 X-0.234 Y42.730 Z1.500 F200
G1 X-0.234 Y42.597 Z1.500 F200
G1 X-0.234 Y-1.597 Z1.500 F200
G1 X-0.226 Y-1.697 Z1.500 F200
G1 X-0.204 Y-1.795 Z1.500 F200
G1 X-0.167 Y-1.888 Z1.500 F200
G1 X-0.117 Y-1.975 Z1.500 F200
G1 X-0.055 Y-2.053 Z1.500 F200
G1 X0.018 Y-2.121 Z1.500 F200
G1 X0.101 Y-2.177 Z1.500 F200
G1 X0.191 Y-2.221 Z1.500 F200
G1 X0.287 Y-2.250 Z1.500 F200
G1 X0.386 Y-2.265 Z1.500 F200
G1 X0.486 Y-2.265 Z1.500 F200
G1 X0.585 Y-2.250 Z1.500 F200
G1 X0.680 Y-2.221 Z1.500 F200
G1 X0.770 Y-2.177 Z1.500 F200
G1 X0.853 Y-2.121 Z1.500 F200
G1 X0.926 Y-2.053 Z1.500 F200
G1 X0.989 Y-1.975 Z1.500 F200
G1 X1.039 Y-1.888 Z1.500 F200
G1 X1.075 Y-1.795 Z1.500 F200
G1 X1.098 Y-1.697 Z1.500 F200
G1 X1.105 Y-1.597 Z1.500 F200
G1 X1.105 Y42.597 Z1.500 F200
G1 X1.113 Y42.697 Z1.500 F200
G1 X1.135 Y42.795 Z1.500 F200
G1 X1.171 Y42.888 Z1.500 F200
G1 X1.221 Y42.975 Z1.500 F200
G1 X1.284 Y43.053 Z1.500 F200
G1 X1.357 Y43.121 Z1.500 F200
G1 X1.440 Y43.177 Z1.500 F200
G1 X1.530 Y43.221 Z1.500 F200
G1 X1.626 Y43.250 Z1.500 F200
G1 X1.725 Y43.265 Z1.500 F200
G1 X1.825 Y43.265 Z1.500 F200
G1 X1.924 Y43.250 Z1.500 F200
G1 X2.019 Y43.221 Z1.500 F200
G1 X2.109 Y43.177 Z1.500 F200
G1 X2.192 Y43.121 Z1.500 F200
G1 X2.265 Y43.053 Z1.500 F200
G1 X2.328 Y42.975 Z1.500 F200
G1 X2.378 Y42.888 Z1.500 F200
G1 X2.414 Y42.795 Z1.500 F200
G1 X2.436 Y42.697 Z1.500 F200
G1 X2.444 Y42.597 Z1.500 F200
G1 X2.444 Y-1.597 Z1.500 F200
G1 X2.451 Y-1.697 Z1.500 F200
G1 X2.474 Y-1.795 Z1.500 F200
G1 X2.510 Y-1.888 Z1.500 F200
G1 X2.560 Y-1.975 Z1.500 F200
G1 X2.623 Y-2.053 Z1.500 F200
G1 X2.696 Y-2.121 Z1.500 F200
G1 X2.779 Y-2.177 Z1.500 F200
G1 X2.869 Y-2.221 Z1.500 F200
G1 X2.964 Y-2.250 Z1.500 F200
G1 X3.063 Y-2.265 Z1.500 F200
G1 X3.163 Y-2.265 Z1.500 F200
G1 X3.262 Y-2.250 Z1.500 F200
G1 X3.358 Y-2.221 Z1.500 F200
G1 X3.448 Y-2.177 Z1.500 F200
G1 X3.531 Y-2.121 Z1.500 F200
G1 X3.604 Y-2.053 Z1.500 F200
G1 X3.666 Y-1.975 Z1.500 F200
G1 X3.716 Y-1.888 Z1.500 F200
G1 X3.753 Y-1.795 Z1.500 F200
G1 X3.775 Y-1.697 Z1.500 F200
G1 X3.783 Y-1.597 Z1.500 F200
G1 X3.783 Y42.597 Z1.500 F200
G1 X3.790 Y42.697 Z1.500 F200
G1 X3.813 Y42.795 Z1.500 F200
G1 X3.849 Y42.888 Z1.500 F200
G1 X3.899 Y42.975 Z1.500 F200
G1 X3.961 Y43.053 Z1.500 F200
G1 X4.035 Y43.121 Z1.500 F200
G1 X4.117 Y43.177 Z1.500 F200
G1 X4.208 Y43.221 Z1.500 F200
G1 X4.303 Y43.250 Z1.500 F200
G1 X4.402 Y43.265 Z1.500 F200
G1 X4.502 Y43.265 Z1.500 F200
G1 X4.601 Y43.250 Z1.500 F200
G1 X4.697 Y43.221 Z1.500 F200
G1 X4.787 Y43.177 Z1.500 F200
G1 X4.870 Y43.121 Z1.500 F200
G1 X4.943 Y43.053 Z1.500 F200
G1 X5.005 Y42.975 Z1.500 F200
G1 X5.055 Y42.888 Z1.500 F200
G1 X5.092 Y42.795 Z1.500 F200
G1 X5.114 Y42.697 Z1.500 F200
G1 X5.122 Y42.597 Z1.500 F200
G1 X5.122 Y-1.597 Z1.500 F200
G1 X5.129 Y-1.697 Z1.500 F200
G1 X5.151 Y-1.795 Z1.500 F200
G1 X5.188 Y-1.888 Z1.500 F200
G1 X5.238 Y-1.975 Z1.500 F200
G1 X5.300 Y-2.053 Z1.500 F200
G1 X5.374 Y-2.121 Z1.500 F200
G1 X5.456 Y-2.177 Z1.500 F200
G1 X5.546 Y-2.221 Z1.500 F200
G1 X5.642 Y-2.250 Z1.500 F200
G1 X5.741 Y-2.265 Z1.500 F200
G1 X5.841 Y-2.265 Z1.500 F200
G1 X5.940 Y-2.250 Z1.500 F200
G1 X6.036 Y-2.221 Z1.500 F200
G1 X6.126 Y-2.177 Z1.500 F200
G1 X6.208 Y-2.121 Z1.500 F200
G1 X6.282 Y-2.053 Z1.500 F200
G1 X6.344 Y-1.975 Z1.500 F200
G1 X6.394 Y-1.888 Z1.500 F200
G1 X6.431 Y-1.795 Z1.500 F200
G1 X6.453 Y-1.697 Z1.500 F200
G1 X6.460 Y-1.597 Z1.500 F200
G1 X6.460 Y42.597 Z1.500 F200
G1 X6.468 Y42.697 Z1.500 F200
G1 X6.490 Y42.795 Z1.500 F200
G1 X6.527 Y42.888 Z1.500 F200
G1 X6.577 Y42.975 Z1.500 F200
G1 X6.639 Y43.053 Z1.500 F200
G1 X6.712 Y43.121 Z1.500 F200
G1 X6.795 Y43.177 Z1.500 F200
G1 X6.885 Y43.221 Z1.500 F200
G1 X6.981 Y43.250 Z1.500 F200
G1 X7.080 Y43.265 Z1.500 F200
G1 X7.180 Y43.265 Z1.500 F200
G1 X7.279 Y43.250 Z1.500 F200
G1 X7.374 Y43.221 Z1.500 F200
G1 X7.465 Y43.177 Z1.500 F200
G1 X7.547 Y43.121 Z1.500 F200
G1 X7.621 Y43.053 Z1.500 F200
G1 X7.683 Y42.975 Z1.500 F200
G1 X7.733 Y42.888 Z1.500 F200
G1 X7.769 Y42.795 Z1.500 F200
G1 X7.792 Y42.697 Z1.500 F200
G1 X7.799 Y42.597 Z1.500 F200
G1 X7.799 Y-1.597 Z1.500 F200
G1 X7.807 Y-1.697 Z1.500 F200
G1 X7.829 Y-1.795 Z1.500 F200
G1 X7.866 Y-1.888 Z1.500 F200
G1 X7.916 Y-1.975 Z1.500 F200
G1 X7.978 Y-2.053 Z1.500 F200
G1 X8.051 Y-2.121 Z1.500 F200
G1 X8.134 Y-2.177 Z1.500 F200
G1 X8.224 Y-2.221 Z1.500 F200
G1 X8.320 Y-2.250 Z1.500 F200
G1 X8.419 Y-2.265 Z1.500 F200
G1 X8.519 Y-2.265 Z1.500 F200
G1 X8.618 Y-2.250 Z1.500 F200
G1 X8.713 Y-2.221 Z1.500 F200
G1 X8.803 Y-2.177 Z1.500 F200
G1 X8.886 Y-2.121 Z1.500 F200
G1 X8.959 Y-2.053 Z1.500 F200
G1 X9.022 Y-1.975 Z1.500 F200
G1 X9.072 Y-1.888 Z1.500 F200
G1 X9.108 Y-1.795 Z1.500 F200
G1 X9.131 Y-1.697 Z1.500 F200
G1 X9.138 Y-1.597 Z1.500 F200
G1 X9.138 Y42.597 Z1.500 F200
G1 X9.146 Y42.697 Z1.500 F200
G1 X9.168 Y42.795 Z1.500 F200
G1 X9.204 Y42.888 Z1.500 F200
G1 X9.254 Y42.975 Z1.500 F200
G1 X9.317 Y43.053 Z1.500 F200
G1 X9.390 Y43.121 Z1.500 F200
G1 X9.473 Y43.177 Z1.500 F200
G1 X9.563 Y43.221 Z1.500 F200
G1 X9.659 Y43.250 Z1.500 F200
G1 X9.757 Y43.265 Z1.500 F200
G1 X9.857 Y43.265 Z1.500 F200
G1 X9.956 Y43.250 Z1.500 F200
G1 X10.052 Y43.221 Z1.500 F200
G1 X10.142 Y43.177 Z1.500 F200
G1 X10.225 Y43.121 Z1.500 F200
G1 X10.298 Y43.053 Z1.500 F200
G1 X10.361 Y42.975 Z1.500 F200
G1 X10.411 Y42.888 Z1.500 F200
G1 X10.447 Y42.795 Z1.500 F200
G1 X10.469 Y42.697 Z1.500 F200
G1 X10.477 Y42.597 Z1.500 F200
G1 X10.477 Y-1.597 Z1.500 F200
G1 X10.477 Y-1.668 Z1.508 F200
G1 X10.477 Y-1.735 Z1.531 F200
G1 X10.477 Y-1.795 Z1.569 F200
G1 X10.477 Y-1.846 Z1.620 F200
G1 X10.477 Y-1.884 Z1.680 F200
G1 X10.477 Y-1.907 Z1.747 F200
G1 X10.477 Y-1.915 Z1.817 F200
G1 X10.477 Y-1.915 Z6.825 F200
G1 X-0.234 Y-2.047 Z6.825 F200
G1 X-0.234 Y-2.047 Z1.925 F200
G1 X-0.234 Y-2.047 Z1.717 F200
G1 X-0.234 Y-2.039 Z1.647 F200
G1 X-0.234 Y-2.016 Z1.580 F200
G1 X-0.234 Y-1.978 Z1.520 F200
G1 X-0.234 Y-1.927 Z1.469 F200
G1 X-0.234 Y-1.867 Z1.431 F200
G1 X-0.234 Y-1.800 Z1.408 F200
G1 X-0.234 Y-1.730 Z1.400 F200
G1 X-0.234 Y-1.597 Z1.400 F200
G1 X-0.234 Y42.597 Z1.400 F200
G1 X-0.226 Y42.697 Z1.400 F200
G1 X-0.204 Y42.795 Z1.400 F200
G1 X-0.167 Y42.888 Z1.400 F200
G1 X-0.117 Y42.975 Z1.400 F200
G1 X-0.055 Y43.053 Z1.400 F200
G1 X0.018 Y43.121 Z1.400 F200
G1 X0.101 Y43.177 Z1.400 F200
G1 X0.191 Y43.221 Z1.400 F200
G1 X0.287 Y43.250 Z1.400 F200
G1 X0.386 Y43.265 Z1.400 F200
G1 X0.486 Y43.265 Z1.400 F200
G1 X0.585 Y43.250 Z1.400 F200
G1 X0.680 Y43.221 Z1.400 F200
G1 X0.770 Y43.177 Z1.400 F200
G1 X0.853 Y43.121 Z1.400 F200
G1 X0.926 Y43.053 Z1.400 F200
G1 X0.989 Y42.975 Z1.400 F200
G1 X1.039 Y42.888 Z1.400 F200
G1 X1.075 Y42.795 Z1.400 F200
G1 X1.098 Y42.697 Z1.400 F200
G1 X1.105 Y42.597 Z1.400 F200
G1 X1.105 Y-1.597 Z1.400 F200
G1 X1.113 Y-1.697 Z1.400 F200
G1 X1.135 Y-1.795 Z1.400 F200
G1 X1.171 Y-1.888 Z1.400 F200
G1 X1.221 Y-1.975 Z1.400 F200
G1 X1.284 Y-2.053 Z1.400 F200
G1 X1.357 Y-2.121 Z1.400 F200
G1 X1.440 Y-2.177 Z1.400 F200
G1 X1.530 Y-2.221 Z1.400 F200
G1 X1.626 Y-2.250 Z1.400 F200
G1 X1.725 Y-2.265 Z1.400 F200
G1 X1.825 Y-2.265 Z1.400 F200
G1 X1.924 Y-2.250 Z1.400 F200
G1 X2.019 Y-2.221 Z1.400 F200
G1 X2.109 Y-2.177 Z1.400 F200
G1 X2.192 Y-2.121 Z1.400 F200
G1 X2.265 Y-2.053 Z1.400 F200
G1 X2.328 Y-1.975 Z1.400 F200
G1 X2.378 Y-1.888 Z1.400 F200
G1 X2.414 Y-1.795 Z1.400 F200
G1 X2.436 Y-1.697 Z1.400 F200
G1 X2.444 Y-1.597 Z1.400 F200
G1 X2.444 Y42.597 Z1.400 F200
G1 X2.451 Y42.697 Z1.400 F200
G1 X2.474 Y42.795 Z1.400 F200
G1 X2.510 Y42.888 Z1.400 F200
G1 X2.560 Y42.975 Z1.400 F200
G1 X2.623 Y43.053 Z1.400 F200
G1 X2.696 Y43.121 Z1.400 F200
G1 X2.779 Y43.177 Z1.400 F200
G1 X2.869 Y43.221 Z1.400 F200
G1 X2.964 Y43.250 Z1.400 F200
G1 X3.063 Y43.265 Z1.400 F200
G1 X3.163 Y43.265 Z1.400 F200
G1 X3.262 Y43.250 Z1.400 F200
G1 X3.358 Y43.221 Z1.400 F200
G1 X3.448 Y43.177 Z1.400 F200
G1 X3.531 Y43.121 Z1.400 F200
G1 X3.604 Y43.053 Z1.400 F200
G1 X3.666 Y42.975 Z1.400 F200
G1 X3.716 Y42.888 Z1.400 F200
G1 X3.753 Y42.795 Z1.400 F200
G1 X3.775 Y42.697 Z1.400 F200
G1 X3.783 Y42.597 Z1.400 F200
G1 X3.783 Y-1.597 Z1.400 F200
G1 X3.790 Y-1.697 Z1.400 F200
G1 X3.813 Y-1.795 Z1.400 F200
G1 X3.849 Y-1.888 Z1.400 F200
G1 X3.899 Y-1.975 Z1.400 F200
G1 X3.961 Y-2.053 Z1.400 F200
G1 X4.035 Y-2.121 Z1.400 F200
G1 X4.117 Y-2.177 Z1.400 F200
G1 X4.208 Y-2.221 Z1.400 F200
G1 X4.303 Y-2.250 Z1.400 F200
G1 X4.402 Y-2.265 Z1.400 F200
G1 X4.502 Y-2.265 Z1.400 F200
G1 X4.601 Y-2.250 Z1.400 F200
G1 X4.697 Y-2.221 Z1.400 F200
G1 X4.787 Y-2.177 Z1.400 F200
G1 X4.870 Y-2.121 Z1.400 F200
G1 X4.943 Y-2.053 Z1.400 F200
G1 X5.005 Y-1.975 Z1.400 F200
G1 X5.055 Y-1.888 Z1.400 F200
G1 X5.092 Y-1.795 Z1.400 F200
G1 X5.114 Y-1.697 Z1.400 F200
G1 X5.122 Y-1.597 Z1.400 F200
G1 X5.122 Y42.597 Z1.400 F200
G1 X5.129 Y42.697 Z1.400 F200
G1 X5.151 Y42.795 Z1.400 F200
G1 X5.188 Y42.888 Z1.400 F200
G1 X5.238 Y42.975 Z1.400 F200
G1 X5.300 Y43.053 Z1.400 F200
G1 X5.374 Y43.121 Z1.400 F200
G1 X5.456 Y43.177 Z1.400 F200
G1 X5.546 Y43.221 Z1.400 F200
G1 X5.642 Y43.250 Z1.400 F200
G1 X5.741 Y43.265 Z1.400 F200
G1 X5.841 Y43.265 Z1.400 F200
G1 X5.940 Y43.250 Z1.400 F200
G1 X6.036 Y43.221 Z1.400 F200
G1 X6.126 Y43.177 Z1.400 F200
G1 X6.208 Y43.121 Z1.400 F200
G1 X6.282 Y43.053 Z1.400 F200
G1 X6.344 Y42.975 Z1.400 F200
G1 X6.394 Y42.888 Z1.400 F200
G1 X6.431 Y42.795 Z1.400 F200
G1 X6.453 Y42.697 Z1.400 F200
G1 X6.460 Y42.597 Z1.400 F200
G1 X6.460 Y-1.597 Z1.400 F200
G1 X6.468 Y-1.697 Z1.400 F200
G1 X6.490 Y-1.795 Z1.400 F200
G1 X6.527 Y-1.888 Z1.400 F200
G1 X6.577 Y-1.975 Z1.400 F200
G1 X6.639 Y-2.053 Z1.400 F200
G1 X6.712 Y-2.121 Z1.400 F200
G1 X6.795 Y-2.177 Z1.400 F200
G1 X6.885 Y-2.221 Z1.400 F200
G1 X6.981 Y-2.250 Z1.400 F200
G1 X7.080 Y-2.265 Z1.400 F200
G1 X7.180 Y-2.265 Z1.400 F200
G1 X7.279 Y-2.250 Z1.400 F200
G1 X7.374 Y-2.221 Z1.400 F200
G1 X7.465 Y-2.177 Z1.400 F200
G1 X7.547 Y-2.121 Z1.400 F200
G1 X7.621 Y-2.053 Z1.400 F200
G1 X7.683 Y-1.975 Z1.400 F200
G1 X7.733 Y-1.888 Z1.400 F200
G1 X7.769 Y-1.795 Z1.400 F200
G1 X7.792 Y-1.697 Z1.400 F200
G1 X7.799 Y-1.597 Z1.400 F200
G1 X7.799 Y42.597 Z1.400 F200
G1 X7.807 Y42.697 Z1.400 F200
G1 X7.829 Y42.795 Z1.400 F200
G1 X7.866 Y42.888 Z1.400 F200
G1 X7.916 Y42.975 Z1.400 F200
G1 X7.978 Y43.053 Z1.400 F200
G1 X8.051 Y43.121 Z1.400 F200
G1 X8.134 Y43.177 Z1.400 F200
G1 X8.224 Y43.221 Z1.400 F200
G1 X8.320 Y43.250 Z1.400 F200
G1 X8.419 Y43.265 Z1.400 F200
G1 X8.519 Y43.265 Z1.400 F200
G1 X8.618 Y43.250 Z1.400 F200
G1 X8.713 Y43.221 Z1.400 F200
G1 X8.803 Y43.177 Z1.400 F200
G1 X8.886 Y43.121 Z1.400 F200
G1 X8.959 Y43.053 Z1.400 F200
G1 X9.022 Y42.975 Z1.400 F200
G1 X9.072 Y42.888 Z1.400 F200
G1 X9.108 Y42.795 Z1.400 F200
G1 X9.131 Y42.697 Z1.400 F200
G1 X9.138 Y42.597 Z1.400 F200
G1 X9.138 Y-1.597 Z1.400 F200
G1 X9.146 Y-1.697 Z1.400 F200
G1 X9.168 Y-1.795 Z1.400 F200
G1 X9.204 Y-1.888 Z1.400 F200
G1 X9.254 Y-1.975 Z1.400 F200
G1 X9.317 Y-2.053 Z1.400 F200
G1 X9.390 Y-2.121 Z1.400 F200
G1 X9.473 Y-2.177 Z1.400 F200
G1 X9.563 Y-2.221 Z1.400 F200
G1 X9.659 Y-2.250 Z1.400 F200
G1 X9.757 Y-2.265 Z1.400 F200
G1 X9.857 Y-2.265 Z1.400 F200
G1 X9.956 Y-2.250 Z1.400 F200
G1 X10.052 Y-2.221 Z1.400 F200
G1 X10.142 Y-2.177 Z1.400 F200
G1 X10.225 Y-2.121 Z1.400 F200
G1 X10.298 Y-2.053 Z1.400 F200
G1 X10.361 Y-1.975 Z1.400 F200
G1 X10.411 Y-1.888 Z1.400 F200
G1 X10.447 Y-1.795 Z1.400 F200
G1 X10.469 Y-1.697 Z1.400 F200
G1 X10.477 Y-1.597 Z1.400 F200
G1 X10.477 Y42.597 Z1.400 F200
G1 X10.477 Y42.668 Z1.408 F200
G1 X10.477 Y42.735 Z1.431 F200
G1 X10.477 Y42.795 Z1.469 F200
G1 X10.477 Y42.846 Z1.520 F200
G1 X10.477 Y42.884 Z1.580 F200
G1 X10.477 Y42.907 Z1.647 F200
G1 X10.477 Y42.915 Z1.717 F200
G1 X10.477 Y42.915 Z6.825 F200
G1 X-0.234 Y43.047 Z6.825 F200
G1 X-0.234 Y43.047 Z1.925 F200
G1 X-0.234 Y43.047 Z1.617 F200
G1 X-0.234 Y43.039 Z1.547 F200
G1 X-0.234 Y43.016 Z1.480 F200
G1 X-0.234 Y42.978 Z1.420 F200
G1 X-0.234 Y42.927 Z1.369 F200
G1 X-0.234 Y42.867 Z1.331 F200
G1 X-0.234 Y42.800 Z1.308 F200
G1 X-0.234 Y42.730 Z1.300 F200
G1 X-0.234 Y42.597 Z1.300 F200
G1 X-0.234 Y-1.597 Z1.300 F200
G1 X-0.226 Y-1.697 Z1.300 F200
G1 X-0.204 Y-1.795 Z1.300 F200
G1 X-0.167 Y-1.888 Z1.300 F200
G1 X-0.117 Y-1.975 Z1.300 F200
G1 X-0.055 Y-2.053 Z1.300 F200
G1 X0.018 Y-2.121 Z1.300 F200
G1 X0.101 Y-2.177 Z1.300 F200
G1 X0.191 Y-2.221 Z1.300 F200
G1 X0.287 Y-2.250 Z1.300 F200
G1 X0.386 Y-2.265 Z1.300 F200
G1 X0.486 Y-2.265 Z1.300 F200
G1 X0.585 Y-2.250 Z1.300 F200
G1 X0.680 Y-2.221 Z1.300 F200
G1 X0.770 Y-2.177 Z1.300 F200
G1 X0.853 Y-2.121 Z1.300 F200
G1 X0.926 Y-2.053 Z1.300 F200
G1 X0.989 Y-1.975 Z1.300 F200
G1 X1.039 Y-1.888 Z1.300 F200
G1 X1.075 Y-1.795 Z1.300 F200
G1 X1.098 Y-1.697 Z1.300 F200
G1 X1.105 Y-1.597 Z1.300 F200
G1 X1.105 Y42.597 Z1.300 F200
G1 X1.113 Y42.697 Z1.300 F200
G1 X1.135 Y42.795 Z1.300 F200
G1 X1.171 Y42.888 Z1.300 F200
G1 X1.221 Y42.975 Z1.300 F200
G1 X1.284 Y43.053 Z1.300 F200
G1 X1.357 Y43.121 Z1.300 F200
G1 X1.440 Y43.177 Z1.300 F200
G1 X1.530 Y43.221 Z1.300 F200
G1 X1.626 Y43.250 Z1.300 F200
G1 X1.725 Y43.265 Z1.300 F200
G1 X1.825 Y43.265 Z1.300 F200
G1 X1.924 Y43.250 Z1.300 F200
G1 X2.019 Y43.221 Z1.300 F200
G1 X2.109 Y43.177 Z1.300 F200
G1 X2.192 Y43.121 Z1.300 F200
G1 X2.265 Y43.053 Z1.300 F200
G1 X2.328 Y42.975 Z1.300 F200
G1 X2.378 Y42.888 Z1.300 F200
G1 X2.414 Y42.795 Z1.300 F200
G1 X2.436 Y42.697 Z1.300 F200
G1 X2.444 Y42.597 Z1.300 F200
G1 X2.444 Y-1.597 Z1.300 F200
G1 X2.451 Y-1.697 Z1.300 F200
G1 X2.474 Y-1.795 Z1.300 F200
G1 X2.510 Y-1.888 Z1.300 F200
G1 X2.560 Y-1.975 Z1.300 F200
G1 X2.623 Y-2.053 Z1.300 F200
G1 X2.696 Y-2.121 Z1.300 F200
G1 X2.779 Y-2.177 Z1.300 F200
G1 X2.869 Y-2.221 Z1.300 F200
G1 X2.964 Y-2.250 Z1.300 F200
G1 X3.063 Y-2.265 Z1.300 F200
G1 X3.163 Y-2.265 Z1.300 F200
G1 X3.262 Y-2.250 Z1.300 F200
G1 X3.358 Y-2.221 Z1.300 F200
G1 X3.448 Y-2.177 Z1.300 F200
G1 X3.531 Y-2.121 Z1.300 F200
G1 X3.604 Y-2.053 Z1.300 F200
G1 X3.666 Y-1.975 Z1.300 F200
G1 X3.716 Y-1.888 Z1.300 F200
G1 X3.753 Y-1.795 Z1.300 F200
G1 X3.775 Y-1.697 Z1.300 F200
G1 X3.783 Y-1.597 Z1.300 F200
G1 X3.783 Y42.597 Z1.300 F200
G1 X3.790 Y42.697 Z1.300 F200
G1 X3.813 Y42.795 Z1.300 F200
G1 X3.849 Y42.888 Z1.300 F200
G1 X3.899 Y42.975 Z1.300 F200
G1 X3.961 Y43.053 Z1.300 F200
G1 X4.035 Y43.121 Z1.300 F200
G1 X4.117 Y43.177 Z1.300 F200
G1 X4.208 Y43.221 Z1.300 F200
G1 X4.303 Y43.250 Z1.300 F200
G1 X4.402 Y43.265 Z1.300 F200
G1 X4.502 Y43.265 Z1.300 F200
G1 X4.601 Y43.250 Z1.300 F200
G1 X4.697 Y43.221 Z1.300 F200
G1 X4.787 Y43.177 Z1.300 F200
G1 X4.870 Y43.121 Z1.300 F200
G1 X4.943 Y43.053 Z1.300 F200
G1 X5.005 Y42.975 Z1.300 F200
G1 X5.055 Y42.888 Z1.300 F200
G1 X5.092 Y42.795 Z1.300 F200
G1 X5.114 Y42.697 Z1.300 F200
G1 X5.122 Y42.597 Z1.300 F200
G1 X5.122 Y-1.597 Z1.300 F200
G1 X5.129 Y-1.697 Z1.300 F200
G1 X5.151 Y-1.795 Z1.300 F200
G1 X5.188 Y-1.888 Z1.300 F200
G1 X5.238 Y-1.975 Z1.300 F200
G1 X5.300 Y-2.053 Z1.300 F200
G1 X5.374 Y-2.121 Z1.300 F200
G1 X5.456 Y-2.177 Z1.300 F200
G1 X5.546 Y-2.221 Z1.300 F200
G1 X5.642 Y-2.250 Z1.300 F200
G1 X5.741 Y-2.265 Z1.300 F200
G1 X5.841 Y-2.265 Z1.300 F200
G1 X5.940 Y-2.250 Z1.300 F200
G1 X6.036 Y-2.221 Z1.300 F200
G1 X6.126 Y-2.177 Z1.300 F200
G1 X6.208 Y-2.121 Z1.300 F200
G1 X6.282 Y-2.053 Z1.300 F200
G1 X6.344 Y-1.975 Z1.300 F200
G1 X6.394 Y-1.888 Z1.300 F200
G1 X6.431 Y-1.795 Z1.300 F200
G1 X6.453 Y-1.697 Z1.300 F200
G1 X6.460 Y-1.597 Z1.300 F200
G1 X6.460 Y42.597 Z1.300 F200
G1 X6.468 Y42.697 Z1.300 F200
G1 X6.490 Y42.795 Z1.300 F200
G1 X6.527 Y42.888 Z1.300 F200
G1 X6.577 Y42.975 Z1.300 F200
G1 X6.639 Y43.053 Z1.300 F200
G1 X6.712 Y43.121 Z1.300 F200
G1 X6.795 Y43.177 Z1.300 F200
G1 X6.885 Y43.221 Z1.300 F200
G1 X6.981 Y43.250 Z1.300 F200
G1 X7.080 Y43.265 Z1.300 F200
G1 X7.180 Y43.265 Z1.300 F200
G1 X7.279 Y43.250 Z1.300 F200
G1 X7.374 Y43.221 Z1.300 F200
G1 X7.465 Y43.177 Z1.300 F200
G1 X7.547 Y43.121 Z1.300 F200
G1 X7.621 Y43.053 Z1.300 F200
G1 X7.683 Y42.975 Z1.300 F200
G1 X7.733 Y42.888 Z1.300 F200
G1 X7.769 Y42.795 Z1.300 F200
G1 X7.792 Y42.697 Z1.300 F200
G1 X7.799 Y42.597 Z1.300 F200
G1 X7.799 Y-1.597 Z1.300 F200
G1 X7.807 Y-1.697 Z1.300 F200
G1 X7.829 Y-1.795 Z1.300 F200
G1 X7.866 Y-1.888 Z1.300 F200
G1 X7.916 Y-1.975 Z1.300 F200
G1 X7.978 Y-2.053 Z1.300 F200
G1 X8.051 Y-2.121 Z1.300 F200
G1 X8.134 Y-2.177 Z1.300 F200
G1 X8.224 Y-2.221 Z1.300 F200
G1 X8.320 Y-2.250 Z1.300 F200
G1 X8.419 Y-2.265 Z1.300 F200
G1 X8.519 Y-2.265 Z1.300 F200
G1 X8.618 Y-2.250 Z1.300 F200
G1 X8.713 Y-2.221 Z1.300 F200
G1 X8.803 Y-2.177 Z1.300 F200
G1 X8.886 Y-2.121 Z1.300 F200
G1 X8.959 Y-2.053 Z1.300 F200
G1 X9.022 Y-1.975 Z1.300 F200
G1 X9.072 Y-1.888 Z1.300 F200
G1 X9.108 Y-1.795 Z1.300 F200
G1 X9.131 Y-1.697 Z1.300 F200
G1 X9.138 Y-1.597 Z1.300 F200
G1 X9.138 Y42.597 Z1.300 F200
G1 X9.146 Y42.697 Z1.300 F200
G1 X9.168 Y42.795 Z1.300 F200
G1 X9.204 Y42.888 Z1.300 F200
G1 X9.254 Y42.975 Z1.300 F200
G1 X9.317 Y43.053 Z1.300 F200
G1 X9.390 Y43.121 Z1.300 F200
G1 X9.473 Y43.177 Z1.300 F200
G1 X9.563 Y43.221 Z1.300 F200
G1 X9.659 Y43.250 Z1.300 F200
G1 X9.757 Y43.265 Z1.300 F200
G1 X9.857 Y43.265 Z1.300 F200
G1 X9.956 Y43.250 Z1.300 F200
G1 X10.052 Y43.221 Z1.300 F200
G1 X10.142 Y43.177 Z1.300 F200
G1 X10.225 Y43.121 Z1.300 F200
G1 X10.298 Y43.053 Z1.300 F200
G1 X10.361 Y42.975 Z1.300 F200
G1 X10.411 Y42.888 Z1.300 F200
G1 X10.447 Y42.795 Z1.300 F200
G1 X10.469 Y42.697 Z1.300 F200
G1 X10.477 Y42.597 Z1.300 F200
G1 X10.477 Y-1.597 Z1.300 F200
G1 X10.477 Y-1.668 Z1.308 F200
G1 X10.477 Y-1.735 Z1.331 F200
G1 X10.477 Y-1.795 Z1.369 F200
G1 X10.477 Y-1.846 Z1.420 F200
G1 X10.477 Y-1.884 Z1.480 F200
G1 X10.477 Y-1.907 Z1.547 F200
G1 X10.477 Y-1.915 Z1.617 F200
G1 X10.477 Y-1.915 Z6.825 F200
G1 X-0.234 Y-2.047 Z6.825 F200
G1 X-0.234 Y-2.047 Z1.925 F200
G1 X-0.234 Y-2.047 Z1.518 F200
G1 X-0.234 Y-2.039 Z1.447 F200
G1 X-0.234 Y-2.016 Z1.380 F200
G1 X-0.234 Y-1.978 Z1.320 F200
G1 X-0.234 Y-1.927 Z1.269 F200
G1 X-0.234 Y-1.867 Z1.231 F200
G1 X-0.234 Y-1.800 Z1.208 F200
G1 X-0.234 Y-1.730 Z1.200 F200
G1 X-0.234 Y-1.597 Z1.200 F200
G1 X-0.234 Y42.597 Z1.200 F200
G1 X-0.226 Y42.697 Z1.200 F200
G1 X-0.204 Y42.795 Z1.200 F200
G1 X-0.167 Y42.888 Z1.200 F200
G1 X-0.117 Y42.975 Z1.200 F200
G1 X-0.055 Y43.053 Z1.200 F200
G1 X0.018 Y43.121 Z1.200 F200
G1 X0.101 Y43.177 Z1.200 F200
G1 X0.191 Y43.221 Z1.200 F200
G1 X0.287 Y43.250 Z1.200 F200
G1 X0.386 Y43.265 Z1.200 F200
G1 X0.486 Y43.265 Z1.200 F200
G1 X0.585 Y43.250 Z1.200 F200
G1 X0.680 Y43.221 Z1.200 F200
G1 X0.770 Y43.177 Z1.200 F200
G1 X0.853 Y43.121 Z1.200 F200
G1 X0.926 Y43.053 Z1.200 F200
G1 X0.989 Y42.975 Z1.200 F200
G1 X1.039 Y42.888 Z1.200 F200
G1 X1.075 Y42.795 Z1.200 F200
G1 X1.098 Y42.697 Z1.200 F200
G1 X1.105 Y42.597 Z1.200 F200
G1 X1.105 Y-1.597 Z1.200 F200
G1 X1.113 Y-1.697 Z1.200 F200
G1 X1.135 Y-1.795 Z1.200 F200
G1 X1.171 Y-1.888 Z1.200 F200
G1 X1.221 Y-1.975 Z1.200 F200
G1 X1.284 Y-2.053 Z1.200 F200
G1 X1.357 Y-2.121 Z1.200 F200
G1 X1.440 Y-2.177 Z1.200 F200
G1 X1.530 Y-2.221 Z1.200 F200
G1 X1.626 Y-2.250 Z1.200 F200
G1 X1.725 Y-2.265 Z1.200 F200
G1 X1.825 Y-2.265 Z1.200 F200
G1 X1.924 Y-2.250 Z1.200 F200
G1 X2.019 Y-2.221 Z1.200 F200
G1 X2.109 Y-2.177 Z1.200 F200
G1 X2.192 Y-2.121 Z1.200 F200
G1 X2.265 Y-2.053 Z1.200 F200
G1 X2.328 Y-1.975 Z1.200 F200
G1 X2.378 Y-1.888 Z1.200 F200
G1 X2.414 Y-1.795 Z1.200 F200
G1 X2.436 Y-1.697 Z1.200 F200
G1 X2.444 Y-1.597 Z1.200 F200
G1 X2.444 Y42.597 Z1.200 F200
G1 X2.451 Y42.697 Z1.200 F200
G1 X2.474 Y42.795 Z1.200 F200
G1 X2.510 Y42.888 Z1.200 F200
G1 X2.560 Y42.975 Z1.200 F200
G1 X2.623 Y43.053 Z1.200 F200
G1 X2.696 Y43.121 Z1.200 F200
G1 X2.779 Y43.177 Z1.200 F200
G1 X2.869 Y43.221 Z1.200 F200
G1 X2.964 Y43.250 Z1.200 F200
G1 X3.063 Y43.265 Z1.200 F200
G1 X3.163 Y43.265 Z1.200 F200
G1 X3.262 Y43.250 Z1.200 F200
G1 X3.358 Y43.221 Z1.200 F200
G1 X3.448 Y43.177 Z1.200 F200
G1 X3.531 Y43.121 Z1.200 F200
G1 X3.604 Y43.053 Z1.200 F200
G1 X3.666 Y42.975 Z1.200 F200
G1 X3.716 Y42.888 Z1.200 F200
G1 X3.753 Y42.795 Z1.200 F200
G1 X3.775 Y42.697 Z1.200 F200
G1 X3.783 Y42.597 Z1.200 F200
G1 X3.783 Y-1.597 Z1.200 F200
G1 X3.790 Y-1.697 Z1.200 F200
G1 X3.813 Y-1.795 Z1.200 F200
G1 X3.849 Y-1.888 Z1.200 F200
G1 X3.899 Y-1.975 Z1.200 F200
G1 X3.961 Y-2.053 Z1.200 F200
G1 X4.035 Y-2.121 Z1.200 F200
G1 X4.117 Y-2.177 Z1.200 F200
G1 X4.208 Y-2.221 Z1.200 F200
G1 X4.303 Y-2.250 Z1.200 F200
G1 X4.402 Y-2.265 Z1.200 F200
G1 X4.502 Y-2.265 Z1.200 F200
G1 X4.601 Y-2.250 Z1.200 F200
G1 X4.697 Y-2.221 Z1.200 F200
G1 X4.787 Y-2.177 Z1.200 F200
G1 X4.870 Y-2.121 Z1.200 F200
G1 X4.943 Y-2.053 Z1.200 F200
G1 X5.005 Y-1.975 Z1.200 F200
G1 X5.055 Y-1.888 Z1.200 F200
G1 X5.092 Y-1.795 Z1.200 F200
G1 X5.114 Y-1.697 Z1.200 F200
G1 X5.122 Y-1.597 Z1.200 F200
G1 X5.122 Y42.597 Z1.200 F200
G1 X5.129 Y42.697 Z1.200 F200
G1 X5.151 Y42.795 Z1.200 F200
G1 X5.188 Y42.888 Z1.200 F200
G1 X5.238 Y42.975 Z1.200 F200
G1 X5.300 Y43.053 Z1.200 F200
G1 X5.374 Y43.121 Z1.200 F200
G1 X5.456 Y43.177 Z1.200 F200
G1 X5.546 Y43.221 Z1.200 F200
G1 X5.642 Y43.250 Z1.200 F200
G1 X5.741 Y43.265 Z1.200 F200
G1 X5.841 Y43.265 Z1.200 F200
G1 X5.940 Y43.250 Z1.200 F200
G1 X6.036 Y43.221 Z1.200 F200
G1 X6.126 Y43.177 Z1.200 F200
G1 X6.208 Y43.121 Z1.200 F200
G1 X6.282 Y43.053 Z1.200 F200
G1 X6.344 Y42.975 Z1.200 F200
G1 X6.394 Y42.888 Z1.200 F200
G1 X6.431 Y42.795 Z1.200 F200
G1 X6.453 Y42.697 Z1.200 F200
G1 X6.460 Y42.597 Z1.200 F200
G1 X6.460 Y-1.597 Z1.200 F200
G1 X6.468 Y-1.697 Z1.200 F200
G1 X6.490 Y-1.795 Z1.200 F200
G1 X6.527 Y-1.888 Z1.200 F200
G1 X6.577 Y-1.975 Z1.200 F200
G1 X6.639 Y-2.053 Z1.200 F200
G1 X6.712 Y-2.121 Z1.200 F200
G1 X6.795 Y-2.177 Z1.200 F200
G1 X6.885 Y-2.221 Z1.200 F200
G1 X6.981 Y-2.250 Z1.200 F200
G1 X7.080 Y-2.265 Z1.200 F200
G1 X7.180 Y-2.265 Z1.200 F200
G1 X7.279 Y-2.250 Z1.200 F200
G1 X7.374 Y-2.221 Z1.200 F200
G1 X7.465 Y-2.177 Z1.200 F200
G1 X7.547 Y-2.121 Z1.200 F200
G1 X7.621 Y-2.053 Z1.200 F200
G1 X7.683 Y-1.975 Z1.200 F200
G1 X7.733 Y-1.888 Z1.200 F200
G1 X7.769 Y-1.795 Z1.200 F200
G1 X7.792 Y-1.697 Z1.200 F200
G1 X7.799 Y-1.597 Z1.200 F200
G1 X7.799 Y42.597 Z1.200 F200
G1 X7.807 Y42.697 Z1.200 F200
G1 X7.829 Y42.795 Z1.200 F200
G1 X7.866 Y42.888 Z1.200 F200
G1 X7.916 Y42.975 Z1.200 F200
G1 X7.978 Y43.053 Z1.200 F200
G1 X8.051 Y43.121 Z1.200 F200
G1 X8.134 Y43.177 Z1.200 F200
G1 X8.224 Y43.221 Z1.200 F200
G1 X8.320 Y43.250 Z1.200 F200
G1 X8.419 Y43.265 Z1.200 F200
G1 X8.519 Y43.265 Z1.200 F200
G1 X8.618 Y43.250 Z1.200 F200
G1 X8.713 Y43.221 Z1.200 F200
G1 X8.803 Y43.177 Z1.200 F200
G1 X8.886 Y43.121 Z1.200 F200
G1 X8.959 Y43.053 Z1.200 F200
G1 X9.022 Y42.975 Z1.200 F200
G1 X9.072 Y42.888 Z1.200 F200
G1 X9.108 Y42.795 Z1.200 F200
G1 X9.131 Y42.697 Z1.200 F200
G1 X9.138 Y42.597 Z1.200 F200
G1 X9.138 Y-1.597 Z1.200 F200
G1 X9.146 Y-1.697 Z1.200 F200
G1 X9.168 Y-1.795 Z1.200 F200
G1 X9.204 Y-1.888 Z1.200 F200
G1 X9.254 Y-1.975 Z1.200 F200
G1 X9.317 Y-2.053 Z1.200 F200
G1 X9.390 Y-2.121 Z1.200 F200
G1 X9.473 Y-2.177 Z1.200 F200
G1 X9.563 Y-2.221 Z1.200 F200
G1 X9.659 Y-2.250 Z1.200 F200
G1 X9.757 Y-2.265 Z1.200 F200
G1 X9.857 Y-2.265 Z1.200 F200
G1 X9.956 Y-2.250 Z1.200 F200
G1 X10.052 Y-2.221 Z1.200 F200
G1 X10.142 Y-2.177 Z1.200 F200
G1 X10.225 Y-2.121 Z1.200 F200
G1 X10.298 Y-2.053 Z1.200 F200
G1 X10.361 Y-1.975 Z1.200 F200
G1 X10.411 Y-1.888 Z1.200 F200
G1 X10.447 Y-1.795 Z1.200 F200
G1 X10.469 Y-1.697 Z1.200 F200
G1 X10.477 Y-1.597 Z1.200 F200
G1 X10.477 Y42.597 Z1.200 F200
G1 X10.477 Y42.668 Z1.208 F200
G1 X10.477 Y42.735 Z1.231 F200
G1 X10.477 Y42.795 Z1.269 F200
G1 X10.477 Y42.846 Z1.320 F200
G1 X10.477 Y42.884 Z1.380 F200
G1 X10.477 Y42.907 Z1.447 F200
G1 X10.477 Y42.915 Z1.518 F200
G1 X10.477 Y42.915 Z6.825 F200
G1 X-0.234 Y43.047 Z6.825 F200
G1 X-0.234 Y43.047 Z1.925 F200
G1 X-0.234 Y43.047 Z1.418 F200
G1 X-0.234 Y43.039 Z1.347 F200
G1 X-0.234 Y43.016 Z1.280 F200
G1 X-0.234 Y42.978 Z1.220 F200
G1 X-0.234 Y42.927 Z1.169 F200
G1 X-0.234 Y42.867 Z1.131 F200
G1 X-0.234 Y42.800 Z1.108 F200
G1 X-0.234 Y42.730 Z1.100 F200
G1 X-0.234 Y42.597 Z1.100 F200
G1 X-0.234 Y-1.597 Z1.100 F200
G1 X-0.226 Y-1.697 Z1.100 F200
G1 X-0.204 Y-1.795 Z1.100 F200
G1 X-0.167 Y-1.888 Z1.100 F200
G1 X-0.117 Y-1.975 Z1.100 F200
G1 X-0.055 Y-2.053 Z1.100 F200
G1 X0.018 Y-2.121 Z1.100 F200
G1 X0.101 Y-2.177 Z1.100 F200
G1 X0.191 Y-2.221 Z1.100 F200
G1 X0.287 Y-2.250 Z1.100 F200
G1 X0.386 Y-2.265 Z1.100 F200
G1 X0.486 Y-2.265 Z1.100 F200
G1 X0.585 Y-2.250 Z1.100 F200
G1 X0.680 Y-2.221 Z1.100 F200
G1 X0.770 Y-2.177 Z1.100 F200
G1 X0.853 Y-2.121 Z1.100 F200
G1 X0.926 Y-2.053 Z1.100 F200
G1 X0.989 Y-1.975 Z1.100 F200
G1 X1.039 Y-1.888 Z1.100 F200
G1 X1.075 Y-1.795 Z1.100 F200
G1 X1.098 Y-1.697 Z1.100 F200
G1 X1.105 Y-1.597 Z1.100 F200
G1 X1.105 Y42.597 Z1.100 F200
G1 X1.113 Y42.697 Z1.100 F200
G1 X1.135 Y42.795 Z1.100 F200
G1 X1.171 Y42.888 Z1.100 F200
G1 X1.221 Y42.975 Z1.100 F200
G1 X1.284 Y43.053 Z1.100 F200
G1 X1.357 Y43.121 Z1.100 F200
G1 X1.440 Y43.177 Z1.100 F200
G1 X1.530 Y43.221 Z1.100 F200
G1 X1.626 Y43.250 Z1.100 F200
G1 X1.725 Y43.265 Z1.100 F200
G1 X1.825 Y43.265 Z1.100 F200
G1 X1.924 Y43.250 Z1.100 F200
G1 X2.019 Y43.221 Z1.100 F200
G1 X2.109 Y43.177 Z1.100 F200
G1 X2.192 Y43.121 Z1.100 F200
G1 X2.265 Y43.053 Z1.100 F200
G1 X2.328 Y42.975 Z1.100 F200
G1 X2.378 Y42.888 Z1.100 F200
G1 X2.414 Y42.795 Z1.100 F200
G1 X2.436 Y42.697 Z1.100 F200
G1 X2.444 Y42.597 Z1.100 F200
G1 X2.444 Y-1.597 Z1.100 F200
G1 X2.451 Y-1.697 Z1.100 F200
G1 X2.474 Y-1.795 Z1.100 F200
G1 X2.510 Y-1.888 Z1.100 F200
G1 X2.560 Y-1.975 Z1.100 F200
G1 X2.623 Y-2.053 Z1.100 F200
G1 X2.696 Y-2.121 Z1.100 F200
G1 X2.779 Y-2.177 Z1.100 F200
G1 X2.869 Y-2.221 Z1.100 F200
G1 X2.964 Y-2.250 Z1.100 F200
G1 X3.063 Y-2.265 Z1.100 F200
G1 X3.163 Y-2.265 Z1.100 F200
G1 X3.262 Y-2.250 Z1.100 F200
G1 X3.358 Y-2.221 Z1.100 F200
G1 X3.448 Y-2.177 Z1.100 F200
G1 X3.531 Y-2.121 Z1.100 F200
G1 X3.604 Y-2.053 Z1.100 F200
G1 X3.666 Y-1.975 Z1.100 F200
G1 X3.716 Y-1.888 Z1.100 F200
G1 X3.753 Y-1.795 Z1.100 F200
G1 X3.775 Y-1.697 Z1.100 F200
G1 X3.783 Y-1.597 Z1.100 F200
G1 X3.783 Y42.597 Z1.100 F200
G1 X3.790 Y42.697 Z1.100 F200
G1 X3.813 Y42.795 Z1.100 F200
G1 X3.849 Y42.888 Z1.100 F200
G1 X3.899 Y42.975 Z1.100 F200
G1 X3.961 Y43.053 Z1.100 F200
G1 X4.035 Y43.121 Z1.100 F200
G1 X4.117 Y43.177 Z1.100 F200
G1 X4.208 Y43.221 Z1.100 F200
G1 X4.303 Y43.250 Z1.100 F200
G1 X4.402 Y43.265 Z1.100 F200
G1 X4.502 Y43.265 Z1.100 F200
G1 X4.601 Y43.250 Z1.100 F200
G1 X4.697 Y43.221 Z1.100 F200
G1 X4.787 Y43.177 Z1.100 F200
G1 X4.870 Y43.121 Z1.100 F200
G1 X4.943 Y43.053 Z1.100 F200
G1 X5.005 Y42.975 Z1.100 F200
G1 X5.055 Y42.888 Z1.100 F200
G1 X5.092 Y42.795 Z1.100 F200
G1 X5.114 Y42.697 Z1.100 F200
G1 X5.122 Y42.597 Z1.100 F200
G1 X5.122 Y-1.597 Z1.100 F200
G1 X5.129 Y-1.697 Z1.100 F200
G1 X5.151 Y-1.795 Z1.100 F200
G1 X5.188 Y-1.888 Z1.100 F200
G1 X5.238 Y-1.975 Z1.100 F200
G1 X5.300 Y-2.053 Z1.100 F200
G1 X5.374 Y-2.121 Z1.100 F200
G1 X5.456 Y-2.177 Z1.100 F200
G1 X5.546 Y-2.221 Z1.100 F200
G1 X5.642 Y-2.250 Z1.100 F200
G1 X5.741 Y-2.265 Z1.100 F200
G1 X5.841 Y-2.265 Z1.100 F200
G1 X5.940 Y-2.250 Z1.100 F200
G1 X6.036 Y-2.221 Z1.100 F200
G1 X6.126 Y-2.177 Z1.100 F200
G1 X6.208 Y-2.121 Z1.100 F200
G1 X6.282 Y-2.053 Z1.100 F200
G1 X6.344 Y-1.975 Z1.100 F200
G1 X6.394 Y-1.888 Z1.100 F200
G1 X6.431 Y-1.795 Z1.100 F200
G1 X6.453 Y-1.697 Z1.100 F200
G1 X6.460 Y-1.597 Z1.100 F200
G1 X6.460 Y42.597 Z1.100 F200
G1 X6.468 Y42.697 Z1.100 F200
G1 X6.490 Y42.795 Z1.100 F200
G1 X6.527 Y42.888 Z1.100 F200
G1 X6.577 Y42.975 Z1.100 F200
G1 X6.639 Y43.053 Z1.100 F200
G1 X6.712 Y43.121 Z1.100 F200
G1 X6.795 Y43.177 Z1.100 F200
G1 X6.885 Y43.221 Z1.100 F200
G1 X6.981 Y43.250 Z1.100 F200
G1 X7.080 Y43.265 Z1.100 F200
G1 X7.180 Y43.265 Z1.100 F200
G1 X7.279 Y43.250 Z1.100 F200
G1 X7.374 Y43.221 Z1.100 F200
G1 X7.465 Y43.177 Z1.100 F200
G1 X7.547 Y43.121 Z1.100 F200
G1 X7.621 Y43.053 Z1.100 F200
G1 X7.683 Y42.975 Z1.100 F200
G1 X7.733 Y42.888 Z1.100 F200
G1 X7.769 Y42.795 Z1.100 F200
G1 X7.792 Y42.697 Z1.100 F200
G1 X7.799 Y42.597 Z1.100 F200
G1 X7.799 Y-1.597 Z1.100 F200
G1 X7.807 Y-1.697 Z1.100 F200
G1 X7.829 Y-1.795 Z1.100 F200
G1 X7.866 Y-1.888 Z1.100 F200
G1 X7.916 Y-1.975 Z1.100 F200
G1 X7.978 Y-2.053 Z1.100 F200
G1 X8.051 Y-2.121 Z1.100 F200
G1 X8.134 Y-2.177 Z1.100 F200
G1 X8.224 Y-2.221 Z1.100 F200
G1 X8.320 Y-2.250 Z1.100 F200
G1 X8.419 Y-2.265 Z1.100 F200
G1 X8.519 Y-2.265 Z1.100 F200
G1 X8.618 Y-2.250 Z1.100 F200
G1 X8.713 Y-2.221 Z1.100 F200
G1 X8.803 Y-2.177 Z1.100 F200
G1 X8.886 Y-2.121 Z1.100 F200
G1 X8.959 Y-2.053 Z1.100 F200
G1 X9.022 Y-1.975 Z1.100 F200
G1 X9.072 Y-1.888 Z1.100 F200
G1 X9.108 Y-1.795 Z1.100 F200
G1 X9.131 Y-1.697 Z1.100 F200
G1 X9.138 Y-1.597 Z1.100 F200
G1 X9.138 Y42.597 Z1.100 F200
G1 X9.146 Y42.697 Z1.100 F200
G1 X9.168 Y42.795 Z1.100 F200
G1 X9.204 Y42.888 Z1.100 F200
G1 X9.254 Y42.975 Z1.100 F200
G1 X9.317 Y43.053 Z1.100 F200
G1 X9.390 Y43.121 Z1.100 F200
G1 X9.473 Y43.177 Z1.100 F200
G1 X9.563 Y43.221 Z1.100 F200
G1 X9.659 Y43.250 Z1.100 F200
G1 X9.757 Y43.265 Z1.100 F200
G1 X9.857 Y43.265 Z1.100 F200
G1 X9.956 Y43.250 Z1.100 F200
G1 X10.052 Y43.221 Z1.100 F200
G1 X10.142 Y43.177 Z1.100 F200
G1 X10.225 Y43.121 Z1.100 F200
G1 X10.298 Y43.053 Z1.100 F200
G1 X10.361 Y42.975 Z1.100 F200
G1 X10.411 Y42.888 Z1.100 F200
G1 X10.447 Y42.795 Z1.100 F200
G1 X10.469 Y42.697 Z1.100 F200
G1 X10.477 Y42.597 Z1.100 F200
G1 X10.477 Y-1.597 Z1.100 F200
G1 X10.477 Y-1.668 Z1.108 F200
G1 X10.477 Y-1.735 Z1.131 F200
G1 X10.477 Y-1.795 Z1.169 F200
G1 X10.477 Y-1.846 Z1.220 F200
G1 X10.477 Y-1.884 Z1.280 F200
G1 X10.477 Y-1.907 Z1.347 F200
G1 X10.477 Y-1.915 Z1.418 F200
G1 X10.477 Y-1.915 Z6.825 F200
G1 X-0.234 Y-2.047 Z6.825 F200
G1 X-0.234 Y-2.047 Z1.925 F200
G1 X-0.234 Y-2.047 Z1.317 F200
G1 X-0.234 Y-2.039 Z1.247 F200
G1 X-0.234 Y-2.016 Z1.180 F200
G1 X-0.234 Y-1.978 Z1.120 F200
G1 X-0.234 Y-1.927 Z1.069 F200
G1 X-0.234 Y-1.867 Z1.031 F200
G1 X-0.234 Y-1.800 Z1.008 F200
G1 X-0.234 Y-1.730 Z1.000 F200
G1 X-0.234 Y-1.597 Z1.000 F200
G1 X-0.234 Y42.597 Z1.000 F200
G1 X-0.226 Y42.697 Z1.000 F200
G1 X-0.204 Y42.795 Z1.000 F200
G1 X-0.167 Y42.888 Z1.000 F200
G1 X-0.117 Y42.975 Z1.000 F200
G1 X-0.055 Y43.053 Z1.000 F200
G1 X0.018 Y43.121 Z1.000 F200
G1 X0.101 Y43.177 Z1.000 F200
G1 X0.191 Y43.221 Z1.000 F200
G1 X0.287 Y43.250 Z1.000 F200
G1 X0.386 Y43.265 Z1.000 F200
G1 X0.486 Y43.265 Z1.000 F200
G1 X0.585 Y43.250 Z1.000 F200
G1 X0.680 Y43.221 Z1.000 F200
G1 X0.770 Y43.177 Z1.000 F200
G1 X0.853 Y43.121 Z1.000 F200
G1 X0.926 Y43.053 Z1.000 F200
G1 X0.989 Y42.975 Z1.000 F200
G1 X1.039 Y42.888 Z1.000 F200
G1 X1.075 Y42.795 Z1.000 F200
G1 X1.098 Y42.697 Z1.000 F200
G1 X1.105 Y42.597 Z1.000 F200
G1 X1.105 Y-1.597 Z1.000 F200
G1 X1.113 Y-1.697 Z1.000 F200
G1 X1.135 Y-1.795 Z1.000 F200
G1 X1.171 Y-1.888 Z1.000 F200
G1 X1.221 Y-1.975 Z1.000 F200
G1 X1.284 Y-2.053 Z1.000 F200
G1 X1.357 Y-2.121 Z1.000 F200
G1 X1.440 Y-2.177 Z1.000 F200
G1 X1.530 Y-2.221 Z1.000 F200
G1 X1.626 Y-2.250 Z1.000 F200
G1 X1.725 Y-2.265 Z1.000 F200
G1 X1.825 Y-2.265 Z1.000 F200
G1 X1.924 Y-2.250 Z1.000 F200
G1 X2.019 Y-2.221 Z1.000 F200
G1 X2.109 Y-2.177 Z1.000 F200
G1 X2.192 Y-2.121 Z1.000 F200
G1 X2.265 Y-2.053 Z1.000 F200
G1 X2.328 Y-1.975 Z1.000 F200
G1 X2.378 Y-1.888 Z1.000 F200
G1 X2.414 Y-1.795 Z1.000 F200
G1 X2.436 Y-1.697 Z1.000 F200
G1 X2.444 Y-1.597 Z1.000 F200
G1 X2.444 Y42.597 Z1.000 F200
G1 X2.451 Y42.697 Z1.000 F200
G1 X2.474 Y42.795 Z1.000 F200
G1 X2.510 Y42.888 Z1.000 F200
G1 X2.560 Y42.975 Z1.000 F200
G1 X2.623 Y43.053 Z1.000 F200
G1 X2.696 Y43.121 Z1.000 F200
G1 X2.779 Y43.177 Z1.000 F200
G1 X2.869 Y43.221 Z1.000 F200
G1 X2.964 Y43.250 Z1.000 F200
G1 X3.063 Y43.265 Z1.000 F200
G1 X3.163 Y43.265 Z1.000 F200
G1 X3.262 Y43.250 Z1.000 F200
G1 X3.358 Y43.221 Z1.000 F200
G1 X3.448 Y43.177 Z1.000 F200
G1 X3.531 Y43.121 Z1.000 F200
G1 X3.604 Y43.053 Z1.000 F200
G1 X3.666 Y42.975 Z1.000 F200
G1 X3.716 Y42.888 Z1.000 F200
G1 X3.753 Y42.795 Z1.000 F200
G1 X3.775 Y42.697 Z1.000 F200
G1 X3.783 Y42.597 Z1.000 F200
G1 X3.783 Y-1.597 Z1.000 F200
G1 X3.790 Y-1.697 Z1.000 F200
G1 X3.813 Y-1.795 Z1.000 F200
G1 X3.849 Y-1.888 Z1.000 F200
G1 X3.899 Y-1.975 Z1.000 F200
G1 X3.961 Y-2.053 Z1.000 F200
G1 X4.035 Y-2.121 Z1.000 F200
G1 X4.117 Y-2.177 Z1.000 F200
G1 X4.208 Y-2.221 Z1.000 F200
G1 X4.303 Y-2.250 Z1.000 F200
G1 X4.402 Y-2.265 Z1.000 F200
G1 X4.502 Y-2.265 Z1.000 F200
G1 X4.601 Y-2.250 Z1.000 F200
G1 X4.697 Y-2.221 Z1.000 F200
G1 X4.787 Y-2.177 Z1.000 F200
G1 X4.870 Y-2.121 Z1.000 F200
G1 X4.943 Y-2.053 Z1.000 F200
G1 X5.005 Y-1.975 Z1.000 F200
G1 X5.055 Y-1.888 Z1.000 F200
G1 X5.092 Y-1.795 Z1.000 F200
G1 X5.114 Y-1.697 Z1.000 F200
G1 X5.122 Y-1.597 Z1.000 F200
G1 X5.122 Y42.597 Z1.000 F200
G1 X5.129 Y42.697 Z1.000 F200
G1 X5.151 Y42.795 Z1.000 F200
G1 X5.188 Y42.888 Z1.000 F200
G1 X5.238 Y42.975 Z1.000 F200
G1 X5.300 Y43.053 Z1.000 F200
G1 X5.374 Y43.121 Z1.000 F200
G1 X5.456 Y43.177 Z1.000 F200
G1 X5.546 Y43.221 Z1.000 F200
G1 X5.642 Y43.250 Z1.000 F200
G1 X5.741 Y43.265 Z1.000 F200
G1 X5.841 Y43.265 Z1.000 F200
G1 X5.940 Y43.250 Z1.000 F200
G1 X6.036 Y43.221 Z1.000 F200
G1 X6.126 Y43.177 Z1.000 F200
G1 X6.208 Y43.121 Z1.000 F200
G1 X6.282 Y43.053 Z1.000 F200
G1 X6.344 Y42.975 Z1.000 F200
G1 X6.394 Y42.888 Z1.000 F200
G1 X6.431 Y42.795 Z1.000 F200
G1 X6.453 Y42.697 Z1.000 F200
G1 X6.460 Y42.597 Z1.000 F200
G1 X6.460 Y-1.597 Z1.000 F200
G1 X6.468 Y-1.697 Z1.000 F200
G1 X6.490 Y-1.795 Z1.000 F200
G1 X6.527 Y-1.888 Z1.000 F200
G1 X6.577 Y-1.975 Z1.000 F200
G1 X6.639 Y-2.053 Z1.000 F200
G1 X6.712 Y-2.121 Z1.000 F200
G1 X6.795 Y-2.177 Z1.000 F200
G1 X6.885 Y-2.221 Z1.000 F200
G1 X6.981 Y-2.250 Z1.000 F200
G1 X7.080 Y-2.265 Z1.000 F200
G1 X7.180 Y-2.265 Z1.000 F200
G1 X7.279 Y-2.250 Z1.000 F200
G1 X7.374 Y-2.221 Z1.000 F200
G1 X7.465 Y-2.177 Z1.000 F200
G1 X7.547 Y-2.121 Z1.000 F200
G1 X7.621 Y-2.053 Z1.000 F200
G1 X7.683 Y-1.975 Z1.000 F200
G1 X7.733 Y-1.888 Z1.000 F200
G1 X7.769 Y-1.795 Z1.000 F200
G1 X7.792 Y-1.697 Z1.000 F200
G1 X7.799 Y-1.597 Z1.000 F200
G1 X7.799 Y42.597 Z1.000 F200
G1 X7.807 Y42.697 Z1.000 F200
G1 X7.829 Y42.795 Z1.000 F200
G1 X7.866 Y42.888 Z1.000 F200
G1 X7.916 Y42.975 Z1.000 F200
G1 X7.978 Y43.053 Z1.000 F200
G1 X8.051 Y43.121 Z1.000 F200
G1 X8.134 Y43.177 Z1.000 F200
G1 X8.224 Y43.221 Z1.000 F200
G1 X8.320 Y43.250 Z1.000 F200
G1 X8.419 Y43.265 Z1.000 F200
G1 X8.519 Y43.265 Z1.000 F200
G1 X8.618 Y43.250 Z1.000 F200
G1 X8.713 Y43.221 Z1.000 F200
G1 X8.803 Y43.177 Z1.000 F200
G1 X8.886 Y43.121 Z1.000 F200
G1 X8.959 Y43.053 Z1.000 F200
G1 X9.022 Y42.975 Z1.000 F200
G1 X9.072 Y42.888 Z1.000 F200
G1 X9.108 Y42.795 Z1.000 F200
G1 X9.131 Y42.697 Z1.000 F200
G1 X9.138 Y42.597 Z1.000 F200
G1 X9.138 Y-1.597 Z1.000 F200
G1 X9.146 Y-1.697 Z1.000 F200
G1 X9.168 Y-1.795 Z1.000 F200
G1 X9.204 Y-1.888 Z1.000 F200
G1 X9.254 Y-1.975 Z1.000 F200
G1 X9.317 Y-2.053 Z1.000 F200
G1 X9.390 Y-2.121 Z1.000 F200
G1 X9.473 Y-2.177 Z1.000 F200
G1 X9.563 Y-2.221 Z1.000 F200
G1 X9.659 Y-2.250 Z1.000 F200
G1 X9.757 Y-2.265 Z1.000 F200
G1 X9.857 Y-2.265 Z1.000 F200
G1 X9.956 Y-2.250 Z1.000 F200
G1 X10.052 Y-2.221 Z1.000 F200
G1 X10.142 Y-2.177 Z1.000 F200
G1 X10.225 Y-2.121 Z1.000 F200
G1 X10.298 Y-2.053 Z1.000 F200
G1 X10.361 Y-1.975 Z1.000 F200
G1 X10.411 Y-1.888 Z1.000 F200
G1 X10.447 Y-1.795 Z1.000 F200
G1 X10.469 Y-1.697 Z1.000 F200
G1 X10.477 Y-1.597 Z1.000 F200
G1 X10.477 Y42.597 Z1.000 F200
G1 X10.477 Y42.668 Z1.008 F200
G1 X10.477 Y42.735 Z1.031 F200
G1 X10.477 Y42.795 Z1.069 F200
G1 X10.477 Y42.846 Z1.120 F200
G1 X10.477 Y42.884 Z1.180 F200
G1 X10.477 Y42.907 Z1.247 F200
G1 X10.477 Y42.915 Z1.317 F200
G1 X10.477 Y42.915 Z6.825 F200
G1 X-0.234 Y43.047 Z6.825 F200
G1 X-0.234 Y43.047 Z1.925 F200
G1 X-0.234 Y43.047 Z1.217 F200
G1 X-0.234 Y43.039 Z1.147 F200
G1 X-0.234 Y43.016 Z1.080 F200
G1 X-0.234 Y42.978 Z1.020 F200
G1 X-0.234 Y42.927 Z0.969 F200
G1 X-0.234 Y42.867 Z0.931 F200
G1 X-0.234 Y42.800 Z0.908 F200
G1 X-0.234 Y42.730 Z0.900 F200
G1 X-0.234 Y42.597 Z0.900 F200
G1 X-0.234 Y-1.597 Z0.900 F200
G1 X-0.226 Y-1.697 Z0.900 F200
G1 X-0.204 Y-1.795 Z0.900 F200
G1 X-0.167 Y-1.888 Z0.900 F200
G1 X-0.117 Y-1.975 Z0.900 F200
G1 X-0.055 Y-2.053 Z0.900 F200
G1 X0.018 Y-2.121 Z0.900 F200
G1 X0.101 Y-2.177 Z0.900 F200
G1 X0.191 Y-2.221 Z0.900 F200
G1 X0.287 Y-2.250 Z0.900 F200
G1 X0.386 Y-2.265 Z0.900 F200
G1 X0.486 Y-2.265 Z0.900 F200
G1 X0.585 Y-2.250 Z0.900 F200
G1 X0.680 Y-2.221 Z0.900 F200
G1 X0.770 Y-2.177 Z0.900 F200
G1 X0.853 Y-2.121 Z0.900 F200
G1 X0.926 Y-2.053 Z0.900 F200
G1 X0.989 Y-1.975 Z0.900 F200
G1 X1.039 Y-1.888 Z0.900 F200
G1 X1.075 Y-1.795 Z0.900 F200
G1 X1.098 Y-1.697 Z0.900 F200
G1 X1.105 Y-1.597 Z0.900 F200
G1 X1.105 Y42.597 Z0.900 F200
G1 X1.113 Y42.697 Z0.900 F200
G1 X1.135 Y42.795 Z0.900 F200
G1 X1.171 Y42.888 Z0.900 F200
G1 X1.221 Y42.975 Z0.900 F200
G1 X1.284 Y43.053 Z0.900 F200
G1 X1.357 Y43.121 Z0.900 F200
G1 X1.440 Y43.177 Z0.900 F200
G1 X1.530 Y43.221 Z0.900 F200
G1 X1.626 Y43.250 Z0.900 F200
G1 X1.725 Y43.265 Z0.900 F200
G1 X1.825 Y43.265 Z0.900 F200
G1 X1.924 Y43.250 Z0.900 F200
G1 X2.019 Y43.221 Z0.900 F200
G1 X2.109 Y43.177 Z0.900 F200
G1 X2.192 Y43.121 Z0.900 F200
G1 X2.265 Y43.053 Z0.900 F200
G1 X2.328 Y42.975 Z0.900 F200
G1 X2.378 Y42.888 Z0.900 F200
G1 X2.414 Y42.795 Z0.900 F200
G1 X2.436 Y42.697 Z0.900 F200
G1 X2.444 Y42.597 Z0.900 F200
G1 X2.444 Y-1.597 Z0.900 F200
G1 X2.451 Y-1.697 Z0.900 F200
G1 X2.474 Y-1.795 Z0.900 F200
G1 X2.510 Y-1.888 Z0.900 F200
G1 X2.560 Y-1.975 Z0.900 F200
G1 X2.623 Y-2.053 Z0.900 F200
G1 X2.696 Y-2.121 Z0.900 F200
G1 X2.779 Y-2.177 Z0.900 F200
G1 X2.869 Y-2.221 Z0.900 F200
G1 X2.964 Y-2.250 Z0.900 F200
G1 X3.063 Y-2.265 Z0.900 F200
G1 X3.163 Y-2.265 Z0.900 F200
G1 X3.262 Y-2.250 Z0.900 F200
G1 X3.358 Y-2.221 Z0.900 F200
G1 X3.448 Y-2.177 Z0.900 F200
G1 X3.531 Y-2.121 Z0.900 F200
G1 X3.604 Y-2.053 Z0.900 F200
G1 X3.666 Y-1.975 Z0.900 F200
G1 X3.716 Y-1.888 Z0.900 F200
G1 X3.753 Y-1.795 Z0.900 F200
G1 X3.775 Y-1.697 Z0.900 F200
G1 X3.783 Y-1.597 Z0.900 F200
G1 X3.783 Y42.597 Z0.900 F200
G1 X3.790 Y42.697 Z0.900 F200
G1 X3.813 Y42.795 Z0.900 F200
G1 X3.849 Y42.888 Z0.900 F200
G1 X3.899 Y42.975 Z0.900 F200
G1 X3.961 Y43.053 Z0.900 F200
G1 X4.035 Y43.121 Z0.900 F200
G1 X4.117 Y43.177 Z0.900 F200
G1 X4.208 Y43.221 Z0.900 F200
G1 X4.303 Y43.250 Z0.900 F200
G1 X4.402 Y43.265 Z0.900 F200
G1 X4.502 Y43.265 Z0.900 F200
G1 X4.601 Y43.250 Z0.900 F200
G1 X4.697 Y43.221 Z0.900 F200
G1 X4.787 Y43.177 Z0.900 F200
G1 X4.870 Y43.121 Z0.900 F200
G1 X4.943 Y43.053 Z0.900 F200
G1 X5.005 Y42.975 Z0.900 F200
G1 X5.055 Y42.888 Z0.900 F200
G1 X5.092 Y42.795 Z0.900 F200
G1 X5.114 Y42.697 Z0.900 F200
G1 X5.122 Y42.597 Z0.900 F200
G1 X5.122 Y-1.597 Z0.900 F200
G1 X5.129 Y-1.697 Z0.900 F200
G1 X5.151 Y-1.795 Z0.900 F200
G1 X5.188 Y-1.888 Z0.900 F200
G1 X5.238 Y-1.975 Z0.900 F200
G1 X5.300 Y-2.053 Z0.900 F200
G1 X5.374 Y-2.121 Z0.900 F200
G1 X5.456 Y-2.177 Z0.900 F200
G1 X5.546 Y-2.221 Z0.900 F200
G1 X5.642 Y-2.250 Z0.900 F200
G1 X5.741 Y-2.265 Z0.900 F200
G1 X5.841 Y-2.265 Z0.900 F200
G1 X5.940 Y-2.250 Z0.900 F200
G1 X6.036 Y-2.221 Z0.900 F200
G1 X6.126 Y-2.177 Z0.900 F200
G1 X6.208 Y-2.121 Z0.900 F200
G1 X6.282 Y-2.053 Z0.900 F200
G1 X6.344 Y-1.975 Z0.900 F200
G1 X6.394 Y-1.888 Z0.900 F200
G1 X6.431 Y-1.795 Z0.900 F200
G1 X6.453 Y-1.697 Z0.900 F200
G1 X6.460 Y-1.597 Z0.900 F200
G1 X6.460 Y42.597 Z0.900 F200
G1 X6.468 Y42.697 Z0.900 F200
G1 X6.490 Y42.795 Z0.900 F200
G1 X6.527 Y42.888 Z0.900 F200
G1 X6.577 Y42.975 Z0.900 F200
G1 X6.639 Y43.053 Z0.900 F200
G1 X6.712 Y43.121 Z0.900 F200
G1 X6.795 Y43.177 Z0.900 F200
G1 X6.885 Y43.221 Z0.900 F200
G1 X6.981 Y43.250 Z0.900 F200
G1 X7.080 Y43.265 Z0.900 F200
G1 X7.180 Y43.265 Z0.900 F200
G1 X7.279 Y43.250 Z0.900 F200
G1 X7.374 Y43.221 Z0.900 F200
G1 X7.465 Y43.177 Z0.900 F200
G1 X7.547 Y43.121 Z0.900 F200
G1 X7.621 Y43.053 Z0.900 F200
G1 X7.683 Y42.975 Z0.900 F200
G1 X7.733 Y42.888 Z0.900 F200
G1 X7.769 Y42.795 Z0.900 F200
G1 X7.792 Y42.697 Z0.900 F200
G1 X7.799 Y42.597 Z0.900 F200
G1 X7.799 Y-1.597 Z0.900 F200
G1 X7.807 Y-1.697 Z0.900 F200
G1 X7.829 Y-1.795 Z0.900 F200
G1 X7.866 Y-1.888 Z0.900 F200
G1 X7.916 Y-1.975 Z0.900 F200
G1 X7.978 Y-2.053 Z0.900 F200
G1 X8.051 Y-2.121 Z0.900 F200
G1 X8.134 Y-2.177 Z0.900 F200
G1 X8.224 Y-2.221 Z0.900 F200
G1 X8.320 Y-2.250 Z0.900 F200
G1 X8.419 Y-2.265 Z0.900 F200
G1 X8.519 Y-2.265 Z0.900 F200
G1 X8.618 Y-2.250 Z0.900 F200
G1 X8.713 Y-2.221 Z0.900 F200
G1 X8.803 Y-2.177 Z0.900 F200
G1 X8.886 Y-2.121 Z0.900 F200
G1 X8.959 Y-2.053 Z0.900 F200
G1 X9.022 Y-1.975 Z0.900 F200
G1 X9.072 Y-1.888 Z0.900 F200
G1 X9.108 Y-1.795 Z0.900 F200
G1 X9.131 Y-1.697 Z0.900 F200
G1 X9.138 Y-1.597 Z0.900 F200
G1 X9.138 Y42.597 Z0.900 F200
G1 X9.146 Y42.697 Z0.900 F200
G1 X9.168 Y42.795 Z0.900 F200
G1 X9.204 Y42.888 Z0.900 F200
G1 X9.254 Y42.975 Z0.900 F200
G1 X9.317 Y43.053 Z0.900 F200
G1 X9.390 Y43.121 Z0.900 F200
G1 X9.473 Y43.177 Z0.900 F200
G1 X9.563 Y43.221 Z0.900 F200
G1 X9.659 Y43.250 Z0.900 F200
G1 X9.757 Y43.265 Z0.900 F200
G1 X9.857 Y43.265 Z0.900 F200
G1 X9.956 Y43.250 Z0.900 F200
G1 X10.052 Y43.221 Z0.900 F200
G1 X10.142 Y43.177 Z0.900 F200
G1 X10.225 Y43.121 Z0.900 F200
G1 X10.298 Y43.053 Z0.900 F200
G1 X10.361 Y42.975 Z0.900 F200
G1 X10.411 Y42.888 Z0.900 F200
G1 X10.447 Y42.795 Z0.900 F200
G1 X10.469 Y42.697 Z0.900 F200
G1 X10.477 Y42.597 Z0.900 F200
G1 X10.477 Y-1.597 Z0.900 F200
G1 X10.477 Y-1.668 Z0.908 F200
G1 X10.477 Y-1.735 Z0.931 F200
G1 X10.477 Y-1.795 Z0.969 F200
G1 X10.477 Y-1.846 Z1.020 F200
G1 X10.477 Y-1.884 Z1.080 F200
G1 X10.477 Y-1.907 Z1.147 F200
G1 X10.477 Y-1.915 Z1.217 F200
G1 X10.477 Y-1.915 Z6.825 F200
G1 X-0.234 Y-2.047 Z6.825 F200
G1 X-0.234 Y-2.047 Z1.925 F200
G1 X-0.234 Y-2.047 Z1.117 F200
G1 X-0.234 Y-2.039 Z1.047 F200
G1 X-0.234 Y-2.016 Z0.980 F200
G1 X-0.234 Y-1.978 Z0.920 F200
G1 X-0.234 Y-1.927 Z0.869 F200
G1 X-0.234 Y-1.867 Z0.831 F200
G1 X-0.234 Y-1.800 Z0.808 F200
G1 X-0.234 Y-1.730 Z0.800 F200
G1 X-0.234 Y-1.597 Z0.800 F200
G1 X-0.234 Y42.597 Z0.800 F200
G1 X-0.226 Y42.697 Z0.800 F200
G1 X-0.204 Y42.795 Z0.800 F200
G1 X-0.167 Y42.888 Z0.800 F200
G1 X-0.117 Y42.975 Z0.800 F200
G1 X-0.055 Y43.053 Z0.800 F200
G1 X0.018 Y43.121 Z0.800 F200
G1 X0.101 Y43.177 Z0.800 F200
G1 X0.191 Y43.221 Z0.800 F200
G1 X0.287 Y43.250 Z0.800 F200
G1 X0.386 Y43.265 Z0.800 F200
G1 X0.486 Y43.265 Z0.800 F200
G1 X0.585 Y43.250 Z0.800 F200
G1 X0.680 Y43.221 Z0.800 F200
G1 X0.770 Y43.177 Z0.800 F200
G1 X0.853 Y43.121 Z0.800 F200
G1 X0.926 Y43.053 Z0.800 F200
G1 X0.989 Y42.975 Z0.800 F200
G1 X1.039 Y42.888 Z0.800 F200
G1 X1.075 Y42.795 Z0.800 F200
G1 X1.098 Y42.697 Z0.800 F200
G1 X1.105 Y42.597 Z0.800 F200
G1 X1.105 Y-1.597 Z0.800 F200
G1 X1.113 Y-1.697 Z0.800 F200
G1 X1.135 Y-1.795 Z0.800 F200
G1 X1.171 Y-1.888 Z0.800 F200
G1 X1.221 Y-1.975 Z0.800 F200
G1 X1.284 Y-2.053 Z0.800 F200
G1 X1.357 Y-2.121 Z0.800 F200
G1 X1.440 Y-2.177 Z0.800 F200
G1 X1.530 Y-2.221 Z0.800 F200
G1 X1.626 Y-2.250 Z0.800 F200
G1 X1.725 Y-2.265 Z0.800 F200
G1 X1.825 Y-2.265 Z0.800 F200
G1 X1.924 Y-2.250 Z0.800 F200
G1 X2.019 Y-2.221 Z0.800 F200
G1 X2.109 Y-2.177 Z0.800 F200
G1 X2.192 Y-2.121 Z0.800 F200
G1 X2.265 Y-2.053 Z0.800 F200
G1 X2.328 Y-1.975 Z0.800 F200
G1 X2.378 Y-1.888 Z0.800 F200
G1 X2.414 Y-1.795 Z0.800 F200
G1 X2.436 Y-1.697 Z0.800 F200
G1 X2.444 Y-1.597 Z0.800 F200
G1 X2.444 Y42.597 Z0.800 F200
G1 X2.451 Y42.697 Z0.800 F200
G1 X2.474 Y42.795 Z0.800 F200
G1 X2.510 Y42.888 Z0.800 F200
G1 X2.560 Y42.975 Z0.800 F200
G1 X2.623 Y43.053 Z0.800 F200
G1 X2.696 Y43.121 Z0.800 F200
G1 X2.779 Y43.177 Z0.800 F200
G1 X2.869 Y43.221 Z0.800 F200
G1 X2.964 Y43.250 Z0.800 F200
G1 X3.063 Y43.265 Z0.800 F200
G1 X3.163 Y43.265 Z0.800 F200
G1 X3.262 Y43.250 Z0.800 F200
G1 X3.358 Y43.221 Z0.800 F200
G1 X3.448 Y43.177 Z0.800 F200
G1 X3.531 Y43.121 Z0.800 F200
G1 X3.604 Y43.053 Z0.800 F200
G1 X3.666 Y42.975 Z0.800 F200
G1 X3.716 Y42.888 Z0.800 F200
G1 X3.753 Y42.795 Z0.800 F200
G1 X3.775 Y42.697 Z0.800 F200
G1 X3.783 Y42.597 Z0.800 F200
G1 X3.783 Y-1.597 Z0.800 F200
G1 X3.790 Y-1.697 Z0.800 F200
G1 X3.813 Y-1.795 Z0.800 F200
G1 X3.849 Y-1.888 Z0.800 F200
G1 X3.899 Y-1.975 Z0.800 F200
G1 X3.961 Y-2.053 Z0.800 F200
G1 X4.035 Y-2.121 Z0.800 F200
G1 X4.117 Y-2.177 Z0.800 F200
G1 X4.208 Y-2.221 Z0.800 F200
G1 X4.303 Y-2.250 Z0.800 F200
G1 X4.402 Y-2.265 Z0.800 F200
G1 X4.502 Y-2.265 Z0.800 F200
G1 X4.601 Y-2.250 Z0.800 F200
G1 X4.697 Y-2.221 Z0.800 F200
G1 X4.787 Y-2.177 Z0.800 F200
G1 X4.870 Y-2.121 Z0.800 F200
G1 X4.943 Y-2.053 Z0.800 F200
G1 X5.005 Y-1.975 Z0.800 F200
G1 X5.055 Y-1.888 Z0.800 F200
G1 X5.092 Y-1.795 Z0.800 F200
G1 X5.114 Y-1.697 Z0.800 F200
G1 X5.122 Y-1.597 Z0.800 F200
G1 X5.122 Y42.597 Z0.800 F200
G1 X5.129 Y42.697 Z0.800 F200
G1 X5.151 Y42.795 Z0.800 F200
G1 X5.188 Y42.888 Z0.800 F200
G1 X5.238 Y42.975 Z0.800 F200
G1 X5.300 Y43.053 Z0.800 F200
G1 X5.374 Y43.121 Z0.800 F200
G1 X5.456 Y43.177 Z0.800 F200
G1 X5.546 Y43.221 Z0.800 F200
G1 X5.642 Y43.250 Z0.800 F200
G1 X5.741 Y43.265 Z0.800 F200
G1 X5.841 Y43.265 Z0.800 F200
G1 X5.940 Y43.250 Z0.800 F200
G1 X6.036 Y43.221 Z0.800 F200
G1 X6.126 Y43.177 Z0.800 F200
G1 X6.208 Y43.121 Z0.800 F200
G1 X6.282 Y43.053 Z0.800 F200
G1 X6.344 Y42.975 Z0.800 F200
G1 X6.394 Y42.888 Z0.800 F200
G1 X6.431 Y42.795 Z0.800 F200
G1 X6.453 Y42.697 Z0.800 F200
G1 X6.460 Y42.597 Z0.800 F200
G1 X6.460 Y-1.597 Z0.800 F200
G1 X6.468 Y-1.697 Z0.800 F200
G1 X6.490 Y-1.795 Z0.800 F200
G1 X6.527 Y-1.888 Z0.800 F200
G1 X6.577 Y-1.975 Z0.800 F200
G1 X6.639 Y-2.053 Z0.800 F200
G1 X6.712 Y-2.121 Z0.800 F200
G1 X6.795 Y-2.177 Z0.800 F200
G1 X6.885 Y-2.221 Z0.800 F200
G1 X6.981 Y-2.250 Z0.800 F200
G1 X7.080 Y-2.265 Z0.800 F200
G1 X7.180 Y-2.265 Z0.800 F200
G1 X7.279 Y-2.250 Z0.800 F200
G1 X7.374 Y-2.221 Z0.800 F200
G1 X7.465 Y-2.177 Z0.800 F200
G1 X7.547 Y-2.121 Z0.800 F200
G1 X7.621 Y-2.053 Z0.800 F200
G1 X7.683 Y-1.975 Z0.800 F200
G1 X7.733 Y-1.888 Z0.800 F200
G1 X7.769 Y-1.795 Z0.800 F200
G1 X7.792 Y-1.697 Z0.800 F200
G1 X7.799 Y-1.597 Z0.800 F200
G1 X7.799 Y42.597 Z0.800 F200
G1 X7.807 Y42.697 Z0.800 F200
G1 X7.829 Y42.795 Z0.800 F200
G1 X7.866 Y42.888 Z0.800 F200
G1 X7.916 Y42.975 Z0.800 F200
G1 X7.978 Y43.053 Z0.800 F200
G1 X8.051 Y43.121 Z0.800 F200
G1 X8.134 Y43.177 Z0.800 F200
G1 X8.224 Y43.221 Z0.800 F200
G1 X8.320 Y43.250 Z0.800 F200
G1 X8.419 Y43.265 Z0.800 F200
G1 X8.519 Y43.265 Z0.800 F200
G1 X8.618 Y43.250 Z0.800 F200
G1 X8.713 Y43.221 Z0.800 F200
G1 X8.803 Y43.177 Z0.800 F200
G1 X8.886 Y43.121 Z0.800 F200
G1 X8.959 Y43.053 Z0.800 F200
G1 X9.022 Y42.975 Z0.800 F200
G1 X9.072 Y42.888 Z0.800 F200
G1 X9.108 Y42.795 Z0.800 F200
G1 X9.131 Y42.697 Z0.800 F200
G1 X9.138 Y42.597 Z0.800 F200
G1 X9.138 Y-1.597 Z0.800 F200
G1 X9.146 Y-1.697 Z0.800 F200
G1 X9.168 Y-1.795 Z0.800 F200
G1 X9.204 Y-1.888 Z0.800 F200
G1 X9.254 Y-1.975 Z0.800 F200
G1 X9.317 Y-2.053 Z0.800 F200
G1 X9.390 Y-2.121 Z0.800 F200
G1 X9.473 Y-2.177 Z0.800 F200
G1 X9.563 Y-2.221 Z0.800 F200
G1 X9.659 Y-2.250 Z0.800 F200
G1 X9.757 Y-2.265 Z0.800 F200
G1 X9.857 Y-2.265 Z0.800 F200
G1 X9.956 Y-2.250 Z0.800 F200
G1 X10.052 Y-2.221 Z0.800 F200
G1 X10.142 Y-2.177 Z0.800 F200
G1 X10.225 Y-2.121 Z0.800 F200
G1 X10.298 Y-2.053 Z0.800 F200
G1 X10.361 Y-1.975 Z0.800 F200
G1 X10.411 Y-1.888 Z0.800 F200
G1 X10.447 Y-1.795 Z0.800 F200
G1 X10.469 Y-1.697 Z0.800 F200
G1 X10.477 Y-1.597 Z0.800 F200
G1 X10.477 Y42.597 Z0.800 F200
G1 X10.477 Y42.668 Z0.808 F200
G1 X10.477 Y42.735 Z0.831 F200
G1 X10.477 Y42.795 Z0.869 F200
G1 X10.477 Y42.846 Z0.920 F200
G1 X10.477 Y42.884 Z0.980 F200
G1 X10.477 Y42.907 Z1.047 F200
G1 X10.477 Y42.915 Z1.117 F200
G1 X10.477 Y42.915 Z6.825 F200
G1 X-0.234 Y43.047 Z6.825 F200
G1 X-0.234 Y43.047 Z1.925 F200
G1 X-0.234 Y43.047 Z1.018 F200
G1 X-0.234 Y43.039 Z0.947 F200
G1 X-0.234 Y43.016 Z0.880 F200
G1 X-0.234 Y42.978 Z0.820 F200
G1 X-0.234 Y42.927 Z0.769 F200
G1 X-0.234 Y42.867 Z0.731 F200
G1 X-0.234 Y42.800 Z0.708 F200
G1 X-0.234 Y42.730 Z0.700 F200
G1 X-0.234 Y42.597 Z0.700 F200
G1 X-0.234 Y-1.597 Z0.700 F200
G1 X-0.226 Y-1.697 Z0.700 F200
G1 X-0.204 Y-1.795 Z0.700 F200
G1 X-0.167 Y-1.888 Z0.700 F200
G1 X-0.117 Y-1.975 Z0.700 F200
G1 X-0.055 Y-2.053 Z0.700 F200
G1 X0.018 Y-2.121 Z0.700 F200
G1 X0.101 Y-2.177 Z0.700 F200
G1 X0.191 Y-2.221 Z0.700 F200
G1 X0.287 Y-2.250 Z0.700 F200
G1 X0.386 Y-2.265 Z0.700 F200
G1 X0.486 Y-2.265 Z0.700 F200
G1 X0.585 Y-2.250 Z0.700 F200
G1 X0.680 Y-2.221 Z0.700 F200
G1 X0.770 Y-2.177 Z0.700 F200
G1 X0.853 Y-2.121 Z0.700 F200
G1 X0.926 Y-2.053 Z0.700 F200
G1 X0.989 Y-1.975 Z0.700 F200
G1 X1.039 Y-1.888 Z0.700 F200
G1 X1.075 Y-1.795 Z0.700 F200
G1 X1.098 Y-1.697 Z0.700 F200
G1 X1.105 Y-1.597 Z0.700 F200
G1 X1.105 Y42.597 Z0.700 F200
G1 X1.113 Y42.697 Z0.700 F200
G1 X1.135 Y42.795 Z0.700 F200
G1 X1.171 Y42.888 Z0.700 F200
G1 X1.221 Y42.975 Z0.700 F200
G1 X1.284 Y43.053 Z0.700 F200
G1 X1.357 Y43.121 Z0.700 F200
G1 X1.440 Y43.177 Z0.700 F200
G1 X1.530 Y43.221 Z0.700 F200
G1 X1.626 Y43.250 Z0.700 F200
G1 X1.725 Y43.265 Z0.700 F200
G1 X1.825 Y43.265 Z0.700 F200
G1 X1.924 Y43.250 Z0.700 F200
G1 X2.019 Y43.221 Z0.700 F200
G1 X2.109 Y43.177 Z0.700 F200
G1 X2.192 Y43.121 Z0.700 F200
G1 X2.265 Y43.053 Z0.700 F200
G1 X2.328 Y42.975 Z0.700 F200
G1 X2.378 Y42.888 Z0.700 F200
G1 X2.414 Y42.795 Z0.700 F200
G1 X2.436 Y42.697 Z0.700 F200
G1 X2.444 Y42.597 Z0.700 F200
G1 X2.444 Y-1.597 Z0.700 F200
G1 X2.451 Y-1.697 Z0.700 F200
G1 X2.474 Y-1.795 Z0.700 F200
G1 X2.510 Y-1.888 Z0.700 F200
G1 X2.560 Y-1.975 Z0.700 F200
G1 X2.623 Y-2.053 Z0.700 F200
G1 X2.696 Y-2.121 Z0.700 F200
G1 X2.779 Y-2.177 Z0.700 F200
G1 X2.869 Y-2.221 Z0.700 F200
G1 X2.964 Y-2.250 Z0.700 F200
G1 X3.063 Y-2.265 Z0.700 F200
G1 X3.163 Y-2.265 Z0.700 F200
G1 X3.262 Y-2.250 Z0.700 F200
G1 X3.358 Y-2.221 Z0.700 F200
G1 X3.448 Y-2.177 Z0.700 F200
G1 X3.531 Y-2.121 Z0.700 F200
G1 X3.604 Y-2.053 Z0.700 F200
G1 X3.666 Y-1.975 Z0.700 F200
G1 X3.716 Y-1.888 Z0.700 F200
G1 X3.753 Y-1.795 Z0.700 F200
G1 X3.775 Y-1.697 Z0.700 F200
G1 X3.783 Y-1.597 Z0.700 F200
G1 X3.783 Y42.597 Z0.700 F200
G1 X3.790 Y42.697 Z0.700 F200
G1 X3.813 Y42.795 Z0.700 F200
G1 X3.849 Y42.888 Z0.700 F200
G1 X3.899 Y42.975 Z0.700 F200
G1 X3.961 Y43.053 Z0.700 F200
G1 X4.035 Y43.121 Z0.700 F200
G1 X4.117 Y43.177 Z0.700 F200
G1 X4.208 Y43.221 Z0.700 F200
G1 X4.303 Y43.250 Z0.700 F200
G1 X4.402 Y43.265 Z0.700 F200
G1 X4.502 Y43.265 Z0.700 F200
G1 X4.601 Y43.250 Z0.700 F200
G1 X4.697 Y43.221 Z0.700 F200
G1 X4.787 Y43.177 Z0.700 F200
G1 X4.870 Y43.121 Z0.700 F200
G1 X4.943 Y43.053 Z0.700 F200
G1 X5.005 Y42.975 Z0.700 F200
G1 X5.055 Y42.888 Z0.700 F200
G1 X5.092 Y42.795 Z0.700 F200
G1 X5.114 Y42.697 Z0.700 F200
G1 X5.122 Y42.597 Z0.700 F200
G1 X5.122 Y-1.597 Z0.700 F200
G1 X5.129 Y-1.697 Z0.700 F200
G1 X5.151 Y-1.795 Z0.700 F200
G1 X5.188 Y-1.888 Z0.700 F200
G1 X5.238 Y-1.975 Z0.700 F200
G1 X5.300 Y-2.053 Z0.700 F200
G1 X5.374 Y-2.121 Z0.700 F200
G1 X5.456 Y-2.177 Z0.700 F200
G1 X5.546 Y-2.221 Z0.700 F200
G1 X5.642 Y-2.250 Z0.700 F200
G1 X5.741 Y-2.265 Z0.700 F200
G1 X5.841 Y-2.265 Z0.700 F200
G1 X5.940 Y-2.250 Z0.700 F200
G1 X6.036 Y-2.221 Z0.700 F200
G1 X6.126 Y-2.177 Z0.700 F200
G1 X6.208 Y-2.121 Z0.700 F200
G1 X6.282 Y-2.053 Z0.700 F200
G1 X6.344 Y-1.975 Z0.700 F200
G1 X6.394 Y-1.888 Z0.700 F200
G1 X6.431 Y-1.795 Z0.700 F200
G1 X6.453 Y-1.697 Z0.700 F200
G1 X6.460 Y-1.597 Z0.700 F200
G1 X6.460 Y42.597 Z0.700 F200
G1 X6.468 Y42.697 Z0.700 F200
G1 X6.490 Y42.795 Z0.700 F200
G1 X6.527 Y42.888 Z0.700 F200
G1 X6.577 Y42.975 Z0.700 F200
G1 X6.639 Y43.053 Z0.700 F200
G1 X6.712 Y43.121 Z0.700 F200
G1 X6.795 Y43.177 Z0.700 F200
G1 X6.885 Y43.221 Z0.700 F200
G1 X6.981 Y43.250 Z0.700 F200
G1 X7.080 Y43.265 Z0.700 F200
G1 X7.180 Y43.265 Z0.700 F200
G1 X7.279 Y43.250 Z0.700 F200
G1 X7.374 Y43.221 Z0.700 F200
G1 X7.465 Y43.177 Z0.700 F200
G1 X7.547 Y43.121 Z0.700 F200
G1 X7.621 Y43.053 Z0.700 F200
G1 X7.683 Y42.975 Z0.700 F200
G1 X7.733 Y42.888 Z0.700 F200
G1 X7.769 Y42.795 Z0.700 F200
G1 X7.792 Y42.697 Z0.700 F200
G1 X7.799 Y42.597 Z0.700 F200
G1 X7.799 Y-1.597 Z0.700 F200
G1 X7.807 Y-1.697 Z0.700 F200
G1 X7.829 Y-1.795 Z0.700 F200
G1 X7.866 Y-1.888 Z0.700 F200
G1 X7.916 Y-1.975 Z0.700 F200
G1 X7.978 Y-2.053 Z0.700 F200
G1 X8.051 Y-2.121 Z0.700 F200
G1 X8.134 Y-2.177 Z0.700 F200
G1 X8.224 Y-2.221 Z0.700 F200
G1 X8.320 Y-2.250 Z0.700 F200
G1 X8.419 Y-2.265 Z0.700 F200
G1 X8.519 Y-2.265 Z0.700 F200
G1 X8.618 Y-2.250 Z0.700 F200
G1 X8.713 Y-2.221 Z0.700 F200
G1 X8.803 Y-2.177 Z0.700 F200
G1 X8.886 Y-2.121 Z0.700 F200
G1 X8.959 Y-2.053 Z0.700 F200
G1 X9.022 Y-1.975 Z0.700 F200
G1 X9.072 Y-1.888 Z0.700 F200
G1 X9.108 Y-1.795 Z0.700 F200
G1 X9.131 Y-1.697 Z0.700 F200
G1 X9.138 Y-1.597 Z0.700 F200
G1 X9.138 Y42.597 Z0.700 F200
G1 X9.146 Y42.697 Z0.700 F200
G1 X9.168 Y42.795 Z0.700 F200
G1 X9.204 Y42.888 Z0.700 F200
G1 X9.254 Y42.975 Z0.700 F200
G1 X9.317 Y43.053 Z0.700 F200
G1 X9.390 Y43.121 Z0.700 F200
G1 X9.473 Y43.177 Z0.700 F200
G1 X9.563 Y43.221 Z0.700 F200
G1 X9.659 Y43.250 Z0.700 F200
G1 X9.757 Y43.265 Z0.700 F200
G1 X9.857 Y43.265 Z0.700 F200
G1 X9.956 Y43.250 Z0.700 F200
G1 X10.052 Y43.221 Z0.700 F200
G1 X10.142 Y43.177 Z0.700 F200
G1 X10.225 Y43.121 Z0.700 F200
G1 X10.298 Y43.053 Z0.700 F200
G1 X10.361 Y42.975 Z0.700 F200
G1 X10.411 Y42.888 Z0.700 F200
G1 X10.447 Y42.795 Z0.700 F200
G1 X10.469 Y42.697 Z0.700 F200
G1 X10.477 Y42.597 Z0.700 F200
G1 X10.477 Y-1.597 Z0.700 F200
G1 X10.477 Y-1.668 Z0.708 F200
G1 X10.477 Y-1.735 Z0.731 F200
G1 X10.477 Y-1.795 Z0.769 F200
G1 X10.477 Y-1.846 Z0.820 F200
G1 X10.477 Y-1.884 Z0.880 F200
G1 X10.477 Y-1.907 Z0.947 F200
G1 X10.477 Y-1.915 Z1.018 F200
G1 X10.477 Y-1.915 Z6.825 F200
G1 X-0.234 Y-2.047 Z6.825 F200
G1 X-0.234 Y-2.047 Z1.925 F200
G1 X-0.234 Y-2.047 Z0.918 F200
G1 X-0.234 Y-2.039 Z0.847 F200
G1 X-0.234 Y-2.016 Z0.780 F200
G1 X-0.234 Y-1.978 Z0.720 F200
G1 X-0.234 Y-1.927 Z0.669 F200
G1 X-0.234 Y-1.867 Z0.631 F200
G1 X-0.234 Y-1.800 Z0.608 F200
G1 X-0.234 Y-1.730 Z0.600 F200
G1 X-0.234 Y-1.597 Z0.600 F200
G1 X-0.234 Y42.597 Z0.600 F200
G1 X-0.226 Y42.697 Z0.600 F200
G1 X-0.204 Y42.795 Z0.600 F200
G1 X-0.167 Y42.888 Z0.600 F200
G1 X-0.117 Y42.975 Z0.600 F200
G1 X-0.055 Y43.053 Z0.600 F200
G1 X0.018 Y43.121 Z0.600 F200
G1 X0.101 Y43.177 Z0.600 F200
G1 X0.191 Y43.221 Z0.600 F200
G1 X0.287 Y43.250 Z0.600 F200
G1 X0.386 Y43.265 Z0.600 F200
G1 X0.486 Y43.265 Z0.600 F200
G1 X0.585 Y43.250 Z0.600 F200
G1 X0.680 Y43.221 Z0.600 F200
G1 X0.770 Y43.177 Z0.600 F200
G1 X0.853 Y43.121 Z0.600 F200
G1 X0.926 Y43.053 Z0.600 F200
G1 X0.989 Y42.975 Z0.600 F200
G1 X1.039 Y42.888 Z0.600 F200
G1 X1.075 Y42.795 Z0.600 F200
G1 X1.098 Y42.697 Z0.600 F200
G1 X1.105 Y42.597 Z0.600 F200
G1 X1.105 Y-1.597 Z0.600 F200
G1 X1.113 Y-1.697 Z0.600 F200
G1 X1.135 Y-1.795 Z0.600 F200
G1 X1.171 Y-1.888 Z0.600 F200
G1 X1.221 Y-1.975 Z0.600 F200
G1 X1.284 Y-2.053 Z0.600 F200
G1 X1.357 Y-2.121 Z0.600 F200
G1 X1.440 Y-2.177 Z0.600 F200
G1 X1.530 Y-2.221 Z0.600 F200
G1 X1.626 Y-2.250 Z0.600 F200
G1 X1.725 Y-2.265 Z0.600 F200
G1 X1.825 Y-2.265 Z0.600 F200
G1 X1.924 Y-2.250 Z0.600 F200
G1 X2.019 Y-2.221 Z0.600 F200
G1 X2.109 Y-2.177 Z0.600 F200
G1 X2.192 Y-2.121 Z0.600 F200
G1 X2.265 Y-2.053 Z0.600 F200
G1 X2.328 Y-1.975 Z0.600 F200
G1 X2.378 Y-1.888 Z0.600 F200
G1 X2.414 Y-1.795 Z0.600 F200
G1 X2.436 Y-1.697 Z0.600 F200
G1 X2.444 Y-1.597 Z0.600 F200
G1 X2.444 Y42.597 Z0.600 F200
G1 X2.451 Y42.697 Z0.600 F200
G1 X2.474 Y42.795 Z0.600 F200
G1 X2.510 Y42.888 Z0.600 F200
G1 X2.560 Y42.975 Z0.600 F200
G1 X2.623 Y43.053 Z0.600 F200
G1 X2.696 Y43.121 Z0.600 F200
G1 X2.779 Y43.177 Z0.600 F200
G1 X2.869 Y43.221 Z0.600 F200
G1 X2.964 Y43.250 Z0.600 F200
G1 X3.063 Y43.265 Z0.600 F200
G1 X3.163 Y43.265 Z0.600 F200
G1 X3.262 Y43.250 Z0.600 F200
G1 X3.358 Y43.221 Z0.600 F200
G1 X3.448 Y43.177 Z0.600 F200
G1 X3.531 Y43.121 Z0.600 F200
G1 X3.604 Y43.053 Z0.600 F200
G1 X3.666 Y42.975 Z0.600 F200
G1 X3.716 Y42.888 Z0.600 F200
G1 X3.753 Y42.795 Z0.600 F200
G1 X3.775 Y42.697 Z0.600 F200
G1 X3.783 Y42.597 Z0.600 F200
G1 X3.783 Y-1.597 Z0.600 F200
G1 X3.790 Y-1.697 Z0.600 F200
G1 X3.813 Y-1.795 Z0.600 F200
G1 X3.849 Y-1.888 Z0.600 F200
G1 X3.899 Y-1.975 Z0.600 F200
G1 X3.961 Y-2.053 Z0.600 F200
G1 X4.035 Y-2.121 Z0.600 F200
G1 X4.117 Y-2.177 Z0.600 F200
G1 X4.208 Y-2.221 Z0.600 F200
G1 X4.303 Y-2.250 Z0.600 F200
G1 X4.402 Y-2.265 Z0.600 F200
G1 X4.502 Y-2.265 Z0.600 F200
G1 X4.601 Y-2.250 Z0.600 F200
G1 X4.697 Y-2.221 Z0.600 F200
G1 X4.787 Y-2.177 Z0.600 F200
G1 X4.870 Y-2.121 Z0.600 F200
G1 X4.943 Y-2.053 Z0.600 F200
G1 X5.005 Y-1.975 Z0.600 F200
G1 X5.055 Y-1.888 Z0.600 F200
G1 X5.092 Y-1.795 Z0.600 F200
G1 X5.114 Y-1.697 Z0.600 F200
G1 X5.122 Y-1.597 Z0.600 F200
G1 X5.122 Y42.597 Z0.600 F200
G1 X5.129 Y42.697 Z0.600 F200
G1 X5.151 Y42.795 Z0.600 F200
G1 X5.188 Y42.888 Z0.600 F200
G1 X5.238 Y42.975 Z0.600 F200
G1 X5.300 Y43.053 Z0.600 F200
G1 X5.374 Y43.121 Z0.600 F200
G1 X5.456 Y43.177 Z0.600 F200
G1 X5.546 Y43.221 Z0.600 F200
G1 X5.642 Y43.250 Z0.600 F200
G1 X5.741 Y43.265 Z0.600 F200
G1 X5.841 Y43.265 Z0.600 F200
G1 X5.940 Y43.250 Z0.600 F200
G1 X6.036 Y43.221 Z0.600 F200
G1 X6.126 Y43.177 Z0.600 F200
G1 X6.208 Y43.121 Z0.600 F200
G1 X6.282 Y43.053 Z0.600 F200
G1 X6.344 Y42.975 Z0.600 F200
G1 X6.394 Y42.888 Z0.600 F200
G1 X6.431 Y42.795 Z0.600 F200
G1 X6.453 Y42.697 Z0.600 F200
G1 X6.460 Y42.597 Z0.600 F200
G1 X6.460 Y-1.597 Z0.600 F200
G1 X6.468 Y-1.697 Z0.600 F200
G1 X6.490 Y-1.795 Z0.600 F200
G1 X6.527 Y-1.888 Z0.600 F200
G1 X6.577 Y-1.975 Z0.600 F200
G1 X6.639 Y-2.053 Z0.600 F200
G1 X6.712 Y-2.121 Z0.600 F200
G1 X6.795 Y-2.177 Z0.600 F200
G1 X6.885 Y-2.221 Z0.600 F200
G1 X6.981 Y-2.250 Z0.600 F200
G1 X7.080 Y-2.265 Z0.600 F200
G1 X7.180 Y-2.265 Z0.600 F200
G1 X7.279 Y-2.250 Z0.600 F200
G1 X7.374 Y-2.221 Z0.600 F200
G1 X7.465 Y-2.177 Z0.600 F200
G1 X7.547 Y-2.121 Z0.600 F200
G1 X7.621 Y-2.053 Z0.600 F200
G1 X7.683 Y-1.975 Z0.600 F200
G1 X7.733 Y-1.888 Z0.600 F200
G1 X7.769 Y-1.795 Z0.600 F200
G1 X7.792 Y-1.697 Z0.600 F200
G1 X7.799 Y-1.597 Z0.600 F200
G1 X7.799 Y42.597 Z0.600 F200
G1 X7.807 Y42.697 Z0.600 F200
G1 X7.829 Y42.795 Z0.600 F200
G1 X7.866 Y42.888 Z0.600 F200
G1 X7.916 Y42.975 Z0.600 F200
G1 X7.978 Y43.053 Z0.600 F200
G1 X8.051 Y43.121 Z0.600 F200
G1 X8.134 Y43.177 Z0.600 F200
G1 X8.224 Y43.221 Z0.600 F200
G1 X8.320 Y43.250 Z0.600 F200
G1 X8.419 Y43.265 Z0.600 F200
G1 X8.519 Y43.265 Z0.600 F200
G1 X8.618 Y43.250 Z0.600 F200
G1 X8.713 Y43.221 Z0.600 F200
G1 X8.803 Y43.177 Z0.600 F200
G1 X8.886 Y43.121 Z0.600 F200
G1 X8.959 Y43.053 Z0.600 F200
G1 X9.022 Y42.975 Z0.600 F200
G1 X9.072 Y42.888 Z0.600 F200
G1 X9.108 Y42.795 Z0.600 F200
G1 X9.131 Y42.697 Z0.600 F200
G1 X9.138 Y42.597 Z0.600 F200
G1 X9.138 Y-1.597 Z0.600 F200
G1 X9.146 Y-1.697 Z0.600 F200
G1 X9.168 Y-1.795 Z0.600 F200
G1 X9.204 Y-1.888 Z0.600 F200
G1 X9.254 Y-1.975 Z0.600 F200
G1 X9.317 Y-2.053 Z0.600 F200
G1 X9.390 Y-2.121 Z0.600 F200
G1 X9.473 Y-2.177 Z0.600 F200
G1 X9.563 Y-2.221 Z0.600 F200
G1 X9.659 Y-2.250 Z0.600 F200
G1 X9.757 Y-2.265 Z0.600 F200
G1 X9.857 Y-2.265 Z0.600 F200
G1 X9.956 Y-2.250 Z0.600 F200
G1 X10.052 Y-2.221 Z0.600 F200
G1 X10.142 Y-2.177 Z0.600 F200
G1 X10.225 Y-2.121 Z0.600 F200
G1 X10.298 Y-2.053 Z0.600 F200
G1 X10.361 Y-1.975 Z0.600 F200
G1 X10.411 Y-1.888 Z0.600 F200
G1 X10.447 Y-1.795 Z0.600 F200
G1 X10.469 Y-1.697 Z0.600 F200
G1 X10.477 Y-1.597 Z0.600 F200
G1 X10.477 Y42.597 Z0.600 F200
G1 X10.477 Y42.668 Z0.608 F200
G1 X10.477 Y42.735 Z0.631 F200
G1 X10.477 Y42.795 Z0.669 F200
G1 X10.477 Y42.846 Z0.720 F200
G1 X10.477 Y42.884 Z0.780 F200
G1 X10.477 Y42.907 Z0.847 F200
G1 X10.477 Y42.915 Z0.918 F200
G1 X10.477 Y42.915 Z6.825 F200
G1 X-0.234 Y43.047 Z6.825 F200
G1 X-0.234 Y43.047 Z1.925 F200
G1 X-0.234 Y43.047 Z0.817 F200
G1 X-0.234 Y43.039 Z0.747 F200
G1 X-0.234 Y43.016 Z0.680 F200
G1 X-0.234 Y42.978 Z0.620 F200
G1 X-0.234 Y42.927 Z0.569 F200
G1 X-0.234 Y42.867 Z0.531 F200
G1 X-0.234 Y42.800 Z0.508 F200
G1 X-0.234 Y42.730 Z0.500 F200
G1 X-0.234 Y42.597 Z0.500 F200
G1 X-0.234 Y-1.597 Z0.500 F200
G1 X-0.226 Y-1.697 Z0.500 F200
G1 X-0.204 Y-1.795 Z0.500 F200
G1 X-0.167 Y-1.888 Z0.500 F200
G1 X-0.117 Y-1.975 Z0.500 F200
G1 X-0.055 Y-2.053 Z0.500 F200
G1 X0.018 Y-2.121 Z0.500 F200
G1 X0.101 Y-2.177 Z0.500 F200
G1 X0.191 Y-2.221 Z0.500 F200
G1 X0.287 Y-2.250 Z0.500 F200
G1 X0.386 Y-2.265 Z0.500 F200
G1 X0.486 Y-2.265 Z0.500 F200
G1 X0.585 Y-2.250 Z0.500 F200
G1 X0.680 Y-2.221 Z0.500 F200
G1 X0.770 Y-2.177 Z0.500 F200
G1 X0.853 Y-2.121 Z0.500 F200
G1 X0.926 Y-2.053 Z0.500 F200
G1 X0.989 Y-1.975 Z0.500 F200
G1 X1.039 Y-1.888 Z0.500 F200
G1 X1.075 Y-1.795 Z0.500 F200
G1 X1.098 Y-1.697 Z0.500 F200
G1 X1.105 Y-1.597 Z0.500 F200
G1 X1.105 Y42.597 Z0.500 F200
G1 X1.113 Y42.697 Z0.500 F200
G1 X1.135 Y42.795 Z0.500 F200
G1 X1.171 Y42.888 Z0.500 F200
G1 X1.221 Y42.975 Z0.500 F200
G1 X1.284 Y43.053 Z0.500 F200
G1 X1.357 Y43.121 Z0.500 F200
G1 X1.440 Y43.177 Z0.500 F200
G1 X1.530 Y43.221 Z0.500 F200
G1 X1.626 Y43.250 Z0.500 F200
G1 X1.725 Y43.265 Z0.500 F200
G1 X1.825 Y43.265 Z0.500 F200
G1 X1.924 Y43.250 Z0.500 F200
G1 X2.019 Y43.221 Z0.500 F200
G1 X2.109 Y43.177 Z0.500 F200
G1 X2.192 Y43.121 Z0.500 F200
G1 X2.265 Y43.053 Z0.500 F200
G1 X2.328 Y42.975 Z0.500 F200
G1 X2.378 Y42.888 Z0.500 F200
G1 X2.414 Y42.795 Z0.500 F200
G1 X2.436 Y42.697 Z0.500 F200
G1 X2.444 Y42.597 Z0.500 F200
G1 X2.444 Y-1.597 Z0.500 F200
G1 X2.451 Y-1.697 Z0.500 F200
G1 X2.474 Y-1.795 Z0.500 F200
G1 X2.510 Y-1.888 Z0.500 F200
G1 X2.560 Y-1.975 Z0.500 F200
G1 X2.623 Y-2.053 Z0.500 F200
G1 X2.696 Y-2.121 Z0.500 F200
G1 X2.779 Y-2.177 Z0.500 F200
G1 X2.869 Y-2.221 Z0.500 F200
G1 X2.964 Y-2.250 Z0.500 F200
G1 X3.063 Y-2.265 Z0.500 F200
G1 X3.163 Y-2.265 Z0.500 F200
G1 X3.262 Y-2.250 Z0.500 F200
G1 X3.358 Y-2.221 Z0.500 F200
G1 X3.448 Y-2.177 Z0.500 F200
G1 X3.531 Y-2.121 Z0.500 F200
G1 X3.604 Y-2.053 Z0.500 F200
G1 X3.666 Y-1.975 Z0.500 F200
G1 X3.716 Y-1.888 Z0.500 F200
G1 X3.753 Y-1.795 Z0.500 F200
G1 X3.775 Y-1.697 Z0.500 F200
G1 X3.783 Y-1.597 Z0.500 F200
G1 X3.783 Y42.597 Z0.500 F200
G1 X3.790 Y42.697 Z0.500 F200
G1 X3.813 Y42.795 Z0.500 F200
G1 X3.849 Y42.888 Z0.500 F200
G1 X3.899 Y42.975 Z0.500 F200
G1 X3.961 Y43.053 Z0.500 F200
G1 X4.035 Y43.121 Z0.500 F200
G1 X4.117 Y43.177 Z0.500 F200
G1 X4.208 Y43.221 Z0.500 F200
G1 X4.303 Y43.250 Z0.500 F200
G1 X4.402 Y43.265 Z0.500 F200
G1 X4.502 Y43.265 Z0.500 F200
G1 X4.601 Y43.250 Z0.500 F200
G1 X4.697 Y43.221 Z0.500 F200
G1 X4.787 Y43.177 Z0.500 F200
G1 X4.870 Y43.121 Z0.500 F200
G1 X4.943 Y43.053 Z0.500 F200
G1 X5.005 Y42.975 Z0.500 F200
G1 X5.055 Y42.888 Z0.500 F200
G1 X5.092 Y42.795 Z0.500 F200
G1 X5.114 Y42.697 Z0.500 F200
G1 X5.122 Y42.597 Z0.500 F200
G1 X5.122 Y-1.597 Z0.500 F200
G1 X5.129 Y-1.697 Z0.500 F200
G1 X5.151 Y-1.795 Z0.500 F200
G1 X5.188 Y-1.888 Z0.500 F200
G1 X5.238 Y-1.975 Z0.500 F200
G1 X5.300 Y-2.053 Z0.500 F200
G1 X5.374 Y-2.121 Z0.500 F200
G1 X5.456 Y-2.177 Z0.500 F200
G1 X5.546 Y-2.221 Z0.500 F200
G1 X5.642 Y-2.250 Z0.500 F200
G1 X5.741 Y-2.265 Z0.500 F200
G1 X5.841 Y-2.265 Z0.500 F200
G1 X5.940 Y-2.250 Z0.500 F200
G1 X6.036 Y-2.221 Z0.500 F200
G1 X6.126 Y-2.177 Z0.500 F200
G1 X6.208 Y-2.121 Z0.500 F200
G1 X6.282 Y-2.053 Z0.500 F200
G1 X6.344 Y-1.975 Z0.500 F200
G1 X6.394 Y-1.888 Z0.500 F200
G1 X6.431 Y-1.795 Z0.500 F200
G1 X6.453 Y-1.697 Z0.500 F200
G1 X6.460 Y-1.597 Z0.500 F200
G1 X6.460 Y42.597 Z0.500 F200
G1 X6.468 Y42.697 Z0.500 F200
G1 X6.490 Y42.795 Z0.500 F200
G1 X6.527 Y42.888 Z0.500 F200
G1 X6.577 Y42.975 Z0.500 F200
G1 X6.639 Y43.053 Z0.500 F200
G1 X6.712 Y43.121 Z0.500 F200
G1 X6.795 Y43.177 Z0.500 F200
G1 X6.885 Y43.221 Z0.500 F200
G1 X6.981 Y43.250 Z0.500 F200
G1 X7.080 Y43.265 Z0.500 F200
G1 X7.180 Y43.265 Z0.500 F200
G1 X7.279 Y43.250 Z0.500 F200
G1 X7.374 Y43.221 Z0.500 F200
G1 X7.465 Y43.177 Z0.500 F200
G1 X7.547 Y43.121 Z0.500 F200
G1 X7.621 Y43.053 Z0.500 F200
G1 X7.683 Y42.975 Z0.500 F200
G1 X7.733 Y42.888 Z0.500 F200
G1 X7.769 Y42.795 Z0.500 F200
G1 X7.792 Y42.697 Z0.500 F200
G1 X7.799 Y42.597 Z0.500 F200
G1 X7.799 Y-1.597 Z0.500 F200
G1 X7.807 Y-1.697 Z0.500 F200
G1 X7.829 Y-1.795 Z0.500 F200
G1 X7.866 Y-1.888 Z0.500 F200
G1 X7.916 Y-1.975 Z0.500 F200
G1 X7.978 Y-2.053 Z0.500 F200
G1 X8.051 Y-2.121 Z0.500 F200
G1 X8.134 Y-2.177 Z0.500 F200
G1 X8.224 Y-2.221 Z0.500 F200
G1 X8.320 Y-2.250 Z0.500 F200
G1 X8.419 Y-2.265 Z0.500 F200
G1 X8.519 Y-2.265 Z0.500 F200
G1 X8.618 Y-2.250 Z0.500 F200
G1 X8.713 Y-2.221 Z0.500 F200
G1 X8.803 Y-2.177 Z0.500 F200
G1 X8.886 Y-2.121 Z0.500 F200
G1 X8.959 Y-2.053 Z0.500 F200
G1 X9.022 Y-1.975 Z0.500 F200
G1 X9.072 Y-1.888 Z0.500 F200
G1 X9.108 Y-1.795 Z0.500 F200
G1 X9.131 Y-1.697 Z0.500 F200
G1 X9.138 Y-1.597 Z0.500 F200
G1 X9.138 Y42.597 Z0.500 F200
G1 X9.146 Y42.697 Z0.500 F200
G1 X9.168 Y42.795 Z0.500 F200
G1 X9.204 Y42.888 Z0.500 F200
G1 X9.254 Y42.975 Z0.500 F200
G1 X9.317 Y43.053 Z0.500 F200
G1 X9.390 Y43.121 Z0.500 F200
G1 X9.473 Y43.177 Z0.500 F200
G1 X9.563 Y43.221 Z0.500 F200
G1 X9.659 Y43.250 Z0.500 F200
G1 X9.757 Y43.265 Z0.500 F200
G1 X9.857 Y43.265 Z0.500 F200
G1 X9.956 Y43.250 Z0.500 F200
G1 X10.052 Y43.221 Z0.500 F200
G1 X10.142 Y43.177 Z0.500 F200
G1 X10.225 Y43.121 Z0.500 F200
G1 X10.298 Y43.053 Z0.500 F200
G1 X10.361 Y42.975 Z0.500 F200
G1 X10.411 Y42.888 Z0.500 F200
G1 X10.447 Y42.795 Z0.500 F200
G1 X10.469 Y42.697 Z0.500 F200
G1 X10.477 Y42.597 Z0.500 F200
G1 X10.477 Y-1.597 Z0.500 F200
G1 X10.477 Y-1.668 Z0.508 F200
G1 X10.477 Y-1.735 Z0.531 F200
G1 X10.477 Y-1.795 Z0.569 F200
G1 X10.477 Y-1.846 Z0.620 F200
G1 X10.477 Y-1.884 Z0.680 F200
G1 X10.477 Y-1.907 Z0.747 F200
G1 X10.477 Y-1.915 Z0.817 F200
G1 X10.477 Y-1.915 Z6.825 F200
G1 X-0.234 Y-2.047 Z6.825 F200
G1 X-0.234 Y-2.047 Z1.925 F200
G1 X-0.234 Y-2.047 Z0.717 F200
G1 X-0.234 Y-2.039 Z0.647 F200
G1 X-0.234 Y-2.016 Z0.580 F200
G1 X-0.234 Y-1.978 Z0.520 F200
G1 X-0.234 Y-1.927 Z0.469 F200
G1 X-0.234 Y-1.867 Z0.431 F200
G1 X-0.234 Y-1.800 Z0.408 F200
G1 X-0.234 Y-1.730 Z0.400 F200
G1 X-0.234 Y-1.597 Z0.400 F200
G1 X-0.234 Y42.597 Z0.400 F200
G1 X-0.226 Y42.697 Z0.400 F200
G1 X-0.204 Y42.795 Z0.400 F200
G1 X-0.167 Y42.888 Z0.400 F200
G1 X-0.117 Y42.975 Z0.400 F200
G1 X-0.055 Y43.053 Z0.400 F200
G1 X0.018 Y43.121 Z0.400 F200
G1 X0.101 Y43.177 Z0.400 F200
G1 X0.191 Y43.221 Z0.400 F200
G1 X0.287 Y43.250 Z0.400 F200
G1 X0.386 Y43.265 Z0.400 F200
G1 X0.486 Y43.265 Z0.400 F200
G1 X0.585 Y43.250 Z0.400 F200
G1 X0.680 Y43.221 Z0.400 F200
G1 X0.770 Y43.177 Z0.400 F200
G1 X0.853 Y43.121 Z0.400 F200
G1 X0.926 Y43.053 Z0.400 F200
G1 X0.989 Y42.975 Z0.400 F200
G1 X1.039 Y42.888 Z0.400 F200
G1 X1.075 Y42.795 Z0.400 F200
G1 X1.098 Y42.697 Z0.400 F200
G1 X1.105 Y42.597 Z0.400 F200
G1 X1.105 Y-1.597 Z0.400 F200
G1 X1.113 Y-1.697 Z0.400 F200
G1 X1.135 Y-1.795 Z0.400 F200
G1 X1.171 Y-1.888 Z0.400 F200
G1 X1.221 Y-1.975 Z0.400 F200
G1 X1.284 Y-2.053 Z0.400 F200
G1 X1.357 Y-2.121 Z0.400 F200
G1 X1.440 Y-2.177 Z0.400 F200
G1 X1.530 Y-2.221 Z0.400 F200
G1 X1.626 Y-2.250 Z0.400 F200
G1 X1.725 Y-2.265 Z0.400 F200
G1 X1.825 Y-2.265 Z0.400 F200
G1 X1.924 Y-2.250 Z0.400 F200
G1 X2.019 Y-2.221 Z0.400 F200
G1 X2.109 Y-2.177 Z0.400 F200
G1 X2.192 Y-2.121 Z0.400 F200
G1 X2.265 Y-2.053 Z0.400 F200
G1 X2.328 Y-1.975 Z0.400 F200
G1 X2.378 Y-1.888 Z0.400 F200
G1 X2.414 Y-1.795 Z0.400 F200
G1 X2.436 Y-1.697 Z0.400 F200
G1 X2.444 Y-1.597 Z0.400 F200
G1 X2.444 Y42.597 Z0.400 F200
G1 X2.451 Y42.697 Z0.400 F200
G1 X2.474 Y42.795 Z0.400 F200
G1 X2.510 Y42.888 Z0.400 F200
G1 X2.560 Y42.975 Z0.400 F200
G1 X2.623 Y43.053 Z0.400 F200
G1 X2.696 Y43.121 Z0.400 F200
G1 X2.779 Y43.177 Z0.400 F200
G1 X2.869 Y43.221 Z0.400 F200
G1 X2.964 Y43.250 Z0.400 F200
G1 X3.063 Y43.265 Z0.400 F200
G1 X3.163 Y43.265 Z0.400 F200
G1 X3.262 Y43.250 Z0.400 F200
G1 X3.358 Y43.221 Z0.400 F200
G1 X3.448 Y43.177 Z0.400 F200
G1 X3.531 Y43.121 Z0.400 F200
G1 X3.604 Y43.053 Z0.400 F200
G1 X3.666 Y42.975 Z0.400 F200
G1 X3.716 Y42.888 Z0.400 F200
G1 X3.753 Y42.795 Z0.400 F200
G1 X3.775 Y42.697 Z0.400 F200
G1 X3.783 Y42.597 Z0.400 F200
G1 X3.783 Y-1.597 Z0.400 F200
G1 X3.790 Y-1.697 Z0.400 F200
G1 X3.813 Y-1.795 Z0.400 F200
G1 X3.849 Y-1.888 Z0.400 F200
G1 X3.899 Y-1.975 Z0.400 F200
G1 X3.961 Y-2.053 Z0.400 F200
G1 X4.035 Y-2.121 Z0.400 F200
G1 X4.117 Y-2.177 Z0.400 F200
G1 X4.208 Y-2.221 Z0.400 F200
G1 X4.303 Y-2.250 Z0.400 F200
G1 X4.402 Y-2.265 Z0.400 F200
G1 X4.502 Y-2.265 Z0.400 F200
G1 X4.601 Y-2.250 Z0.400 F200
G1 X4.697 Y-2.221 Z0.400 F200
G1 X4.787 Y-2.177 Z0.400 F200
G1 X4.870 Y-2.121 Z0.400 F200
G1 X4.943 Y-2.053 Z0.400 F200
G1 X5.005 Y-1.975 Z0.400 F200
G1 X5.055 Y-1.888 Z0.400 F200
G1 X5.092 Y-1.795 Z0.400 F200
G1 X5.114 Y-1.697 Z0.400 F200
G1 X5.122 Y-1.597 Z0.400 F200
G1 X5.122 Y42.597 Z0.400 F200
G1 X5.129 Y42.697 Z0.400 F200
G1 X5.151 Y42.795 Z0.400 F200
G1 X5.188 Y42.888 Z0.400 F200
G1 X5.238 Y42.975 Z0.400 F200
G1 X5.300 Y43.053 Z0.400 F200
G1 X5.374 Y43.121 Z0.400 F200
G1 X5.456 Y43.177 Z0.400 F200
G1 X5.546 Y43.221 Z0.400 F200
G1 X5.642 Y43.250 Z0.400 F200
G1 X5.741 Y43.265 Z0.400 F200
G1 X5.841 Y43.265 Z0.400 F200
G1 X5.940 Y43.250 Z0.400 F200
G1 X6.036 Y43.221 Z0.400 F200
G1 X6.126 Y43.177 Z0.400 F200
G1 X6.208 Y43.121 Z0.400 F200
G1 X6.282 Y43.053 Z0.400 F200
G1 X6.344 Y42.975 Z0.400 F200
G1 X6.394 Y42.888 Z0.400 F200
G1 X6.431 Y42.795 Z0.400 F200
G1 X6.453 Y42.697 Z0.400 F200
G1 X6.460 Y42.597 Z0.400 F200
G1 X6.460 Y-1.597 Z0.400 F200
G1 X6.468 Y-1.697 Z0.400 F200
G1 X6.490 Y-1.795 Z0.400 F200
G1 X6.527 Y-1.888 Z0.400 F200
G1 X6.577 Y-1.975 Z0.400 F200
G1 X6.639 Y-2.053 Z0.400 F200
G1 X6.712 Y-2.121 Z0.400 F200
G1 X6.795 Y-2.177 Z0.400 F200
G1 X6.885 Y-2.221 Z0.400 F200
G1 X6.981 Y-2.250 Z0.400 F200
G1 X7.080 Y-2.265 Z0.400 F200
G1 X7.180 Y-2.265 Z0.400 F200
G1 X7.279 Y-2.250 Z0.400 F200
G1 X7.374 Y-2.221 Z0.400 F200
G1 X7.465 Y-2.177 Z0.400 F200
G1 X7.547 Y-2.121 Z0.400 F200
G1 X7.621 Y-2.053 Z0.400 F200
G1 X7.683 Y-1.975 Z0.400 F200
G1 X7.733 Y-1.888 Z0.400 F200
G1 X7.769 Y-1.795 Z0.400 F200
G1 X7.792 Y-1.697 Z0.400 F200
G1 X7.799 Y-1.597 Z0.400 F200
G1 X7.799 Y42.597 Z0.400 F200
G1 X7.807 Y42.697 Z0.400 F200
G1 X7.829 Y42.795 Z0.400 F200
G1 X7.866 Y42.888 Z0.400 F200
G1 X7.916 Y42.975 Z0.400 F200
G1 X7.978 Y43.053 Z0.400 F200
G1 X8.051 Y43.121 Z0.400 F200
G1 X8.134 Y43.177 Z0.400 F200
G1 X8.224 Y43.221 Z0.400 F200
G1 X8.320 Y43.250 Z0.400 F200
G1 X8.419 Y43.265 Z0.400 F200
G1 X8.519 Y43.265 Z0.400 F200
G1 X8.618 Y43.250 Z0.400 F200
G1 X8.713 Y43.221 Z0.400 F200
G1 X8.803 Y43.177 Z0.400 F200
G1 X8.886 Y43.121 Z0.400 F200
G1 X8.959 Y43.053 Z0.400 F200
G1 X9.022 Y42.975 Z0.400 F200
G1 X9.072 Y42.888 Z0.400 F200
G1 X9.108 Y42.795 Z0.400 F200
G1 X9.131 Y42.697 Z0.400 F200
G1 X9.138 Y42.597 Z0.400 F200
G1 X9.138 Y-1.597 Z0.400 F200
G1 X9.146 Y-1.697 Z0.400 F200
G1 X9.168 Y-1.795 Z0.400 F200
G1 X9.204 Y-1.888 Z0.400 F200
G1 X9.254 Y-1.975 Z0.400 F200
G1 X9.317 Y-2.053 Z0.400 F200
G1 X9.390 Y-2.121 Z0.400 F200
G1 X9.473 Y-2.177 Z0.400 F200
G1 X9.563 Y-2.221 Z0.400 F200
G1 X9.659 Y-2.250 Z0.400 F200
G1 X9.757 Y-2.265 Z0.400 F200
G1 X9.857 Y-2.265 Z0.400 F200
G1 X9.956 Y-2.250 Z0.400 F200
G1 X10.052 Y-2.221 Z0.400 F200
G1 X10.142 Y-2.177 Z0.400 F200
G1 X10.225 Y-2.121 Z0.400 F200
G1 X10.298 Y-2.053 Z0.400 F200
G1 X10.361 Y-1.975 Z0.400 F200
G1 X10.411 Y-1.888 Z0.400 F200
G1 X10.447 Y-1.795 Z0.400 F200
G1 X10.469 Y-1.697 Z0.400 F200
G1 X10.477 Y-1.597 Z0.400 F200
G1 X10.477 Y42.597 Z0.400 F200
G1 X10.477 Y42.668 Z0.408 F200
G1 X10.477 Y42.735 Z0.431 F200
G1 X10.477 Y42.795 Z0.469 F200
G1 X10.477 Y42.846 Z0.520 F200
G1 X10.477 Y42.884 Z0.580 F200
G1 X10.477 Y42.907 Z0.647 F200
G1 X10.477 Y42.915 Z0.717 F200
G1 X10.477 Y42.915 Z6.825 F200
G1 X-0.234 Y43.047 Z6.825 F200
G1 X-0.234 Y43.047 Z1.925 F200
G1 X-0.234 Y43.047 Z0.618 F200
G1 X-0.234 Y43.039 Z0.547 F200
G1 X-0.234 Y43.016 Z0.480 F200
G1 X-0.234 Y42.978 Z0.420 F200
G1 X-0.234 Y42.927 Z0.369 F200
G1 X-0.234 Y42.867 Z0.331 F200
G1 X-0.234 Y42.800 Z0.308 F200
G1 X-0.234 Y42.730 Z0.300 F200
G1 X-0.234 Y42.597 Z0.300 F200
G1 X-0.234 Y-1.597 Z0.300 F200
G1 X-0.226 Y-1.697 Z0.300 F200
G1 X-0.204 Y-1.795 Z0.300 F200
G1 X-0.167 Y-1.888 Z0.300 F200
G1 X-0.117 Y-1.975 Z0.300 F200
G1 X-0.055 Y-2.053 Z0.300 F200
G1 X0.018 Y-2.121 Z0.300 F200
G1 X0.101 Y-2.177 Z0.300 F200
G1 X0.191 Y-2.221 Z0.300 F200
G1 X0.287 Y-2.250 Z0.300 F200
G1 X0.386 Y-2.265 Z0.300 F200
G1 X0.486 Y-2.265 Z0.300 F200
G1 X0.585 Y-2.250 Z0.300 F200
G1 X0.680 Y-2.221 Z0.300 F200
G1 X0.770 Y-2.177 Z0.300 F200
G1 X0.853 Y-2.121 Z0.300 F200
G1 X0.926 Y-2.053 Z0.300 F200
G1 X0.989 Y-1.975 Z0.300 F200
G1 X1.039 Y-1.888 Z0.300 F200
G1 X1.075 Y-1.795 Z0.300 F200
G1 X1.098 Y-1.697 Z0.300 F200
G1 X1.105 Y-1.597 Z0.300 F200
G1 X1.105 Y42.597 Z0.300 F200
G1 X1.113 Y42.697 Z0.300 F200
G1 X1.135 Y42.795 Z0.300 F200
G1 X1.171 Y42.888 Z0.300 F200
G1 X1.221 Y42.975 Z0.300 F200
G1 X1.284 Y43.053 Z0.300 F200
G1 X1.357 Y43.121 Z0.300 F200
G1 X1.440 Y43.177 Z0.300 F200
G1 X1.530 Y43.221 Z0.300 F200
G1 X1.626 Y43.250 Z0.300 F200
G1 X1.725 Y43.265 Z0.300 F200
G1 X1.825 Y43.265 Z0.300 F200
G1 X1.924 Y43.250 Z0.300 F200
G1 X2.019 Y43.221 Z0.300 F200
G1 X2.109 Y43.177 Z0.300 F200
G1 X2.192 Y43.121 Z0.300 F200
G1 X2.265 Y43.053 Z0.300 F200
G1 X2.328 Y42.975 Z0.300 F200
G1 X2.378 Y42.888 Z0.300 F200
G1 X2.414 Y42.795 Z0.300 F200
G1 X2.436 Y42.697 Z0.300 F200
G1 X2.444 Y42.597 Z0.300 F200
G1 X2.444 Y-1.597 Z0.300 F200
G1 X2.451 Y-1.697 Z0.300 F200
G1 X2.474 Y-1.795 Z0.300 F200
G1 X2.510 Y-1.888 Z0.300 F200
G1 X2.560 Y-1.975 Z0.300 F200
G1 X2.623 Y-2.053 Z0.300 F200
G1 X2.696 Y-2.121 Z0.300 F200
G1 X2.779 Y-2.177 Z0.300 F200
G1 X2.869 Y-2.221 Z0.300 F200
G1 X2.964 Y-2.250 Z0.300 F200
G1 X3.063 Y-2.265 Z0.300 F200
G1 X3.163 Y-2.265 Z0.300 F200
G1 X3.262 Y-2.250 Z0.300 F200
G1 X3.358 Y-2.221 Z0.300 F200
G1 X3.448 Y-2.177 Z0.300 F200
G1 X3.531 Y-2.121 Z0.300 F200
G1 X3.604 Y-2.053 Z0.300 F200
G1 X3.666 Y-1.975 Z0.300 F200
G1 X3.716 Y-1.888 Z0.300 F200
G1 X3.753 Y-1.795 Z0.300 F200
G1 X3.775 Y-1.697 Z0.300 F200
G1 X3.783 Y-1.597 Z0.300 F200
G1 X3.783 Y42.597 Z0.300 F200
G1 X3.790 Y42.697 Z0.300 F200
G1 X3.813 Y42.795 Z0.300 F200
G1 X3.849 Y42.888 Z0.300 F200
G1 X3.899 Y42.975 Z0.300 F200
G1 X3.961 Y43.053 Z0.300 F200
G1 X4.035 Y43.121 Z0.300 F200
G1 X4.117 Y43.177 Z0.300 F200
G1 X4.208 Y43.221 Z0.300 F200
G1 X4.303 Y43.250 Z0.300 F200
G1 X4.402 Y43.265 Z0.300 F200
G1 X4.502 Y43.265 Z0.300 F200
G1 X4.601 Y43.250 Z0.300 F200
G1 X4.697 Y43.221 Z0.300 F200
G1 X4.787 Y43.177 Z0.300 F200
G1 X4.870 Y43.121 Z0.300 F200
G1 X4.943 Y43.053 Z0.300 F200
G1 X5.005 Y42.975 Z0.300 F200
G1 X5.055 Y42.888 Z0.300 F200
G1 X5.092 Y42.795 Z0.300 F200
G1 X5.114 Y42.697 Z0.300 F200
G1 X5.122 Y42.597 Z0.300 F200
G1 X5.122 Y-1.597 Z0.300 F200
G1 X5.129 Y-1.697 Z0.300 F200
G1 X5.151 Y-1.795 Z0.300 F200
G1 X5.188 Y-1.888 Z0.300 F200
G1 X5.238 Y-1.975 Z0.300 F200
G1 X5.300 Y-2.053 Z0.300 F200
G1 X5.374 Y-2.121 Z0.300 F200
G1 X5.456 Y-2.177 Z0.300 F200
G1 X5.546 Y-2.221 Z0.300 F200
G1 X5.642 Y-2.250 Z0.300 F200
G1 X5.741 Y-2.265 Z0.300 F200
G1 X5.841 Y-2.265 Z0.300 F200
G1 X5.940 Y-2.250 Z0.300 F200
G1 X6.036 Y-2.221 Z0.300 F200
G1 X6.126 Y-2.177 Z0.300 F200
G1 X6.208 Y-2.121 Z0.300 F200
G1 X6.282 Y-2.053 Z0.300 F200
G1 X6.344 Y-1.975 Z0.300 F200
G1 X6.394 Y-1.888 Z0.300 F200
G1 X6.431 Y-1.795 Z0.300 F200
G1 X6.453 Y-1.697 Z0.300 F200
G1 X6.460 Y-1.597 Z0.300 F200
G1 X6.460 Y42.597 Z0.300 F200
G1 X6.468 Y42.697 Z0.300 F200
G1 X6.490 Y42.795 Z0.300 F200
G1 X6.527 Y42.888 Z0.300 F200
G1 X6.577 Y42.975 Z0.300 F200
G1 X6.639 Y43.053 Z0.300 F200
G1 X6.712 Y43.121 Z0.300 F200
G1 X6.795 Y43.177 Z0.300 F200
G1 X6.885 Y43.221 Z0.300 F200
G1 X6.981 Y43.250 Z0.300 F200
G1 X7.080 Y43.265 Z0.300 F200
G1 X7.180 Y43.265 Z0.300 F200
G1 X7.279 Y43.250 Z0.300 F200
G1 X7.374 Y43.221 Z0.300 F200
G1 X7.465 Y43.177 Z0.300 F200
G1 X7.547 Y43.121 Z0.300 F200
G1 X7.621 Y43.053 Z0.300 F200
G1 X7.683 Y42.975 Z0.300 F200
G1 X7.733 Y42.888 Z0.300 F200
G1 X7.769 Y42.795 Z0.300 F200
G1 X7.792 Y42.697 Z0.300 F200
G1 X7.799 Y42.597 Z0.300 F200
G1 X7.799 Y-1.597 Z0.300 F200
G1 X7.807 Y-1.697 Z0.300 F200
G1 X7.829 Y-1.795 Z0.300 F200
G1 X7.866 Y-1.888 Z0.300 F200
G1 X7.916 Y-1.975 Z0.300 F200
G1 X7.978 Y-2.053 Z0.300 F200
G1 X8.051 Y-2.121 Z0.300 F200
G1 X8.134 Y-2.177 Z0.300 F200
G1 X8.224 Y-2.221 Z0.300 F200
G1 X8.320 Y-2.250 Z0.300 F200
G1 X8.419 Y-2.265 Z0.300 F200
G1 X8.519 Y-2.265 Z0.300 F200
G1 X8.618 Y-2.250 Z0.300 F200
G1 X8.713 Y-2.221 Z0.300 F200
G1 X8.803 Y-2.177 Z0.300 F200
G1 X8.886 Y-2.121 Z0.300 F200
G1 X8.959 Y-2.053 Z0.300 F200
G1 X9.022 Y-1.975 Z0.300 F200
G1 X9.072 Y-1.888 Z0.300 F200
G1 X9.108 Y-1.795 Z0.300 F200
G1 X9.131 Y-1.697 Z0.300 F200
G1 X9.138 Y-1.597 Z0.300 F200
G1 X9.138 Y42.597 Z0.300 F200
G1 X9.146 Y42.697 Z0.300 F200
G1 X9.168 Y42.795 Z0.300 F200
G1 X9.204 Y42.888 Z0.300 F200
G1 X9.254 Y42.975 Z0.300 F200
G1 X9.317 Y43.053 Z0.300 F200
G1 X9.390 Y43.121 Z0.300 F200
G1 X9.473 Y43.177 Z0.300 F200
G1 X9.563 Y43.221 Z0.300 F200
G1 X9.659 Y43.250 Z0.300 F200
G1 X9.757 Y43.265 Z0.300 F200
G1 X9.857 Y43.265 Z0.300 F200
G1 X9.956 Y43.250 Z0.300 F200
G1 X10.052 Y43.221 Z0.300 F200
G1 X10.142 Y43.177 Z0.300 F200
G1 X10.225 Y43.121 Z0.300 F200
G1 X10.298 Y43.053 Z0.300 F200
G1 X10.361 Y42.975 Z0.300 F200
G1 X10.411 Y42.888 Z0.300 F200
G1 X10.447 Y42.795 Z0.300 F200
G1 X10.469 Y42.697 Z0.300 F200
G1 X10.477 Y42.597 Z0.300 F200
G1 X10.477 Y-1.597 Z0.300 F200
G1 X10.477 Y-1.668 Z0.308 F200
G1 X10.477 Y-1.735 Z0.331 F200
G1 X10.477 Y-1.795 Z0.369 F200
G1 X10.477 Y-1.846 Z0.420 F200
G1 X10.477 Y-1.884 Z0.480 F200
G1 X10.477 Y-1.907 Z0.547 F200
G1 X10.477 Y-1.915 Z0.618 F200
G1 X10.477 Y-1.915 Z6.825 F200
G1 X-0.234 Y-2.047 Z6.825 F200
G1 X-0.234 Y-2.047 Z1.925 F200
G1 X-0.234 Y-2.047 Z0.517 F200
G1 X-0.234 Y-2.039 Z0.447 F200
G1 X-0.234 Y-2.016 Z0.380 F200
G1 X-0.234 Y-1.978 Z0.320 F200
G1 X-0.234 Y-1.927 Z0.269 F200
G1 X-0.234 Y-1.867 Z0.231 F200
G1 X-0.234 Y-1.800 Z0.208 F200
G1 X-0.234 Y-1.730 Z0.200 F200
G1 X-0.234 Y-1.597 Z0.200 F200
G1 X-0.234 Y42.597 Z0.200 F200
G1 X-0.226 Y42.697 Z0.200 F200
G1 X-0.204 Y42.795 Z0.200 F200
G1 X-0.167 Y42.888 Z0.200 F200
G1 X-0.117 Y42.975 Z0.200 F200
G1 X-0.055 Y43.053 Z0.200 F200
G1 X0.018 Y43.121 Z0.200 F200
G1 X0.101 Y43.177 Z0.200 F200
G1 X0.191 Y43.221 Z0.200 F200
G1 X0.287 Y43.250 Z0.200 F200
G1 X0.386 Y43.265 Z0.200 F200
G1 X0.486 Y43.265 Z0.200 F200
G1 X0.585 Y43.250 Z0.200 F200
G1 X0.680 Y43.221 Z0.200 F200
G1 X0.770 Y43.177 Z0.200 F200
G1 X0.853 Y43.121 Z0.200 F200
G1 X0.926 Y43.053 Z0.200 F200
G1 X0.989 Y42.975 Z0.200 F200
G1 X1.039 Y42.888 Z0.200 F200
G1 X1.075 Y42.795 Z0.200 F200
G1 X1.098 Y42.697 Z0.200 F200
G1 X1.105 Y42.597 Z0.200 F200
G1 X1.105 Y-1.597 Z0.200 F200
G1 X1.113 Y-1.697 Z0.200 F200
G1 X1.135 Y-1.795 Z0.200 F200
G1 X1.171 Y-1.888 Z0.200 F200
G1 X1.221 Y-1.975 Z0.200 F200
G1 X1.284 Y-2.053 Z0.200 F200
G1 X1.357 Y-2.121 Z0.200 F200
G1 X1.440 Y-2.177 Z0.200 F200
G1 X1.530 Y-2.221 Z0.200 F200
G1 X1.626 Y-2.250 Z0.200 F200
G1 X1.725 Y-2.265 Z0.200 F200
G1 X1.825 Y-2.265 Z0.200 F200
G1 X1.924 Y-2.250 Z0.200 F200
G1 X2.019 Y-2.221 Z0.200 F200
G1 X2.109 Y-2.177 Z0.200 F200
G1 X2.192 Y-2.121 Z0.200 F200
G1 X2.265 Y-2.053 Z0.200 F200
G1 X2.328 Y-1.975 Z0.200 F200
G1 X2.378 Y-1.888 Z0.200 F200
G1 X2.414 Y-1.795 Z0.200 F200
G1 X2.436 Y-1.697 Z0.200 F200
G1 X2.444 Y-1.597 Z0.200 F200
G1 X2.444 Y42.597 Z0.200 F200
G1 X2.451 Y42.697 Z0.200 F200
G1 X2.474 Y42.795 Z0.200 F200
G1 X2.510 Y42.888 Z0.200 F200
