;Titan-1-Nomad-Profile-3-32-mill
;Now at Henrietta Hankin!
;Machine
;vendor: Snapmaker
;model: Desktop CNC
;description: Generic Snapmaker Marlin v20180725
M3 S18000
G4 S2 P2
G21
G90
;When using Fusion for Personal Use, the feedrate of rapid
;moves is reduced to match the feedrate of cutting moves,
;which can increase machining time. Unrestricted rapid moves
;are available with a Fusion Subscription.

;Titan-1-Nomad-Profile
G0 X35.769 Y8.281 Z16.825
G1 X35.769 Y8.281 Z16.825 F500
G1 X35.769 Y8.281 Z6.825 F500
G1 X35.769 Y8.281 Z2.302 F166.7
G1 X35.769 Y8.281 Z1.964 F166.7
G1 X35.763 Y8.281 Z1.911 F500
G1 X35.746 Y8.281 Z1.860 F500
G1 X35.717 Y8.281 Z1.815 F500
G1 X35.680 Y8.281 Z1.777 F500
G1 X35.634 Y8.281 Z1.749 F500
G1 X35.584 Y8.281 Z1.731 F500
G1 X35.531 Y8.281 Z1.725 F500
G1 X35.293 Y8.281 Z1.725 F500
G1 X35.240 Y8.275 Z1.725 F500
G1 X35.189 Y8.257 Z1.725 F500
G1 X35.144 Y8.229 Z1.725 F500
G1 X35.107 Y8.191 Z1.725 F500
G1 X35.078 Y8.146 Z1.725 F500
G1 X35.061 Y8.096 Z1.725 F500
G1 X35.055 Y8.043 Z1.725 F500
G1 X35.055 Y0.085 Z1.725 F500
G1 X35.047 Y-0.049 Z1.725 F500
G1 X35.025 Y-0.181 Z1.725 F500
G1 X34.988 Y-0.309 Z1.725 F500
G1 X34.937 Y-0.432 Z1.725 F500
G1 X34.872 Y-0.549 Z1.725 F500
G1 X34.795 Y-0.658 Z1.725 F500
G1 X34.705 Y-0.758 Z1.725 F500
G1 X34.621 Y-0.843 Z1.725 F500
G1 X34.521 Y-0.932 Z1.725 F500
G1 X34.412 Y-1.009 Z1.725 F500
G1 X34.295 Y-1.073 Z1.725 F500
G1 X34.172 Y-1.124 Z1.725 F500
G1 X34.044 Y-1.161 Z1.725 F500
G1 X33.912 Y-1.184 Z1.725 F500
G1 X33.779 Y-1.191 Z1.725 F500
G1 X0.085 Y-1.191 Z1.725 F500
G1 X-0.049 Y-1.184 Z1.725 F500
G1 X-0.180 Y-1.161 Z1.725 F500
G1 X-0.309 Y-1.124 Z1.725 F500
G1 X-0.432 Y-1.073 Z1.725 F500
G1 X-0.549 Y-1.009 Z1.725 F500
G1 X-0.658 Y-0.931 Z1.725 F500
G1 X-0.758 Y-0.842 Z1.725 F500
G1 X-0.842 Y-0.758 Z1.725 F500
G1 X-0.931 Y-0.658 Z1.725 F500
G1 X-1.009 Y-0.549 Z1.725 F500
G1 X-1.073 Y-0.432 Z1.725 F500
G1 X-1.124 Y-0.309 Z1.725 F500
G1 X-1.161 Y-0.180 Z1.725 F500
G1 X-1.184 Y-0.049 Z1.725 F500
G1 X-1.191 Y0.085 Z1.725 F500
G1 X-1.191 Y16.000 Z1.725 F500
G1 X-1.184 Y16.134 Z1.725 F500
G1 X-1.161 Y16.265 Z1.725 F500
G1 X-1.124 Y16.394 Z1.725 F500
G1 X-1.073 Y16.517 Z1.725 F500
G1 X-1.009 Y16.634 Z1.725 F500
G1 X-0.932 Y16.743 Z1.725 F500
G1 X-0.843 Y16.843 Z1.725 F500
G1 X-0.758 Y16.927 Z1.725 F500
G1 X-0.658 Y17.016 Z1.725 F500
G1 X-0.549 Y17.094 Z1.725 F500
G1 X-0.432 Y17.158 Z1.725 F500
G1 X-0.309 Y17.209 Z1.725 F500
G1 X-0.181 Y17.246 Z1.725 F500
G1 X-0.049 Y17.269 Z1.725 F500
G1 X0.085 Y17.276 Z1.725 F500
G1 X33.779 Y17.276 Z1.725 F500
G1 X33.912 Y17.269 Z1.725 F500
G1 X34.044 Y17.246 Z1.725 F500
G1 X34.172 Y17.210 Z1.725 F500
G1 X34.295 Y17.158 Z1.725 F500
G1 X34.412 Y17.094 Z1.725 F500
G1 X34.521 Y17.016 Z1.725 F500
G1 X34.621 Y16.927 Z1.725 F500
G1 X34.706 Y16.843 Z1.725 F500
G1 X34.795 Y16.743 Z1.725 F500
G1 X34.872 Y16.634 Z1.725 F500
G1 X34.937 Y16.517 Z1.725 F500
G1 X34.988 Y16.394 Z1.725 F500
G1 X35.025 Y16.265 Z1.725 F500
G1 X35.047 Y16.134 Z1.725 F500
G1 X35.055 Y16.000 Z1.725 F500
G1 X35.055 Y8.043 Z1.725 F500
G1 X35.061 Y7.990 Z1.725 F500
G1 X35.078 Y7.939 Z1.725 F500
G1 X35.107 Y7.894 Z1.725 F500
G1 X35.144 Y7.856 Z1.725 F500
G1 X35.189 Y7.828 Z1.725 F500
G1 X35.240 Y7.810 Z1.725 F500
G1 X35.293 Y7.804 Z1.725 F500
G1 X35.531 Y7.804 Z1.725 F500
G1 X35.584 Y7.804 Z1.731 F500
G1 X35.634 Y7.804 Z1.749 F500
G1 X35.680 Y7.804 Z1.777 F500
G1 X35.717 Y7.804 Z1.815 F500
G1 X35.746 Y7.804 Z1.860 F500
G1 X35.763 Y7.804 Z1.911 F500
G1 X35.769 Y7.804 Z1.964 F500
G1 X35.769 Y7.804 Z6.825 F500
G1 X35.769 Y8.281 Z6.825 F500
G1 X35.769 Y8.281 Z2.202 F166.7
G1 X35.769 Y8.281 Z1.864 F166.7
G1 X35.763 Y8.281 Z1.811 F500
G1 X35.746 Y8.281 Z1.760 F500
G1 X35.717 Y8.281 Z1.715 F500
G1 X35.680 Y8.281 Z1.677 F500
G1 X35.634 Y8.281 Z1.649 F500
G1 X35.584 Y8.281 Z1.631 F500
G1 X35.531 Y8.281 Z1.625 F500
G1 X35.293 Y8.281 Z1.625 F500
G1 X35.240 Y8.275 Z1.625 F500
G1 X35.189 Y8.257 Z1.625 F500
G1 X35.144 Y8.229 Z1.625 F500
G1 X35.107 Y8.191 Z1.625 F500
G1 X35.078 Y8.146 Z1.625 F500
G1 X35.061 Y8.096 Z1.625 F500
G1 X35.055 Y8.043 Z1.625 F500
G1 X35.055 Y0.085 Z1.625 F500
G1 X35.047 Y-0.049 Z1.625 F500
G1 X35.025 Y-0.181 Z1.625 F500
G1 X34.988 Y-0.309 Z1.625 F500
G1 X34.937 Y-0.432 Z1.625 F500
G1 X34.872 Y-0.549 Z1.625 F500
G1 X34.795 Y-0.658 Z1.625 F500
G1 X34.705 Y-0.758 Z1.625 F500
G1 X34.621 Y-0.843 Z1.625 F500
G1 X34.521 Y-0.932 Z1.625 F500
G1 X34.412 Y-1.009 Z1.625 F500
G1 X34.295 Y-1.073 Z1.625 F500
G1 X34.172 Y-1.124 Z1.625 F500
G1 X34.044 Y-1.161 Z1.625 F500
G1 X33.912 Y-1.184 Z1.625 F500
G1 X33.779 Y-1.191 Z1.625 F500
G1 X0.085 Y-1.191 Z1.625 F500
G1 X-0.049 Y-1.184 Z1.625 F500
G1 X-0.180 Y-1.161 Z1.625 F500
G1 X-0.309 Y-1.124 Z1.625 F500
G1 X-0.432 Y-1.073 Z1.625 F500
G1 X-0.549 Y-1.009 Z1.625 F500
G1 X-0.658 Y-0.931 Z1.625 F500
G1 X-0.758 Y-0.842 Z1.625 F500
G1 X-0.842 Y-0.758 Z1.625 F500
G1 X-0.931 Y-0.658 Z1.625 F500
G1 X-1.009 Y-0.549 Z1.625 F500
G1 X-1.073 Y-0.432 Z1.625 F500
G1 X-1.124 Y-0.309 Z1.625 F500
G1 X-1.161 Y-0.180 Z1.625 F500
G1 X-1.184 Y-0.049 Z1.625 F500
G1 X-1.191 Y0.085 Z1.625 F500
G1 X-1.191 Y16.000 Z1.625 F500
G1 X-1.184 Y16.134 Z1.625 F500
G1 X-1.161 Y16.265 Z1.625 F500
G1 X-1.124 Y16.394 Z1.625 F500
G1 X-1.073 Y16.517 Z1.625 F500
G1 X-1.009 Y16.634 Z1.625 F500
G1 X-0.932 Y16.743 Z1.625 F500
G1 X-0.843 Y16.843 Z1.625 F500
G1 X-0.758 Y16.927 Z1.625 F500
G1 X-0.658 Y17.016 Z1.625 F500
G1 X-0.549 Y17.094 Z1.625 F500
G1 X-0.432 Y17.158 Z1.625 F500
G1 X-0.309 Y17.209 Z1.625 F500
G1 X-0.181 Y17.246 Z1.625 F500
G1 X-0.049 Y17.269 Z1.625 F500
G1 X0.085 Y17.276 Z1.625 F500
G1 X33.779 Y17.276 Z1.625 F500
G1 X33.912 Y17.269 Z1.625 F500
G1 X34.044 Y17.246 Z1.625 F500
G1 X34.172 Y17.210 Z1.625 F500
G1 X34.295 Y17.158 Z1.625 F500
G1 X34.412 Y17.094 Z1.625 F500
G1 X34.521 Y17.016 Z1.625 F500
G1 X34.621 Y16.927 Z1.625 F500
G1 X34.706 Y16.843 Z1.625 F500
G1 X34.795 Y16.743 Z1.625 F500
G1 X34.872 Y16.634 Z1.625 F500
G1 X34.937 Y16.517 Z1.625 F500
G1 X34.988 Y16.394 Z1.625 F500
G1 X35.025 Y16.265 Z1.625 F500
G1 X35.047 Y16.134 Z1.625 F500
G1 X35.055 Y16.000 Z1.625 F500
G1 X35.055 Y8.043 Z1.625 F500
G1 X35.061 Y7.990 Z1.625 F500
G1 X35.078 Y7.939 Z1.625 F500
G1 X35.107 Y7.894 Z1.625 F500
G1 X35.144 Y7.856 Z1.625 F500
G1 X35.189 Y7.828 Z1.625 F500
G1 X35.240 Y7.810 Z1.625 F500
G1 X35.293 Y7.804 Z1.625 F500
G1 X35.531 Y7.804 Z1.625 F500
G1 X35.584 Y7.804 Z1.631 F500
G1 X35.634 Y7.804 Z1.649 F500
G1 X35.680 Y7.804 Z1.677 F500
G1 X35.717 Y7.804 Z1.715 F500
G1 X35.746 Y7.804 Z1.760 F500
G1 X35.763 Y7.804 Z1.811 F500
G1 X35.769 Y7.804 Z1.864 F500
G1 X35.769 Y7.804 Z6.825 F500
G1 X35.769 Y8.281 Z6.825 F500
G1 X35.769 Y8.281 Z2.102 F166.7
G1 X35.769 Y8.281 Z1.764 F166.7
G1 X35.763 Y8.281 Z1.711 F500
G1 X35.746 Y8.281 Z1.660 F500
G1 X35.717 Y8.281 Z1.615 F500
G1 X35.680 Y8.281 Z1.577 F500
G1 X35.634 Y8.281 Z1.549 F500
G1 X35.584 Y8.281 Z1.531 F500
G1 X35.531 Y8.281 Z1.525 F500
G1 X35.293 Y8.281 Z1.525 F500
G1 X35.240 Y8.275 Z1.525 F500
G1 X35.189 Y8.257 Z1.525 F500
G1 X35.144 Y8.229 Z1.525 F500
G1 X35.107 Y8.191 Z1.525 F500
G1 X35.078 Y8.146 Z1.525 F500
G1 X35.061 Y8.096 Z1.525 F500
G1 X35.055 Y8.043 Z1.525 F500
G1 X35.055 Y0.085 Z1.525 F500
G1 X35.047 Y-0.049 Z1.525 F500
G1 X35.025 Y-0.181 Z1.525 F500
G1 X34.988 Y-0.309 Z1.525 F500
G1 X34.937 Y-0.432 Z1.525 F500
G1 X34.872 Y-0.549 Z1.525 F500
G1 X34.795 Y-0.658 Z1.525 F500
G1 X34.705 Y-0.758 Z1.525 F500
G1 X34.621 Y-0.843 Z1.525 F500
G1 X34.521 Y-0.932 Z1.525 F500
G1 X34.412 Y-1.009 Z1.525 F500
G1 X34.295 Y-1.073 Z1.525 F500
G1 X34.172 Y-1.124 Z1.525 F500
G1 X34.044 Y-1.161 Z1.525 F500
G1 X33.912 Y-1.184 Z1.525 F500
G1 X33.779 Y-1.191 Z1.525 F500
G1 X0.085 Y-1.191 Z1.525 F500
G1 X-0.049 Y-1.184 Z1.525 F500
G1 X-0.180 Y-1.161 Z1.525 F500
G1 X-0.309 Y-1.124 Z1.525 F500
G1 X-0.432 Y-1.073 Z1.525 F500
G1 X-0.549 Y-1.009 Z1.525 F500
G1 X-0.658 Y-0.931 Z1.525 F500
G1 X-0.758 Y-0.842 Z1.525 F500
G1 X-0.842 Y-0.758 Z1.525 F500
G1 X-0.931 Y-0.658 Z1.525 F500
G1 X-1.009 Y-0.549 Z1.525 F500
G1 X-1.073 Y-0.432 Z1.525 F500
G1 X-1.124 Y-0.309 Z1.525 F500
G1 X-1.161 Y-0.180 Z1.525 F500
G1 X-1.184 Y-0.049 Z1.525 F500
G1 X-1.191 Y0.085 Z1.525 F500
G1 X-1.191 Y16.000 Z1.525 F500
G1 X-1.184 Y16.134 Z1.525 F500
G1 X-1.161 Y16.265 Z1.525 F500
G1 X-1.124 Y16.394 Z1.525 F500
G1 X-1.073 Y16.517 Z1.525 F500
G1 X-1.009 Y16.634 Z1.525 F500
G1 X-0.932 Y16.743 Z1.525 F500
G1 X-0.843 Y16.843 Z1.525 F500
G1 X-0.758 Y16.927 Z1.525 F500
G1 X-0.658 Y17.016 Z1.525 F500
G1 X-0.549 Y17.094 Z1.525 F500
G1 X-0.432 Y17.158 Z1.525 F500
G1 X-0.309 Y17.209 Z1.525 F500
G1 X-0.181 Y17.246 Z1.525 F500
G1 X-0.049 Y17.269 Z1.525 F500
G1 X0.085 Y17.276 Z1.525 F500
G1 X33.779 Y17.276 Z1.525 F500
G1 X33.912 Y17.269 Z1.525 F500
G1 X34.044 Y17.246 Z1.525 F500
G1 X34.172 Y17.210 Z1.525 F500
G1 X34.295 Y17.158 Z1.525 F500
G1 X34.412 Y17.094 Z1.525 F500
G1 X34.521 Y17.016 Z1.525 F500
G1 X34.621 Y16.927 Z1.525 F500
G1 X34.706 Y16.843 Z1.525 F500
G1 X34.795 Y16.743 Z1.525 F500
G1 X34.872 Y16.634 Z1.525 F500
G1 X34.937 Y16.517 Z1.525 F500
G1 X34.988 Y16.394 Z1.525 F500
G1 X35.025 Y16.265 Z1.525 F500
G1 X35.047 Y16.134 Z1.525 F500
G1 X35.055 Y16.000 Z1.525 F500
G1 X35.055 Y8.043 Z1.525 F500
G1 X35.061 Y7.990 Z1.525 F500
G1 X35.078 Y7.939 Z1.525 F500
G1 X35.107 Y7.894 Z1.525 F500
G1 X35.144 Y7.856 Z1.525 F500
G1 X35.189 Y7.828 Z1.525 F500
G1 X35.240 Y7.810 Z1.525 F500
G1 X35.293 Y7.804 Z1.525 F500
G1 X35.531 Y7.804 Z1.525 F500
G1 X35.584 Y7.804 Z1.531 F500
G1 X35.634 Y7.804 Z1.549 F500
G1 X35.680 Y7.804 Z1.577 F500
G1 X35.717 Y7.804 Z1.615 F500
G1 X35.746 Y7.804 Z1.660 F500
G1 X35.763 Y7.804 Z1.711 F500
G1 X35.769 Y7.804 Z1.764 F500
G1 X35.769 Y7.804 Z6.825 F500
G1 X35.769 Y8.281 Z6.825 F500
G1 X35.769 Y8.281 Z2.002 F166.7
G1 X35.769 Y8.281 Z1.664 F166.7
G1 X35.763 Y8.281 Z1.611 F500
G1 X35.746 Y8.281 Z1.560 F500
G1 X35.717 Y8.281 Z1.515 F500
G1 X35.680 Y8.281 Z1.477 F500
G1 X35.634 Y8.281 Z1.449 F500
G1 X35.584 Y8.281 Z1.431 F500
G1 X35.531 Y8.281 Z1.425 F500
G1 X35.293 Y8.281 Z1.425 F500
G1 X35.240 Y8.275 Z1.425 F500
G1 X35.189 Y8.257 Z1.425 F500
G1 X35.144 Y8.229 Z1.425 F500
G1 X35.107 Y8.191 Z1.425 F500
G1 X35.078 Y8.146 Z1.425 F500
G1 X35.061 Y8.096 Z1.425 F500
G1 X35.055 Y8.043 Z1.425 F500
G1 X35.055 Y0.085 Z1.425 F500
G1 X35.047 Y-0.049 Z1.425 F500
G1 X35.025 Y-0.181 Z1.425 F500
G1 X34.988 Y-0.309 Z1.425 F500
G1 X34.937 Y-0.432 Z1.425 F500
G1 X34.872 Y-0.549 Z1.425 F500
G1 X34.795 Y-0.658 Z1.425 F500
G1 X34.705 Y-0.758 Z1.425 F500
G1 X34.621 Y-0.843 Z1.425 F500
G1 X34.521 Y-0.932 Z1.425 F500
G1 X34.412 Y-1.009 Z1.425 F500
G1 X34.295 Y-1.073 Z1.425 F500
G1 X34.172 Y-1.124 Z1.425 F500
G1 X34.044 Y-1.161 Z1.425 F500
G1 X33.912 Y-1.184 Z1.425 F500
G1 X33.779 Y-1.191 Z1.425 F500
G1 X0.085 Y-1.191 Z1.425 F500
G1 X-0.049 Y-1.184 Z1.425 F500
G1 X-0.180 Y-1.161 Z1.425 F500
G1 X-0.309 Y-1.124 Z1.425 F500
G1 X-0.432 Y-1.073 Z1.425 F500
G1 X-0.549 Y-1.009 Z1.425 F500
G1 X-0.658 Y-0.931 Z1.425 F500
G1 X-0.758 Y-0.842 Z1.425 F500
G1 X-0.842 Y-0.758 Z1.425 F500
G1 X-0.931 Y-0.658 Z1.425 F500
G1 X-1.009 Y-0.549 Z1.425 F500
G1 X-1.073 Y-0.432 Z1.425 F500
G1 X-1.124 Y-0.309 Z1.425 F500
G1 X-1.161 Y-0.180 Z1.425 F500
G1 X-1.184 Y-0.049 Z1.425 F500
G1 X-1.191 Y0.085 Z1.425 F500
G1 X-1.191 Y16.000 Z1.425 F500
G1 X-1.184 Y16.134 Z1.425 F500
G1 X-1.161 Y16.265 Z1.425 F500
G1 X-1.124 Y16.394 Z1.425 F500
G1 X-1.073 Y16.517 Z1.425 F500
G1 X-1.009 Y16.634 Z1.425 F500
G1 X-0.932 Y16.743 Z1.425 F500
G1 X-0.843 Y16.843 Z1.425 F500
G1 X-0.758 Y16.927 Z1.425 F500
G1 X-0.658 Y17.016 Z1.425 F500
G1 X-0.549 Y17.094 Z1.425 F500
G1 X-0.432 Y17.158 Z1.425 F500
G1 X-0.309 Y17.209 Z1.425 F500
G1 X-0.181 Y17.246 Z1.425 F500
G1 X-0.049 Y17.269 Z1.425 F500
G1 X0.085 Y17.276 Z1.425 F500
G1 X33.779 Y17.276 Z1.425 F500
G1 X33.912 Y17.269 Z1.425 F500
G1 X34.044 Y17.246 Z1.425 F500
G1 X34.172 Y17.210 Z1.425 F500
G1 X34.295 Y17.158 Z1.425 F500
G1 X34.412 Y17.094 Z1.425 F500
G1 X34.521 Y17.016 Z1.425 F500
G1 X34.621 Y16.927 Z1.425 F500
G1 X34.706 Y16.843 Z1.425 F500
G1 X34.795 Y16.743 Z1.425 F500
G1 X34.872 Y16.634 Z1.425 F500
G1 X34.937 Y16.517 Z1.425 F500
G1 X34.988 Y16.394 Z1.425 F500
G1 X35.025 Y16.265 Z1.425 F500
G1 X35.047 Y16.134 Z1.425 F500
G1 X35.055 Y16.000 Z1.425 F500
G1 X35.055 Y8.043 Z1.425 F500
G1 X35.061 Y7.990 Z1.425 F500
G1 X35.078 Y7.939 Z1.425 F500
G1 X35.107 Y7.894 Z1.425 F500
G1 X35.144 Y7.856 Z1.425 F500
G1 X35.189 Y7.828 Z1.425 F500
G1 X35.240 Y7.810 Z1.425 F500
G1 X35.293 Y7.804 Z1.425 F500
G1 X35.531 Y7.804 Z1.425 F500
G1 X35.584 Y7.804 Z1.431 F500
G1 X35.634 Y7.804 Z1.449 F500
G1 X35.680 Y7.804 Z1.477 F500
G1 X35.717 Y7.804 Z1.515 F500
G1 X35.746 Y7.804 Z1.560 F500
G1 X35.763 Y7.804 Z1.611 F500
G1 X35.769 Y7.804 Z1.664 F500
G1 X35.769 Y7.804 Z6.825 F500
G1 X35.769 Y8.281 Z6.825 F500
G1 X35.769 Y8.281 Z1.902 F166.7
G1 X35.769 Y8.281 Z1.564 F166.7
G1 X35.763 Y8.281 Z1.511 F500
G1 X35.746 Y8.281 Z1.460 F500
G1 X35.717 Y8.281 Z1.415 F500
G1 X35.680 Y8.281 Z1.377 F500
G1 X35.634 Y8.281 Z1.349 F500
G1 X35.584 Y8.281 Z1.331 F500
G1 X35.531 Y8.281 Z1.325 F500
G1 X35.293 Y8.281 Z1.325 F500
G1 X35.240 Y8.275 Z1.325 F500
G1 X35.189 Y8.257 Z1.325 F500
G1 X35.144 Y8.229 Z1.325 F500
G1 X35.107 Y8.191 Z1.325 F500
G1 X35.078 Y8.146 Z1.325 F500
G1 X35.061 Y8.096 Z1.325 F500
G1 X35.055 Y8.043 Z1.325 F500
G1 X35.055 Y0.085 Z1.325 F500
G1 X35.047 Y-0.049 Z1.325 F500
G1 X35.025 Y-0.181 Z1.325 F500
G1 X34.988 Y-0.309 Z1.325 F500
G1 X34.937 Y-0.432 Z1.325 F500
G1 X34.872 Y-0.549 Z1.325 F500
G1 X34.795 Y-0.658 Z1.325 F500
G1 X34.705 Y-0.758 Z1.325 F500
G1 X34.621 Y-0.843 Z1.325 F500
G1 X34.521 Y-0.932 Z1.325 F500
G1 X34.412 Y-1.009 Z1.325 F500
G1 X34.295 Y-1.073 Z1.325 F500
G1 X34.172 Y-1.124 Z1.325 F500
G1 X34.044 Y-1.161 Z1.325 F500
G1 X33.912 Y-1.184 Z1.325 F500
G1 X33.779 Y-1.191 Z1.325 F500
G1 X0.085 Y-1.191 Z1.325 F500
G1 X-0.049 Y-1.184 Z1.325 F500
G1 X-0.180 Y-1.161 Z1.325 F500
G1 X-0.309 Y-1.124 Z1.325 F500
G1 X-0.432 Y-1.073 Z1.325 F500
G1 X-0.549 Y-1.009 Z1.325 F500
G1 X-0.658 Y-0.931 Z1.325 F500
G1 X-0.758 Y-0.842 Z1.325 F500
G1 X-0.842 Y-0.758 Z1.325 F500
G1 X-0.931 Y-0.658 Z1.325 F500
G1 X-1.009 Y-0.549 Z1.325 F500
G1 X-1.073 Y-0.432 Z1.325 F500
G1 X-1.124 Y-0.309 Z1.325 F500
G1 X-1.161 Y-0.180 Z1.325 F500
G1 X-1.184 Y-0.049 Z1.325 F500
G1 X-1.191 Y0.085 Z1.325 F500
G1 X-1.191 Y16.000 Z1.325 F500
G1 X-1.184 Y16.134 Z1.325 F500
G1 X-1.161 Y16.265 Z1.325 F500
G1 X-1.124 Y16.394 Z1.325 F500
G1 X-1.073 Y16.517 Z1.325 F500
G1 X-1.009 Y16.634 Z1.325 F500
G1 X-0.932 Y16.743 Z1.325 F500
G1 X-0.843 Y16.843 Z1.325 F500
G1 X-0.758 Y16.927 Z1.325 F500
G1 X-0.658 Y17.016 Z1.325 F500
G1 X-0.549 Y17.094 Z1.325 F500
G1 X-0.432 Y17.158 Z1.325 F500
G1 X-0.309 Y17.209 Z1.325 F500
G1 X-0.181 Y17.246 Z1.325 F500
G1 X-0.049 Y17.269 Z1.325 F500
G1 X0.085 Y17.276 Z1.325 F500
G1 X33.779 Y17.276 Z1.325 F500
G1 X33.912 Y17.269 Z1.325 F500
G1 X34.044 Y17.246 Z1.325 F500
G1 X34.172 Y17.210 Z1.325 F500
G1 X34.295 Y17.158 Z1.325 F500
G1 X34.412 Y17.094 Z1.325 F500
G1 X34.521 Y17.016 Z1.325 F500
G1 X34.621 Y16.927 Z1.325 F500
G1 X34.706 Y16.843 Z1.325 F500
G1 X34.795 Y16.743 Z1.325 F500
G1 X34.872 Y16.634 Z1.325 F500
G1 X34.937 Y16.517 Z1.325 F500
G1 X34.988 Y16.394 Z1.325 F500
G1 X35.025 Y16.265 Z1.325 F500
G1 X35.047 Y16.134 Z1.325 F500
G1 X35.055 Y16.000 Z1.325 F500
G1 X35.055 Y8.043 Z1.325 F500
G1 X35.061 Y7.990 Z1.325 F500
G1 X35.078 Y7.939 Z1.325 F500
G1 X35.107 Y7.894 Z1.325 F500
G1 X35.144 Y7.856 Z1.325 F500
G1 X35.189 Y7.828 Z1.325 F500
G1 X35.240 Y7.810 Z1.325 F500
G1 X35.293 Y7.804 Z1.325 F500
G1 X35.531 Y7.804 Z1.325 F500
G1 X35.584 Y7.804 Z1.331 F500
G1 X35.634 Y7.804 Z1.349 F500
G1 X35.680 Y7.804 Z1.377 F500
G1 X35.717 Y7.804 Z1.415 F500
G1 X35.746 Y7.804 Z1.460 F500
G1 X35.763 Y7.804 Z1.511 F500
G1 X35.769 Y7.804 Z1.564 F500
G1 X35.769 Y7.804 Z6.825 F500
G1 X35.769 Y8.281 Z6.825 F500
G1 X35.769 Y8.281 Z1.802 F166.7
G1 X35.769 Y8.281 Z1.464 F166.7
G1 X35.763 Y8.281 Z1.411 F500
G1 X35.746 Y8.281 Z1.360 F500
G1 X35.717 Y8.281 Z1.315 F500
G1 X35.680 Y8.281 Z1.277 F500
G1 X35.634 Y8.281 Z1.249 F500
G1 X35.584 Y8.281 Z1.231 F500
G1 X35.531 Y8.281 Z1.225 F500
G1 X35.293 Y8.281 Z1.225 F500
G1 X35.240 Y8.275 Z1.225 F500
G1 X35.189 Y8.257 Z1.225 F500
G1 X35.144 Y8.229 Z1.225 F500
G1 X35.107 Y8.191 Z1.225 F500
G1 X35.078 Y8.146 Z1.225 F500
G1 X35.061 Y8.096 Z1.225 F500
G1 X35.055 Y8.043 Z1.225 F500
G1 X35.055 Y0.085 Z1.225 F500
G1 X35.047 Y-0.049 Z1.225 F500
G1 X35.025 Y-0.181 Z1.225 F500
G1 X34.988 Y-0.309 Z1.225 F500
G1 X34.937 Y-0.432 Z1.225 F500
G1 X34.872 Y-0.549 Z1.225 F500
G1 X34.795 Y-0.658 Z1.225 F500
G1 X34.705 Y-0.758 Z1.225 F500
G1 X34.621 Y-0.843 Z1.225 F500
G1 X34.521 Y-0.932 Z1.225 F500
G1 X34.412 Y-1.009 Z1.225 F500
G1 X34.295 Y-1.073 Z1.225 F500
G1 X34.172 Y-1.124 Z1.225 F500
G1 X34.044 Y-1.161 Z1.225 F500
G1 X33.912 Y-1.184 Z1.225 F500
G1 X33.779 Y-1.191 Z1.225 F500
G1 X0.085 Y-1.191 Z1.225 F500
G1 X-0.049 Y-1.184 Z1.225 F500
G1 X-0.180 Y-1.161 Z1.225 F500
G1 X-0.309 Y-1.124 Z1.225 F500
G1 X-0.432 Y-1.073 Z1.225 F500
G1 X-0.549 Y-1.009 Z1.225 F500
G1 X-0.658 Y-0.931 Z1.225 F500
G1 X-0.758 Y-0.842 Z1.225 F500
G1 X-0.842 Y-0.758 Z1.225 F500
G1 X-0.931 Y-0.658 Z1.225 F500
G1 X-1.009 Y-0.549 Z1.225 F500
G1 X-1.073 Y-0.432 Z1.225 F500
G1 X-1.124 Y-0.309 Z1.225 F500
G1 X-1.161 Y-0.180 Z1.225 F500
G1 X-1.184 Y-0.049 Z1.225 F500
G1 X-1.191 Y0.085 Z1.225 F500
G1 X-1.191 Y16.000 Z1.225 F500
G1 X-1.184 Y16.134 Z1.225 F500
G1 X-1.161 Y16.265 Z1.225 F500
G1 X-1.124 Y16.394 Z1.225 F500
G1 X-1.073 Y16.517 Z1.225 F500
G1 X-1.009 Y16.634 Z1.225 F500
G1 X-0.932 Y16.743 Z1.225 F500
G1 X-0.843 Y16.843 Z1.225 F500
G1 X-0.758 Y16.927 Z1.225 F500
G1 X-0.658 Y17.016 Z1.225 F500
G1 X-0.549 Y17.094 Z1.225 F500
G1 X-0.432 Y17.158 Z1.225 F500
G1 X-0.309 Y17.209 Z1.225 F500
G1 X-0.181 Y17.246 Z1.225 F500
G1 X-0.049 Y17.269 Z1.225 F500
G1 X0.085 Y17.276 Z1.225 F500
G1 X33.779 Y17.276 Z1.225 F500
G1 X33.912 Y17.269 Z1.225 F500
G1 X34.044 Y17.246 Z1.225 F500
G1 X34.172 Y17.210 Z1.225 F500
G1 X34.295 Y17.158 Z1.225 F500
G1 X34.412 Y17.094 Z1.225 F500
G1 X34.521 Y17.016 Z1.225 F500
G1 X34.621 Y16.927 Z1.225 F500
G1 X34.706 Y16.843 Z1.225 F500
G1 X34.795 Y16.743 Z1.225 F500
G1 X34.872 Y16.634 Z1.225 F500
G1 X34.937 Y16.517 Z1.225 F500
G1 X34.988 Y16.394 Z1.225 F500
G1 X35.025 Y16.265 Z1.225 F500
G1 X35.047 Y16.134 Z1.225 F500
G1 X35.055 Y16.000 Z1.225 F500
G1 X35.055 Y8.043 Z1.225 F500
G1 X35.061 Y7.990 Z1.225 F500
G1 X35.078 Y7.939 Z1.225 F500
G1 X35.107 Y7.894 Z1.225 F500
G1 X35.144 Y7.856 Z1.225 F500
G1 X35.189 Y7.828 Z1.225 F500
G1 X35.240 Y7.810 Z1.225 F500
G1 X35.293 Y7.804 Z1.225 F500
G1 X35.531 Y7.804 Z1.225 F500
G1 X35.584 Y7.804 Z1.231 F500
G1 X35.634 Y7.804 Z1.249 F500
G1 X35.680 Y7.804 Z1.277 F500
G1 X35.717 Y7.804 Z1.315 F500
G1 X35.746 Y7.804 Z1.360 F500
G1 X35.763 Y7.804 Z1.411 F500
G1 X35.769 Y7.804 Z1.464 F500
G1 X35.769 Y7.804 Z6.825 F500
G1 X35.769 Y8.281 Z6.825 F500
G1 X35.769 Y8.281 Z1.702 F166.7
G1 X35.769 Y8.281 Z1.364 F166.7
G1 X35.763 Y8.281 Z1.311 F500
G1 X35.746 Y8.281 Z1.260 F500
G1 X35.717 Y8.281 Z1.215 F500
G1 X35.680 Y8.281 Z1.177 F500
G1 X35.634 Y8.281 Z1.149 F500
G1 X35.584 Y8.281 Z1.131 F500
G1 X35.531 Y8.281 Z1.125 F500
G1 X35.293 Y8.281 Z1.125 F500
G1 X35.240 Y8.275 Z1.125 F500
G1 X35.189 Y8.257 Z1.125 F500
G1 X35.144 Y8.229 Z1.125 F500
G1 X35.107 Y8.191 Z1.125 F500
G1 X35.078 Y8.146 Z1.125 F500
G1 X35.061 Y8.096 Z1.125 F500
G1 X35.055 Y8.043 Z1.125 F500
G1 X35.055 Y0.085 Z1.125 F500
G1 X35.047 Y-0.049 Z1.125 F500
G1 X35.025 Y-0.181 Z1.125 F500
G1 X34.988 Y-0.309 Z1.125 F500
G1 X34.937 Y-0.432 Z1.125 F500
G1 X34.872 Y-0.549 Z1.125 F500
G1 X34.795 Y-0.658 Z1.125 F500
G1 X34.705 Y-0.758 Z1.125 F500
G1 X34.621 Y-0.843 Z1.125 F500
G1 X34.521 Y-0.932 Z1.125 F500
G1 X34.412 Y-1.009 Z1.125 F500
G1 X34.295 Y-1.073 Z1.125 F500
G1 X34.172 Y-1.124 Z1.125 F500
G1 X34.044 Y-1.161 Z1.125 F500
G1 X33.912 Y-1.184 Z1.125 F500
G1 X33.779 Y-1.191 Z1.125 F500
G1 X0.085 Y-1.191 Z1.125 F500
G1 X-0.049 Y-1.184 Z1.125 F500
G1 X-0.180 Y-1.161 Z1.125 F500
G1 X-0.309 Y-1.124 Z1.125 F500
G1 X-0.432 Y-1.073 Z1.125 F500
G1 X-0.549 Y-1.009 Z1.125 F500
G1 X-0.658 Y-0.931 Z1.125 F500
G1 X-0.758 Y-0.842 Z1.125 F500
G1 X-0.842 Y-0.758 Z1.125 F500
G1 X-0.931 Y-0.658 Z1.125 F500
G1 X-1.009 Y-0.549 Z1.125 F500
G1 X-1.073 Y-0.432 Z1.125 F500
G1 X-1.124 Y-0.309 Z1.125 F500
G1 X-1.161 Y-0.180 Z1.125 F500
G1 X-1.184 Y-0.049 Z1.125 F500
G1 X-1.191 Y0.085 Z1.125 F500
G1 X-1.191 Y16.000 Z1.125 F500
G1 X-1.184 Y16.134 Z1.125 F500
G1 X-1.161 Y16.265 Z1.125 F500
G1 X-1.124 Y16.394 Z1.125 F500
G1 X-1.073 Y16.517 Z1.125 F500
G1 X-1.009 Y16.634 Z1.125 F500
G1 X-0.932 Y16.743 Z1.125 F500
G1 X-0.843 Y16.843 Z1.125 F500
G1 X-0.758 Y16.927 Z1.125 F500
G1 X-0.658 Y17.016 Z1.125 F500
G1 X-0.549 Y17.094 Z1.125 F500
G1 X-0.432 Y17.158 Z1.125 F500
G1 X-0.309 Y17.209 Z1.125 F500
G1 X-0.181 Y17.246 Z1.125 F500
G1 X-0.049 Y17.269 Z1.125 F500
G1 X0.085 Y17.276 Z1.125 F500
G1 X33.779 Y17.276 Z1.125 F500
G1 X33.912 Y17.269 Z1.125 F500
G1 X34.044 Y17.246 Z1.125 F500
G1 X34.172 Y17.210 Z1.125 F500
G1 X34.295 Y17.158 Z1.125 F500
G1 X34.412 Y17.094 Z1.125 F500
G1 X34.521 Y17.016 Z1.125 F500
G1 X34.621 Y16.927 Z1.125 F500
G1 X34.706 Y16.843 Z1.125 F500
G1 X34.795 Y16.743 Z1.125 F500
G1 X34.872 Y16.634 Z1.125 F500
G1 X34.937 Y16.517 Z1.125 F500
G1 X34.988 Y16.394 Z1.125 F500
G1 X35.025 Y16.265 Z1.125 F500
G1 X35.047 Y16.134 Z1.125 F500
G1 X35.055 Y16.000 Z1.125 F500
G1 X35.055 Y8.043 Z1.125 F500
G1 X35.061 Y7.990 Z1.125 F500
G1 X35.078 Y7.939 Z1.125 F500
G1 X35.107 Y7.894 Z1.125 F500
G1 X35.144 Y7.856 Z1.125 F500
G1 X35.189 Y7.828 Z1.125 F500
G1 X35.240 Y7.810 Z1.125 F500
G1 X35.293 Y7.804 Z1.125 F500
G1 X35.531 Y7.804 Z1.125 F500
G1 X35.584 Y7.804 Z1.131 F500
G1 X35.634 Y7.804 Z1.149 F500
G1 X35.680 Y7.804 Z1.177 F500
G1 X35.717 Y7.804 Z1.215 F500
G1 X35.746 Y7.804 Z1.260 F500
G1 X35.763 Y7.804 Z1.311 F500
G1 X35.769 Y7.804 Z1.364 F500
G1 X35.769 Y7.804 Z6.825 F500
G1 X35.769 Y8.281 Z6.825 F500
G1 X35.769 Y8.281 Z1.602 F166.7
G1 X35.769 Y8.281 Z1.264 F166.7
G1 X35.763 Y8.281 Z1.211 F500
G1 X35.746 Y8.281 Z1.160 F500
G1 X35.717 Y8.281 Z1.115 F500
G1 X35.680 Y8.281 Z1.077 F500
G1 X35.634 Y8.281 Z1.049 F500
G1 X35.584 Y8.281 Z1.031 F500
G1 X35.531 Y8.281 Z1.025 F500
G1 X35.293 Y8.281 Z1.025 F500
G1 X35.240 Y8.275 Z1.025 F500
G1 X35.189 Y8.257 Z1.025 F500
G1 X35.144 Y8.229 Z1.025 F500
G1 X35.107 Y8.191 Z1.025 F500
G1 X35.078 Y8.146 Z1.025 F500
G1 X35.061 Y8.096 Z1.025 F500
G1 X35.055 Y8.043 Z1.025 F500
G1 X35.055 Y0.085 Z1.025 F500
G1 X35.047 Y-0.049 Z1.025 F500
G1 X35.025 Y-0.181 Z1.025 F500
G1 X34.988 Y-0.309 Z1.025 F500
G1 X34.937 Y-0.432 Z1.025 F500
G1 X34.872 Y-0.549 Z1.025 F500
G1 X34.795 Y-0.658 Z1.025 F500
G1 X34.705 Y-0.758 Z1.025 F500
G1 X34.621 Y-0.843 Z1.025 F500
G1 X34.521 Y-0.932 Z1.025 F500
G1 X34.412 Y-1.009 Z1.025 F500
G1 X34.295 Y-1.073 Z1.025 F500
G1 X34.172 Y-1.124 Z1.025 F500
G1 X34.044 Y-1.161 Z1.025 F500
G1 X33.912 Y-1.184 Z1.025 F500
G1 X33.779 Y-1.191 Z1.025 F500
G1 X0.085 Y-1.191 Z1.025 F500
G1 X-0.049 Y-1.184 Z1.025 F500
G1 X-0.180 Y-1.161 Z1.025 F500
G1 X-0.309 Y-1.124 Z1.025 F500
G1 X-0.432 Y-1.073 Z1.025 F500
G1 X-0.549 Y-1.009 Z1.025 F500
G1 X-0.658 Y-0.931 Z1.025 F500
G1 X-0.758 Y-0.842 Z1.025 F500
G1 X-0.842 Y-0.758 Z1.025 F500
G1 X-0.931 Y-0.658 Z1.025 F500
G1 X-1.009 Y-0.549 Z1.025 F500
G1 X-1.073 Y-0.432 Z1.025 F500
G1 X-1.124 Y-0.309 Z1.025 F500
G1 X-1.161 Y-0.180 Z1.025 F500
G1 X-1.184 Y-0.049 Z1.025 F500
G1 X-1.191 Y0.085 Z1.025 F500
G1 X-1.191 Y16.000 Z1.025 F500
G1 X-1.184 Y16.134 Z1.025 F500
G1 X-1.161 Y16.265 Z1.025 F500
G1 X-1.124 Y16.394 Z1.025 F500
G1 X-1.073 Y16.517 Z1.025 F500
G1 X-1.009 Y16.634 Z1.025 F500
G1 X-0.932 Y16.743 Z1.025 F500
G1 X-0.843 Y16.843 Z1.025 F500
G1 X-0.758 Y16.927 Z1.025 F500
G1 X-0.658 Y17.016 Z1.025 F500
G1 X-0.549 Y17.094 Z1.025 F500
G1 X-0.432 Y17.158 Z1.025 F500
G1 X-0.309 Y17.209 Z1.025 F500
G1 X-0.181 Y17.246 Z1.025 F500
G1 X-0.049 Y17.269 Z1.025 F500
G1 X0.085 Y17.276 Z1.025 F500
G1 X33.779 Y17.276 Z1.025 F500
G1 X33.912 Y17.269 Z1.025 F500
G1 X34.044 Y17.246 Z1.025 F500
G1 X34.172 Y17.210 Z1.025 F500
G1 X34.295 Y17.158 Z1.025 F500
G1 X34.412 Y17.094 Z1.025 F500
G1 X34.521 Y17.016 Z1.025 F500
G1 X34.621 Y16.927 Z1.025 F500
G1 X34.706 Y16.843 Z1.025 F500
G1 X34.795 Y16.743 Z1.025 F500
G1 X34.872 Y16.634 Z1.025 F500
G1 X34.937 Y16.517 Z1.025 F500
G1 X34.988 Y16.394 Z1.025 F500
G1 X35.025 Y16.265 Z1.025 F500
G1 X35.047 Y16.134 Z1.025 F500
G1 X35.055 Y16.000 Z1.025 F500
G1 X35.055 Y8.043 Z1.025 F500
G1 X35.061 Y7.990 Z1.025 F500
G1 X35.078 Y7.939 Z1.025 F500
G1 X35.107 Y7.894 Z1.025 F500
G1 X35.144 Y7.856 Z1.025 F500
G1 X35.189 Y7.828 Z1.025 F500
G1 X35.240 Y7.810 Z1.025 F500
G1 X35.293 Y7.804 Z1.025 F500
G1 X35.531 Y7.804 Z1.025 F500
G1 X35.584 Y7.804 Z1.031 F500
G1 X35.634 Y7.804 Z1.049 F500
G1 X35.680 Y7.804 Z1.077 F500
G1 X35.717 Y7.804 Z1.115 F500
G1 X35.746 Y7.804 Z1.160 F500
G1 X35.763 Y7.804 Z1.211 F500
G1 X35.769 Y7.804 Z1.264 F500
G1 X35.769 Y7.804 Z6.825 F500
G1 X35.769 Y8.281 Z6.825 F500
G1 X35.769 Y8.281 Z1.502 F166.7
G1 X35.769 Y8.281 Z1.164 F166.7
G1 X35.763 Y8.281 Z1.111 F500
G1 X35.746 Y8.281 Z1.060 F500
G1 X35.717 Y8.281 Z1.015 F500
G1 X35.680 Y8.281 Z0.977 F500
G1 X35.634 Y8.281 Z0.949 F500
G1 X35.584 Y8.281 Z0.931 F500
G1 X35.531 Y8.281 Z0.925 F500
G1 X35.293 Y8.281 Z0.925 F500
G1 X35.240 Y8.275 Z0.925 F500
G1 X35.189 Y8.257 Z0.925 F500
G1 X35.144 Y8.229 Z0.925 F500
G1 X35.107 Y8.191 Z0.925 F500
G1 X35.078 Y8.146 Z0.925 F500
G1 X35.061 Y8.096 Z0.925 F500
G1 X35.055 Y8.043 Z0.925 F500
G1 X35.055 Y0.085 Z0.925 F500
G1 X35.047 Y-0.049 Z0.925 F500
G1 X35.025 Y-0.181 Z0.925 F500
G1 X34.988 Y-0.309 Z0.925 F500
G1 X34.937 Y-0.432 Z0.925 F500
G1 X34.872 Y-0.549 Z0.925 F500
G1 X34.795 Y-0.658 Z0.925 F500
G1 X34.705 Y-0.758 Z0.925 F500
G1 X34.621 Y-0.843 Z0.925 F500
G1 X34.521 Y-0.932 Z0.925 F500
G1 X34.412 Y-1.009 Z0.925 F500
G1 X34.295 Y-1.073 Z0.925 F500
G1 X34.172 Y-1.124 Z0.925 F500
G1 X34.044 Y-1.161 Z0.925 F500
G1 X33.912 Y-1.184 Z0.925 F500
G1 X33.779 Y-1.191 Z0.925 F500
G1 X0.085 Y-1.191 Z0.925 F500
G1 X-0.049 Y-1.184 Z0.925 F500
G1 X-0.180 Y-1.161 Z0.925 F500
G1 X-0.309 Y-1.124 Z0.925 F500
G1 X-0.432 Y-1.073 Z0.925 F500
G1 X-0.549 Y-1.009 Z0.925 F500
G1 X-0.658 Y-0.931 Z0.925 F500
G1 X-0.758 Y-0.842 Z0.925 F500
G1 X-0.842 Y-0.758 Z0.925 F500
G1 X-0.931 Y-0.658 Z0.925 F500
G1 X-1.009 Y-0.549 Z0.925 F500
G1 X-1.073 Y-0.432 Z0.925 F500
G1 X-1.124 Y-0.309 Z0.925 F500
G1 X-1.161 Y-0.180 Z0.925 F500
G1 X-1.184 Y-0.049 Z0.925 F500
G1 X-1.191 Y0.085 Z0.925 F500
G1 X-1.191 Y16.000 Z0.925 F500
G1 X-1.184 Y16.134 Z0.925 F500
G1 X-1.161 Y16.265 Z0.925 F500
G1 X-1.124 Y16.394 Z0.925 F500
G1 X-1.073 Y16.517 Z0.925 F500
G1 X-1.009 Y16.634 Z0.925 F500
G1 X-0.932 Y16.743 Z0.925 F500
G1 X-0.843 Y16.843 Z0.925 F500
G1 X-0.758 Y16.927 Z0.925 F500
G1 X-0.658 Y17.016 Z0.925 F500
G1 X-0.549 Y17.094 Z0.925 F500
G1 X-0.432 Y17.158 Z0.925 F500
G1 X-0.309 Y17.209 Z0.925 F500
G1 X-0.181 Y17.246 Z0.925 F500
G1 X-0.049 Y17.269 Z0.925 F500
G1 X0.085 Y17.276 Z0.925 F500
G1 X33.779 Y17.276 Z0.925 F500
G1 X33.912 Y17.269 Z0.925 F500
G1 X34.044 Y17.246 Z0.925 F500
G1 X34.172 Y17.210 Z0.925 F500
G1 X34.295 Y17.158 Z0.925 F500
G1 X34.412 Y17.094 Z0.925 F500
G1 X34.521 Y17.016 Z0.925 F500
G1 X34.621 Y16.927 Z0.925 F500
G1 X34.706 Y16.843 Z0.925 F500
G1 X34.795 Y16.743 Z0.925 F500
G1 X34.872 Y16.634 Z0.925 F500
G1 X34.937 Y16.517 Z0.925 F500
G1 X34.988 Y16.394 Z0.925 F500
G1 X35.025 Y16.265 Z0.925 F500
G1 X35.047 Y16.134 Z0.925 F500
G1 X35.055 Y16.000 Z0.925 F500
G1 X35.055 Y8.043 Z0.925 F500
G1 X35.061 Y7.990 Z0.925 F500
G1 X35.078 Y7.939 Z0.925 F500
G1 X35.107 Y7.894 Z0.925 F500
G1 X35.144 Y7.856 Z0.925 F500
G1 X35.189 Y7.828 Z0.925 F500
G1 X35.240 Y7.810 Z0.925 F500
G1 X35.293 Y7.804 Z0.925 F500
G1 X35.531 Y7.804 Z0.925 F500
G1 X35.584 Y7.804 Z0.931 F500
G1 X35.634 Y7.804 Z0.949 F500
G1 X35.680 Y7.804 Z0.977 F500
G1 X35.717 Y7.804 Z1.015 F500
G1 X35.746 Y7.804 Z1.060 F500
G1 X35.763 Y7.804 Z1.111 F500
G1 X35.769 Y7.804 Z1.164 F500
G1 X35.769 Y7.804 Z6.825 F500
G1 X35.769 Y8.281 Z6.825 F500
G1 X35.769 Y8.281 Z1.402 F166.7
G1 X35.769 Y8.281 Z1.064 F166.7
G1 X35.763 Y8.281 Z1.011 F500
G1 X35.746 Y8.281 Z0.960 F500
G1 X35.717 Y8.281 Z0.915 F500
G1 X35.680 Y8.281 Z0.877 F500
G1 X35.634 Y8.281 Z0.849 F500
G1 X35.584 Y8.281 Z0.831 F500
G1 X35.531 Y8.281 Z0.825 F500
G1 X35.293 Y8.281 Z0.825 F500
G1 X35.240 Y8.275 Z0.825 F500
G1 X35.189 Y8.257 Z0.825 F500
G1 X35.144 Y8.229 Z0.825 F500
G1 X35.107 Y8.191 Z0.825 F500
G1 X35.078 Y8.146 Z0.825 F500
G1 X35.061 Y8.096 Z0.825 F500
G1 X35.055 Y8.043 Z0.825 F500
G1 X35.055 Y0.085 Z0.825 F500
G1 X35.047 Y-0.049 Z0.825 F500
G1 X35.025 Y-0.181 Z0.825 F500
G1 X34.988 Y-0.309 Z0.825 F500
G1 X34.937 Y-0.432 Z0.825 F500
G1 X34.872 Y-0.549 Z0.825 F500
G1 X34.795 Y-0.658 Z0.825 F500
G1 X34.705 Y-0.758 Z0.825 F500
G1 X34.621 Y-0.843 Z0.825 F500
G1 X34.521 Y-0.932 Z0.825 F500
G1 X34.412 Y-1.009 Z0.825 F500
G1 X34.295 Y-1.073 Z0.825 F500
G1 X34.172 Y-1.124 Z0.825 F500
G1 X34.044 Y-1.161 Z0.825 F500
G1 X33.912 Y-1.184 Z0.825 F500
G1 X33.779 Y-1.191 Z0.825 F500
G1 X0.085 Y-1.191 Z0.825 F500
G1 X-0.049 Y-1.184 Z0.825 F500
G1 X-0.180 Y-1.161 Z0.825 F500
G1 X-0.309 Y-1.124 Z0.825 F500
G1 X-0.432 Y-1.073 Z0.825 F500
G1 X-0.549 Y-1.009 Z0.825 F500
G1 X-0.658 Y-0.931 Z0.825 F500
G1 X-0.758 Y-0.842 Z0.825 F500
G1 X-0.842 Y-0.758 Z0.825 F500
G1 X-0.931 Y-0.658 Z0.825 F500
G1 X-1.009 Y-0.549 Z0.825 F500
G1 X-1.073 Y-0.432 Z0.825 F500
G1 X-1.124 Y-0.309 Z0.825 F500
G1 X-1.161 Y-0.180 Z0.825 F500
G1 X-1.184 Y-0.049 Z0.825 F500
G1 X-1.191 Y0.085 Z0.825 F500
G1 X-1.191 Y16.000 Z0.825 F500
G1 X-1.184 Y16.134 Z0.825 F500
G1 X-1.161 Y16.265 Z0.825 F500
G1 X-1.124 Y16.394 Z0.825 F500
G1 X-1.073 Y16.517 Z0.825 F500
G1 X-1.009 Y16.634 Z0.825 F500
G1 X-0.932 Y16.743 Z0.825 F500
G1 X-0.843 Y16.843 Z0.825 F500
G1 X-0.758 Y16.927 Z0.825 F500
G1 X-0.658 Y17.016 Z0.825 F500
G1 X-0.549 Y17.094 Z0.825 F500
G1 X-0.432 Y17.158 Z0.825 F500
G1 X-0.309 Y17.209 Z0.825 F500
G1 X-0.181 Y17.246 Z0.825 F500
G1 X-0.049 Y17.269 Z0.825 F500
G1 X0.085 Y17.276 Z0.825 F500
G1 X33.779 Y17.276 Z0.825 F500
G1 X33.912 Y17.269 Z0.825 F500
G1 X34.044 Y17.246 Z0.825 F500
G1 X34.172 Y17.210 Z0.825 F500
G1 X34.295 Y17.158 Z0.825 F500
G1 X34.412 Y17.094 Z0.825 F500
G1 X34.521 Y17.016 Z0.825 F500
G1 X34.621 Y16.927 Z0.825 F500
G1 X34.706 Y16.843 Z0.825 F500
G1 X34.795 Y16.743 Z0.825 F500
G1 X34.872 Y16.634 Z0.825 F500
G1 X34.937 Y16.517 Z0.825 F500
G1 X34.988 Y16.394 Z0.825 F500
G1 X35.025 Y16.265 Z0.825 F500
G1 X35.047 Y16.134 Z0.825 F500
G1 X35.055 Y16.000 Z0.825 F500
G1 X35.055 Y8.043 Z0.825 F500
G1 X35.061 Y7.990 Z0.825 F500
G1 X35.078 Y7.939 Z0.825 F500
G1 X35.107 Y7.894 Z0.825 F500
G1 X35.144 Y7.856 Z0.825 F500
G1 X35.189 Y7.828 Z0.825 F500
G1 X35.240 Y7.810 Z0.825 F500
G1 X35.293 Y7.804 Z0.825 F500
G1 X35.531 Y7.804 Z0.825 F500
G1 X35.584 Y7.804 Z0.831 F500
G1 X35.634 Y7.804 Z0.849 F500
G1 X35.680 Y7.804 Z0.877 F500
G1 X35.717 Y7.804 Z0.915 F500
G1 X35.746 Y7.804 Z0.960 F500
G1 X35.763 Y7.804 Z1.011 F500
G1 X35.769 Y7.804 Z1.064 F500
G1 X35.769 Y7.804 Z6.825 F500
G1 X35.769 Y8.281 Z6.825 F500
G1 X35.769 Y8.281 Z1.302 F166.7
G1 X35.769 Y8.281 Z0.964 F166.7
G1 X35.763 Y8.281 Z0.911 F500
G1 X35.746 Y8.281 Z0.860 F500
G1 X35.717 Y8.281 Z0.815 F500
G1 X35.680 Y8.281 Z0.777 F500
G1 X35.634 Y8.281 Z0.749 F500
G1 X35.584 Y8.281 Z0.731 F500
G1 X35.531 Y8.281 Z0.725 F500
G1 X35.293 Y8.281 Z0.725 F500
G1 X35.240 Y8.275 Z0.725 F500
G1 X35.189 Y8.257 Z0.725 F500
G1 X35.144 Y8.229 Z0.725 F500
G1 X35.107 Y8.191 Z0.725 F500
G1 X35.078 Y8.146 Z0.725 F500
G1 X35.061 Y8.096 Z0.725 F500
G1 X35.055 Y8.043 Z0.725 F500
G1 X35.055 Y0.085 Z0.725 F500
G1 X35.047 Y-0.049 Z0.725 F500
G1 X35.025 Y-0.181 Z0.725 F500
G1 X34.988 Y-0.309 Z0.725 F500
G1 X34.937 Y-0.432 Z0.725 F500
G1 X34.872 Y-0.549 Z0.725 F500
G1 X34.795 Y-0.658 Z0.725 F500
G1 X34.705 Y-0.758 Z0.725 F500
G1 X34.621 Y-0.843 Z0.725 F500
G1 X34.521 Y-0.932 Z0.725 F500
G1 X34.412 Y-1.009 Z0.725 F500
G1 X34.295 Y-1.073 Z0.725 F500
G1 X34.172 Y-1.124 Z0.725 F500
G1 X34.044 Y-1.161 Z0.725 F500
G1 X33.912 Y-1.184 Z0.725 F500
G1 X33.779 Y-1.191 Z0.725 F500
G1 X0.085 Y-1.191 Z0.725 F500
G1 X-0.049 Y-1.184 Z0.725 F500
G1 X-0.180 Y-1.161 Z0.725 F500
G1 X-0.309 Y-1.124 Z0.725 F500
G1 X-0.432 Y-1.073 Z0.725 F500
G1 X-0.549 Y-1.009 Z0.725 F500
G1 X-0.658 Y-0.931 Z0.725 F500
G1 X-0.758 Y-0.842 Z0.725 F500
G1 X-0.842 Y-0.758 Z0.725 F500
G1 X-0.931 Y-0.658 Z0.725 F500
G1 X-1.009 Y-0.549 Z0.725 F500
G1 X-1.073 Y-0.432 Z0.725 F500
G1 X-1.124 Y-0.309 Z0.725 F500
G1 X-1.161 Y-0.180 Z0.725 F500
G1 X-1.184 Y-0.049 Z0.725 F500
G1 X-1.191 Y0.085 Z0.725 F500
G1 X-1.191 Y16.000 Z0.725 F500
G1 X-1.184 Y16.134 Z0.725 F500
G1 X-1.161 Y16.265 Z0.725 F500
G1 X-1.124 Y16.394 Z0.725 F500
G1 X-1.073 Y16.517 Z0.725 F500
G1 X-1.009 Y16.634 Z0.725 F500
G1 X-0.932 Y16.743 Z0.725 F500
G1 X-0.843 Y16.843 Z0.725 F500
G1 X-0.758 Y16.927 Z0.725 F500
G1 X-0.658 Y17.016 Z0.725 F500
G1 X-0.549 Y17.094 Z0.725 F500
G1 X-0.432 Y17.158 Z0.725 F500
G1 X-0.309 Y17.209 Z0.725 F500
G1 X-0.181 Y17.246 Z0.725 F500
G1 X-0.049 Y17.269 Z0.725 F500
G1 X0.085 Y17.276 Z0.725 F500
G1 X33.779 Y17.276 Z0.725 F500
G1 X33.912 Y17.269 Z0.725 F500
G1 X34.044 Y17.246 Z0.725 F500
G1 X34.172 Y17.210 Z0.725 F500
G1 X34.295 Y17.158 Z0.725 F500
G1 X34.412 Y17.094 Z0.725 F500
G1 X34.521 Y17.016 Z0.725 F500
G1 X34.621 Y16.927 Z0.725 F500
G1 X34.706 Y16.843 Z0.725 F500
G1 X34.795 Y16.743 Z0.725 F500
G1 X34.872 Y16.634 Z0.725 F500
G1 X34.937 Y16.517 Z0.725 F500
G1 X34.988 Y16.394 Z0.725 F500
G1 X35.025 Y16.265 Z0.725 F500
G1 X35.047 Y16.134 Z0.725 F500
G1 X35.055 Y16.000 Z0.725 F500
G1 X35.055 Y8.043 Z0.725 F500
G1 X35.061 Y7.990 Z0.725 F500
G1 X35.078 Y7.939 Z0.725 F500
G1 X35.107 Y7.894 Z0.725 F500
G1 X35.144 Y7.856 Z0.725 F500
G1 X35.189 Y7.828 Z0.725 F500
G1 X35.240 Y7.810 Z0.725 F500
G1 X35.293 Y7.804 Z0.725 F500
G1 X35.531 Y7.804 Z0.725 F500
G1 X35.584 Y7.804 Z0.731 F500
G1 X35.634 Y7.804 Z0.749 F500
G1 X35.680 Y7.804 Z0.777 F500
G1 X35.717 Y7.804 Z0.815 F500
G1 X35.746 Y7.804 Z0.860 F500
G1 X35.763 Y7.804 Z0.911 F500
G1 X35.769 Y7.804 Z0.964 F500
G1 X35.769 Y7.804 Z6.825 F500
G1 X35.769 Y8.281 Z6.825 F500
G1 X35.769 Y8.281 Z1.202 F166.7
G1 X35.769 Y8.281 Z0.864 F166.7
G1 X35.763 Y8.281 Z0.811 F500
G1 X35.746 Y8.281 Z0.760 F500
G1 X35.717 Y8.281 Z0.715 F500
G1 X35.680 Y8.281 Z0.677 F500
G1 X35.634 Y8.281 Z0.649 F500
G1 X35.584 Y8.281 Z0.631 F500
G1 X35.531 Y8.281 Z0.625 F500
G1 X35.293 Y8.281 Z0.625 F500
G1 X35.240 Y8.275 Z0.625 F500
G1 X35.189 Y8.257 Z0.625 F500
G1 X35.144 Y8.229 Z0.625 F500
G1 X35.107 Y8.191 Z0.625 F500
G1 X35.078 Y8.146 Z0.625 F500
G1 X35.061 Y8.096 Z0.625 F500
G1 X35.055 Y8.043 Z0.625 F500
G1 X35.055 Y0.085 Z0.625 F500
G1 X35.047 Y-0.049 Z0.625 F500
G1 X35.025 Y-0.181 Z0.625 F500
G1 X34.988 Y-0.309 Z0.625 F500
G1 X34.937 Y-0.432 Z0.625 F500
G1 X34.872 Y-0.549 Z0.625 F500
G1 X34.795 Y-0.658 Z0.625 F500
G1 X34.705 Y-0.758 Z0.625 F500
G1 X34.621 Y-0.843 Z0.625 F500
G1 X34.521 Y-0.932 Z0.625 F500
G1 X34.412 Y-1.009 Z0.625 F500
G1 X34.295 Y-1.073 Z0.625 F500
G1 X34.172 Y-1.124 Z0.625 F500
G1 X34.044 Y-1.161 Z0.625 F500
G1 X33.912 Y-1.184 Z0.625 F500
G1 X33.779 Y-1.191 Z0.625 F500
G1 X0.085 Y-1.191 Z0.625 F500
G1 X-0.049 Y-1.184 Z0.625 F500
G1 X-0.180 Y-1.161 Z0.625 F500
G1 X-0.309 Y-1.124 Z0.625 F500
G1 X-0.432 Y-1.073 Z0.625 F500
G1 X-0.549 Y-1.009 Z0.625 F500
G1 X-0.658 Y-0.931 Z0.625 F500
G1 X-0.758 Y-0.842 Z0.625 F500
G1 X-0.842 Y-0.758 Z0.625 F500
G1 X-0.931 Y-0.658 Z0.625 F500
G1 X-1.009 Y-0.549 Z0.625 F500
G1 X-1.073 Y-0.432 Z0.625 F500
G1 X-1.124 Y-0.309 Z0.625 F500
G1 X-1.161 Y-0.180 Z0.625 F500
G1 X-1.184 Y-0.049 Z0.625 F500
G1 X-1.191 Y0.085 Z0.625 F500
G1 X-1.191 Y16.000 Z0.625 F500
G1 X-1.184 Y16.134 Z0.625 F500
G1 X-1.161 Y16.265 Z0.625 F500
G1 X-1.124 Y16.394 Z0.625 F500
G1 X-1.073 Y16.517 Z0.625 F500
G1 X-1.009 Y16.634 Z0.625 F500
G1 X-0.932 Y16.743 Z0.625 F500
G1 X-0.843 Y16.843 Z0.625 F500
G1 X-0.758 Y16.927 Z0.625 F500
G1 X-0.658 Y17.016 Z0.625 F500
G1 X-0.549 Y17.094 Z0.625 F500
G1 X-0.432 Y17.158 Z0.625 F500
G1 X-0.309 Y17.209 Z0.625 F500
G1 X-0.181 Y17.246 Z0.625 F500
G1 X-0.049 Y17.269 Z0.625 F500
G1 X0.085 Y17.276 Z0.625 F500
G1 X33.779 Y17.276 Z0.625 F500
G1 X33.912 Y17.269 Z0.625 F500
G1 X34.044 Y17.246 Z0.625 F500
G1 X34.172 Y17.210 Z0.625 F500
G1 X34.295 Y17.158 Z0.625 F500
G1 X34.412 Y17.094 Z0.625 F500
G1 X34.521 Y17.016 Z0.625 F500
G1 X34.621 Y16.927 Z0.625 F500
G1 X34.706 Y16.843 Z0.625 F500
G1 X34.795 Y16.743 Z0.625 F500
G1 X34.872 Y16.634 Z0.625 F500
G1 X34.937 Y16.517 Z0.625 F500
G1 X34.988 Y16.394 Z0.625 F500
G1 X35.025 Y16.265 Z0.625 F500
G1 X35.047 Y16.134 Z0.625 F500
G1 X35.055 Y16.000 Z0.625 F500
G1 X35.055 Y8.043 Z0.625 F500
G1 X35.061 Y7.990 Z0.625 F500
G1 X35.078 Y7.939 Z0.625 F500
G1 X35.107 Y7.894 Z0.625 F500
G1 X35.144 Y7.856 Z0.625 F500
G1 X35.189 Y7.828 Z0.625 F500
G1 X35.240 Y7.810 Z0.625 F500
G1 X35.293 Y7.804 Z0.625 F500
G1 X35.531 Y7.804 Z0.625 F500
G1 X35.584 Y7.804 Z0.631 F500
G1 X35.634 Y7.804 Z0.649 F500
G1 X35.680 Y7.804 Z0.677 F500
G1 X35.717 Y7.804 Z0.715 F500
G1 X35.746 Y7.804 Z0.760 F500
G1 X35.763 Y7.804 Z0.811 F500
G1 X35.769 Y7.804 Z0.864 F500
G1 X35.769 Y7.804 Z6.825 F500
G1 X35.769 Y8.281 Z6.825 F500
G1 X35.769 Y8.281 Z1.102 F166.7
G1 X35.769 Y8.281 Z0.764 F166.7
G1 X35.763 Y8.281 Z0.711 F500
G1 X35.746 Y8.281 Z0.660 F500
G1 X35.717 Y8.281 Z0.615 F500
G1 X35.680 Y8.281 Z0.577 F500
G1 X35.634 Y8.281 Z0.549 F500
G1 X35.584 Y8.281 Z0.531 F500
G1 X35.531 Y8.281 Z0.525 F500
G1 X35.293 Y8.281 Z0.525 F500
G1 X35.240 Y8.275 Z0.525 F500
G1 X35.189 Y8.257 Z0.525 F500
G1 X35.144 Y8.229 Z0.525 F500
G1 X35.107 Y8.191 Z0.525 F500
G1 X35.078 Y8.146 Z0.525 F500
G1 X35.061 Y8.096 Z0.525 F500
G1 X35.055 Y8.043 Z0.525 F500
G1 X35.055 Y0.085 Z0.525 F500
G1 X35.047 Y-0.049 Z0.525 F500
G1 X35.025 Y-0.181 Z0.525 F500
G1 X34.988 Y-0.309 Z0.525 F500
G1 X34.937 Y-0.432 Z0.525 F500
G1 X34.872 Y-0.549 Z0.525 F500
G1 X34.795 Y-0.658 Z0.525 F500
G1 X34.705 Y-0.758 Z0.525 F500
G1 X34.621 Y-0.843 Z0.525 F500
G1 X34.521 Y-0.932 Z0.525 F500
G1 X34.412 Y-1.009 Z0.525 F500
G1 X34.295 Y-1.073 Z0.525 F500
G1 X34.172 Y-1.124 Z0.525 F500
G1 X34.044 Y-1.161 Z0.525 F500
G1 X33.912 Y-1.184 Z0.525 F500
G1 X33.779 Y-1.191 Z0.525 F500
G1 X0.085 Y-1.191 Z0.525 F500
G1 X-0.049 Y-1.184 Z0.525 F500
G1 X-0.180 Y-1.161 Z0.525 F500
G1 X-0.309 Y-1.124 Z0.525 F500
G1 X-0.432 Y-1.073 Z0.525 F500
G1 X-0.549 Y-1.009 Z0.525 F500
G1 X-0.658 Y-0.931 Z0.525 F500
G1 X-0.758 Y-0.842 Z0.525 F500
G1 X-0.842 Y-0.758 Z0.525 F500
G1 X-0.931 Y-0.658 Z0.525 F500
G1 X-1.009 Y-0.549 Z0.525 F500
G1 X-1.073 Y-0.432 Z0.525 F500
G1 X-1.124 Y-0.309 Z0.525 F500
G1 X-1.161 Y-0.180 Z0.525 F500
G1 X-1.184 Y-0.049 Z0.525 F500
G1 X-1.191 Y0.085 Z0.525 F500
G1 X-1.191 Y16.000 Z0.525 F500
G1 X-1.184 Y16.134 Z0.525 F500
G1 X-1.161 Y16.265 Z0.525 F500
G1 X-1.124 Y16.394 Z0.525 F500
G1 X-1.073 Y16.517 Z0.525 F500
G1 X-1.009 Y16.634 Z0.525 F500
G1 X-0.932 Y16.743 Z0.525 F500
G1 X-0.843 Y16.843 Z0.525 F500
G1 X-0.758 Y16.927 Z0.525 F500
G1 X-0.658 Y17.016 Z0.525 F500
G1 X-0.549 Y17.094 Z0.525 F500
G1 X-0.432 Y17.158 Z0.525 F500
G1 X-0.309 Y17.209 Z0.525 F500
G1 X-0.181 Y17.246 Z0.525 F500
G1 X-0.049 Y17.269 Z0.525 F500
G1 X0.085 Y17.276 Z0.525 F500
G1 X33.779 Y17.276 Z0.525 F500
G1 X33.912 Y17.269 Z0.525 F500
G1 X34.044 Y17.246 Z0.525 F500
G1 X34.172 Y17.210 Z0.525 F500
G1 X34.295 Y17.158 Z0.525 F500
G1 X34.412 Y17.094 Z0.525 F500
G1 X34.521 Y17.016 Z0.525 F500
G1 X34.621 Y16.927 Z0.525 F500
G1 X34.706 Y16.843 Z0.525 F500
G1 X34.795 Y16.743 Z0.525 F500
G1 X34.872 Y16.634 Z0.525 F500
G1 X34.937 Y16.517 Z0.525 F500
G1 X34.988 Y16.394 Z0.525 F500
G1 X35.025 Y16.265 Z0.525 F500
G1 X35.047 Y16.134 Z0.525 F500
G1 X35.055 Y16.000 Z0.525 F500
G1 X35.055 Y8.043 Z0.525 F500
G1 X35.061 Y7.990 Z0.525 F500
G1 X35.078 Y7.939 Z0.525 F500
G1 X35.107 Y7.894 Z0.525 F500
G1 X35.144 Y7.856 Z0.525 F500
G1 X35.189 Y7.828 Z0.525 F500
G1 X35.240 Y7.810 Z0.525 F500
G1 X35.293 Y7.804 Z0.525 F500
G1 X35.531 Y7.804 Z0.525 F500
G1 X35.584 Y7.804 Z0.531 F500
G1 X35.634 Y7.804 Z0.549 F500
G1 X35.680 Y7.804 Z0.577 F500
G1 X35.717 Y7.804 Z0.615 F500
G1 X35.746 Y7.804 Z0.660 F500
G1 X35.763 Y7.804 Z0.711 F500
G1 X35.769 Y7.804 Z0.764 F500
G1 X35.769 Y7.804 Z6.825 F500
G1 X35.769 Y8.281 Z6.825 F500
G1 X35.769 Y8.281 Z1.002 F166.7
G1 X35.769 Y8.281 Z0.664 F166.7
G1 X35.763 Y8.281 Z0.611 F500
G1 X35.746 Y8.281 Z0.560 F500
G1 X35.717 Y8.281 Z0.515 F500
G1 X35.680 Y8.281 Z0.477 F500
G1 X35.634 Y8.281 Z0.449 F500
G1 X35.584 Y8.281 Z0.431 F500
G1 X35.531 Y8.281 Z0.425 F500
G1 X35.293 Y8.281 Z0.425 F500
G1 X35.240 Y8.275 Z0.425 F500
G1 X35.189 Y8.257 Z0.425 F500
G1 X35.144 Y8.229 Z0.425 F500
G1 X35.107 Y8.191 Z0.425 F500
G1 X35.078 Y8.146 Z0.425 F500
G1 X35.061 Y8.096 Z0.425 F500
G1 X35.055 Y8.043 Z0.425 F500
G1 X35.055 Y0.085 Z0.425 F500
G1 X35.047 Y-0.049 Z0.425 F500
G1 X35.025 Y-0.181 Z0.425 F500
G1 X34.988 Y-0.309 Z0.425 F500
G1 X34.937 Y-0.432 Z0.425 F500
G1 X34.872 Y-0.549 Z0.425 F500
G1 X34.795 Y-0.658 Z0.425 F500
G1 X34.705 Y-0.758 Z0.425 F500
G1 X34.621 Y-0.843 Z0.425 F500
G1 X34.521 Y-0.932 Z0.425 F500
G1 X34.412 Y-1.009 Z0.425 F500
G1 X34.295 Y-1.073 Z0.425 F500
G1 X34.172 Y-1.124 Z0.425 F500
G1 X34.044 Y-1.161 Z0.425 F500
G1 X33.912 Y-1.184 Z0.425 F500
G1 X33.779 Y-1.191 Z0.425 F500
G1 X0.085 Y-1.191 Z0.425 F500
G1 X-0.049 Y-1.184 Z0.425 F500
G1 X-0.180 Y-1.161 Z0.425 F500
G1 X-0.309 Y-1.124 Z0.425 F500
G1 X-0.432 Y-1.073 Z0.425 F500
G1 X-0.549 Y-1.009 Z0.425 F500
G1 X-0.658 Y-0.931 Z0.425 F500
G1 X-0.758 Y-0.842 Z0.425 F500
G1 X-0.842 Y-0.758 Z0.425 F500
G1 X-0.931 Y-0.658 Z0.425 F500
G1 X-1.009 Y-0.549 Z0.425 F500
G1 X-1.073 Y-0.432 Z0.425 F500
G1 X-1.124 Y-0.309 Z0.425 F500
G1 X-1.161 Y-0.180 Z0.425 F500
G1 X-1.184 Y-0.049 Z0.425 F500
G1 X-1.191 Y0.085 Z0.425 F500
G1 X-1.191 Y16.000 Z0.425 F500
G1 X-1.184 Y16.134 Z0.425 F500
G1 X-1.161 Y16.265 Z0.425 F500
G1 X-1.124 Y16.394 Z0.425 F500
G1 X-1.073 Y16.517 Z0.425 F500
G1 X-1.009 Y16.634 Z0.425 F500
G1 X-0.932 Y16.743 Z0.425 F500
G1 X-0.843 Y16.843 Z0.425 F500
G1 X-0.758 Y16.927 Z0.425 F500
G1 X-0.658 Y17.016 Z0.425 F500
G1 X-0.549 Y17.094 Z0.425 F500
G1 X-0.432 Y17.158 Z0.425 F500
G1 X-0.309 Y17.209 Z0.425 F500
G1 X-0.181 Y17.246 Z0.425 F500
G1 X-0.049 Y17.269 Z0.425 F500
G1 X0.085 Y17.276 Z0.425 F500
G1 X33.779 Y17.276 Z0.425 F500
G1 X33.912 Y17.269 Z0.425 F500
G1 X34.044 Y17.246 Z0.425 F500
G1 X34.172 Y17.210 Z0.425 F500
G1 X34.295 Y17.158 Z0.425 F500
G1 X34.412 Y17.094 Z0.425 F500
G1 X34.521 Y17.016 Z0.425 F500
G1 X34.621 Y16.927 Z0.425 F500
G1 X34.706 Y16.843 Z0.425 F500
G1 X34.795 Y16.743 Z0.425 F500
G1 X34.872 Y16.634 Z0.425 F500
G1 X34.937 Y16.517 Z0.425 F500
G1 X34.988 Y16.394 Z0.425 F500
G1 X35.025 Y16.265 Z0.425 F500
G1 X35.047 Y16.134 Z0.425 F500
G1 X35.055 Y16.000 Z0.425 F500
G1 X35.055 Y8.043 Z0.425 F500
G1 X35.061 Y7.990 Z0.425 F500
G1 X35.078 Y7.939 Z0.425 F500
G1 X35.107 Y7.894 Z0.425 F500
G1 X35.144 Y7.856 Z0.425 F500
G1 X35.189 Y7.828 Z0.425 F500
G1 X35.240 Y7.810 Z0.425 F500
G1 X35.293 Y7.804 Z0.425 F500
G1 X35.531 Y7.804 Z0.425 F500
G1 X35.584 Y7.804 Z0.431 F500
G1 X35.634 Y7.804 Z0.449 F500
G1 X35.680 Y7.804 Z0.477 F500
G1 X35.717 Y7.804 Z0.515 F500
G1 X35.746 Y7.804 Z0.560 F500
G1 X35.763 Y7.804 Z0.611 F500
G1 X35.769 Y7.804 Z0.664 F500
G1 X35.769 Y7.804 Z6.825 F500
G1 X35.769 Y8.281 Z6.825 F500
G1 X35.769 Y8.281 Z0.902 F166.7
G1 X35.769 Y8.281 Z0.564 F166.7
G1 X35.763 Y8.281 Z0.511 F500
G1 X35.746 Y8.281 Z0.460 F500
G1 X35.717 Y8.281 Z0.415 F500
G1 X35.680 Y8.281 Z0.377 F500
G1 X35.634 Y8.281 Z0.349 F500
G1 X35.584 Y8.281 Z0.331 F500
G1 X35.531 Y8.281 Z0.325 F500
G1 X35.293 Y8.281 Z0.325 F500
G1 X35.240 Y8.275 Z0.325 F500
G1 X35.189 Y8.257 Z0.325 F500
G1 X35.144 Y8.229 Z0.325 F500
G1 X35.107 Y8.191 Z0.325 F500
G1 X35.078 Y8.146 Z0.325 F500
G1 X35.061 Y8.096 Z0.325 F500
G1 X35.055 Y8.043 Z0.325 F500
G1 X35.055 Y0.085 Z0.325 F500
G1 X35.047 Y-0.049 Z0.325 F500
G1 X35.025 Y-0.181 Z0.325 F500
G1 X34.988 Y-0.309 Z0.325 F500
G1 X34.937 Y-0.432 Z0.325 F500
G1 X34.872 Y-0.549 Z0.325 F500
G1 X34.795 Y-0.658 Z0.325 F500
G1 X34.705 Y-0.758 Z0.325 F500
G1 X34.621 Y-0.843 Z0.325 F500
G1 X34.521 Y-0.932 Z0.325 F500
G1 X34.412 Y-1.009 Z0.325 F500
G1 X34.295 Y-1.073 Z0.325 F500
G1 X34.172 Y-1.124 Z0.325 F500
G1 X34.044 Y-1.161 Z0.325 F500
G1 X33.912 Y-1.184 Z0.325 F500
G1 X33.779 Y-1.191 Z0.325 F500
G1 X0.085 Y-1.191 Z0.325 F500
G1 X-0.049 Y-1.184 Z0.325 F500
G1 X-0.180 Y-1.161 Z0.325 F500
G1 X-0.309 Y-1.124 Z0.325 F500
G1 X-0.432 Y-1.073 Z0.325 F500
G1 X-0.549 Y-1.009 Z0.325 F500
G1 X-0.658 Y-0.931 Z0.325 F500
G1 X-0.758 Y-0.842 Z0.325 F500
G1 X-0.842 Y-0.758 Z0.325 F500
G1 X-0.931 Y-0.658 Z0.325 F500
G1 X-1.009 Y-0.549 Z0.325 F500
G1 X-1.073 Y-0.432 Z0.325 F500
G1 X-1.124 Y-0.309 Z0.325 F500
G1 X-1.161 Y-0.180 Z0.325 F500
G1 X-1.184 Y-0.049 Z0.325 F500
G1 X-1.191 Y0.085 Z0.325 F500
G1 X-1.191 Y16.000 Z0.325 F500
G1 X-1.184 Y16.134 Z0.325 F500
G1 X-1.161 Y16.265 Z0.325 F500
G1 X-1.124 Y16.394 Z0.325 F500
G1 X-1.073 Y16.517 Z0.325 F500
G1 X-1.009 Y16.634 Z0.325 F500
G1 X-0.932 Y16.743 Z0.325 F500
G1 X-0.843 Y16.843 Z0.325 F500
G1 X-0.758 Y16.927 Z0.325 F500
G1 X-0.658 Y17.016 Z0.325 F500
G1 X-0.549 Y17.094 Z0.325 F500
G1 X-0.432 Y17.158 Z0.325 F500
G1 X-0.309 Y17.209 Z0.325 F500
G1 X-0.181 Y17.246 Z0.325 F500
G1 X-0.049 Y17.269 Z0.325 F500
G1 X0.085 Y17.276 Z0.325 F500
G1 X33.779 Y17.276 Z0.325 F500
G1 X33.912 Y17.269 Z0.325 F500
G1 X34.044 Y17.246 Z0.325 F500
G1 X34.172 Y17.210 Z0.325 F500
G1 X34.295 Y17.158 Z0.325 F500
G1 X34.412 Y17.094 Z0.325 F500
G1 X34.521 Y17.016 Z0.325 F500
G1 X34.621 Y16.927 Z0.325 F500
G1 X34.706 Y16.843 Z0.325 F500
G1 X34.795 Y16.743 Z0.325 F500
G1 X34.872 Y16.634 Z0.325 F500
G1 X34.937 Y16.517 Z0.325 F500
G1 X34.988 Y16.394 Z0.325 F500
G1 X35.025 Y16.265 Z0.325 F500
G1 X35.047 Y16.134 Z0.325 F500
G1 X35.055 Y16.000 Z0.325 F500
G1 X35.055 Y8.043 Z0.325 F500
G1 X35.061 Y7.990 Z0.325 F500
G1 X35.078 Y7.939 Z0.325 F500
G1 X35.107 Y7.894 Z0.325 F500
G1 X35.144 Y7.856 Z0.325 F500
G1 X35.189 Y7.828 Z0.325 F500
G1 X35.240 Y7.810 Z0.325 F500
G1 X35.293 Y7.804 Z0.325 F500
G1 X35.531 Y7.804 Z0.325 F500
G1 X35.584 Y7.804 Z0.331 F500
G1 X35.634 Y7.804 Z0.349 F500
G1 X35.680 Y7.804 Z0.377 F500
G1 X35.717 Y7.804 Z0.415 F500
G1 X35.746 Y7.804 Z0.460 F500
G1 X35.763 Y7.804 Z0.511 F500
G1 X35.769 Y7.804 Z0.564 F500
G1 X35.769 Y7.804 Z6.825 F500
G1 X35.769 Y8.281 Z6.825 F500
G1 X35.769 Y8.281 Z0.802 F166.7
G1 X35.769 Y8.281 Z0.464 F166.7
G1 X35.763 Y8.281 Z0.411 F500
G1 X35.746 Y8.281 Z0.360 F500
G1 X35.717 Y8.281 Z0.315 F500
G1 X35.680 Y8.281 Z0.277 F500
G1 X35.634 Y8.281 Z0.249 F500
G1 X35.584 Y8.281 Z0.231 F500
G1 X35.531 Y8.281 Z0.225 F500
G1 X35.293 Y8.281 Z0.225 F500
G1 X35.240 Y8.275 Z0.225 F500
G1 X35.189 Y8.257 Z0.225 F500
G1 X35.144 Y8.229 Z0.225 F500
G1 X35.107 Y8.191 Z0.225 F500
G1 X35.078 Y8.146 Z0.225 F500
G1 X35.061 Y8.096 Z0.225 F500
G1 X35.055 Y8.043 Z0.225 F500
G1 X35.055 Y0.085 Z0.225 F500
G1 X35.047 Y-0.049 Z0.225 F500
G1 X35.025 Y-0.181 Z0.225 F500
G1 X34.988 Y-0.309 Z0.225 F500
G1 X34.937 Y-0.432 Z0.225 F500
G1 X34.872 Y-0.549 Z0.225 F500
G1 X34.795 Y-0.658 Z0.225 F500
G1 X34.705 Y-0.758 Z0.225 F500
G1 X34.621 Y-0.843 Z0.225 F500
G1 X34.521 Y-0.932 Z0.225 F500
G1 X34.412 Y-1.009 Z0.225 F500
G1 X34.295 Y-1.073 Z0.225 F500
G1 X34.172 Y-1.124 Z0.225 F500
G1 X34.044 Y-1.161 Z0.225 F500
G1 X33.912 Y-1.184 Z0.225 F500
G1 X33.779 Y-1.191 Z0.225 F500
G1 X0.085 Y-1.191 Z0.225 F500
G1 X-0.049 Y-1.184 Z0.225 F500
G1 X-0.180 Y-1.161 Z0.225 F500
G1 X-0.309 Y-1.124 Z0.225 F500
G1 X-0.432 Y-1.073 Z0.225 F500
G1 X-0.549 Y-1.009 Z0.225 F500
G1 X-0.658 Y-0.931 Z0.225 F500
G1 X-0.758 Y-0.842 Z0.225 F500
G1 X-0.842 Y-0.758 Z0.225 F500
G1 X-0.931 Y-0.658 Z0.225 F500
G1 X-1.009 Y-0.549 Z0.225 F500
G1 X-1.073 Y-0.432 Z0.225 F500
G1 X-1.124 Y-0.309 Z0.225 F500
G1 X-1.161 Y-0.180 Z0.225 F500
G1 X-1.184 Y-0.049 Z0.225 F500
G1 X-1.191 Y0.085 Z0.225 F500
G1 X-1.191 Y16.000 Z0.225 F500
G1 X-1.184 Y16.134 Z0.225 F500
G1 X-1.161 Y16.265 Z0.225 F500
G1 X-1.124 Y16.394 Z0.225 F500
G1 X-1.073 Y16.517 Z0.225 F500
G1 X-1.009 Y16.634 Z0.225 F500
G1 X-0.932 Y16.743 Z0.225 F500
G1 X-0.843 Y16.843 Z0.225 F500
G1 X-0.758 Y16.927 Z0.225 F500
G1 X-0.658 Y17.016 Z0.225 F500
G1 X-0.549 Y17.094 Z0.225 F500
G1 X-0.432 Y17.158 Z0.225 F500
G1 X-0.309 Y17.209 Z0.225 F500
G1 X-0.181 Y17.246 Z0.225 F500
G1 X-0.049 Y17.269 Z0.225 F500
G1 X0.085 Y17.276 Z0.225 F500
G1 X33.779 Y17.276 Z0.225 F500
G1 X33.912 Y17.269 Z0.225 F500
G1 X34.044 Y17.246 Z0.225 F500
G1 X34.172 Y17.210 Z0.225 F500
G1 X34.295 Y17.158 Z0.225 F500
G1 X34.412 Y17.094 Z0.225 F500
G1 X34.521 Y17.016 Z0.225 F500
G1 X34.621 Y16.927 Z0.225 F500
G1 X34.706 Y16.843 Z0.225 F500
G1 X34.795 Y16.743 Z0.225 F500
G1 X34.872 Y16.634 Z0.225 F500
G1 X34.937 Y16.517 Z0.225 F500
G1 X34.988 Y16.394 Z0.225 F500
G1 X35.025 Y16.265 Z0.225 F500
G1 X35.047 Y16.134 Z0.225 F500
G1 X35.055 Y16.000 Z0.225 F500
G1 X35.055 Y8.043 Z0.225 F500
G1 X35.061 Y7.990 Z0.225 F500
G1 X35.078 Y7.939 Z0.225 F500
G1 X35.107 Y7.894 Z0.225 F500
G1 X35.144 Y7.856 Z0.225 F500
G1 X35.189 Y7.828 Z0.225 F500
G1 X35.240 Y7.810 Z0.225 F500
G1 X35.293 Y7.804 Z0.225 F500
G1 X35.531 Y7.804 Z0.225 F500
G1 X35.584 Y7.804 Z0.231 F500
G1 X35.634 Y7.804 Z0.249 F500
G1 X35.680 Y7.804 Z0.277 F500
G1 X35.717 Y7.804 Z0.315 F500
G1 X35.746 Y7.804 Z0.360 F500
G1 X35.763 Y7.804 Z0.411 F500
G1 X35.769 Y7.804 Z0.464 F500
G1 X35.769 Y7.804 Z6.825 F500
G1 X35.769 Y8.281 Z6.825 F500
G1 X35.769 Y8.281 Z0.702 F166.7
G1 X35.769 Y8.281 Z0.364 F166.7
G1 X35.763 Y8.281 Z0.311 F500
G1 X35.746 Y8.281 Z0.260 F500
G1 X35.717 Y8.281 Z0.215 F500
G1 X35.680 Y8.281 Z0.177 F500
G1 X35.634 Y8.281 Z0.149 F500
G1 X35.584 Y8.281 Z0.131 F500
G1 X35.531 Y8.281 Z0.125 F500
G1 X35.293 Y8.281 Z0.125 F500
G1 X35.240 Y8.275 Z0.125 F500
G1 X35.189 Y8.257 Z0.125 F500
G1 X35.144 Y8.229 Z0.125 F500
G1 X35.107 Y8.191 Z0.125 F500
G1 X35.078 Y8.146 Z0.125 F500
G1 X35.061 Y8.096 Z0.125 F500
G1 X35.055 Y8.043 Z0.125 F500
G1 X35.055 Y0.085 Z0.125 F500
G1 X35.047 Y-0.049 Z0.125 F500
G1 X35.025 Y-0.181 Z0.125 F500
G1 X34.988 Y-0.309 Z0.125 F500
G1 X34.937 Y-0.432 Z0.125 F500
G1 X34.872 Y-0.549 Z0.125 F500
G1 X34.795 Y-0.658 Z0.125 F500
G1 X34.705 Y-0.758 Z0.125 F500
G1 X34.621 Y-0.843 Z0.125 F500
G1 X34.521 Y-0.932 Z0.125 F500
G1 X34.412 Y-1.009 Z0.125 F500
G1 X34.295 Y-1.073 Z0.125 F500
G1 X34.172 Y-1.124 Z0.125 F500
G1 X34.044 Y-1.161 Z0.125 F500
G1 X33.912 Y-1.184 Z0.125 F500
G1 X33.779 Y-1.191 Z0.125 F500
G1 X0.085 Y-1.191 Z0.125 F500
G1 X-0.049 Y-1.184 Z0.125 F500
G1 X-0.180 Y-1.161 Z0.125 F500
G1 X-0.309 Y-1.124 Z0.125 F500
G1 X-0.432 Y-1.073 Z0.125 F500
G1 X-0.549 Y-1.009 Z0.125 F500
G1 X-0.658 Y-0.931 Z0.125 F500
G1 X-0.758 Y-0.842 Z0.125 F500
G1 X-0.842 Y-0.758 Z0.125 F500
G1 X-0.931 Y-0.658 Z0.125 F500
G1 X-1.009 Y-0.549 Z0.125 F500
G1 X-1.073 Y-0.432 Z0.125 F500
G1 X-1.124 Y-0.309 Z0.125 F500
G1 X-1.161 Y-0.180 Z0.125 F500
G1 X-1.184 Y-0.049 Z0.125 F500
G1 X-1.191 Y0.085 Z0.125 F500
G1 X-1.191 Y16.000 Z0.125 F500
G1 X-1.184 Y16.134 Z0.125 F500
G1 X-1.161 Y16.265 Z0.125 F500
G1 X-1.124 Y16.394 Z0.125 F500
G1 X-1.073 Y16.517 Z0.125 F500
G1 X-1.009 Y16.634 Z0.125 F500
G1 X-0.932 Y16.743 Z0.125 F500
G1 X-0.843 Y16.843 Z0.125 F500
G1 X-0.758 Y16.927 Z0.125 F500
G1 X-0.658 Y17.016 Z0.125 F500
G1 X-0.549 Y17.094 Z0.125 F500
G1 X-0.432 Y17.158 Z0.125 F500
G1 X-0.309 Y17.209 Z0.125 F500
G1 X-0.181 Y17.246 Z0.125 F500
G1 X-0.049 Y17.269 Z0.125 F500
G1 X0.085 Y17.276 Z0.125 F500
G1 X33.779 Y17.276 Z0.125 F500
G1 X33.912 Y17.269 Z0.125 F500
G1 X34.044 Y17.246 Z0.125 F500
G1 X34.172 Y17.210 Z0.125 F500
G1 X34.295 Y17.158 Z0.125 F500
G1 X34.412 Y17.094 Z0.125 F500
G1 X34.521 Y17.016 Z0.125 F500
G1 X34.621 Y16.927 Z0.125 F500
G1 X34.706 Y16.843 Z0.125 F500
G1 X34.795 Y16.743 Z0.125 F500
G1 X34.872 Y16.634 Z0.125 F500
G1 X34.937 Y16.517 Z0.125 F500
G1 X34.988 Y16.394 Z0.125 F500
G1 X35.025 Y16.265 Z0.125 F500
G1 X35.047 Y16.134 Z0.125 F500
G1 X35.055 Y16.000 Z0.125 F500
G1 X35.055 Y8.043 Z0.125 F500
G1 X35.061 Y7.990 Z0.125 F500
G1 X35.078 Y7.939 Z0.125 F500
G1 X35.107 Y7.894 Z0.125 F500
G1 X35.144 Y7.856 Z0.125 F500
G1 X35.189 Y7.828 Z0.125 F500
G1 X35.240 Y7.810 Z0.125 F500
G1 X35.293 Y7.804 Z0.125 F500
G1 X35.531 Y7.804 Z0.125 F500
G1 X35.584 Y7.804 Z0.131 F500
G1 X35.634 Y7.804 Z0.149 F500
G1 X35.680 Y7.804 Z0.177 F500
G1 X35.717 Y7.804 Z0.215 F500
G1 X35.746 Y7.804 Z0.260 F500
G1 X35.763 Y7.804 Z0.311 F500
G1 X35.769 Y7.804 Z0.364 F500
G1 X35.769 Y7.804 Z6.825 F500
G1 X35.769 Y8.281 Z6.825 F500
G1 X35.769 Y8.281 Z0.602 F166.7
G1 X35.769 Y8.281 Z0.264 F166.7
G1 X35.763 Y8.281 Z0.211 F500
G1 X35.746 Y8.281 Z0.160 F500
G1 X35.717 Y8.281 Z0.115 F500
G1 X35.680 Y8.281 Z0.077 F500
G1 X35.634 Y8.281 Z0.049 F500
G1 X35.584 Y8.281 Z0.031 F500
G1 X35.531 Y8.281 Z0.025 F500
G1 X35.293 Y8.281 Z0.025 F500
G1 X35.240 Y8.275 Z0.025 F500
G1 X35.189 Y8.257 Z0.025 F500
G1 X35.144 Y8.229 Z0.025 F500
G1 X35.107 Y8.191 Z0.025 F500
G1 X35.078 Y8.146 Z0.025 F500
G1 X35.061 Y8.096 Z0.025 F500
G1 X35.055 Y8.043 Z0.025 F500
G1 X35.055 Y0.085 Z0.025 F500
G1 X35.047 Y-0.049 Z0.025 F500
G1 X35.025 Y-0.181 Z0.025 F500
G1 X34.988 Y-0.309 Z0.025 F500
G1 X34.937 Y-0.432 Z0.025 F500
G1 X34.872 Y-0.549 Z0.025 F500
G1 X34.795 Y-0.658 Z0.025 F500
G1 X34.705 Y-0.758 Z0.025 F500
G1 X34.621 Y-0.843 Z0.025 F500
G1 X34.521 Y-0.932 Z0.025 F500
G1 X34.412 Y-1.009 Z0.025 F500
G1 X34.295 Y-1.073 Z0.025 F500
G1 X34.172 Y-1.124 Z0.025 F500
G1 X34.044 Y-1.161 Z0.025 F500
G1 X33.912 Y-1.184 Z0.025 F500
G1 X33.779 Y-1.191 Z0.025 F500
G1 X0.085 Y-1.191 Z0.025 F500
G1 X-0.049 Y-1.184 Z0.025 F500
G1 X-0.180 Y-1.161 Z0.025 F500
G1 X-0.309 Y-1.124 Z0.025 F500
G1 X-0.432 Y-1.073 Z0.025 F500
G1 X-0.549 Y-1.009 Z0.025 F500
G1 X-0.658 Y-0.931 Z0.025 F500
G1 X-0.758 Y-0.842 Z0.025 F500
G1 X-0.842 Y-0.758 Z0.025 F500
G1 X-0.931 Y-0.658 Z0.025 F500
G1 X-1.009 Y-0.549 Z0.025 F500
G1 X-1.073 Y-0.432 Z0.025 F500
G1 X-1.124 Y-0.309 Z0.025 F500
G1 X-1.161 Y-0.180 Z0.025 F500
G1 X-1.184 Y-0.049 Z0.025 F500
G1 X-1.191 Y0.085 Z0.025 F500
G1 X-1.191 Y16.000 Z0.025 F500
G1 X-1.184 Y16.134 Z0.025 F500
G1 X-1.161 Y16.265 Z0.025 F500
G1 X-1.124 Y16.394 Z0.025 F500
G1 X-1.073 Y16.517 Z0.025 F500
G1 X-1.009 Y16.634 Z0.025 F500
G1 X-0.932 Y16.743 Z0.025 F500
G1 X-0.843 Y16.843 Z0.025 F500
G1 X-0.758 Y16.927 Z0.025 F500
G1 X-0.658 Y17.016 Z0.025 F500
G1 X-0.549 Y17.094 Z0.025 F500
G1 X-0.432 Y17.158 Z0.025 F500
G1 X-0.309 Y17.209 Z0.025 F500
G1 X-0.181 Y17.246 Z0.025 F500
G1 X-0.049 Y17.269 Z0.025 F500
G1 X0.085 Y17.276 Z0.025 F500
G1 X33.779 Y17.276 Z0.025 F500
G1 X33.912 Y17.269 Z0.025 F500
G1 X34.044 Y17.246 Z0.025 F500
G1 X34.172 Y17.210 Z0.025 F500
G1 X34.295 Y17.158 Z0.025 F500
G1 X34.412 Y17.094 Z0.025 F500
G1 X34.521 Y17.016 Z0.025 F500
G1 X34.621 Y16.927 Z0.025 F500
G1 X34.706 Y16.843 Z0.025 F500
G1 X34.795 Y16.743 Z0.025 F500
G1 X34.872 Y16.634 Z0.025 F500
G1 X34.937 Y16.517 Z0.025 F500
G1 X34.988 Y16.394 Z0.025 F500
G1 X35.025 Y16.265 Z0.025 F500
G1 X35.047 Y16.134 Z0.025 F500
G1 X35.055 Y16.000 Z0.025 F500
G1 X35.055 Y8.043 Z0.025 F500
G1 X35.061 Y7.990 Z0.025 F500
G1 X35.078 Y7.939 Z0.025 F500
G1 X35.107 Y7.894 Z0.025 F500
G1 X35.144 Y7.856 Z0.025 F500
G1 X35.189 Y7.828 Z0.025 F500
G1 X35.240 Y7.810 Z0.025 F500
G1 X35.293 Y7.804 Z0.025 F500
G1 X35.531 Y7.804 Z0.025 F500
G1 X35.584 Y7.804 Z0.031 F500
G1 X35.634 Y7.804 Z0.049 F500
G1 X35.680 Y7.804 Z0.077 F500
G1 X35.717 Y7.804 Z0.115 F500
G1 X35.746 Y7.804 Z0.160 F500
G1 X35.763 Y7.804 Z0.211 F500
G1 X35.769 Y7.804 Z0.264 F500
G1 X35.769 Y7.804 Z6.825 F500
G1 X35.769 Y8.281 Z6.825 F500
G1 X35.769 Y8.281 Z0.502 F166.7
G1 X35.769 Y8.281 Z0.164 F166.7
G1 X35.763 Y8.281 Z0.111 F500
G1 X35.746 Y8.281 Z0.060 F500
G1 X35.717 Y8.281 Z0.015 F500
G1 X35.680 Y8.281 Z-0.023 F500
G1 X35.634 Y8.281 Z-0.051 F500
G1 X35.584 Y8.281 Z-0.069 F500
G1 X35.531 Y8.281 Z-0.075 F500
G1 X35.293 Y8.281 Z-0.075 F500
G1 X35.240 Y8.275 Z-0.075 F500
G1 X35.189 Y8.257 Z-0.075 F500
G1 X35.144 Y8.229 Z-0.075 F500
G1 X35.107 Y8.191 Z-0.075 F500
G1 X35.078 Y8.146 Z-0.075 F500
G1 X35.061 Y8.096 Z-0.075 F500
G1 X35.055 Y8.043 Z-0.075 F500
G1 X35.055 Y0.085 Z-0.075 F500
G1 X35.047 Y-0.049 Z-0.075 F500
G1 X35.025 Y-0.181 Z-0.075 F500
G1 X34.988 Y-0.309 Z-0.075 F500
G1 X34.937 Y-0.432 Z-0.075 F500
G1 X34.872 Y-0.549 Z-0.075 F500
G1 X34.795 Y-0.658 Z-0.075 F500
G1 X34.705 Y-0.758 Z-0.075 F500
G1 X34.621 Y-0.843 Z-0.075 F500
G1 X34.521 Y-0.932 Z-0.075 F500
G1 X34.412 Y-1.009 Z-0.075 F500
G1 X34.295 Y-1.073 Z-0.075 F500
G1 X34.172 Y-1.124 Z-0.075 F500
G1 X34.044 Y-1.161 Z-0.075 F500
G1 X33.912 Y-1.184 Z-0.075 F500
G1 X33.779 Y-1.191 Z-0.075 F500
G1 X0.085 Y-1.191 Z-0.075 F500
G1 X-0.049 Y-1.184 Z-0.075 F500
G1 X-0.180 Y-1.161 Z-0.075 F500
G1 X-0.309 Y-1.124 Z-0.075 F500
G1 X-0.432 Y-1.073 Z-0.075 F500
G1 X-0.549 Y-1.009 Z-0.075 F500
G1 X-0.658 Y-0.931 Z-0.075 F500
G1 X-0.758 Y-0.842 Z-0.075 F500
G1 X-0.842 Y-0.758 Z-0.075 F500
G1 X-0.931 Y-0.658 Z-0.075 F500
G1 X-1.009 Y-0.549 Z-0.075 F500
G1 X-1.073 Y-0.432 Z-0.075 F500
G1 X-1.124 Y-0.309 Z-0.075 F500
G1 X-1.161 Y-0.180 Z-0.075 F500
G1 X-1.184 Y-0.049 Z-0.075 F500
G1 X-1.191 Y0.085 Z-0.075 F500
G1 X-1.191 Y16.000 Z-0.075 F500
G1 X-1.184 Y16.134 Z-0.075 F500
G1 X-1.161 Y16.265 Z-0.075 F500
G1 X-1.124 Y16.394 Z-0.075 F500
G1 X-1.073 Y16.517 Z-0.075 F500
G1 X-1.009 Y16.634 Z-0.075 F500
G1 X-0.932 Y16.743 Z-0.075 F500
G1 X-0.843 Y16.843 Z-0.075 F500
G1 X-0.758 Y16.927 Z-0.075 F500
G1 X-0.658 Y17.016 Z-0.075 F500
G1 X-0.549 Y17.094 Z-0.075 F500
G1 X-0.432 Y17.158 Z-0.075 F500
G1 X-0.309 Y17.209 Z-0.075 F500
G1 X-0.181 Y17.246 Z-0.075 F500
G1 X-0.049 Y17.269 Z-0.075 F500
G1 X0.085 Y17.276 Z-0.075 F500
G1 X33.779 Y17.276 Z-0.075 F500
G1 X33.912 Y17.269 Z-0.075 F500
G1 X34.044 Y17.246 Z-0.075 F500
G1 X34.172 Y17.210 Z-0.075 F500
G1 X34.295 Y17.158 Z-0.075 F500
G1 X34.412 Y17.094 Z-0.075 F500
G1 X34.521 Y17.016 Z-0.075 F500
G1 X34.621 Y16.927 Z-0.075 F500
G1 X34.706 Y16.843 Z-0.075 F500
G1 X34.795 Y16.743 Z-0.075 F500
G1 X34.872 Y16.634 Z-0.075 F500
G1 X34.937 Y16.517 Z-0.075 F500
G1 X34.988 Y16.394 Z-0.075 F500
G1 X35.025 Y16.265 Z-0.075 F500
G1 X35.047 Y16.134 Z-0.075 F500
G1 X35.055 Y16.000 Z-0.075 F500
G1 X35.055 Y8.043 Z-0.075 F500
G1 X35.061 Y7.990 Z-0.075 F500
G1 X35.078 Y7.939 Z-0.075 F500
G1 X35.107 Y7.894 Z-0.075 F500
G1 X35.144 Y7.856 Z-0.075 F500
G1 X35.189 Y7.828 Z-0.075 F500
G1 X35.240 Y7.810 Z-0.075 F500
G1 X35.293 Y7.804 Z-0.075 F500
G1 X35.531 Y7.804 Z-0.075 F500
G1 X35.584 Y7.804 Z-0.069 F500
G1 X35.634 Y7.804 Z-0.051 F500
G1 X35.680 Y7.804 Z-0.023 F500
G1 X35.717 Y7.804 Z0.015 F500
G1 X35.746 Y7.804 Z0.060 F500
G1 X35.763 Y7.804 Z0.111 F500
G1 X35.769 Y7.804 Z0.164 F500
G1 X35.769 Y7.804 Z6.825 F500
G1 X35.769 Y8.281 Z6.825 F500
G1 X35.769 Y8.281 Z0.402 F166.7
G1 X35.769 Y8.281 Z0.064 F166.7
G1 X35.763 Y8.281 Z0.011 F500
G1 X35.746 Y8.281 Z-0.040 F500
G1 X35.717 Y8.281 Z-0.085 F500
G1 X35.680 Y8.281 Z-0.123 F500
G1 X35.634 Y8.281 Z-0.151 F500
G1 X35.584 Y8.281 Z-0.169 F500
G1 X35.531 Y8.281 Z-0.175 F500
G1 X35.293 Y8.281 Z-0.175 F500
G1 X35.240 Y8.275 Z-0.175 F500
G1 X35.189 Y8.257 Z-0.175 F500
G1 X35.144 Y8.229 Z-0.175 F500
G1 X35.107 Y8.191 Z-0.175 F500
G1 X35.078 Y8.146 Z-0.175 F500
G1 X35.061 Y8.096 Z-0.175 F500
G1 X35.055 Y8.043 Z-0.175 F500
G1 X35.055 Y0.085 Z-0.175 F500
G1 X35.047 Y-0.049 Z-0.175 F500
G1 X35.025 Y-0.181 Z-0.175 F500
G1 X34.988 Y-0.309 Z-0.175 F500
G1 X34.937 Y-0.432 Z-0.175 F500
G1 X34.872 Y-0.549 Z-0.175 F500
G1 X34.795 Y-0.658 Z-0.175 F500
G1 X34.705 Y-0.758 Z-0.175 F500
G1 X34.621 Y-0.843 Z-0.175 F500
G1 X34.521 Y-0.932 Z-0.175 F500
G1 X34.412 Y-1.009 Z-0.175 F500
G1 X34.295 Y-1.073 Z-0.175 F500
G1 X34.172 Y-1.124 Z-0.175 F500
G1 X34.044 Y-1.161 Z-0.175 F500
G1 X33.912 Y-1.184 Z-0.175 F500
G1 X33.779 Y-1.191 Z-0.175 F500
G1 X0.085 Y-1.191 Z-0.175 F500
G1 X-0.049 Y-1.184 Z-0.175 F500
G1 X-0.180 Y-1.161 Z-0.175 F500
G1 X-0.309 Y-1.124 Z-0.175 F500
G1 X-0.432 Y-1.073 Z-0.175 F500
G1 X-0.549 Y-1.009 Z-0.175 F500
G1 X-0.658 Y-0.931 Z-0.175 F500
G1 X-0.758 Y-0.842 Z-0.175 F500
G1 X-0.842 Y-0.758 Z-0.175 F500
G1 X-0.931 Y-0.658 Z-0.175 F500
G1 X-1.009 Y-0.549 Z-0.175 F500
G1 X-1.073 Y-0.432 Z-0.175 F500
G1 X-1.124 Y-0.309 Z-0.175 F500
G1 X-1.161 Y-0.180 Z-0.175 F500
G1 X-1.184 Y-0.049 Z-0.175 F500
G1 X-1.191 Y0.085 Z-0.175 F500
G1 X-1.191 Y16.000 Z-0.175 F500
G1 X-1.184 Y16.134 Z-0.175 F500
G1 X-1.161 Y16.265 Z-0.175 F500
G1 X-1.124 Y16.394 Z-0.175 F500
G1 X-1.073 Y16.517 Z-0.175 F500
G1 X-1.009 Y16.634 Z-0.175 F500
G1 X-0.932 Y16.743 Z-0.175 F500
G1 X-0.843 Y16.843 Z-0.175 F500
G1 X-0.758 Y16.927 Z-0.175 F500
G1 X-0.658 Y17.016 Z-0.175 F500
G1 X-0.549 Y17.094 Z-0.175 F500
G1 X-0.432 Y17.158 Z-0.175 F500
G1 X-0.309 Y17.209 Z-0.175 F500
G1 X-0.181 Y17.246 Z-0.175 F500
G1 X-0.049 Y17.269 Z-0.175 F500
G1 X0.085 Y17.276 Z-0.175 F500
G1 X33.779 Y17.276 Z-0.175 F500
G1 X33.912 Y17.269 Z-0.175 F500
G1 X34.044 Y17.246 Z-0.175 F500
G1 X34.172 Y17.210 Z-0.175 F500
G1 X34.295 Y17.158 Z-0.175 F500
G1 X34.412 Y17.094 Z-0.175 F500
G1 X34.521 Y17.016 Z-0.175 F500
G1 X34.621 Y16.927 Z-0.175 F500
G1 X34.706 Y16.843 Z-0.175 F500
G1 X34.795 Y16.743 Z-0.175 F500
G1 X34.872 Y16.634 Z-0.175 F500
G1 X34.937 Y16.517 Z-0.175 F500
G1 X34.988 Y16.394 Z-0.175 F500
G1 X35.025 Y16.265 Z-0.175 F500
G1 X35.047 Y16.134 Z-0.175 F500
G1 X35.055 Y16.000 Z-0.175 F500
G1 X35.055 Y8.043 Z-0.175 F500
G1 X35.061 Y7.990 Z-0.175 F500
G1 X35.078 Y7.939 Z-0.175 F500
G1 X35.107 Y7.894 Z-0.175 F500
G1 X35.144 Y7.856 Z-0.175 F500
G1 X35.189 Y7.828 Z-0.175 F500
G1 X35.240 Y7.810 Z-0.175 F500
G1 X35.293 Y7.804 Z-0.175 F500
G1 X35.531 Y7.804 Z-0.175 F500
G1 X35.584 Y7.804 Z-0.169 F500
G1 X35.634 Y7.804 Z-0.151 F500
G1 X35.680 Y7.804 Z-0.123 F500
G1 X35.717 Y7.804 Z-0.085 F500
G1 X35.746 Y7.804 Z-0.040 F500
G1 X35.763 Y7.804 Z0.011 F500
G1 X35.769 Y7.804 Z0.064 F500
G1 X35.769 Y7.804 Z6.825 F500
G1 X35.769 Y8.281 Z6.825 F500
G1 X35.769 Y8.281 Z0.302 F166.7
G1 X35.769 Y8.281 Z-0.036 F166.7
G1 X35.763 Y8.281 Z-0.089 F500
G1 X35.746 Y8.281 Z-0.140 F500
G1 X35.717 Y8.281 Z-0.185 F500
G1 X35.680 Y8.281 Z-0.223 F500
G1 X35.634 Y8.281 Z-0.251 F500
G1 X35.584 Y8.281 Z-0.269 F500
G1 X35.531 Y8.281 Z-0.275 F500
G1 X35.293 Y8.281 Z-0.275 F500
G1 X35.240 Y8.275 Z-0.275 F500
G1 X35.189 Y8.257 Z-0.275 F500
G1 X35.144 Y8.229 Z-0.275 F500
G1 X35.107 Y8.191 Z-0.275 F500
G1 X35.078 Y8.146 Z-0.275 F500
G1 X35.061 Y8.096 Z-0.275 F500
G1 X35.055 Y8.043 Z-0.275 F500
G1 X35.055 Y0.085 Z-0.275 F500
G1 X35.047 Y-0.049 Z-0.275 F500
G1 X35.025 Y-0.181 Z-0.275 F500
G1 X34.988 Y-0.309 Z-0.275 F500
G1 X34.937 Y-0.432 Z-0.275 F500
G1 X34.872 Y-0.549 Z-0.275 F500
G1 X34.795 Y-0.658 Z-0.275 F500
G1 X34.705 Y-0.758 Z-0.275 F500
G1 X34.621 Y-0.843 Z-0.275 F500
G1 X34.521 Y-0.932 Z-0.275 F500
G1 X34.412 Y-1.009 Z-0.275 F500
G1 X34.295 Y-1.073 Z-0.275 F500
G1 X34.172 Y-1.124 Z-0.275 F500
G1 X34.044 Y-1.161 Z-0.275 F500
G1 X33.912 Y-1.184 Z-0.275 F500
G1 X33.779 Y-1.191 Z-0.275 F500
G1 X0.085 Y-1.191 Z-0.275 F500
G1 X-0.049 Y-1.184 Z-0.275 F500
G1 X-0.180 Y-1.161 Z-0.275 F500
G1 X-0.309 Y-1.124 Z-0.275 F500
G1 X-0.432 Y-1.073 Z-0.275 F500
G1 X-0.549 Y-1.009 Z-0.275 F500
G1 X-0.658 Y-0.931 Z-0.275 F500
G1 X-0.758 Y-0.842 Z-0.275 F500
G1 X-0.842 Y-0.758 Z-0.275 F500
G1 X-0.931 Y-0.658 Z-0.275 F500
G1 X-1.009 Y-0.549 Z-0.275 F500
G1 X-1.073 Y-0.432 Z-0.275 F500
G1 X-1.124 Y-0.309 Z-0.275 F500
G1 X-1.161 Y-0.180 Z-0.275 F500
G1 X-1.184 Y-0.049 Z-0.275 F500
G1 X-1.191 Y0.085 Z-0.275 F500
G1 X-1.191 Y16.000 Z-0.275 F500
G1 X-1.184 Y16.134 Z-0.275 F500
G1 X-1.161 Y16.265 Z-0.275 F500
G1 X-1.124 Y16.394 Z-0.275 F500
G1 X-1.073 Y16.517 Z-0.275 F500
G1 X-1.009 Y16.634 Z-0.275 F500
G1 X-0.932 Y16.743 Z-0.275 F500
G1 X-0.843 Y16.843 Z-0.275 F500
G1 X-0.758 Y16.927 Z-0.275 F500
G1 X-0.658 Y17.016 Z-0.275 F500
G1 X-0.549 Y17.094 Z-0.275 F500
G1 X-0.432 Y17.158 Z-0.275 F500
G1 X-0.309 Y17.209 Z-0.275 F500
G1 X-0.181 Y17.246 Z-0.275 F500
G1 X-0.049 Y17.269 Z-0.275 F500
G1 X0.085 Y17.276 Z-0.275 F500
G1 X33.779 Y17.276 Z-0.275 F500
G1 X33.912 Y17.269 Z-0.275 F500
G1 X34.044 Y17.246 Z-0.275 F500
G1 X34.172 Y17.210 Z-0.275 F500
G1 X34.295 Y17.158 Z-0.275 F500
G1 X34.412 Y17.094 Z-0.275 F500
G1 X34.521 Y17.016 Z-0.275 F500
G1 X34.621 Y16.927 Z-0.275 F500
G1 X34.706 Y16.843 Z-0.275 F500
G1 X34.795 Y16.743 Z-0.275 F500
G1 X34.872 Y16.634 Z-0.275 F500
G1 X34.937 Y16.517 Z-0.275 F500
G1 X34.988 Y16.394 Z-0.275 F500
G1 X35.025 Y16.265 Z-0.275 F500
G1 X35.047 Y16.134 Z-0.275 F500
G1 X35.055 Y16.000 Z-0.275 F500
G1 X35.055 Y8.043 Z-0.275 F500
G1 X35.061 Y7.990 Z-0.275 F500
G1 X35.078 Y7.939 Z-0.275 F500
G1 X35.107 Y7.894 Z-0.275 F500
G1 X35.144 Y7.856 Z-0.275 F500
G1 X35.189 Y7.828 Z-0.275 F500
G1 X35.240 Y7.810 Z-0.275 F500
G1 X35.293 Y7.804 Z-0.275 F500
G1 X35.531 Y7.804 Z-0.275 F500
G1 X35.584 Y7.804 Z-0.269 F500
G1 X35.634 Y7.804 Z-0.251 F500
G1 X35.680 Y7.804 Z-0.223 F500
G1 X35.717 Y7.804 Z-0.185 F500
G1 X35.746 Y7.804 Z-0.140 F500
G1 X35.763 Y7.804 Z-0.089 F500
G1 X35.769 Y7.804 Z-0.036 F500
G1 X35.769 Y7.804 Z6.825 F500
G1 X35.769 Y8.281 Z6.825 F500
G1 X35.769 Y8.281 Z0.202 F166.7
G1 X35.769 Y8.281 Z-0.136 F166.7
G1 X35.763 Y8.281 Z-0.189 F500
G1 X35.746 Y8.281 Z-0.240 F500
G1 X35.717 Y8.281 Z-0.285 F500
G1 X35.680 Y8.281 Z-0.323 F500
G1 X35.634 Y8.281 Z-0.351 F500
G1 X35.584 Y8.281 Z-0.369 F500
G1 X35.531 Y8.281 Z-0.375 F500
G1 X35.293 Y8.281 Z-0.375 F500
G1 X35.240 Y8.275 Z-0.375 F500
G1 X35.189 Y8.257 Z-0.375 F500
G1 X35.144 Y8.229 Z-0.375 F500
G1 X35.107 Y8.191 Z-0.375 F500
G1 X35.078 Y8.146 Z-0.375 F500
G1 X35.061 Y8.096 Z-0.375 F500
G1 X35.055 Y8.043 Z-0.375 F500
G1 X35.055 Y0.085 Z-0.375 F500
G1 X35.047 Y-0.049 Z-0.375 F500
G1 X35.025 Y-0.181 Z-0.375 F500
G1 X34.988 Y-0.309 Z-0.375 F500
G1 X34.937 Y-0.432 Z-0.375 F500
G1 X34.872 Y-0.549 Z-0.375 F500
G1 X34.795 Y-0.658 Z-0.375 F500
G1 X34.705 Y-0.758 Z-0.375 F500
G1 X34.621 Y-0.843 Z-0.375 F500
G1 X34.521 Y-0.932 Z-0.375 F500
G1 X34.412 Y-1.009 Z-0.375 F500
G1 X34.295 Y-1.073 Z-0.375 F500
G1 X34.172 Y-1.124 Z-0.375 F500
G1 X34.044 Y-1.161 Z-0.375 F500
G1 X33.912 Y-1.184 Z-0.375 F500
G1 X33.779 Y-1.191 Z-0.375 F500
G1 X0.085 Y-1.191 Z-0.375 F500
G1 X-0.049 Y-1.184 Z-0.375 F500
G1 X-0.180 Y-1.161 Z-0.375 F500
G1 X-0.309 Y-1.124 Z-0.375 F500
G1 X-0.432 Y-1.073 Z-0.375 F500
G1 X-0.549 Y-1.009 Z-0.375 F500
G1 X-0.658 Y-0.931 Z-0.375 F500
G1 X-0.758 Y-0.842 Z-0.375 F500
G1 X-0.842 Y-0.758 Z-0.375 F500
G1 X-0.931 Y-0.658 Z-0.375 F500
G1 X-1.009 Y-0.549 Z-0.375 F500
G1 X-1.073 Y-0.432 Z-0.375 F500
G1 X-1.124 Y-0.309 Z-0.375 F500
G1 X-1.161 Y-0.180 Z-0.375 F500
G1 X-1.184 Y-0.049 Z-0.375 F500
G1 X-1.191 Y0.085 Z-0.375 F500
G1 X-1.191 Y16.000 Z-0.375 F500
G1 X-1.184 Y16.134 Z-0.375 F500
G1 X-1.161 Y16.265 Z-0.375 F500
G1 X-1.124 Y16.394 Z-0.375 F500
G1 X-1.073 Y16.517 Z-0.375 F500
G1 X-1.009 Y16.634 Z-0.375 F500
G1 X-0.932 Y16.743 Z-0.375 F500
G1 X-0.843 Y16.843 Z-0.375 F500
G1 X-0.758 Y16.927 Z-0.375 F500
G1 X-0.658 Y17.016 Z-0.375 F500
G1 X-0.549 Y17.094 Z-0.375 F500
G1 X-0.432 Y17.158 Z-0.375 F500
G1 X-0.309 Y17.209 Z-0.375 F500
G1 X-0.181 Y17.246 Z-0.375 F500
G1 X-0.049 Y17.269 Z-0.375 F500
G1 X0.085 Y17.276 Z-0.375 F500
G1 X33.779 Y17.276 Z-0.375 F500
G1 X33.912 Y17.269 Z-0.375 F500
G1 X34.044 Y17.246 Z-0.375 F500
G1 X34.172 Y17.210 Z-0.375 F500
G1 X34.295 Y17.158 Z-0.375 F500
G1 X34.412 Y17.094 Z-0.375 F500
G1 X34.521 Y17.016 Z-0.375 F500
G1 X34.621 Y16.927 Z-0.375 F500
G1 X34.706 Y16.843 Z-0.375 F500
G1 X34.795 Y16.743 Z-0.375 F500
G1 X34.872 Y16.634 Z-0.375 F500
G1 X34.937 Y16.517 Z-0.375 F500
G1 X34.988 Y16.394 Z-0.375 F500
G1 X35.025 Y16.265 Z-0.375 F500
G1 X35.047 Y16.134 Z-0.375 F500
G1 X35.055 Y16.000 Z-0.375 F500
G1 X35.055 Y8.043 Z-0.375 F500
G1 X35.061 Y7.990 Z-0.375 F500
G1 X35.078 Y7.939 Z-0.375 F500
G1 X35.107 Y7.894 Z-0.375 F500
G1 X35.144 Y7.856 Z-0.375 F500
G1 X35.189 Y7.828 Z-0.375 F500
G1 X35.240 Y7.810 Z-0.375 F500
G1 X35.293 Y7.804 Z-0.375 F500
G1 X35.531 Y7.804 Z-0.375 F500
G1 X35.584 Y7.804 Z-0.369 F500
G1 X35.634 Y7.804 Z-0.351 F500
G1 X35.680 Y7.804 Z-0.323 F500
G1 X35.717 Y7.804 Z-0.285 F500
G1 X35.746 Y7.804 Z-0.240 F500
G1 X35.763 Y7.804 Z-0.189 F500
G1 X35.769 Y7.804 Z-0.136 F500
G1 X35.769 Y7.804 Z6.825 F500
G1 X35.769 Y8.281 Z6.825 F500
G1 X35.769 Y8.281 Z0.102 F166.7
G1 X35.769 Y8.281 Z-0.236 F166.7
G1 X35.763 Y8.281 Z-0.289 F500
G1 X35.746 Y8.281 Z-0.340 F500
G1 X35.717 Y8.281 Z-0.385 F500
G1 X35.680 Y8.281 Z-0.423 F500
G1 X35.634 Y8.281 Z-0.451 F500
G1 X35.584 Y8.281 Z-0.469 F500
G1 X35.531 Y8.281 Z-0.475 F500
G1 X35.293 Y8.281 Z-0.475 F500
G1 X35.240 Y8.275 Z-0.475 F500
G1 X35.189 Y8.257 Z-0.475 F500
G1 X35.144 Y8.229 Z-0.475 F500
G1 X35.107 Y8.191 Z-0.475 F500
G1 X35.078 Y8.146 Z-0.475 F500
G1 X35.061 Y8.096 Z-0.475 F500
G1 X35.055 Y8.043 Z-0.475 F500
G1 X35.055 Y0.085 Z-0.475 F500
G1 X35.047 Y-0.049 Z-0.475 F500
G1 X35.025 Y-0.181 Z-0.475 F500
G1 X34.988 Y-0.309 Z-0.475 F500
G1 X34.937 Y-0.432 Z-0.475 F500
G1 X34.872 Y-0.549 Z-0.475 F500
G1 X34.795 Y-0.658 Z-0.475 F500
G1 X34.705 Y-0.758 Z-0.475 F500
G1 X34.621 Y-0.843 Z-0.475 F500
G1 X34.521 Y-0.932 Z-0.475 F500
G1 X34.412 Y-1.009 Z-0.475 F500
G1 X34.295 Y-1.073 Z-0.475 F500
G1 X34.172 Y-1.124 Z-0.475 F500
G1 X34.044 Y-1.161 Z-0.475 F500
G1 X33.912 Y-1.184 Z-0.475 F500
G1 X33.779 Y-1.191 Z-0.475 F500
G1 X0.085 Y-1.191 Z-0.475 F500
G1 X-0.049 Y-1.184 Z-0.475 F500
G1 X-0.180 Y-1.161 Z-0.475 F500
G1 X-0.309 Y-1.124 Z-0.475 F500
G1 X-0.432 Y-1.073 Z-0.475 F500
G1 X-0.549 Y-1.009 Z-0.475 F500
G1 X-0.658 Y-0.931 Z-0.475 F500
G1 X-0.758 Y-0.842 Z-0.475 F500
G1 X-0.842 Y-0.758 Z-0.475 F500
G1 X-0.931 Y-0.658 Z-0.475 F500
G1 X-1.009 Y-0.549 Z-0.475 F500
G1 X-1.073 Y-0.432 Z-0.475 F500
G1 X-1.124 Y-0.309 Z-0.475 F500
G1 X-1.161 Y-0.180 Z-0.475 F500
G1 X-1.184 Y-0.049 Z-0.475 F500
G1 X-1.191 Y0.085 Z-0.475 F500
G1 X-1.191 Y16.000 Z-0.475 F500
G1 X-1.184 Y16.134 Z-0.475 F500
G1 X-1.161 Y16.265 Z-0.475 F500
G1 X-1.124 Y16.394 Z-0.475 F500
G1 X-1.073 Y16.517 Z-0.475 F500
G1 X-1.009 Y16.634 Z-0.475 F500
G1 X-0.932 Y16.743 Z-0.475 F500
G1 X-0.843 Y16.843 Z-0.475 F500
G1 X-0.758 Y16.927 Z-0.475 F500
G1 X-0.658 Y17.016 Z-0.475 F500
G1 X-0.549 Y17.094 Z-0.475 F500
G1 X-0.432 Y17.158 Z-0.475 F500
G1 X-0.309 Y17.209 Z-0.475 F500
G1 X-0.181 Y17.246 Z-0.475 F500
G1 X-0.049 Y17.269 Z-0.475 F500
G1 X0.085 Y17.276 Z-0.475 F500
G1 X33.779 Y17.276 Z-0.475 F500
G1 X33.912 Y17.269 Z-0.475 F500
G1 X34.044 Y17.246 Z-0.475 F500
G1 X34.172 Y17.210 Z-0.475 F500
G1 X34.295 Y17.158 Z-0.475 F500
G1 X34.412 Y17.094 Z-0.475 F500
G1 X34.521 Y17.016 Z-0.475 F500
G1 X34.621 Y16.927 Z-0.475 F500
G1 X34.706 Y16.843 Z-0.475 F500
G1 X34.795 Y16.743 Z-0.475 F500
G1 X34.872 Y16.634 Z-0.475 F500
G1 X34.937 Y16.517 Z-0.475 F500
G1 X34.988 Y16.394 Z-0.475 F500
G1 X35.025 Y16.265 Z-0.475 F500
G1 X35.047 Y16.134 Z-0.475 F500
G1 X35.055 Y16.000 Z-0.475 F500
G1 X35.055 Y8.043 Z-0.475 F500
G1 X35.061 Y7.990 Z-0.475 F500
G1 X35.078 Y7.939 Z-0.475 F500
G1 X35.107 Y7.894 Z-0.475 F500
G1 X35.144 Y7.856 Z-0.475 F500
G1 X35.189 Y7.828 Z-0.475 F500
G1 X35.240 Y7.810 Z-0.475 F500
G1 X35.293 Y7.804 Z-0.475 F500
G1 X35.531 Y7.804 Z-0.475 F500
G1 X35.584 Y7.804 Z-0.469 F500
G1 X35.634 Y7.804 Z-0.451 F500
G1 X35.680 Y7.804 Z-0.423 F500
G1 X35.717 Y7.804 Z-0.385 F500
G1 X35.746 Y7.804 Z-0.340 F500
G1 X35.763 Y7.804 Z-0.289 F500
G1 X35.769 Y7.804 Z-0.236 F500
G1 X35.769 Y7.804 Z6.825 F500
G1 X35.769 Y8.281 Z6.825 F500
G1 X35.769 Y8.281 Z0.002 F166.7
G1 X35.769 Y8.281 Z-0.336 F166.7
G1 X35.763 Y8.281 Z-0.389 F500
G1 X35.746 Y8.281 Z-0.440 F500
G1 X35.717 Y8.281 Z-0.485 F500
G1 X35.680 Y8.281 Z-0.523 F500
G1 X35.634 Y8.281 Z-0.551 F500
G1 X35.584 Y8.281 Z-0.569 F500
G1 X35.531 Y8.281 Z-0.575 F500
G1 X35.293 Y8.281 Z-0.575 F500
G1 X35.240 Y8.275 Z-0.575 F500
G1 X35.189 Y8.257 Z-0.575 F500
G1 X35.144 Y8.229 Z-0.575 F500
G1 X35.107 Y8.191 Z-0.575 F500
G1 X35.078 Y8.146 Z-0.575 F500
G1 X35.061 Y8.096 Z-0.575 F500
G1 X35.055 Y8.043 Z-0.575 F500
G1 X35.055 Y0.085 Z-0.575 F500
G1 X35.047 Y-0.049 Z-0.575 F500
G1 X35.025 Y-0.181 Z-0.575 F500
G1 X34.988 Y-0.309 Z-0.575 F500
G1 X34.937 Y-0.432 Z-0.575 F500
G1 X34.872 Y-0.549 Z-0.575 F500
G1 X34.795 Y-0.658 Z-0.575 F500
G1 X34.705 Y-0.758 Z-0.575 F500
G1 X34.621 Y-0.843 Z-0.575 F500
G1 X34.521 Y-0.932 Z-0.575 F500
G1 X34.412 Y-1.009 Z-0.575 F500
G1 X34.295 Y-1.073 Z-0.575 F500
G1 X34.172 Y-1.124 Z-0.575 F500
G1 X34.044 Y-1.161 Z-0.575 F500
G1 X33.912 Y-1.184 Z-0.575 F500
G1 X33.779 Y-1.191 Z-0.575 F500
G1 X0.085 Y-1.191 Z-0.575 F500
G1 X-0.049 Y-1.184 Z-0.575 F500
G1 X-0.180 Y-1.161 Z-0.575 F500
G1 X-0.309 Y-1.124 Z-0.575 F500
G1 X-0.432 Y-1.073 Z-0.575 F500
G1 X-0.549 Y-1.009 Z-0.575 F500
G1 X-0.658 Y-0.931 Z-0.575 F500
G1 X-0.758 Y-0.842 Z-0.575 F500
G1 X-0.842 Y-0.758 Z-0.575 F500
G1 X-0.931 Y-0.658 Z-0.575 F500
G1 X-1.009 Y-0.549 Z-0.575 F500
G1 X-1.073 Y-0.432 Z-0.575 F500
G1 X-1.124 Y-0.309 Z-0.575 F500
G1 X-1.161 Y-0.180 Z-0.575 F500
G1 X-1.184 Y-0.049 Z-0.575 F500
G1 X-1.191 Y0.085 Z-0.575 F500
G1 X-1.191 Y16.000 Z-0.575 F500
G1 X-1.184 Y16.134 Z-0.575 F500
G1 X-1.161 Y16.265 Z-0.575 F500
G1 X-1.124 Y16.394 Z-0.575 F500
G1 X-1.073 Y16.517 Z-0.575 F500
G1 X-1.009 Y16.634 Z-0.575 F500
G1 X-0.932 Y16.743 Z-0.575 F500
G1 X-0.843 Y16.843 Z-0.575 F500
G1 X-0.758 Y16.927 Z-0.575 F500
G1 X-0.658 Y17.016 Z-0.575 F500
G1 X-0.549 Y17.094 Z-0.575 F500
G1 X-0.432 Y17.158 Z-0.575 F500
G1 X-0.309 Y17.209 Z-0.575 F500
G1 X-0.181 Y17.246 Z-0.575 F500
G1 X-0.049 Y17.269 Z-0.575 F500
G1 X0.085 Y17.276 Z-0.575 F500
G1 X33.779 Y17.276 Z-0.575 F500
G1 X33.912 Y17.269 Z-0.575 F500
G1 X34.044 Y17.246 Z-0.575 F500
G1 X34.172 Y17.210 Z-0.575 F500
G1 X34.295 Y17.158 Z-0.575 F500
G1 X34.412 Y17.094 Z-0.575 F500
G1 X34.521 Y17.016 Z-0.575 F500
G1 X34.621 Y16.927 Z-0.575 F500
G1 X34.706 Y16.843 Z-0.575 F500
G1 X34.795 Y16.743 Z-0.575 F500
G1 X34.872 Y16.634 Z-0.575 F500
G1 X34.937 Y16.517 Z-0.575 F500
G1 X34.988 Y16.394 Z-0.575 F500
G1 X35.025 Y16.265 Z-0.575 F500
G1 X35.047 Y16.134 Z-0.575 F500
G1 X35.055 Y16.000 Z-0.575 F500
G1 X35.055 Y8.043 Z-0.575 F500
G1 X35.061 Y7.990 Z-0.575 F500
G1 X35.078 Y7.939 Z-0.575 F500
G1 X35.107 Y7.894 Z-0.575 F500
G1 X35.144 Y7.856 Z-0.575 F500
G1 X35.189 Y7.828 Z-0.575 F500
G1 X35.240 Y7.810 Z-0.575 F500
G1 X35.293 Y7.804 Z-0.575 F500
G1 X35.531 Y7.804 Z-0.575 F500
G1 X35.584 Y7.804 Z-0.569 F500
G1 X35.634 Y7.804 Z-0.551 F500
G1 X35.680 Y7.804 Z-0.523 F500
G1 X35.717 Y7.804 Z-0.485 F500
G1 X35.746 Y7.804 Z-0.440 F500
G1 X35.763 Y7.804 Z-0.389 F500
G1 X35.769 Y7.804 Z-0.336 F500
G1 X35.769 Y7.804 Z6.825 F500
G1 X35.769 Y8.281 Z6.825 F500
G1 X35.769 Y8.281 Z-0.098 F166.7
G1 X35.769 Y8.281 Z-0.436 F166.7
G1 X35.763 Y8.281 Z-0.489 F500
G1 X35.746 Y8.281 Z-0.540 F500
G1 X35.717 Y8.281 Z-0.585 F500
G1 X35.680 Y8.281 Z-0.623 F500
G1 X35.634 Y8.281 Z-0.651 F500
G1 X35.584 Y8.281 Z-0.669 F500
G1 X35.531 Y8.281 Z-0.675 F500
G1 X35.293 Y8.281 Z-0.675 F500
G1 X35.240 Y8.275 Z-0.675 F500
G1 X35.189 Y8.257 Z-0.675 F500
G1 X35.144 Y8.229 Z-0.675 F500
G1 X35.107 Y8.191 Z-0.675 F500
G1 X35.078 Y8.146 Z-0.675 F500
G1 X35.061 Y8.096 Z-0.675 F500
G1 X35.055 Y8.043 Z-0.675 F500
G1 X35.055 Y0.085 Z-0.675 F500
G1 X35.047 Y-0.049 Z-0.675 F500
G1 X35.025 Y-0.181 Z-0.675 F500
G1 X34.988 Y-0.309 Z-0.675 F500
G1 X34.937 Y-0.432 Z-0.675 F500
G1 X34.872 Y-0.549 Z-0.675 F500
G1 X34.795 Y-0.658 Z-0.675 F500
G1 X34.705 Y-0.758 Z-0.675 F500
G1 X34.621 Y-0.843 Z-0.675 F500
G1 X34.521 Y-0.932 Z-0.675 F500
G1 X34.412 Y-1.009 Z-0.675 F500
G1 X34.295 Y-1.073 Z-0.675 F500
G1 X34.172 Y-1.124 Z-0.675 F500
G1 X34.044 Y-1.161 Z-0.675 F500
G1 X33.912 Y-1.184 Z-0.675 F500
G1 X33.779 Y-1.191 Z-0.675 F500
G1 X0.085 Y-1.191 Z-0.675 F500
G1 X-0.049 Y-1.184 Z-0.675 F500
G1 X-0.180 Y-1.161 Z-0.675 F500
G1 X-0.309 Y-1.124 Z-0.675 F500
G1 X-0.432 Y-1.073 Z-0.675 F500
G1 X-0.549 Y-1.009 Z-0.675 F500
G1 X-0.658 Y-0.931 Z-0.675 F500
G1 X-0.758 Y-0.842 Z-0.675 F500
G1 X-0.842 Y-0.758 Z-0.675 F500
G1 X-0.931 Y-0.658 Z-0.675 F500
G1 X-1.009 Y-0.549 Z-0.675 F500
G1 X-1.073 Y-0.432 Z-0.675 F500
G1 X-1.124 Y-0.309 Z-0.675 F500
G1 X-1.161 Y-0.180 Z-0.675 F500
G1 X-1.184 Y-0.049 Z-0.675 F500
G1 X-1.191 Y0.085 Z-0.675 F500
G1 X-1.191 Y16.000 Z-0.675 F500
G1 X-1.184 Y16.134 Z-0.675 F500
G1 X-1.161 Y16.265 Z-0.675 F500
G1 X-1.124 Y16.394 Z-0.675 F500
G1 X-1.073 Y16.517 Z-0.675 F500
G1 X-1.009 Y16.634 Z-0.675 F500
G1 X-0.932 Y16.743 Z-0.675 F500
G1 X-0.843 Y16.843 Z-0.675 F500
G1 X-0.758 Y16.927 Z-0.675 F500
G1 X-0.658 Y17.016 Z-0.675 F500
G1 X-0.549 Y17.094 Z-0.675 F500
G1 X-0.432 Y17.158 Z-0.675 F500
G1 X-0.309 Y17.209 Z-0.675 F500
G1 X-0.181 Y17.246 Z-0.675 F500
G1 X-0.049 Y17.269 Z-0.675 F500
G1 X0.085 Y17.276 Z-0.675 F500
G1 X33.779 Y17.276 Z-0.675 F500
G1 X33.912 Y17.269 Z-0.675 F500
G1 X34.044 Y17.246 Z-0.675 F500
G1 X34.172 Y17.210 Z-0.675 F500
G1 X34.295 Y17.158 Z-0.675 F500
G1 X34.412 Y17.094 Z-0.675 F500
G1 X34.521 Y17.016 Z-0.675 F500
G1 X34.621 Y16.927 Z-0.675 F500
G1 X34.706 Y16.843 Z-0.675 F500
G1 X34.795 Y16.743 Z-0.675 F500
G1 X34.872 Y16.634 Z-0.675 F500
G1 X34.937 Y16.517 Z-0.675 F500
G1 X34.988 Y16.394 Z-0.675 F500
G1 X35.025 Y16.265 Z-0.675 F500
G1 X35.047 Y16.134 Z-0.675 F500
G1 X35.055 Y16.000 Z-0.675 F500
G1 X35.055 Y8.043 Z-0.675 F500
G1 X35.061 Y7.990 Z-0.675 F500
G1 X35.078 Y7.939 Z-0.675 F500
G1 X35.107 Y7.894 Z-0.675 F500
G1 X35.144 Y7.856 Z-0.675 F500
G1 X35.189 Y7.828 Z-0.675 F500
G1 X35.240 Y7.810 Z-0.675 F500
G1 X35.293 Y7.804 Z-0.675 F500
G1 X35.531 Y7.804 Z-0.675 F500
G1 X35.584 Y7.804 Z-0.669 F500
G1 X35.634 Y7.804 Z-0.651 F500
G1 X35.680 Y7.804 Z-0.623 F500
G1 X35.717 Y7.804 Z-0.585 F500
G1 X35.746 Y7.804 Z-0.540 F500
G1 X35.763 Y7.804 Z-0.489 F500
G1 X35.769 Y7.804 Z-0.436 F500
G1 X35.769 Y7.804 Z6.825 F500
G1 X35.769 Y8.281 Z6.825 F500
G1 X35.769 Y8.281 Z-0.198 F166.7
G1 X35.769 Y8.281 Z-0.536 F166.7
G1 X35.763 Y8.281 Z-0.589 F500
G1 X35.746 Y8.281 Z-0.640 F500
G1 X35.717 Y8.281 Z-0.685 F500
G1 X35.680 Y8.281 Z-0.723 F500
G1 X35.634 Y8.281 Z-0.751 F500
G1 X35.584 Y8.281 Z-0.769 F500
G1 X35.531 Y8.281 Z-0.775 F500
G1 X35.293 Y8.281 Z-0.775 F500
G1 X35.240 Y8.275 Z-0.775 F500
G1 X35.189 Y8.257 Z-0.775 F500
G1 X35.144 Y8.229 Z-0.775 F500
G1 X35.107 Y8.191 Z-0.775 F500
G1 X35.078 Y8.146 Z-0.775 F500
G1 X35.061 Y8.096 Z-0.775 F500
G1 X35.055 Y8.043 Z-0.775 F500
G1 X35.055 Y0.085 Z-0.775 F500
G1 X35.047 Y-0.049 Z-0.775 F500
G1 X35.025 Y-0.181 Z-0.775 F500
G1 X34.988 Y-0.309 Z-0.775 F500
G1 X34.937 Y-0.432 Z-0.775 F500
G1 X34.872 Y-0.549 Z-0.775 F500
G1 X34.795 Y-0.658 Z-0.775 F500
G1 X34.705 Y-0.758 Z-0.775 F500
G1 X34.621 Y-0.843 Z-0.775 F500
G1 X34.521 Y-0.932 Z-0.775 F500
G1 X34.412 Y-1.009 Z-0.775 F500
G1 X34.295 Y-1.073 Z-0.775 F500
G1 X34.172 Y-1.124 Z-0.775 F500
G1 X34.044 Y-1.161 Z-0.775 F500
G1 X33.912 Y-1.184 Z-0.775 F500
G1 X33.779 Y-1.191 Z-0.775 F500
G1 X0.085 Y-1.191 Z-0.775 F500
G1 X-0.049 Y-1.184 Z-0.775 F500
G1 X-0.180 Y-1.161 Z-0.775 F500
G1 X-0.309 Y-1.124 Z-0.775 F500
G1 X-0.432 Y-1.073 Z-0.775 F500
G1 X-0.549 Y-1.009 Z-0.775 F500
G1 X-0.658 Y-0.931 Z-0.775 F500
G1 X-0.758 Y-0.842 Z-0.775 F500
G1 X-0.842 Y-0.758 Z-0.775 F500
G1 X-0.931 Y-0.658 Z-0.775 F500
G1 X-1.009 Y-0.549 Z-0.775 F500
G1 X-1.073 Y-0.432 Z-0.775 F500
G1 X-1.124 Y-0.309 Z-0.775 F500
G1 X-1.161 Y-0.180 Z-0.775 F500
G1 X-1.184 Y-0.049 Z-0.775 F500
G1 X-1.191 Y0.085 Z-0.775 F500
G1 X-1.191 Y16.000 Z-0.775 F500
G1 X-1.184 Y16.134 Z-0.775 F500
G1 X-1.161 Y16.265 Z-0.775 F500
G1 X-1.124 Y16.394 Z-0.775 F500
G1 X-1.073 Y16.517 Z-0.775 F500
G1 X-1.009 Y16.634 Z-0.775 F500
G1 X-0.932 Y16.743 Z-0.775 F500
G1 X-0.843 Y16.843 Z-0.775 F500
G1 X-0.758 Y16.927 Z-0.775 F500
G1 X-0.658 Y17.016 Z-0.775 F500
G1 X-0.549 Y17.094 Z-0.775 F500
G1 X-0.432 Y17.158 Z-0.775 F500
G1 X-0.309 Y17.209 Z-0.775 F500
G1 X-0.181 Y17.246 Z-0.775 F500
G1 X-0.049 Y17.269 Z-0.775 F500
G1 X0.085 Y17.276 Z-0.775 F500
G1 X33.779 Y17.276 Z-0.775 F500
G1 X33.912 Y17.269 Z-0.775 F500
G1 X34.044 Y17.246 Z-0.775 F500
G1 X34.172 Y17.210 Z-0.775 F500
G1 X34.295 Y17.158 Z-0.775 F500
G1 X34.412 Y17.094 Z-0.775 F500
G1 X34.521 Y17.016 Z-0.775 F500
G1 X34.621 Y16.927 Z-0.775 F500
G1 X34.706 Y16.843 Z-0.775 F500
G1 X34.795 Y16.743 Z-0.775 F500
G1 X34.872 Y16.634 Z-0.775 F500
G1 X34.937 Y16.517 Z-0.775 F500
G1 X34.988 Y16.394 Z-0.775 F500
G1 X35.025 Y16.265 Z-0.775 F500
G1 X35.047 Y16.134 Z-0.775 F500
G1 X35.055 Y16.000 Z-0.775 F500
G1 X35.055 Y8.043 Z-0.775 F500
G1 X35.061 Y7.990 Z-0.775 F500
G1 X35.078 Y7.939 Z-0.775 F500
G1 X35.107 Y7.894 Z-0.775 F500
G1 X35.144 Y7.856 Z-0.775 F500
G1 X35.189 Y7.828 Z-0.775 F500
G1 X35.240 Y7.810 Z-0.775 F500
G1 X35.293 Y7.804 Z-0.775 F500
G1 X35.531 Y7.804 Z-0.775 F500
G1 X35.584 Y7.804 Z-0.769 F500
G1 X35.634 Y7.804 Z-0.751 F500
G1 X35.680 Y7.804 Z-0.723 F500
G1 X35.717 Y7.804 Z-0.685 F500
G1 X35.746 Y7.804 Z-0.640 F500
G1 X35.763 Y7.804 Z-0.589 F500
G1 X35.769 Y7.804 Z-0.536 F500
G1 X35.769 Y7.804 Z6.825 F500
G1 X35.769 Y8.281 Z6.825 F500
G1 X35.769 Y8.281 Z-0.298 F166.7
G1 X35.769 Y8.281 Z-0.636 F166.7
G1 X35.763 Y8.281 Z-0.689 F500
G1 X35.746 Y8.281 Z-0.740 F500
G1 X35.717 Y8.281 Z-0.785 F500
G1 X35.680 Y8.281 Z-0.823 F500
G1 X35.634 Y8.281 Z-0.851 F500
G1 X35.584 Y8.281 Z-0.869 F500
G1 X35.531 Y8.281 Z-0.875 F500
G1 X35.293 Y8.281 Z-0.875 F500
G1 X35.240 Y8.275 Z-0.875 F500
G1 X35.189 Y8.257 Z-0.875 F500
G1 X35.144 Y8.229 Z-0.875 F500
G1 X35.107 Y8.191 Z-0.875 F500
G1 X35.078 Y8.146 Z-0.875 F500
G1 X35.061 Y8.096 Z-0.875 F500
G1 X35.055 Y8.043 Z-0.875 F500
G1 X35.055 Y0.085 Z-0.875 F500
G1 X35.047 Y-0.049 Z-0.875 F500
G1 X35.025 Y-0.181 Z-0.875 F500
G1 X34.988 Y-0.309 Z-0.875 F500
G1 X34.937 Y-0.432 Z-0.875 F500
G1 X34.872 Y-0.549 Z-0.875 F500
G1 X34.795 Y-0.658 Z-0.875 F500
G1 X34.705 Y-0.758 Z-0.875 F500
G1 X34.621 Y-0.843 Z-0.875 F500
G1 X34.521 Y-0.932 Z-0.875 F500
G1 X34.412 Y-1.009 Z-0.875 F500
G1 X34.295 Y-1.073 Z-0.875 F500
G1 X34.172 Y-1.124 Z-0.875 F500
G1 X34.044 Y-1.161 Z-0.875 F500
G1 X33.912 Y-1.184 Z-0.875 F500
G1 X33.779 Y-1.191 Z-0.875 F500
G1 X0.085 Y-1.191 Z-0.875 F500
G1 X-0.049 Y-1.184 Z-0.875 F500
G1 X-0.180 Y-1.161 Z-0.875 F500
G1 X-0.309 Y-1.124 Z-0.875 F500
G1 X-0.432 Y-1.073 Z-0.875 F500
G1 X-0.549 Y-1.009 Z-0.875 F500
G1 X-0.658 Y-0.931 Z-0.875 F500
G1 X-0.758 Y-0.842 Z-0.875 F500
G1 X-0.842 Y-0.758 Z-0.875 F500
G1 X-0.931 Y-0.658 Z-0.875 F500
G1 X-1.009 Y-0.549 Z-0.875 F500
G1 X-1.073 Y-0.432 Z-0.875 F500
G1 X-1.124 Y-0.309 Z-0.875 F500
G1 X-1.161 Y-0.180 Z-0.875 F500
G1 X-1.184 Y-0.049 Z-0.875 F500
G1 X-1.191 Y0.085 Z-0.875 F500
G1 X-1.191 Y16.000 Z-0.875 F500
G1 X-1.184 Y16.134 Z-0.875 F500
G1 X-1.161 Y16.265 Z-0.875 F500
G1 X-1.124 Y16.394 Z-0.875 F500
G1 X-1.073 Y16.517 Z-0.875 F500
G1 X-1.009 Y16.634 Z-0.875 F500
G1 X-0.932 Y16.743 Z-0.875 F500
G1 X-0.843 Y16.843 Z-0.875 F500
G1 X-0.758 Y16.927 Z-0.875 F500
G1 X-0.658 Y17.016 Z-0.875 F500
G1 X-0.549 Y17.094 Z-0.875 F500
G1 X-0.432 Y17.158 Z-0.875 F500
G1 X-0.309 Y17.209 Z-0.875 F500
G1 X-0.181 Y17.246 Z-0.875 F500
G1 X-0.049 Y17.269 Z-0.875 F500
G1 X0.085 Y17.276 Z-0.875 F500
G1 X33.779 Y17.276 Z-0.875 F500
G1 X33.912 Y17.269 Z-0.875 F500
G1 X34.044 Y17.246 Z-0.875 F500
G1 X34.172 Y17.210 Z-0.875 F500
G1 X34.295 Y17.158 Z-0.875 F500
G1 X34.412 Y17.094 Z-0.875 F500
G1 X34.521 Y17.016 Z-0.875 F500
G1 X34.621 Y16.927 Z-0.875 F500
G1 X34.706 Y16.843 Z-0.875 F500
G1 X34.795 Y16.743 Z-0.875 F500
G1 X34.872 Y16.634 Z-0.875 F500
G1 X34.937 Y16.517 Z-0.875 F500
G1 X34.988 Y16.394 Z-0.875 F500
G1 X35.025 Y16.265 Z-0.875 F500
G1 X35.047 Y16.134 Z-0.875 F500
G1 X35.055 Y16.000 Z-0.875 F500
G1 X35.055 Y8.043 Z-0.875 F500
G1 X35.061 Y7.990 Z-0.875 F500
G1 X35.078 Y7.939 Z-0.875 F500
G1 X35.107 Y7.894 Z-0.875 F500
G1 X35.144 Y7.856 Z-0.875 F500
G1 X35.189 Y7.828 Z-0.875 F500
G1 X35.240 Y7.810 Z-0.875 F500
G1 X35.293 Y7.804 Z-0.875 F500
G1 X35.531 Y7.804 Z-0.875 F500
G1 X35.584 Y7.804 Z-0.869 F500
G1 X35.634 Y7.804 Z-0.851 F500
G1 X35.680 Y7.804 Z-0.823 F500
G1 X35.717 Y7.804 Z-0.785 F500
G1 X35.746 Y7.804 Z-0.740 F500
G1 X35.763 Y7.804 Z-0.689 F500
G1 X35.769 Y7.804 Z-0.636 F500
G1 X35.769 Y7.804 Z6.825 F500
G1 X35.769 Y8.281 Z6.825 F500
G1 X35.769 Y8.281 Z-0.398 F166.7
G1 X35.769 Y8.281 Z-0.736 F166.7
G1 X35.763 Y8.281 Z-0.789 F500
G1 X35.746 Y8.281 Z-0.840 F500
G1 X35.717 Y8.281 Z-0.885 F500
G1 X35.680 Y8.281 Z-0.923 F500
G1 X35.634 Y8.281 Z-0.951 F500
G1 X35.584 Y8.281 Z-0.969 F500
G1 X35.531 Y8.281 Z-0.975 F500
G1 X35.293 Y8.281 Z-0.975 F500
G1 X35.240 Y8.275 Z-0.975 F500
G1 X35.189 Y8.257 Z-0.975 F500
G1 X35.144 Y8.229 Z-0.975 F500
G1 X35.107 Y8.191 Z-0.975 F500
G1 X35.078 Y8.146 Z-0.975 F500
G1 X35.061 Y8.096 Z-0.975 F500
G1 X35.055 Y8.043 Z-0.975 F500
G1 X35.055 Y0.085 Z-0.975 F500
G1 X35.047 Y-0.049 Z-0.975 F500
G1 X35.025 Y-0.181 Z-0.975 F500
G1 X34.988 Y-0.309 Z-0.975 F500
G1 X34.937 Y-0.432 Z-0.975 F500
G1 X34.872 Y-0.549 Z-0.975 F500
G1 X34.795 Y-0.658 Z-0.975 F500
G1 X34.705 Y-0.758 Z-0.975 F500
G1 X34.621 Y-0.843 Z-0.975 F500
G1 X34.521 Y-0.932 Z-0.975 F500
G1 X34.412 Y-1.009 Z-0.975 F500
G1 X34.295 Y-1.073 Z-0.975 F500
G1 X34.172 Y-1.124 Z-0.975 F500
G1 X34.044 Y-1.161 Z-0.975 F500
G1 X33.912 Y-1.184 Z-0.975 F500
G1 X33.779 Y-1.191 Z-0.975 F500
G1 X0.085 Y-1.191 Z-0.975 F500
G1 X-0.049 Y-1.184 Z-0.975 F500
G1 X-0.180 Y-1.161 Z-0.975 F500
G1 X-0.309 Y-1.124 Z-0.975 F500
G1 X-0.432 Y-1.073 Z-0.975 F500
G1 X-0.549 Y-1.009 Z-0.975 F500
G1 X-0.658 Y-0.931 Z-0.975 F500
G1 X-0.758 Y-0.842 Z-0.975 F500
G1 X-0.842 Y-0.758 Z-0.975 F500
G1 X-0.931 Y-0.658 Z-0.975 F500
G1 X-1.009 Y-0.549 Z-0.975 F500
G1 X-1.073 Y-0.432 Z-0.975 F500
G1 X-1.124 Y-0.309 Z-0.975 F500
G1 X-1.161 Y-0.180 Z-0.975 F500
G1 X-1.184 Y-0.049 Z-0.975 F500
G1 X-1.191 Y0.085 Z-0.975 F500
G1 X-1.191 Y16.000 Z-0.975 F500
G1 X-1.184 Y16.134 Z-0.975 F500
G1 X-1.161 Y16.265 Z-0.975 F500
G1 X-1.124 Y16.394 Z-0.975 F500
G1 X-1.073 Y16.517 Z-0.975 F500
G1 X-1.009 Y16.634 Z-0.975 F500
G1 X-0.932 Y16.743 Z-0.975 F500
G1 X-0.843 Y16.843 Z-0.975 F500
G1 X-0.758 Y16.927 Z-0.975 F500
G1 X-0.658 Y17.016 Z-0.975 F500
G1 X-0.549 Y17.094 Z-0.975 F500
G1 X-0.432 Y17.158 Z-0.975 F500
G1 X-0.309 Y17.209 Z-0.975 F500
G1 X-0.181 Y17.246 Z-0.975 F500
G1 X-0.049 Y17.269 Z-0.975 F500
G1 X0.085 Y17.276 Z-0.975 F500
G1 X33.779 Y17.276 Z-0.975 F500
G1 X33.912 Y17.269 Z-0.975 F500
G1 X34.044 Y17.246 Z-0.975 F500
G1 X34.172 Y17.210 Z-0.975 F500
G1 X34.295 Y17.158 Z-0.975 F500
G1 X34.412 Y17.094 Z-0.975 F500
G1 X34.521 Y17.016 Z-0.975 F500
G1 X34.621 Y16.927 Z-0.975 F500
G1 X34.706 Y16.843 Z-0.975 F500
G1 X34.795 Y16.743 Z-0.975 F500
G1 X34.872 Y16.634 Z-0.975 F500
G1 X34.937 Y16.517 Z-0.975 F500
G1 X34.988 Y16.394 Z-0.975 F500
G1 X35.025 Y16.265 Z-0.975 F500
G1 X35.047 Y16.134 Z-0.975 F500
G1 X35.055 Y16.000 Z-0.975 F500
G1 X35.055 Y8.043 Z-0.975 F500
G1 X35.061 Y7.990 Z-0.975 F500
G1 X35.078 Y7.939 Z-0.975 F500
G1 X35.107 Y7.894 Z-0.975 F500
G1 X35.144 Y7.856 Z-0.975 F500
G1 X35.189 Y7.828 Z-0.975 F500
G1 X35.240 Y7.810 Z-0.975 F500
G1 X35.293 Y7.804 Z-0.975 F500
G1 X35.531 Y7.804 Z-0.975 F500
G1 X35.584 Y7.804 Z-0.969 F500
G1 X35.634 Y7.804 Z-0.951 F500
G1 X35.680 Y7.804 Z-0.923 F500
G1 X35.717 Y7.804 Z-0.885 F500
G1 X35.746 Y7.804 Z-0.840 F500
G1 X35.763 Y7.804 Z-0.789 F500
G1 X35.769 Y7.804 Z-0.736 F500
G1 X35.769 Y7.804 Z6.825 F500
G1 X35.769 Y8.281 Z6.825 F500
G1 X35.769 Y8.281 Z-0.498 F166.7
G1 X35.769 Y8.281 Z-0.836 F166.7
G1 X35.763 Y8.281 Z-0.889 F500
G1 X35.746 Y8.281 Z-0.940 F500
G1 X35.717 Y8.281 Z-0.985 F500
G1 X35.680 Y8.281 Z-1.023 F500
G1 X35.634 Y8.281 Z-1.051 F500
G1 X35.584 Y8.281 Z-1.069 F500
G1 X35.531 Y8.281 Z-1.075 F500
G1 X35.293 Y8.281 Z-1.075 F500
G1 X35.240 Y8.275 Z-1.075 F500
G1 X35.189 Y8.257 Z-1.075 F500
G1 X35.144 Y8.229 Z-1.075 F500
G1 X35.107 Y8.191 Z-1.075 F500
G1 X35.078 Y8.146 Z-1.075 F500
G1 X35.061 Y8.096 Z-1.075 F500
G1 X35.055 Y8.043 Z-1.075 F500
G1 X35.055 Y0.085 Z-1.075 F500
G1 X35.047 Y-0.049 Z-1.075 F500
G1 X35.025 Y-0.181 Z-1.075 F500
G1 X34.988 Y-0.309 Z-1.075 F500
G1 X34.937 Y-0.432 Z-1.075 F500
G1 X34.872 Y-0.549 Z-1.075 F500
G1 X34.795 Y-0.658 Z-1.075 F500
G1 X34.705 Y-0.758 Z-1.075 F500
G1 X34.621 Y-0.843 Z-1.075 F500
G1 X34.521 Y-0.932 Z-1.075 F500
G1 X34.412 Y-1.009 Z-1.075 F500
G1 X34.295 Y-1.073 Z-1.075 F500
G1 X34.172 Y-1.124 Z-1.075 F500
G1 X34.044 Y-1.161 Z-1.075 F500
G1 X33.912 Y-1.184 Z-1.075 F500
G1 X33.779 Y-1.191 Z-1.075 F500
G1 X0.085 Y-1.191 Z-1.075 F500
G1 X-0.049 Y-1.184 Z-1.075 F500
G1 X-0.180 Y-1.161 Z-1.075 F500
G1 X-0.309 Y-1.124 Z-1.075 F500
G1 X-0.432 Y-1.073 Z-1.075 F500
G1 X-0.549 Y-1.009 Z-1.075 F500
G1 X-0.658 Y-0.931 Z-1.075 F500
G1 X-0.758 Y-0.842 Z-1.075 F500
G1 X-0.842 Y-0.758 Z-1.075 F500
G1 X-0.931 Y-0.658 Z-1.075 F500
G1 X-1.009 Y-0.549 Z-1.075 F500
G1 X-1.073 Y-0.432 Z-1.075 F500
G1 X-1.124 Y-0.309 Z-1.075 F500
G1 X-1.161 Y-0.180 Z-1.075 F500
G1 X-1.184 Y-0.049 Z-1.075 F500
G1 X-1.191 Y0.085 Z-1.075 F500
G1 X-1.191 Y16.000 Z-1.075 F500
G1 X-1.184 Y16.134 Z-1.075 F500
G1 X-1.161 Y16.265 Z-1.075 F500
G1 X-1.124 Y16.394 Z-1.075 F500
G1 X-1.073 Y16.517 Z-1.075 F500
G1 X-1.009 Y16.634 Z-1.075 F500
G1 X-0.932 Y16.743 Z-1.075 F500
G1 X-0.843 Y16.843 Z-1.075 F500
G1 X-0.758 Y16.927 Z-1.075 F500
G1 X-0.658 Y17.016 Z-1.075 F500
G1 X-0.549 Y17.094 Z-1.075 F500
G1 X-0.432 Y17.158 Z-1.075 F500
G1 X-0.309 Y17.209 Z-1.075 F500
G1 X-0.181 Y17.246 Z-1.075 F500
G1 X-0.049 Y17.269 Z-1.075 F500
G1 X0.085 Y17.276 Z-1.075 F500
G1 X33.779 Y17.276 Z-1.075 F500
G1 X33.912 Y17.269 Z-1.075 F500
G1 X34.044 Y17.246 Z-1.075 F500
G1 X34.172 Y17.210 Z-1.075 F500
G1 X34.295 Y17.158 Z-1.075 F500
G1 X34.412 Y17.094 Z-1.075 F500
G1 X34.521 Y17.016 Z-1.075 F500
G1 X34.621 Y16.927 Z-1.075 F500
G1 X34.706 Y16.843 Z-1.075 F500
G1 X34.795 Y16.743 Z-1.075 F500
G1 X34.872 Y16.634 Z-1.075 F500
G1 X34.937 Y16.517 Z-1.075 F500
G1 X34.988 Y16.394 Z-1.075 F500
G1 X35.025 Y16.265 Z-1.075 F500
G1 X35.047 Y16.134 Z-1.075 F500
G1 X35.055 Y16.000 Z-1.075 F500
G1 X35.055 Y8.043 Z-1.075 F500
G1 X35.061 Y7.990 Z-1.075 F500
G1 X35.078 Y7.939 Z-1.075 F500
G1 X35.107 Y7.894 Z-1.075 F500
G1 X35.144 Y7.856 Z-1.075 F500
G1 X35.189 Y7.828 Z-1.075 F500
G1 X35.240 Y7.810 Z-1.075 F500
G1 X35.293 Y7.804 Z-1.075 F500
G1 X35.531 Y7.804 Z-1.075 F500
G1 X35.584 Y7.804 Z-1.069 F500
G1 X35.634 Y7.804 Z-1.051 F500
G1 X35.680 Y7.804 Z-1.023 F500
G1 X35.717 Y7.804 Z-0.985 F500
G1 X35.746 Y7.804 Z-0.940 F500
G1 X35.763 Y7.804 Z-0.889 F500
G1 X35.769 Y7.804 Z-0.836 F500
G1 X35.769 Y7.804 Z6.825 F500
G1 X35.769 Y8.281 Z6.825 F500
G1 X35.769 Y8.281 Z-0.598 F166.7
G1 X35.769 Y8.281 Z-0.936 F166.7
G1 X35.763 Y8.281 Z-0.989 F500
G1 X35.746 Y8.281 Z-1.040 F500
G1 X35.717 Y8.281 Z-1.085 F500
G1 X35.680 Y8.281 Z-1.123 F500
G1 X35.634 Y8.281 Z-1.151 F500
G1 X35.584 Y8.281 Z-1.169 F500
G1 X35.531 Y8.281 Z-1.175 F500
G1 X35.293 Y8.281 Z-1.175 F500
G1 X35.240 Y8.275 Z-1.175 F500
G1 X35.189 Y8.257 Z-1.175 F500
G1 X35.144 Y8.229 Z-1.175 F500
G1 X35.107 Y8.191 Z-1.175 F500
G1 X35.078 Y8.146 Z-1.175 F500
G1 X35.061 Y8.096 Z-1.175 F500
G1 X35.055 Y8.043 Z-1.175 F500
G1 X35.055 Y0.085 Z-1.175 F500
G1 X35.047 Y-0.049 Z-1.175 F500
G1 X35.025 Y-0.181 Z-1.175 F500
G1 X34.988 Y-0.309 Z-1.175 F500
G1 X34.937 Y-0.432 Z-1.175 F500
G1 X34.872 Y-0.549 Z-1.175 F500
G1 X34.795 Y-0.658 Z-1.175 F500
G1 X34.705 Y-0.758 Z-1.175 F500
G1 X34.621 Y-0.843 Z-1.175 F500
G1 X34.521 Y-0.932 Z-1.175 F500
G1 X34.412 Y-1.009 Z-1.175 F500
G1 X34.295 Y-1.073 Z-1.175 F500
G1 X34.172 Y-1.124 Z-1.175 F500
G1 X34.044 Y-1.161 Z-1.175 F500
G1 X33.912 Y-1.184 Z-1.175 F500
G1 X33.779 Y-1.191 Z-1.175 F500
G1 X0.085 Y-1.191 Z-1.175 F500
G1 X-0.049 Y-1.184 Z-1.175 F500
G1 X-0.180 Y-1.161 Z-1.175 F500
G1 X-0.309 Y-1.124 Z-1.175 F500
G1 X-0.432 Y-1.073 Z-1.175 F500
G1 X-0.549 Y-1.009 Z-1.175 F500
G1 X-0.658 Y-0.931 Z-1.175 F500
G1 X-0.758 Y-0.842 Z-1.175 F500
G1 X-0.842 Y-0.758 Z-1.175 F500
G1 X-0.931 Y-0.658 Z-1.175 F500
G1 X-1.009 Y-0.549 Z-1.175 F500
G1 X-1.073 Y-0.432 Z-1.175 F500
G1 X-1.124 Y-0.309 Z-1.175 F500
G1 X-1.161 Y-0.180 Z-1.175 F500
G1 X-1.184 Y-0.049 Z-1.175 F500
G1 X-1.191 Y0.085 Z-1.175 F500
G1 X-1.191 Y16.000 Z-1.175 F500
G1 X-1.184 Y16.134 Z-1.175 F500
G1 X-1.161 Y16.265 Z-1.175 F500
G1 X-1.124 Y16.394 Z-1.175 F500
G1 X-1.073 Y16.517 Z-1.175 F500
G1 X-1.009 Y16.634 Z-1.175 F500
G1 X-0.932 Y16.743 Z-1.175 F500
G1 X-0.843 Y16.843 Z-1.175 F500
G1 X-0.758 Y16.927 Z-1.175 F500
G1 X-0.658 Y17.016 Z-1.175 F500
G1 X-0.549 Y17.094 Z-1.175 F500
G1 X-0.432 Y17.158 Z-1.175 F500
G1 X-0.309 Y17.209 Z-1.175 F500
G1 X-0.181 Y17.246 Z-1.175 F500
G1 X-0.049 Y17.269 Z-1.175 F500
G1 X0.085 Y17.276 Z-1.175 F500
G1 X33.779 Y17.276 Z-1.175 F500
G1 X33.912 Y17.269 Z-1.175 F500
G1 X34.044 Y17.246 Z-1.175 F500
G1 X34.172 Y17.210 Z-1.175 F500
G1 X34.295 Y17.158 Z-1.175 F500
G1 X34.412 Y17.094 Z-1.175 F500
G1 X34.521 Y17.016 Z-1.175 F500
G1 X34.621 Y16.927 Z-1.175 F500
G1 X34.706 Y16.843 Z-1.175 F500
G1 X34.795 Y16.743 Z-1.175 F500
G1 X34.872 Y16.634 Z-1.175 F500
G1 X34.937 Y16.517 Z-1.175 F500
G1 X34.988 Y16.394 Z-1.175 F500
G1 X35.025 Y16.265 Z-1.175 F500
G1 X35.047 Y16.134 Z-1.175 F500
G1 X35.055 Y16.000 Z-1.175 F500
G1 X35.055 Y8.043 Z-1.175 F500
G1 X35.061 Y7.990 Z-1.175 F500
G1 X35.078 Y7.939 Z-1.175 F500
G1 X35.107 Y7.894 Z-1.175 F500
G1 X35.144 Y7.856 Z-1.175 F500
G1 X35.189 Y7.828 Z-1.175 F500
G1 X35.240 Y7.810 Z-1.175 F500
G1 X35.293 Y7.804 Z-1.175 F500
G1 X35.531 Y7.804 Z-1.175 F500
G1 X35.584 Y7.804 Z-1.169 F500
G1 X35.634 Y7.804 Z-1.151 F500
G1 X35.680 Y7.804 Z-1.123 F500
G1 X35.717 Y7.804 Z-1.085 F500
G1 X35.746 Y7.804 Z-1.040 F500
G1 X35.763 Y7.804 Z-0.989 F500
G1 X35.769 Y7.804 Z-0.936 F500
G1 X35.769 Y7.804 Z6.825 F500
G1 X35.769 Y8.281 Z6.825 F500
G1 X35.769 Y8.281 Z-0.698 F166.7
G1 X35.769 Y8.281 Z-1.036 F166.7
G1 X35.763 Y8.281 Z-1.089 F500
G1 X35.746 Y8.281 Z-1.140 F500
G1 X35.717 Y8.281 Z-1.185 F500
G1 X35.680 Y8.281 Z-1.223 F500
G1 X35.634 Y8.281 Z-1.251 F500
G1 X35.584 Y8.281 Z-1.269 F500
G1 X35.531 Y8.281 Z-1.275 F500
G1 X35.293 Y8.281 Z-1.275 F500
G1 X35.240 Y8.275 Z-1.275 F500
G1 X35.189 Y8.257 Z-1.275 F500
G1 X35.144 Y8.229 Z-1.275 F500
G1 X35.107 Y8.191 Z-1.275 F500
G1 X35.078 Y8.146 Z-1.275 F500
G1 X35.061 Y8.096 Z-1.275 F500
G1 X35.055 Y8.043 Z-1.275 F500
G1 X35.055 Y0.085 Z-1.275 F500
G1 X35.047 Y-0.049 Z-1.275 F500
G1 X35.025 Y-0.181 Z-1.275 F500
G1 X34.988 Y-0.309 Z-1.275 F500
G1 X34.937 Y-0.432 Z-1.275 F500
G1 X34.872 Y-0.549 Z-1.275 F500
G1 X34.795 Y-0.658 Z-1.275 F500
G1 X34.705 Y-0.758 Z-1.275 F500
G1 X34.621 Y-0.843 Z-1.275 F500
G1 X34.521 Y-0.932 Z-1.275 F500
G1 X34.412 Y-1.009 Z-1.275 F500
G1 X34.295 Y-1.073 Z-1.275 F500
G1 X34.172 Y-1.124 Z-1.275 F500
G1 X34.044 Y-1.161 Z-1.275 F500
G1 X33.912 Y-1.184 Z-1.275 F500
G1 X33.779 Y-1.191 Z-1.275 F500
G1 X0.085 Y-1.191 Z-1.275 F500
G1 X-0.049 Y-1.184 Z-1.275 F500
G1 X-0.180 Y-1.161 Z-1.275 F500
G1 X-0.309 Y-1.124 Z-1.275 F500
G1 X-0.432 Y-1.073 Z-1.275 F500
G1 X-0.549 Y-1.009 Z-1.275 F500
G1 X-0.658 Y-0.931 Z-1.275 F500
G1 X-0.758 Y-0.842 Z-1.275 F500
G1 X-0.842 Y-0.758 Z-1.275 F500
G1 X-0.931 Y-0.658 Z-1.275 F500
G1 X-1.009 Y-0.549 Z-1.275 F500
G1 X-1.073 Y-0.432 Z-1.275 F500
G1 X-1.124 Y-0.309 Z-1.275 F500
G1 X-1.161 Y-0.180 Z-1.275 F500
G1 X-1.184 Y-0.049 Z-1.275 F500
G1 X-1.191 Y0.085 Z-1.275 F500
G1 X-1.191 Y16.000 Z-1.275 F500
G1 X-1.184 Y16.134 Z-1.275 F500
G1 X-1.161 Y16.265 Z-1.275 F500
G1 X-1.124 Y16.394 Z-1.275 F500
G1 X-1.073 Y16.517 Z-1.275 F500
G1 X-1.009 Y16.634 Z-1.275 F500
G1 X-0.932 Y16.743 Z-1.275 F500
G1 X-0.843 Y16.843 Z-1.275 F500
G1 X-0.758 Y16.927 Z-1.275 F500
G1 X-0.658 Y17.016 Z-1.275 F500
G1 X-0.549 Y17.094 Z-1.275 F500
G1 X-0.432 Y17.158 Z-1.275 F500
G1 X-0.309 Y17.209 Z-1.275 F500
G1 X-0.181 Y17.246 Z-1.275 F500
G1 X-0.049 Y17.269 Z-1.275 F500
G1 X0.085 Y17.276 Z-1.275 F500
G1 X33.779 Y17.276 Z-1.275 F500
G1 X33.912 Y17.269 Z-1.275 F500
G1 X34.044 Y17.246 Z-1.275 F500
G1 X34.172 Y17.210 Z-1.275 F500
G1 X34.295 Y17.158 Z-1.275 F500
G1 X34.412 Y17.094 Z-1.275 F500
G1 X34.521 Y17.016 Z-1.275 F500
G1 X34.621 Y16.927 Z-1.275 F500
G1 X34.706 Y16.843 Z-1.275 F500
G1 X34.795 Y16.743 Z-1.275 F500
G1 X34.872 Y16.634 Z-1.275 F500
G1 X34.937 Y16.517 Z-1.275 F500
G1 X34.988 Y16.394 Z-1.275 F500
G1 X35.025 Y16.265 Z-1.275 F500
G1 X35.047 Y16.134 Z-1.275 F500
G1 X35.055 Y16.000 Z-1.275 F500
G1 X35.055 Y8.043 Z-1.275 F500
G1 X35.061 Y7.990 Z-1.275 F500
G1 X35.078 Y7.939 Z-1.275 F500
G1 X35.107 Y7.894 Z-1.275 F500
G1 X35.144 Y7.856 Z-1.275 F500
G1 X35.189 Y7.828 Z-1.275 F500
G1 X35.240 Y7.810 Z-1.275 F500
G1 X35.293 Y7.804 Z-1.275 F500
G1 X35.531 Y7.804 Z-1.275 F500
G1 X35.584 Y7.804 Z-1.269 F500
G1 X35.634 Y7.804 Z-1.251 F500
G1 X35.680 Y7.804 Z-1.223 F500
G1 X35.717 Y7.804 Z-1.185 F500
G1 X35.746 Y7.804 Z-1.140 F500
G1 X35.763 Y7.804 Z-1.089 F500
G1 X35.769 Y7.804 Z-1.036 F500
G1 X35.769 Y7.804 Z6.825 F500
G1 X35.769 Y8.281 Z6.825 F500
G1 X35.769 Y8.281 Z-0.798 F166.7
G1 X35.769 Y8.281 Z-1.136 F166.7
G1 X35.763 Y8.281 Z-1.189 F500
G1 X35.746 Y8.281 Z-1.240 F500
G1 X35.717 Y8.281 Z-1.285 F500
G1 X35.680 Y8.281 Z-1.323 F500
G1 X35.634 Y8.281 Z-1.351 F500
G1 X35.584 Y8.281 Z-1.369 F500
G1 X35.531 Y8.281 Z-1.375 F500
G1 X35.293 Y8.281 Z-1.375 F500
G1 X35.240 Y8.275 Z-1.375 F500
G1 X35.189 Y8.257 Z-1.375 F500
G1 X35.144 Y8.229 Z-1.375 F500
G1 X35.107 Y8.191 Z-1.375 F500
G1 X35.078 Y8.146 Z-1.375 F500
G1 X35.061 Y8.096 Z-1.375 F500
G1 X35.055 Y8.043 Z-1.375 F500
G1 X35.055 Y0.085 Z-1.375 F500
G1 X35.047 Y-0.049 Z-1.375 F500
G1 X35.025 Y-0.181 Z-1.375 F500
G1 X34.988 Y-0.309 Z-1.375 F500
G1 X34.937 Y-0.432 Z-1.375 F500
G1 X34.872 Y-0.549 Z-1.375 F500
G1 X34.795 Y-0.658 Z-1.375 F500
G1 X34.705 Y-0.758 Z-1.375 F500
G1 X34.621 Y-0.843 Z-1.375 F500
G1 X34.521 Y-0.932 Z-1.375 F500
G1 X34.412 Y-1.009 Z-1.375 F500
G1 X34.295 Y-1.073 Z-1.375 F500
G1 X34.172 Y-1.124 Z-1.375 F500
G1 X34.044 Y-1.161 Z-1.375 F500
G1 X33.912 Y-1.184 Z-1.375 F500
G1 X33.779 Y-1.191 Z-1.375 F500
