;Titan-1-Nomad-Chamfers
;Now at Henrietta Hankin!
;Machine
;vendor: Snapmaker
;model: Desktop CNC
;description: Generic Snapmaker Marlin v20180725
M3 S10000
G4 S2 P2
G21
G90
;When using Fusion for Personal Use, the feedrate of rapid
;moves is reduced to match the feedrate of cutting moves,
;which can increase machining time. Unrestricted rapid moves
;are available with a Fusion Subscription.

;2D Chamfer3
G0 X21.083 Y11.484 Z16.825
G1 X21.083 Y11.484 Z16.825 F500
G1 X21.083 Y11.484 Z6.825 F500
G1 X21.083 Y11.484 Z3.825 F166.7
G1 X21.083 Y11.484 Z-0.500 F166.7
G1 X21.346 Y11.662 Z-0.500 F500
G1 X21.228 Y11.848 Z-0.500 F500
G1 X21.123 Y12.042 Z-0.500 F500
G1 X21.031 Y12.243 Z-0.500 F500
G1 X20.979 Y12.348 Z-0.500 F500
G1 X20.913 Y12.445 Z-0.500 F500
G1 X20.836 Y12.532 Z-0.500 F500
G1 X20.747 Y12.609 Z-0.500 F500
G1 X20.650 Y12.674 Z-0.500 F500
G1 X20.545 Y12.726 Z-0.500 F500
G1 X20.434 Y12.763 Z-0.500 F500
G1 X20.319 Y12.786 Z-0.500 F500
G1 X20.202 Y12.793 Z-0.500 F500
G1 X13.661 Y12.793 Z-0.500 F500
G1 X13.544 Y12.786 Z-0.500 F500
G1 X13.429 Y12.763 Z-0.500 F500
G1 X13.318 Y12.726 Z-0.500 F500
G1 X13.213 Y12.674 Z-0.500 F500
G1 X13.116 Y12.609 Z-0.500 F500
G1 X13.028 Y12.532 Z-0.500 F500
G1 X12.950 Y12.445 Z-0.500 F500
G1 X12.885 Y12.348 Z-0.500 F500
G1 X12.832 Y12.243 Z-0.500 F500
G1 X12.735 Y12.033 Z-0.500 F500
G1 X12.624 Y11.829 Z-0.500 F500
G1 X12.499 Y11.635 Z-0.500 F500
G1 X12.360 Y11.449 Z-0.500 F500
G1 X12.210 Y11.273 Z-0.500 F500
G1 X12.047 Y11.108 Z-0.500 F500
G1 X11.874 Y10.954 Z-0.500 F500
G1 X11.690 Y10.813 Z-0.500 F500
G1 X11.497 Y10.685 Z-0.500 F500
G1 X11.296 Y10.570 Z-0.500 F500
G1 X11.087 Y10.470 Z-0.500 F500
G1 X10.872 Y10.384 Z-0.500 F500
G1 X10.651 Y10.313 Z-0.500 F500
G1 X10.426 Y10.258 Z-0.500 F500
G1 X10.198 Y10.218 Z-0.500 F500
G1 X9.967 Y10.194 Z-0.500 F500
G1 X9.736 Y10.186 Z-0.500 F500
G1 X9.504 Y10.194 Z-0.500 F500
G1 X9.274 Y10.218 Z-0.500 F500
G1 X9.045 Y10.258 Z-0.500 F500
G1 X8.820 Y10.313 Z-0.500 F500
G1 X8.600 Y10.384 Z-0.500 F500
G1 X8.385 Y10.470 Z-0.500 F500
G1 X8.176 Y10.570 Z-0.500 F500
G1 X7.974 Y10.685 Z-0.500 F500
G1 X7.781 Y10.813 Z-0.500 F500
G1 X7.598 Y10.954 Z-0.500 F500
G1 X7.424 Y11.108 Z-0.500 F500
G1 X7.262 Y11.273 Z-0.500 F500
G1 X7.111 Y11.449 Z-0.500 F500
G1 X6.973 Y11.635 Z-0.500 F500
G1 X6.848 Y11.829 Z-0.500 F500
G1 X6.736 Y12.033 Z-0.500 F500
G1 X6.639 Y12.243 Z-0.500 F500
G1 X6.587 Y12.348 Z-0.500 F500
G1 X6.521 Y12.445 Z-0.500 F500
G1 X6.444 Y12.532 Z-0.500 F500
G1 X6.355 Y12.609 Z-0.500 F500
G1 X6.258 Y12.674 Z-0.500 F500
G1 X6.153 Y12.726 Z-0.500 F500
G1 X6.042 Y12.763 Z-0.500 F500
G1 X5.927 Y12.786 Z-0.500 F500
G1 X5.810 Y12.793 Z-0.500 F500
G1 X4.191 Y12.793 Z-0.500 F500
G1 X4.073 Y12.786 Z-0.500 F500
G1 X3.958 Y12.763 Z-0.500 F500
G1 X3.847 Y12.725 Z-0.500 F500
G1 X3.741 Y12.673 Z-0.500 F500
G1 X3.643 Y12.608 Z-0.500 F500
G1 X3.555 Y12.530 Z-0.500 F500
G1 X3.477 Y12.442 Z-0.500 F500
G1 X3.412 Y12.344 Z-0.500 F500
G1 X3.360 Y12.239 Z-0.500 F500
G1 X3.322 Y12.127 Z-0.500 F500
G1 X3.299 Y12.012 Z-0.500 F500
G1 X3.292 Y11.895 Z-0.500 F500
G1 X3.292 Y4.191 Z-0.500 F500
G1 X3.299 Y4.073 Z-0.500 F500
G1 X3.322 Y3.958 Z-0.500 F500
G1 X3.360 Y3.847 Z-0.500 F500
G1 X3.412 Y3.741 Z-0.500 F500
G1 X3.477 Y3.643 Z-0.500 F500
G1 X3.555 Y3.555 Z-0.500 F500
G1 X3.643 Y3.477 Z-0.500 F500
G1 X3.741 Y3.412 Z-0.500 F500
G1 X3.847 Y3.360 Z-0.500 F500
G1 X3.958 Y3.322 Z-0.500 F500
G1 X4.073 Y3.299 Z-0.500 F500
G1 X4.191 Y3.292 Z-0.500 F500
G1 X10.662 Y3.292 Z-0.500 F500
G1 X10.780 Y3.299 Z-0.500 F500
G1 X10.895 Y3.322 Z-0.500 F500
G1 X11.006 Y3.360 Z-0.500 F500
G1 X11.112 Y3.412 Z-0.500 F500
G1 X11.210 Y3.477 Z-0.500 F500
G1 X11.298 Y3.555 Z-0.500 F500
G1 X15.233 Y7.490 Z-0.500 F500
G1 X15.371 Y7.618 Z-0.500 F500
G1 X15.519 Y7.734 Z-0.500 F500
G1 X15.676 Y7.839 Z-0.500 F500
G1 X15.841 Y7.931 Z-0.500 F500
G1 X16.012 Y8.010 Z-0.500 F500
G1 X16.189 Y8.076 Z-0.500 F500
G1 X16.371 Y8.127 Z-0.500 F500
G1 X16.556 Y8.164 Z-0.500 F500
G1 X16.743 Y8.186 Z-0.500 F500
G1 X16.932 Y8.193 Z-0.500 F500
G1 X17.120 Y8.186 Z-0.500 F500
G1 X17.308 Y8.164 Z-0.500 F500
G1 X17.493 Y8.127 Z-0.500 F500
G1 X17.674 Y8.076 Z-0.500 F500
G1 X17.851 Y8.010 Z-0.500 F500
G1 X18.022 Y7.931 Z-0.500 F500
G1 X18.187 Y7.839 Z-0.500 F500
G1 X18.344 Y7.734 Z-0.500 F500
G1 X18.492 Y7.618 Z-0.500 F500
G1 X18.631 Y7.490 Z-0.500 F500
G1 X22.565 Y3.555 Z-0.500 F500
G1 X22.654 Y3.477 Z-0.500 F500
G1 X22.751 Y3.412 Z-0.500 F500
G1 X22.857 Y3.360 Z-0.500 F500
G1 X22.968 Y3.322 Z-0.500 F500
G1 X23.084 Y3.299 Z-0.500 F500
G1 X23.201 Y3.292 Z-0.500 F500
G1 X29.673 Y3.292 Z-0.500 F500
G1 X29.790 Y3.299 Z-0.500 F500
G1 X29.905 Y3.322 Z-0.500 F500
G1 X30.017 Y3.360 Z-0.500 F500
G1 X30.122 Y3.412 Z-0.500 F500
G1 X30.220 Y3.477 Z-0.500 F500
G1 X30.308 Y3.555 Z-0.500 F500
G1 X30.386 Y3.643 Z-0.500 F500
G1 X30.451 Y3.741 Z-0.500 F500
G1 X30.503 Y3.847 Z-0.500 F500
G1 X30.541 Y3.958 Z-0.500 F500
G1 X30.564 Y4.073 Z-0.500 F500
G1 X30.572 Y4.191 Z-0.500 F500
G1 X30.572 Y11.894 Z-0.500 F500
G1 X30.564 Y12.012 Z-0.500 F500
G1 X30.541 Y12.127 Z-0.500 F500
G1 X30.503 Y12.239 Z-0.500 F500
G1 X30.451 Y12.344 Z-0.500 F500
G1 X30.386 Y12.442 Z-0.500 F500
G1 X30.308 Y12.530 Z-0.500 F500
G1 X30.220 Y12.608 Z-0.500 F500
G1 X30.122 Y12.673 Z-0.500 F500
G1 X30.017 Y12.725 Z-0.500 F500
G1 X29.905 Y12.763 Z-0.500 F500
G1 X29.790 Y12.786 Z-0.500 F500
G1 X29.673 Y12.793 Z-0.500 F500
G1 X28.053 Y12.793 Z-0.500 F500
G1 X27.936 Y12.786 Z-0.500 F500
G1 X27.821 Y12.763 Z-0.500 F500
G1 X27.710 Y12.726 Z-0.500 F500
G1 X27.605 Y12.674 Z-0.500 F500
G1 X27.508 Y12.609 Z-0.500 F500
G1 X27.420 Y12.532 Z-0.500 F500
G1 X27.342 Y12.445 Z-0.500 F500
G1 X27.277 Y12.348 Z-0.500 F500
G1 X27.224 Y12.243 Z-0.500 F500
G1 X27.130 Y12.038 Z-0.500 F500
G1 X27.022 Y11.840 Z-0.500 F500
G1 X26.901 Y11.650 Z-0.500 F500
G1 X26.768 Y11.468 Z-0.500 F500
G1 X26.622 Y11.296 Z-0.500 F500
G1 X26.466 Y11.133 Z-0.500 F500
G1 X26.299 Y10.982 Z-0.500 F500
G1 X26.122 Y10.842 Z-0.500 F500
G1 X25.936 Y10.714 Z-0.500 F500
G1 X25.742 Y10.599 Z-0.500 F500
G1 X25.541 Y10.498 Z-0.500 F500
G1 X25.333 Y10.410 Z-0.500 F500
G1 X25.120 Y10.336 Z-0.500 F500
G1 X24.903 Y10.277 Z-0.500 F500
G1 X24.682 Y10.232 Z-0.500 F500
G1 X24.458 Y10.202 Z-0.500 F500
G1 X24.233 Y10.188 Z-0.500 F500
G1 X24.008 Y10.188 Z-0.500 F500
G1 X23.783 Y10.204 Z-0.500 F500
G1 X23.559 Y10.234 Z-0.500 F500
G1 X23.339 Y10.280 Z-0.500 F500
G1 X23.121 Y10.340 Z-0.500 F500
G1 X22.909 Y10.415 Z-0.500 F500
G1 X22.701 Y10.504 Z-0.500 F500
G1 X22.501 Y10.606 Z-0.500 F500
G1 X22.307 Y10.722 Z-0.500 F500
G1 X22.122 Y10.851 Z-0.500 F500
G1 X21.946 Y10.991 Z-0.500 F500
G1 X21.779 Y11.143 Z-0.500 F500
G1 X21.623 Y11.306 Z-0.500 F500
G1 X21.479 Y11.479 Z-0.500 F500
G1 X21.346 Y11.662 Z-0.500 F500
G1 X21.083 Y11.484 Z-0.500 F500
G1 X21.083 Y11.484 Z6.825 F500
G1 X0.085 Y17.154 Z6.825 F500
G1 X0.085 Y17.154 Z3.825 F166.7
G1 X0.085 Y17.154 Z-0.500 F166.7
G1 X0.085 Y16.837 Z-0.500 F500
G1 X33.779 Y16.837 Z-0.500 F500
G1 X33.888 Y16.830 Z-0.500 F500
G1 X33.995 Y16.808 Z-0.500 F500
G1 X34.099 Y16.773 Z-0.500 F500
G1 X34.197 Y16.725 Z-0.500 F500
G1 X34.288 Y16.664 Z-0.500 F500
G1 X34.370 Y16.592 Z-0.500 F500
G1 X34.442 Y16.510 Z-0.500 F500
G1 X34.503 Y16.419 Z-0.500 F500
G1 X34.551 Y16.321 Z-0.500 F500
G1 X34.587 Y16.217 Z-0.500 F500
G1 X34.608 Y16.110 Z-0.500 F500
G1 X34.615 Y16.000 Z-0.500 F500
G1 X34.615 Y0.085 Z-0.500 F500
G1 X34.608 Y-0.025 Z-0.500 F500
G1 X34.587 Y-0.132 Z-0.500 F500
G1 X34.551 Y-0.235 Z-0.500 F500
G1 X34.503 Y-0.334 Z-0.500 F500
G1 X34.442 Y-0.425 Z-0.500 F500
G1 X34.370 Y-0.507 Z-0.500 F500
G1 X34.288 Y-0.579 Z-0.500 F500
G1 X34.197 Y-0.640 Z-0.500 F500
G1 X34.099 Y-0.688 Z-0.500 F500
G1 X33.995 Y-0.723 Z-0.500 F500
G1 X33.888 Y-0.745 Z-0.500 F500
G1 X33.779 Y-0.752 Z-0.500 F500
G1 X22.066 Y-0.752 Z-0.500 F500
G1 X21.878 Y-0.744 Z-0.500 F500
G1 X21.691 Y-0.722 Z-0.500 F500
G1 X21.506 Y-0.685 Z-0.500 F500
G1 X21.324 Y-0.634 Z-0.500 F500
G1 X21.147 Y-0.569 Z-0.500 F500
G1 X20.976 Y-0.490 Z-0.500 F500
G1 X20.811 Y-0.398 Z-0.500 F500
G1 X20.654 Y-0.293 Z-0.500 F500
G1 X20.506 Y-0.176 Z-0.500 F500
G1 X20.368 Y-0.048 Z-0.500 F500
G1 X17.567 Y2.752 Z-0.500 F500
G1 X17.479 Y2.830 Z-0.500 F500
G1 X17.381 Y2.895 Z-0.500 F500
G1 X17.276 Y2.947 Z-0.500 F500
G1 X17.164 Y2.985 Z-0.500 F500
G1 X17.049 Y3.008 Z-0.500 F500
G1 X16.932 Y3.015 Z-0.500 F500
G1 X16.814 Y3.008 Z-0.500 F500
G1 X16.699 Y2.985 Z-0.500 F500
G1 X16.588 Y2.947 Z-0.500 F500
G1 X16.482 Y2.895 Z-0.500 F500
G1 X16.384 Y2.830 Z-0.500 F500
G1 X16.296 Y2.752 Z-0.500 F500
G1 X13.496 Y-0.048 Z-0.500 F500
G1 X13.357 Y-0.176 Z-0.500 F500
G1 X13.209 Y-0.293 Z-0.500 F500
G1 X13.052 Y-0.398 Z-0.500 F500
G1 X12.888 Y-0.490 Z-0.500 F500
G1 X12.716 Y-0.569 Z-0.500 F500
G1 X12.539 Y-0.634 Z-0.500 F500
G1 X12.358 Y-0.685 Z-0.500 F500
G1 X12.173 Y-0.722 Z-0.500 F500
G1 X11.985 Y-0.744 Z-0.500 F500
G1 X11.797 Y-0.752 Z-0.500 F500
G1 X0.085 Y-0.752 Z-0.500 F500
G1 X-0.025 Y-0.745 Z-0.500 F500
G1 X-0.132 Y-0.723 Z-0.500 F500
G1 X-0.235 Y-0.688 Z-0.500 F500
G1 X-0.334 Y-0.640 Z-0.500 F500
G1 X-0.425 Y-0.579 Z-0.500 F500
G1 X-0.507 Y-0.507 Z-0.500 F500
G1 X-0.579 Y-0.425 Z-0.500 F500
G1 X-0.640 Y-0.334 Z-0.500 F500
G1 X-0.688 Y-0.235 Z-0.500 F500
G1 X-0.723 Y-0.132 Z-0.500 F500
G1 X-0.745 Y-0.025 Z-0.500 F500
G1 X-0.752 Y0.085 Z-0.500 F500
G1 X-0.752 Y16.000 Z-0.500 F500
G1 X-0.745 Y16.110 Z-0.500 F500
G1 X-0.723 Y16.217 Z-0.500 F500
G1 X-0.688 Y16.321 Z-0.500 F500
G1 X-0.640 Y16.419 Z-0.500 F500
G1 X-0.579 Y16.510 Z-0.500 F500
G1 X-0.507 Y16.592 Z-0.500 F500
G1 X-0.425 Y16.664 Z-0.500 F500
G1 X-0.334 Y16.725 Z-0.500 F500
G1 X-0.235 Y16.773 Z-0.500 F500
G1 X-0.132 Y16.808 Z-0.500 F500
G1 X-0.025 Y16.830 Z-0.500 F500
G1 X0.085 Y16.837 Z-0.500 F500
G1 X0.085 Y17.154 Z-0.500 F500
G1 X0.085 Y17.154 Z16.825 F500
G0 X0.000 Y0.000
M5
