;Titan-1-Nomad-Profile-3-32-1.25
;Now at Henrietta Hankin!
;Machine
;vendor: Snapmaker
;model: Desktop CNC
;description: Generic Snapmaker Marlin v20180725
M3 S18000
G4 S2 P2
G21
G90
;When using Fusion for Personal Use, the feedrate of rapid
;moves is reduced to match the feedrate of cutting moves,
;which can increase machining time. Unrestricted rapid moves
;are available with a Fusion Subscription.

;Titan-1-Nomad-Profile
G0 X35.769 Y8.281 Z16.825
G1 X35.769 Y8.281 Z16.825 F500
G1 X35.769 Y8.281 Z6.825 F500
G1 X35.769 Y8.281 Z2.302 F166.7
G1 X35.769 Y8.281 Z1.939 F166.7
G1 X35.763 Y8.281 Z1.886 F500
G1 X35.746 Y8.281 Z1.835 F500
G1 X35.717 Y8.281 Z1.790 F500
G1 X35.680 Y8.281 Z1.752 F500
G1 X35.634 Y8.281 Z1.724 F500
G1 X35.584 Y8.281 Z1.706 F500
G1 X35.531 Y8.281 Z1.700 F500
G1 X35.293 Y8.281 Z1.700 F500
G1 X35.240 Y8.275 Z1.700 F500
G1 X35.189 Y8.257 Z1.700 F500
G1 X35.144 Y8.229 Z1.700 F500
G1 X35.107 Y8.191 Z1.700 F500
G1 X35.078 Y8.146 Z1.700 F500
G1 X35.061 Y8.096 Z1.700 F500
G1 X35.055 Y8.043 Z1.700 F500
G1 X35.055 Y0.085 Z1.700 F500
G1 X35.047 Y-0.049 Z1.700 F500
G1 X35.025 Y-0.181 Z1.700 F500
G1 X34.988 Y-0.309 Z1.700 F500
G1 X34.937 Y-0.432 Z1.700 F500
G1 X34.872 Y-0.549 Z1.700 F500
G1 X34.795 Y-0.658 Z1.700 F500
G1 X34.705 Y-0.758 Z1.700 F500
G1 X34.621 Y-0.843 Z1.700 F500
G1 X34.521 Y-0.932 Z1.700 F500
G1 X34.412 Y-1.009 Z1.700 F500
G1 X34.295 Y-1.073 Z1.700 F500
G1 X34.172 Y-1.124 Z1.700 F500
G1 X34.044 Y-1.161 Z1.700 F500
G1 X33.912 Y-1.184 Z1.700 F500
G1 X33.779 Y-1.191 Z1.700 F500
G1 X0.085 Y-1.191 Z1.700 F500
G1 X-0.049 Y-1.184 Z1.700 F500
G1 X-0.180 Y-1.161 Z1.700 F500
G1 X-0.309 Y-1.124 Z1.700 F500
G1 X-0.432 Y-1.073 Z1.700 F500
G1 X-0.549 Y-1.009 Z1.700 F500
G1 X-0.658 Y-0.931 Z1.700 F500
G1 X-0.758 Y-0.842 Z1.700 F500
G1 X-0.842 Y-0.758 Z1.700 F500
G1 X-0.931 Y-0.658 Z1.700 F500
G1 X-1.009 Y-0.549 Z1.700 F500
G1 X-1.073 Y-0.432 Z1.700 F500
G1 X-1.124 Y-0.309 Z1.700 F500
G1 X-1.161 Y-0.180 Z1.700 F500
G1 X-1.184 Y-0.049 Z1.700 F500
G1 X-1.191 Y0.085 Z1.700 F500
G1 X-1.191 Y16.000 Z1.700 F500
G1 X-1.184 Y16.134 Z1.700 F500
G1 X-1.161 Y16.265 Z1.700 F500
G1 X-1.124 Y16.394 Z1.700 F500
G1 X-1.073 Y16.517 Z1.700 F500
G1 X-1.009 Y16.634 Z1.700 F500
G1 X-0.932 Y16.743 Z1.700 F500
G1 X-0.843 Y16.843 Z1.700 F500
G1 X-0.758 Y16.927 Z1.700 F500
G1 X-0.658 Y17.016 Z1.700 F500
G1 X-0.549 Y17.094 Z1.700 F500
G1 X-0.432 Y17.158 Z1.700 F500
G1 X-0.309 Y17.209 Z1.700 F500
G1 X-0.181 Y17.246 Z1.700 F500
G1 X-0.049 Y17.269 Z1.700 F500
G1 X0.085 Y17.276 Z1.700 F500
G1 X33.779 Y17.276 Z1.700 F500
G1 X33.912 Y17.269 Z1.700 F500
G1 X34.044 Y17.246 Z1.700 F500
G1 X34.172 Y17.210 Z1.700 F500
G1 X34.295 Y17.158 Z1.700 F500
G1 X34.412 Y17.094 Z1.700 F500
G1 X34.521 Y17.016 Z1.700 F500
G1 X34.621 Y16.927 Z1.700 F500
G1 X34.706 Y16.843 Z1.700 F500
G1 X34.795 Y16.743 Z1.700 F500
G1 X34.872 Y16.634 Z1.700 F500
G1 X34.937 Y16.517 Z1.700 F500
G1 X34.988 Y16.394 Z1.700 F500
G1 X35.025 Y16.265 Z1.700 F500
G1 X35.047 Y16.134 Z1.700 F500
G1 X35.055 Y16.000 Z1.700 F500
G1 X35.055 Y8.043 Z1.700 F500
G1 X35.061 Y7.990 Z1.700 F500
G1 X35.078 Y7.939 Z1.700 F500
G1 X35.107 Y7.894 Z1.700 F500
G1 X35.144 Y7.856 Z1.700 F500
G1 X35.189 Y7.828 Z1.700 F500
G1 X35.240 Y7.810 Z1.700 F500
G1 X35.293 Y7.804 Z1.700 F500
G1 X35.531 Y7.804 Z1.700 F500
G1 X35.584 Y7.804 Z1.706 F500
G1 X35.634 Y7.804 Z1.724 F500
G1 X35.680 Y7.804 Z1.752 F500
G1 X35.717 Y7.804 Z1.790 F500
G1 X35.746 Y7.804 Z1.835 F500
G1 X35.763 Y7.804 Z1.886 F500
G1 X35.769 Y7.804 Z1.939 F500
G1 X35.769 Y7.804 Z6.825 F500
G1 X35.769 Y8.281 Z6.825 F500
G1 X35.769 Y8.281 Z2.177 F166.7
G1 X35.769 Y8.281 Z1.814 F166.7
G1 X35.763 Y8.281 Z1.761 F500
G1 X35.746 Y8.281 Z1.710 F500
G1 X35.717 Y8.281 Z1.665 F500
G1 X35.680 Y8.281 Z1.627 F500
G1 X35.634 Y8.281 Z1.599 F500
G1 X35.584 Y8.281 Z1.581 F500
G1 X35.531 Y8.281 Z1.575 F500
G1 X35.293 Y8.281 Z1.575 F500
G1 X35.240 Y8.275 Z1.575 F500
G1 X35.189 Y8.257 Z1.575 F500
G1 X35.144 Y8.229 Z1.575 F500
G1 X35.107 Y8.191 Z1.575 F500
G1 X35.078 Y8.146 Z1.575 F500
G1 X35.061 Y8.096 Z1.575 F500
G1 X35.055 Y8.043 Z1.575 F500
G1 X35.055 Y0.085 Z1.575 F500
G1 X35.047 Y-0.049 Z1.575 F500
G1 X35.025 Y-0.181 Z1.575 F500
G1 X34.988 Y-0.309 Z1.575 F500
G1 X34.937 Y-0.432 Z1.575 F500
G1 X34.872 Y-0.549 Z1.575 F500
G1 X34.795 Y-0.658 Z1.575 F500
G1 X34.705 Y-0.758 Z1.575 F500
G1 X34.621 Y-0.843 Z1.575 F500
G1 X34.521 Y-0.932 Z1.575 F500
G1 X34.412 Y-1.009 Z1.575 F500
G1 X34.295 Y-1.073 Z1.575 F500
G1 X34.172 Y-1.124 Z1.575 F500
G1 X34.044 Y-1.161 Z1.575 F500
G1 X33.912 Y-1.184 Z1.575 F500
G1 X33.779 Y-1.191 Z1.575 F500
G1 X0.085 Y-1.191 Z1.575 F500
G1 X-0.049 Y-1.184 Z1.575 F500
G1 X-0.180 Y-1.161 Z1.575 F500
G1 X-0.309 Y-1.124 Z1.575 F500
G1 X-0.432 Y-1.073 Z1.575 F500
G1 X-0.549 Y-1.009 Z1.575 F500
G1 X-0.658 Y-0.931 Z1.575 F500
G1 X-0.758 Y-0.842 Z1.575 F500
G1 X-0.842 Y-0.758 Z1.575 F500
G1 X-0.931 Y-0.658 Z1.575 F500
G1 X-1.009 Y-0.549 Z1.575 F500
G1 X-1.073 Y-0.432 Z1.575 F500
G1 X-1.124 Y-0.309 Z1.575 F500
G1 X-1.161 Y-0.180 Z1.575 F500
G1 X-1.184 Y-0.049 Z1.575 F500
G1 X-1.191 Y0.085 Z1.575 F500
G1 X-1.191 Y16.000 Z1.575 F500
G1 X-1.184 Y16.134 Z1.575 F500
G1 X-1.161 Y16.265 Z1.575 F500
G1 X-1.124 Y16.394 Z1.575 F500
G1 X-1.073 Y16.517 Z1.575 F500
G1 X-1.009 Y16.634 Z1.575 F500
G1 X-0.932 Y16.743 Z1.575 F500
G1 X-0.843 Y16.843 Z1.575 F500
G1 X-0.758 Y16.927 Z1.575 F500
G1 X-0.658 Y17.016 Z1.575 F500
G1 X-0.549 Y17.094 Z1.575 F500
G1 X-0.432 Y17.158 Z1.575 F500
G1 X-0.309 Y17.209 Z1.575 F500
G1 X-0.181 Y17.246 Z1.575 F500
G1 X-0.049 Y17.269 Z1.575 F500
G1 X0.085 Y17.276 Z1.575 F500
G1 X33.779 Y17.276 Z1.575 F500
G1 X33.912 Y17.269 Z1.575 F500
G1 X34.044 Y17.246 Z1.575 F500
G1 X34.172 Y17.210 Z1.575 F500
G1 X34.295 Y17.158 Z1.575 F500
G1 X34.412 Y17.094 Z1.575 F500
G1 X34.521 Y17.016 Z1.575 F500
G1 X34.621 Y16.927 Z1.575 F500
G1 X34.706 Y16.843 Z1.575 F500
G1 X34.795 Y16.743 Z1.575 F500
G1 X34.872 Y16.634 Z1.575 F500
G1 X34.937 Y16.517 Z1.575 F500
G1 X34.988 Y16.394 Z1.575 F500
G1 X35.025 Y16.265 Z1.575 F500
G1 X35.047 Y16.134 Z1.575 F500
G1 X35.055 Y16.000 Z1.575 F500
G1 X35.055 Y8.043 Z1.575 F500
G1 X35.061 Y7.990 Z1.575 F500
G1 X35.078 Y7.939 Z1.575 F500
G1 X35.107 Y7.894 Z1.575 F500
G1 X35.144 Y7.856 Z1.575 F500
G1 X35.189 Y7.828 Z1.575 F500
G1 X35.240 Y7.810 Z1.575 F500
G1 X35.293 Y7.804 Z1.575 F500
G1 X35.531 Y7.804 Z1.575 F500
G1 X35.584 Y7.804 Z1.581 F500
G1 X35.634 Y7.804 Z1.599 F500
G1 X35.680 Y7.804 Z1.627 F500
G1 X35.717 Y7.804 Z1.665 F500
G1 X35.746 Y7.804 Z1.710 F500
G1 X35.763 Y7.804 Z1.761 F500
G1 X35.769 Y7.804 Z1.814 F500
G1 X35.769 Y7.804 Z6.825 F500
G1 X35.769 Y8.281 Z6.825 F500
G1 X35.769 Y8.281 Z2.052 F166.7
G1 X35.769 Y8.281 Z1.689 F166.7
G1 X35.763 Y8.281 Z1.636 F500
G1 X35.746 Y8.281 Z1.585 F500
G1 X35.717 Y8.281 Z1.540 F500
G1 X35.680 Y8.281 Z1.502 F500
G1 X35.634 Y8.281 Z1.474 F500
G1 X35.584 Y8.281 Z1.456 F500
G1 X35.531 Y8.281 Z1.450 F500
G1 X35.293 Y8.281 Z1.450 F500
G1 X35.240 Y8.275 Z1.450 F500
G1 X35.189 Y8.257 Z1.450 F500
G1 X35.144 Y8.229 Z1.450 F500
G1 X35.107 Y8.191 Z1.450 F500
G1 X35.078 Y8.146 Z1.450 F500
G1 X35.061 Y8.096 Z1.450 F500
G1 X35.055 Y8.043 Z1.450 F500
G1 X35.055 Y0.085 Z1.450 F500
G1 X35.047 Y-0.049 Z1.450 F500
G1 X35.025 Y-0.181 Z1.450 F500
G1 X34.988 Y-0.309 Z1.450 F500
G1 X34.937 Y-0.432 Z1.450 F500
G1 X34.872 Y-0.549 Z1.450 F500
G1 X34.795 Y-0.658 Z1.450 F500
G1 X34.705 Y-0.758 Z1.450 F500
G1 X34.621 Y-0.843 Z1.450 F500
G1 X34.521 Y-0.932 Z1.450 F500
G1 X34.412 Y-1.009 Z1.450 F500
G1 X34.295 Y-1.073 Z1.450 F500
G1 X34.172 Y-1.124 Z1.450 F500
G1 X34.044 Y-1.161 Z1.450 F500
G1 X33.912 Y-1.184 Z1.450 F500
G1 X33.779 Y-1.191 Z1.450 F500
G1 X0.085 Y-1.191 Z1.450 F500
G1 X-0.049 Y-1.184 Z1.450 F500
G1 X-0.180 Y-1.161 Z1.450 F500
G1 X-0.309 Y-1.124 Z1.450 F500
G1 X-0.432 Y-1.073 Z1.450 F500
G1 X-0.549 Y-1.009 Z1.450 F500
G1 X-0.658 Y-0.931 Z1.450 F500
G1 X-0.758 Y-0.842 Z1.450 F500
G1 X-0.842 Y-0.758 Z1.450 F500
G1 X-0.931 Y-0.658 Z1.450 F500
G1 X-1.009 Y-0.549 Z1.450 F500
G1 X-1.073 Y-0.432 Z1.450 F500
G1 X-1.124 Y-0.309 Z1.450 F500
G1 X-1.161 Y-0.180 Z1.450 F500
G1 X-1.184 Y-0.049 Z1.450 F500
G1 X-1.191 Y0.085 Z1.450 F500
G1 X-1.191 Y16.000 Z1.450 F500
G1 X-1.184 Y16.134 Z1.450 F500
G1 X-1.161 Y16.265 Z1.450 F500
G1 X-1.124 Y16.394 Z1.450 F500
G1 X-1.073 Y16.517 Z1.450 F500
G1 X-1.009 Y16.634 Z1.450 F500
G1 X-0.932 Y16.743 Z1.450 F500
G1 X-0.843 Y16.843 Z1.450 F500
G1 X-0.758 Y16.927 Z1.450 F500
G1 X-0.658 Y17.016 Z1.450 F500
G1 X-0.549 Y17.094 Z1.450 F500
G1 X-0.432 Y17.158 Z1.450 F500
G1 X-0.309 Y17.209 Z1.450 F500
G1 X-0.181 Y17.246 Z1.450 F500
G1 X-0.049 Y17.269 Z1.450 F500
G1 X0.085 Y17.276 Z1.450 F500
G1 X33.779 Y17.276 Z1.450 F500
G1 X33.912 Y17.269 Z1.450 F500
G1 X34.044 Y17.246 Z1.450 F500
G1 X34.172 Y17.210 Z1.450 F500
G1 X34.295 Y17.158 Z1.450 F500
G1 X34.412 Y17.094 Z1.450 F500
G1 X34.521 Y17.016 Z1.450 F500
G1 X34.621 Y16.927 Z1.450 F500
G1 X34.706 Y16.843 Z1.450 F500
G1 X34.795 Y16.743 Z1.450 F500
G1 X34.872 Y16.634 Z1.450 F500
G1 X34.937 Y16.517 Z1.450 F500
G1 X34.988 Y16.394 Z1.450 F500
G1 X35.025 Y16.265 Z1.450 F500
G1 X35.047 Y16.134 Z1.450 F500
G1 X35.055 Y16.000 Z1.450 F500
G1 X35.055 Y8.043 Z1.450 F500
G1 X35.061 Y7.990 Z1.450 F500
G1 X35.078 Y7.939 Z1.450 F500
G1 X35.107 Y7.894 Z1.450 F500
G1 X35.144 Y7.856 Z1.450 F500
G1 X35.189 Y7.828 Z1.450 F500
G1 X35.240 Y7.810 Z1.450 F500
G1 X35.293 Y7.804 Z1.450 F500
G1 X35.531 Y7.804 Z1.450 F500
G1 X35.584 Y7.804 Z1.456 F500
G1 X35.634 Y7.804 Z1.474 F500
G1 X35.680 Y7.804 Z1.502 F500
G1 X35.717 Y7.804 Z1.540 F500
G1 X35.746 Y7.804 Z1.585 F500
G1 X35.763 Y7.804 Z1.636 F500
G1 X35.769 Y7.804 Z1.689 F500
G1 X35.769 Y7.804 Z6.825 F500
G1 X35.769 Y8.281 Z6.825 F500
G1 X35.769 Y8.281 Z1.927 F166.7
G1 X35.769 Y8.281 Z1.564 F166.7
G1 X35.763 Y8.281 Z1.511 F500
G1 X35.746 Y8.281 Z1.460 F500
G1 X35.717 Y8.281 Z1.415 F500
G1 X35.680 Y8.281 Z1.377 F500
G1 X35.634 Y8.281 Z1.349 F500
G1 X35.584 Y8.281 Z1.331 F500
G1 X35.531 Y8.281 Z1.325 F500
G1 X35.293 Y8.281 Z1.325 F500
G1 X35.240 Y8.275 Z1.325 F500
G1 X35.189 Y8.257 Z1.325 F500
G1 X35.144 Y8.229 Z1.325 F500
G1 X35.107 Y8.191 Z1.325 F500
G1 X35.078 Y8.146 Z1.325 F500
G1 X35.061 Y8.096 Z1.325 F500
G1 X35.055 Y8.043 Z1.325 F500
G1 X35.055 Y0.085 Z1.325 F500
G1 X35.047 Y-0.049 Z1.325 F500
G1 X35.025 Y-0.181 Z1.325 F500
G1 X34.988 Y-0.309 Z1.325 F500
G1 X34.937 Y-0.432 Z1.325 F500
G1 X34.872 Y-0.549 Z1.325 F500
G1 X34.795 Y-0.658 Z1.325 F500
G1 X34.705 Y-0.758 Z1.325 F500
G1 X34.621 Y-0.843 Z1.325 F500
G1 X34.521 Y-0.932 Z1.325 F500
G1 X34.412 Y-1.009 Z1.325 F500
G1 X34.295 Y-1.073 Z1.325 F500
G1 X34.172 Y-1.124 Z1.325 F500
G1 X34.044 Y-1.161 Z1.325 F500
G1 X33.912 Y-1.184 Z1.325 F500
G1 X33.779 Y-1.191 Z1.325 F500
G1 X0.085 Y-1.191 Z1.325 F500
G1 X-0.049 Y-1.184 Z1.325 F500
G1 X-0.180 Y-1.161 Z1.325 F500
G1 X-0.309 Y-1.124 Z1.325 F500
G1 X-0.432 Y-1.073 Z1.325 F500
G1 X-0.549 Y-1.009 Z1.325 F500
G1 X-0.658 Y-0.931 Z1.325 F500
G1 X-0.758 Y-0.842 Z1.325 F500
G1 X-0.842 Y-0.758 Z1.325 F500
G1 X-0.931 Y-0.658 Z1.325 F500
G1 X-1.009 Y-0.549 Z1.325 F500
G1 X-1.073 Y-0.432 Z1.325 F500
G1 X-1.124 Y-0.309 Z1.325 F500
G1 X-1.161 Y-0.180 Z1.325 F500
G1 X-1.184 Y-0.049 Z1.325 F500
G1 X-1.191 Y0.085 Z1.325 F500
G1 X-1.191 Y16.000 Z1.325 F500
G1 X-1.184 Y16.134 Z1.325 F500
G1 X-1.161 Y16.265 Z1.325 F500
G1 X-1.124 Y16.394 Z1.325 F500
G1 X-1.073 Y16.517 Z1.325 F500
G1 X-1.009 Y16.634 Z1.325 F500
G1 X-0.932 Y16.743 Z1.325 F500
G1 X-0.843 Y16.843 Z1.325 F500
G1 X-0.758 Y16.927 Z1.325 F500
G1 X-0.658 Y17.016 Z1.325 F500
G1 X-0.549 Y17.094 Z1.325 F500
G1 X-0.432 Y17.158 Z1.325 F500
G1 X-0.309 Y17.209 Z1.325 F500
G1 X-0.181 Y17.246 Z1.325 F500
G1 X-0.049 Y17.269 Z1.325 F500
G1 X0.085 Y17.276 Z1.325 F500
G1 X33.779 Y17.276 Z1.325 F500
G1 X33.912 Y17.269 Z1.325 F500
G1 X34.044 Y17.246 Z1.325 F500
G1 X34.172 Y17.210 Z1.325 F500
G1 X34.295 Y17.158 Z1.325 F500
G1 X34.412 Y17.094 Z1.325 F500
G1 X34.521 Y17.016 Z1.325 F500
G1 X34.621 Y16.927 Z1.325 F500
G1 X34.706 Y16.843 Z1.325 F500
G1 X34.795 Y16.743 Z1.325 F500
G1 X34.872 Y16.634 Z1.325 F500
G1 X34.937 Y16.517 Z1.325 F500
G1 X34.988 Y16.394 Z1.325 F500
G1 X35.025 Y16.265 Z1.325 F500
G1 X35.047 Y16.134 Z1.325 F500
G1 X35.055 Y16.000 Z1.325 F500
G1 X35.055 Y8.043 Z1.325 F500
G1 X35.061 Y7.990 Z1.325 F500
G1 X35.078 Y7.939 Z1.325 F500
G1 X35.107 Y7.894 Z1.325 F500
G1 X35.144 Y7.856 Z1.325 F500
G1 X35.189 Y7.828 Z1.325 F500
G1 X35.240 Y7.810 Z1.325 F500
G1 X35.293 Y7.804 Z1.325 F500
G1 X35.531 Y7.804 Z1.325 F500
G1 X35.584 Y7.804 Z1.331 F500
G1 X35.634 Y7.804 Z1.349 F500
G1 X35.680 Y7.804 Z1.377 F500
G1 X35.717 Y7.804 Z1.415 F500
G1 X35.746 Y7.804 Z1.460 F500
G1 X35.763 Y7.804 Z1.511 F500
G1 X35.769 Y7.804 Z1.564 F500
G1 X35.769 Y7.804 Z6.825 F500
G1 X35.769 Y8.281 Z6.825 F500
G1 X35.769 Y8.281 Z1.802 F166.7
G1 X35.769 Y8.281 Z1.439 F166.7
G1 X35.763 Y8.281 Z1.386 F500
G1 X35.746 Y8.281 Z1.335 F500
G1 X35.717 Y8.281 Z1.290 F500
G1 X35.680 Y8.281 Z1.252 F500
G1 X35.634 Y8.281 Z1.224 F500
G1 X35.584 Y8.281 Z1.206 F500
G1 X35.531 Y8.281 Z1.200 F500
G1 X35.293 Y8.281 Z1.200 F500
G1 X35.240 Y8.275 Z1.200 F500
G1 X35.189 Y8.257 Z1.200 F500
G1 X35.144 Y8.229 Z1.200 F500
G1 X35.107 Y8.191 Z1.200 F500
G1 X35.078 Y8.146 Z1.200 F500
G1 X35.061 Y8.096 Z1.200 F500
G1 X35.055 Y8.043 Z1.200 F500
G1 X35.055 Y0.085 Z1.200 F500
G1 X35.047 Y-0.049 Z1.200 F500
G1 X35.025 Y-0.181 Z1.200 F500
G1 X34.988 Y-0.309 Z1.200 F500
G1 X34.937 Y-0.432 Z1.200 F500
G1 X34.872 Y-0.549 Z1.200 F500
G1 X34.795 Y-0.658 Z1.200 F500
G1 X34.705 Y-0.758 Z1.200 F500
G1 X34.621 Y-0.843 Z1.200 F500
G1 X34.521 Y-0.932 Z1.200 F500
G1 X34.412 Y-1.009 Z1.200 F500
G1 X34.295 Y-1.073 Z1.200 F500
G1 X34.172 Y-1.124 Z1.200 F500
G1 X34.044 Y-1.161 Z1.200 F500
G1 X33.912 Y-1.184 Z1.200 F500
G1 X33.779 Y-1.191 Z1.200 F500
G1 X0.085 Y-1.191 Z1.200 F500
G1 X-0.049 Y-1.184 Z1.200 F500
G1 X-0.180 Y-1.161 Z1.200 F500
G1 X-0.309 Y-1.124 Z1.200 F500
G1 X-0.432 Y-1.073 Z1.200 F500
G1 X-0.549 Y-1.009 Z1.200 F500
G1 X-0.658 Y-0.931 Z1.200 F500
G1 X-0.758 Y-0.842 Z1.200 F500
G1 X-0.842 Y-0.758 Z1.200 F500
G1 X-0.931 Y-0.658 Z1.200 F500
G1 X-1.009 Y-0.549 Z1.200 F500
G1 X-1.073 Y-0.432 Z1.200 F500
G1 X-1.124 Y-0.309 Z1.200 F500
G1 X-1.161 Y-0.180 Z1.200 F500
G1 X-1.184 Y-0.049 Z1.200 F500
G1 X-1.191 Y0.085 Z1.200 F500
G1 X-1.191 Y16.000 Z1.200 F500
G1 X-1.184 Y16.134 Z1.200 F500
G1 X-1.161 Y16.265 Z1.200 F500
G1 X-1.124 Y16.394 Z1.200 F500
G1 X-1.073 Y16.517 Z1.200 F500
G1 X-1.009 Y16.634 Z1.200 F500
G1 X-0.932 Y16.743 Z1.200 F500
G1 X-0.843 Y16.843 Z1.200 F500
G1 X-0.758 Y16.927 Z1.200 F500
G1 X-0.658 Y17.016 Z1.200 F500
G1 X-0.549 Y17.094 Z1.200 F500
G1 X-0.432 Y17.158 Z1.200 F500
G1 X-0.309 Y17.209 Z1.200 F500
G1 X-0.181 Y17.246 Z1.200 F500
G1 X-0.049 Y17.269 Z1.200 F500
G1 X0.085 Y17.276 Z1.200 F500
G1 X33.779 Y17.276 Z1.200 F500
G1 X33.912 Y17.269 Z1.200 F500
G1 X34.044 Y17.246 Z1.200 F500
G1 X34.172 Y17.210 Z1.200 F500
G1 X34.295 Y17.158 Z1.200 F500
G1 X34.412 Y17.094 Z1.200 F500
G1 X34.521 Y17.016 Z1.200 F500
G1 X34.621 Y16.927 Z1.200 F500
G1 X34.706 Y16.843 Z1.200 F500
G1 X34.795 Y16.743 Z1.200 F500
G1 X34.872 Y16.634 Z1.200 F500
G1 X34.937 Y16.517 Z1.200 F500
G1 X34.988 Y16.394 Z1.200 F500
G1 X35.025 Y16.265 Z1.200 F500
G1 X35.047 Y16.134 Z1.200 F500
G1 X35.055 Y16.000 Z1.200 F500
G1 X35.055 Y8.043 Z1.200 F500
G1 X35.061 Y7.990 Z1.200 F500
G1 X35.078 Y7.939 Z1.200 F500
G1 X35.107 Y7.894 Z1.200 F500
G1 X35.144 Y7.856 Z1.200 F500
G1 X35.189 Y7.828 Z1.200 F500
G1 X35.240 Y7.810 Z1.200 F500
G1 X35.293 Y7.804 Z1.200 F500
G1 X35.531 Y7.804 Z1.200 F500
G1 X35.584 Y7.804 Z1.206 F500
G1 X35.634 Y7.804 Z1.224 F500
G1 X35.680 Y7.804 Z1.252 F500
G1 X35.717 Y7.804 Z1.290 F500
G1 X35.746 Y7.804 Z1.335 F500
G1 X35.763 Y7.804 Z1.386 F500
G1 X35.769 Y7.804 Z1.439 F500
G1 X35.769 Y7.804 Z6.825 F500
G1 X35.769 Y8.281 Z6.825 F500
G1 X35.769 Y8.281 Z1.677 F166.7
G1 X35.769 Y8.281 Z1.314 F166.7
G1 X35.763 Y8.281 Z1.261 F500
G1 X35.746 Y8.281 Z1.210 F500
G1 X35.717 Y8.281 Z1.165 F500
G1 X35.680 Y8.281 Z1.127 F500
G1 X35.634 Y8.281 Z1.099 F500
G1 X35.584 Y8.281 Z1.081 F500
G1 X35.531 Y8.281 Z1.075 F500
G1 X35.293 Y8.281 Z1.075 F500
G1 X35.240 Y8.275 Z1.075 F500
G1 X35.189 Y8.257 Z1.075 F500
G1 X35.144 Y8.229 Z1.075 F500
G1 X35.107 Y8.191 Z1.075 F500
G1 X35.078 Y8.146 Z1.075 F500
G1 X35.061 Y8.096 Z1.075 F500
G1 X35.055 Y8.043 Z1.075 F500
G1 X35.055 Y0.085 Z1.075 F500
G1 X35.047 Y-0.049 Z1.075 F500
G1 X35.025 Y-0.181 Z1.075 F500
G1 X34.988 Y-0.309 Z1.075 F500
G1 X34.937 Y-0.432 Z1.075 F500
G1 X34.872 Y-0.549 Z1.075 F500
G1 X34.795 Y-0.658 Z1.075 F500
G1 X34.705 Y-0.758 Z1.075 F500
G1 X34.621 Y-0.843 Z1.075 F500
G1 X34.521 Y-0.932 Z1.075 F500
G1 X34.412 Y-1.009 Z1.075 F500
G1 X34.295 Y-1.073 Z1.075 F500
G1 X34.172 Y-1.124 Z1.075 F500
G1 X34.044 Y-1.161 Z1.075 F500
G1 X33.912 Y-1.184 Z1.075 F500
G1 X33.779 Y-1.191 Z1.075 F500
G1 X0.085 Y-1.191 Z1.075 F500
G1 X-0.049 Y-1.184 Z1.075 F500
G1 X-0.180 Y-1.161 Z1.075 F500
G1 X-0.309 Y-1.124 Z1.075 F500
G1 X-0.432 Y-1.073 Z1.075 F500
G1 X-0.549 Y-1.009 Z1.075 F500
G1 X-0.658 Y-0.931 Z1.075 F500
G1 X-0.758 Y-0.842 Z1.075 F500
G1 X-0.842 Y-0.758 Z1.075 F500
G1 X-0.931 Y-0.658 Z1.075 F500
G1 X-1.009 Y-0.549 Z1.075 F500
G1 X-1.073 Y-0.432 Z1.075 F500
G1 X-1.124 Y-0.309 Z1.075 F500
G1 X-1.161 Y-0.180 Z1.075 F500
G1 X-1.184 Y-0.049 Z1.075 F500
G1 X-1.191 Y0.085 Z1.075 F500
G1 X-1.191 Y16.000 Z1.075 F500
G1 X-1.184 Y16.134 Z1.075 F500
G1 X-1.161 Y16.265 Z1.075 F500
G1 X-1.124 Y16.394 Z1.075 F500
G1 X-1.073 Y16.517 Z1.075 F500
G1 X-1.009 Y16.634 Z1.075 F500
G1 X-0.932 Y16.743 Z1.075 F500
G1 X-0.843 Y16.843 Z1.075 F500
G1 X-0.758 Y16.927 Z1.075 F500
G1 X-0.658 Y17.016 Z1.075 F500
G1 X-0.549 Y17.094 Z1.075 F500
G1 X-0.432 Y17.158 Z1.075 F500
G1 X-0.309 Y17.209 Z1.075 F500
G1 X-0.181 Y17.246 Z1.075 F500
G1 X-0.049 Y17.269 Z1.075 F500
G1 X0.085 Y17.276 Z1.075 F500
G1 X33.779 Y17.276 Z1.075 F500
G1 X33.912 Y17.269 Z1.075 F500
G1 X34.044 Y17.246 Z1.075 F500
G1 X34.172 Y17.210 Z1.075 F500
G1 X34.295 Y17.158 Z1.075 F500
G1 X34.412 Y17.094 Z1.075 F500
G1 X34.521 Y17.016 Z1.075 F500
G1 X34.621 Y16.927 Z1.075 F500
G1 X34.706 Y16.843 Z1.075 F500
G1 X34.795 Y16.743 Z1.075 F500
G1 X34.872 Y16.634 Z1.075 F500
G1 X34.937 Y16.517 Z1.075 F500
G1 X34.988 Y16.394 Z1.075 F500
G1 X35.025 Y16.265 Z1.075 F500
G1 X35.047 Y16.134 Z1.075 F500
G1 X35.055 Y16.000 Z1.075 F500
G1 X35.055 Y8.043 Z1.075 F500
G1 X35.061 Y7.990 Z1.075 F500
G1 X35.078 Y7.939 Z1.075 F500
G1 X35.107 Y7.894 Z1.075 F500
G1 X35.144 Y7.856 Z1.075 F500
G1 X35.189 Y7.828 Z1.075 F500
G1 X35.240 Y7.810 Z1.075 F500
G1 X35.293 Y7.804 Z1.075 F500
G1 X35.531 Y7.804 Z1.075 F500
G1 X35.584 Y7.804 Z1.081 F500
G1 X35.634 Y7.804 Z1.099 F500
G1 X35.680 Y7.804 Z1.127 F500
G1 X35.717 Y7.804 Z1.165 F500
G1 X35.746 Y7.804 Z1.210 F500
G1 X35.763 Y7.804 Z1.261 F500
G1 X35.769 Y7.804 Z1.314 F500
G1 X35.769 Y7.804 Z6.825 F500
G1 X35.769 Y8.281 Z6.825 F500
G1 X35.769 Y8.281 Z1.552 F166.7
G1 X35.769 Y8.281 Z1.189 F166.7
G1 X35.763 Y8.281 Z1.136 F500
G1 X35.746 Y8.281 Z1.085 F500
G1 X35.717 Y8.281 Z1.040 F500
G1 X35.680 Y8.281 Z1.002 F500
G1 X35.634 Y8.281 Z0.974 F500
G1 X35.584 Y8.281 Z0.956 F500
G1 X35.531 Y8.281 Z0.950 F500
G1 X35.293 Y8.281 Z0.950 F500
G1 X35.240 Y8.275 Z0.950 F500
G1 X35.189 Y8.257 Z0.950 F500
G1 X35.144 Y8.229 Z0.950 F500
G1 X35.107 Y8.191 Z0.950 F500
G1 X35.078 Y8.146 Z0.950 F500
G1 X35.061 Y8.096 Z0.950 F500
G1 X35.055 Y8.043 Z0.950 F500
G1 X35.055 Y0.085 Z0.950 F500
G1 X35.047 Y-0.049 Z0.950 F500
G1 X35.025 Y-0.181 Z0.950 F500
G1 X34.988 Y-0.309 Z0.950 F500
G1 X34.937 Y-0.432 Z0.950 F500
G1 X34.872 Y-0.549 Z0.950 F500
G1 X34.795 Y-0.658 Z0.950 F500
G1 X34.705 Y-0.758 Z0.950 F500
G1 X34.621 Y-0.843 Z0.950 F500
G1 X34.521 Y-0.932 Z0.950 F500
G1 X34.412 Y-1.009 Z0.950 F500
G1 X34.295 Y-1.073 Z0.950 F500
G1 X34.172 Y-1.124 Z0.950 F500
G1 X34.044 Y-1.161 Z0.950 F500
G1 X33.912 Y-1.184 Z0.950 F500
G1 X33.779 Y-1.191 Z0.950 F500
G1 X0.085 Y-1.191 Z0.950 F500
G1 X-0.049 Y-1.184 Z0.950 F500
G1 X-0.180 Y-1.161 Z0.950 F500
G1 X-0.309 Y-1.124 Z0.950 F500
G1 X-0.432 Y-1.073 Z0.950 F500
G1 X-0.549 Y-1.009 Z0.950 F500
G1 X-0.658 Y-0.931 Z0.950 F500
G1 X-0.758 Y-0.842 Z0.950 F500
G1 X-0.842 Y-0.758 Z0.950 F500
G1 X-0.931 Y-0.658 Z0.950 F500
G1 X-1.009 Y-0.549 Z0.950 F500
G1 X-1.073 Y-0.432 Z0.950 F500
G1 X-1.124 Y-0.309 Z0.950 F500
G1 X-1.161 Y-0.180 Z0.950 F500
G1 X-1.184 Y-0.049 Z0.950 F500
G1 X-1.191 Y0.085 Z0.950 F500
G1 X-1.191 Y16.000 Z0.950 F500
G1 X-1.184 Y16.134 Z0.950 F500
G1 X-1.161 Y16.265 Z0.950 F500
G1 X-1.124 Y16.394 Z0.950 F500
G1 X-1.073 Y16.517 Z0.950 F500
G1 X-1.009 Y16.634 Z0.950 F500
G1 X-0.932 Y16.743 Z0.950 F500
G1 X-0.843 Y16.843 Z0.950 F500
G1 X-0.758 Y16.927 Z0.950 F500
G1 X-0.658 Y17.016 Z0.950 F500
G1 X-0.549 Y17.094 Z0.950 F500
G1 X-0.432 Y17.158 Z0.950 F500
G1 X-0.309 Y17.209 Z0.950 F500
G1 X-0.181 Y17.246 Z0.950 F500
G1 X-0.049 Y17.269 Z0.950 F500
G1 X0.085 Y17.276 Z0.950 F500
G1 X33.779 Y17.276 Z0.950 F500
G1 X33.912 Y17.269 Z0.950 F500
G1 X34.044 Y17.246 Z0.950 F500
G1 X34.172 Y17.210 Z0.950 F500
G1 X34.295 Y17.158 Z0.950 F500
G1 X34.412 Y17.094 Z0.950 F500
G1 X34.521 Y17.016 Z0.950 F500
G1 X34.621 Y16.927 Z0.950 F500
G1 X34.706 Y16.843 Z0.950 F500
G1 X34.795 Y16.743 Z0.950 F500
G1 X34.872 Y16.634 Z0.950 F500
G1 X34.937 Y16.517 Z0.950 F500
G1 X34.988 Y16.394 Z0.950 F500
G1 X35.025 Y16.265 Z0.950 F500
G1 X35.047 Y16.134 Z0.950 F500
G1 X35.055 Y16.000 Z0.950 F500
G1 X35.055 Y8.043 Z0.950 F500
G1 X35.061 Y7.990 Z0.950 F500
G1 X35.078 Y7.939 Z0.950 F500
G1 X35.107 Y7.894 Z0.950 F500
G1 X35.144 Y7.856 Z0.950 F500
G1 X35.189 Y7.828 Z0.950 F500
G1 X35.240 Y7.810 Z0.950 F500
G1 X35.293 Y7.804 Z0.950 F500
G1 X35.531 Y7.804 Z0.950 F500
G1 X35.584 Y7.804 Z0.956 F500
G1 X35.634 Y7.804 Z0.974 F500
G1 X35.680 Y7.804 Z1.002 F500
G1 X35.717 Y7.804 Z1.040 F500
G1 X35.746 Y7.804 Z1.085 F500
G1 X35.763 Y7.804 Z1.136 F500
G1 X35.769 Y7.804 Z1.189 F500
G1 X35.769 Y7.804 Z6.825 F500
G1 X35.769 Y8.281 Z6.825 F500
G1 X35.769 Y8.281 Z1.427 F166.7
G1 X35.769 Y8.281 Z1.064 F166.7
G1 X35.763 Y8.281 Z1.011 F500
G1 X35.746 Y8.281 Z0.960 F500
G1 X35.717 Y8.281 Z0.915 F500
G1 X35.680 Y8.281 Z0.877 F500
G1 X35.634 Y8.281 Z0.849 F500
G1 X35.584 Y8.281 Z0.831 F500
G1 X35.531 Y8.281 Z0.825 F500
G1 X35.293 Y8.281 Z0.825 F500
G1 X35.240 Y8.275 Z0.825 F500
G1 X35.189 Y8.257 Z0.825 F500
G1 X35.144 Y8.229 Z0.825 F500
G1 X35.107 Y8.191 Z0.825 F500
G1 X35.078 Y8.146 Z0.825 F500
G1 X35.061 Y8.096 Z0.825 F500
G1 X35.055 Y8.043 Z0.825 F500
G1 X35.055 Y0.085 Z0.825 F500
G1 X35.047 Y-0.049 Z0.825 F500
G1 X35.025 Y-0.181 Z0.825 F500
G1 X34.988 Y-0.309 Z0.825 F500
G1 X34.937 Y-0.432 Z0.825 F500
G1 X34.872 Y-0.549 Z0.825 F500
G1 X34.795 Y-0.658 Z0.825 F500
G1 X34.705 Y-0.758 Z0.825 F500
G1 X34.621 Y-0.843 Z0.825 F500
G1 X34.521 Y-0.932 Z0.825 F500
G1 X34.412 Y-1.009 Z0.825 F500
G1 X34.295 Y-1.073 Z0.825 F500
G1 X34.172 Y-1.124 Z0.825 F500
G1 X34.044 Y-1.161 Z0.825 F500
G1 X33.912 Y-1.184 Z0.825 F500
G1 X33.779 Y-1.191 Z0.825 F500
G1 X0.085 Y-1.191 Z0.825 F500
G1 X-0.049 Y-1.184 Z0.825 F500
G1 X-0.180 Y-1.161 Z0.825 F500
G1 X-0.309 Y-1.124 Z0.825 F500
G1 X-0.432 Y-1.073 Z0.825 F500
G1 X-0.549 Y-1.009 Z0.825 F500
G1 X-0.658 Y-0.931 Z0.825 F500
G1 X-0.758 Y-0.842 Z0.825 F500
G1 X-0.842 Y-0.758 Z0.825 F500
G1 X-0.931 Y-0.658 Z0.825 F500
G1 X-1.009 Y-0.549 Z0.825 F500
G1 X-1.073 Y-0.432 Z0.825 F500
G1 X-1.124 Y-0.309 Z0.825 F500
G1 X-1.161 Y-0.180 Z0.825 F500
G1 X-1.184 Y-0.049 Z0.825 F500
G1 X-1.191 Y0.085 Z0.825 F500
G1 X-1.191 Y16.000 Z0.825 F500
G1 X-1.184 Y16.134 Z0.825 F500
G1 X-1.161 Y16.265 Z0.825 F500
G1 X-1.124 Y16.394 Z0.825 F500
G1 X-1.073 Y16.517 Z0.825 F500
G1 X-1.009 Y16.634 Z0.825 F500
G1 X-0.932 Y16.743 Z0.825 F500
G1 X-0.843 Y16.843 Z0.825 F500
G1 X-0.758 Y16.927 Z0.825 F500
G1 X-0.658 Y17.016 Z0.825 F500
G1 X-0.549 Y17.094 Z0.825 F500
G1 X-0.432 Y17.158 Z0.825 F500
G1 X-0.309 Y17.209 Z0.825 F500
G1 X-0.181 Y17.246 Z0.825 F500
G1 X-0.049 Y17.269 Z0.825 F500
G1 X0.085 Y17.276 Z0.825 F500
G1 X33.779 Y17.276 Z0.825 F500
G1 X33.912 Y17.269 Z0.825 F500
G1 X34.044 Y17.246 Z0.825 F500
G1 X34.172 Y17.210 Z0.825 F500
G1 X34.295 Y17.158 Z0.825 F500
G1 X34.412 Y17.094 Z0.825 F500
G1 X34.521 Y17.016 Z0.825 F500
G1 X34.621 Y16.927 Z0.825 F500
G1 X34.706 Y16.843 Z0.825 F500
G1 X34.795 Y16.743 Z0.825 F500
G1 X34.872 Y16.634 Z0.825 F500
G1 X34.937 Y16.517 Z0.825 F500
G1 X34.988 Y16.394 Z0.825 F500
G1 X35.025 Y16.265 Z0.825 F500
G1 X35.047 Y16.134 Z0.825 F500
G1 X35.055 Y16.000 Z0.825 F500
G1 X35.055 Y8.043 Z0.825 F500
G1 X35.061 Y7.990 Z0.825 F500
G1 X35.078 Y7.939 Z0.825 F500
G1 X35.107 Y7.894 Z0.825 F500
G1 X35.144 Y7.856 Z0.825 F500
G1 X35.189 Y7.828 Z0.825 F500
G1 X35.240 Y7.810 Z0.825 F500
G1 X35.293 Y7.804 Z0.825 F500
G1 X35.531 Y7.804 Z0.825 F500
G1 X35.584 Y7.804 Z0.831 F500
G1 X35.634 Y7.804 Z0.849 F500
G1 X35.680 Y7.804 Z0.877 F500
G1 X35.717 Y7.804 Z0.915 F500
G1 X35.746 Y7.804 Z0.960 F500
G1 X35.763 Y7.804 Z1.011 F500
G1 X35.769 Y7.804 Z1.064 F500
G1 X35.769 Y7.804 Z6.825 F500
G1 X35.769 Y8.281 Z6.825 F500
G1 X35.769 Y8.281 Z1.302 F166.7
G1 X35.769 Y8.281 Z0.939 F166.7
G1 X35.763 Y8.281 Z0.886 F500
G1 X35.746 Y8.281 Z0.835 F500
G1 X35.717 Y8.281 Z0.790 F500
G1 X35.680 Y8.281 Z0.752 F500
G1 X35.634 Y8.281 Z0.724 F500
G1 X35.584 Y8.281 Z0.706 F500
G1 X35.531 Y8.281 Z0.700 F500
G1 X35.293 Y8.281 Z0.700 F500
G1 X35.240 Y8.275 Z0.700 F500
G1 X35.189 Y8.257 Z0.700 F500
G1 X35.144 Y8.229 Z0.700 F500
G1 X35.107 Y8.191 Z0.700 F500
G1 X35.078 Y8.146 Z0.700 F500
G1 X35.061 Y8.096 Z0.700 F500
G1 X35.055 Y8.043 Z0.700 F500
G1 X35.055 Y0.085 Z0.700 F500
G1 X35.047 Y-0.049 Z0.700 F500
G1 X35.025 Y-0.181 Z0.700 F500
G1 X34.988 Y-0.309 Z0.700 F500
G1 X34.937 Y-0.432 Z0.700 F500
G1 X34.872 Y-0.549 Z0.700 F500
G1 X34.795 Y-0.658 Z0.700 F500
G1 X34.705 Y-0.758 Z0.700 F500
G1 X34.621 Y-0.843 Z0.700 F500
G1 X34.521 Y-0.932 Z0.700 F500
G1 X34.412 Y-1.009 Z0.700 F500
G1 X34.295 Y-1.073 Z0.700 F500
G1 X34.172 Y-1.124 Z0.700 F500
G1 X34.044 Y-1.161 Z0.700 F500
G1 X33.912 Y-1.184 Z0.700 F500
G1 X33.779 Y-1.191 Z0.700 F500
G1 X0.085 Y-1.191 Z0.700 F500
G1 X-0.049 Y-1.184 Z0.700 F500
G1 X-0.180 Y-1.161 Z0.700 F500
G1 X-0.309 Y-1.124 Z0.700 F500
G1 X-0.432 Y-1.073 Z0.700 F500
G1 X-0.549 Y-1.009 Z0.700 F500
G1 X-0.658 Y-0.931 Z0.700 F500
G1 X-0.758 Y-0.842 Z0.700 F500
G1 X-0.842 Y-0.758 Z0.700 F500
G1 X-0.931 Y-0.658 Z0.700 F500
G1 X-1.009 Y-0.549 Z0.700 F500
G1 X-1.073 Y-0.432 Z0.700 F500
G1 X-1.124 Y-0.309 Z0.700 F500
G1 X-1.161 Y-0.180 Z0.700 F500
G1 X-1.184 Y-0.049 Z0.700 F500
G1 X-1.191 Y0.085 Z0.700 F500
G1 X-1.191 Y16.000 Z0.700 F500
G1 X-1.184 Y16.134 Z0.700 F500
G1 X-1.161 Y16.265 Z0.700 F500
G1 X-1.124 Y16.394 Z0.700 F500
G1 X-1.073 Y16.517 Z0.700 F500
G1 X-1.009 Y16.634 Z0.700 F500
G1 X-0.932 Y16.743 Z0.700 F500
G1 X-0.843 Y16.843 Z0.700 F500
G1 X-0.758 Y16.927 Z0.700 F500
G1 X-0.658 Y17.016 Z0.700 F500
G1 X-0.549 Y17.094 Z0.700 F500
G1 X-0.432 Y17.158 Z0.700 F500
G1 X-0.309 Y17.209 Z0.700 F500
G1 X-0.181 Y17.246 Z0.700 F500
G1 X-0.049 Y17.269 Z0.700 F500
G1 X0.085 Y17.276 Z0.700 F500
G1 X33.779 Y17.276 Z0.700 F500
G1 X33.912 Y17.269 Z0.700 F500
G1 X34.044 Y17.246 Z0.700 F500
G1 X34.172 Y17.210 Z0.700 F500
G1 X34.295 Y17.158 Z0.700 F500
G1 X34.412 Y17.094 Z0.700 F500
G1 X34.521 Y17.016 Z0.700 F500
G1 X34.621 Y16.927 Z0.700 F500
G1 X34.706 Y16.843 Z0.700 F500
G1 X34.795 Y16.743 Z0.700 F500
G1 X34.872 Y16.634 Z0.700 F500
G1 X34.937 Y16.517 Z0.700 F500
G1 X34.988 Y16.394 Z0.700 F500
G1 X35.025 Y16.265 Z0.700 F500
G1 X35.047 Y16.134 Z0.700 F500
G1 X35.055 Y16.000 Z0.700 F500
G1 X35.055 Y8.043 Z0.700 F500
G1 X35.061 Y7.990 Z0.700 F500
G1 X35.078 Y7.939 Z0.700 F500
G1 X35.107 Y7.894 Z0.700 F500
G1 X35.144 Y7.856 Z0.700 F500
G1 X35.189 Y7.828 Z0.700 F500
G1 X35.240 Y7.810 Z0.700 F500
G1 X35.293 Y7.804 Z0.700 F500
G1 X35.531 Y7.804 Z0.700 F500
G1 X35.584 Y7.804 Z0.706 F500
G1 X35.634 Y7.804 Z0.724 F500
G1 X35.680 Y7.804 Z0.752 F500
G1 X35.717 Y7.804 Z0.790 F500
G1 X35.746 Y7.804 Z0.835 F500
G1 X35.763 Y7.804 Z0.886 F500
G1 X35.769 Y7.804 Z0.939 F500
G1 X35.769 Y7.804 Z6.825 F500
G1 X35.769 Y8.281 Z6.825 F500
G1 X35.769 Y8.281 Z1.177 F166.7
G1 X35.769 Y8.281 Z0.814 F166.7
G1 X35.763 Y8.281 Z0.761 F500
G1 X35.746 Y8.281 Z0.710 F500
G1 X35.717 Y8.281 Z0.665 F500
G1 X35.680 Y8.281 Z0.627 F500
G1 X35.634 Y8.281 Z0.599 F500
G1 X35.584 Y8.281 Z0.581 F500
G1 X35.531 Y8.281 Z0.575 F500
G1 X35.293 Y8.281 Z0.575 F500
G1 X35.240 Y8.275 Z0.575 F500
G1 X35.189 Y8.257 Z0.575 F500
G1 X35.144 Y8.229 Z0.575 F500
G1 X35.107 Y8.191 Z0.575 F500
G1 X35.078 Y8.146 Z0.575 F500
G1 X35.061 Y8.096 Z0.575 F500
G1 X35.055 Y8.043 Z0.575 F500
G1 X35.055 Y0.085 Z0.575 F500
G1 X35.047 Y-0.049 Z0.575 F500
G1 X35.025 Y-0.181 Z0.575 F500
G1 X34.988 Y-0.309 Z0.575 F500
G1 X34.937 Y-0.432 Z0.575 F500
G1 X34.872 Y-0.549 Z0.575 F500
G1 X34.795 Y-0.658 Z0.575 F500
G1 X34.705 Y-0.758 Z0.575 F500
G1 X34.621 Y-0.843 Z0.575 F500
G1 X34.521 Y-0.932 Z0.575 F500
G1 X34.412 Y-1.009 Z0.575 F500
G1 X34.295 Y-1.073 Z0.575 F500
G1 X34.172 Y-1.124 Z0.575 F500
G1 X34.044 Y-1.161 Z0.575 F500
G1 X33.912 Y-1.184 Z0.575 F500
G1 X33.779 Y-1.191 Z0.575 F500
G1 X0.085 Y-1.191 Z0.575 F500
G1 X-0.049 Y-1.184 Z0.575 F500
G1 X-0.180 Y-1.161 Z0.575 F500
G1 X-0.309 Y-1.124 Z0.575 F500
G1 X-0.432 Y-1.073 Z0.575 F500
G1 X-0.549 Y-1.009 Z0.575 F500
G1 X-0.658 Y-0.931 Z0.575 F500
G1 X-0.758 Y-0.842 Z0.575 F500
G1 X-0.842 Y-0.758 Z0.575 F500
G1 X-0.931 Y-0.658 Z0.575 F500
G1 X-1.009 Y-0.549 Z0.575 F500
G1 X-1.073 Y-0.432 Z0.575 F500
G1 X-1.124 Y-0.309 Z0.575 F500
G1 X-1.161 Y-0.180 Z0.575 F500
G1 X-1.184 Y-0.049 Z0.575 F500
G1 X-1.191 Y0.085 Z0.575 F500
G1 X-1.191 Y16.000 Z0.575 F500
G1 X-1.184 Y16.134 Z0.575 F500
G1 X-1.161 Y16.265 Z0.575 F500
G1 X-1.124 Y16.394 Z0.575 F500
G1 X-1.073 Y16.517 Z0.575 F500
G1 X-1.009 Y16.634 Z0.575 F500
G1 X-0.932 Y16.743 Z0.575 F500
G1 X-0.843 Y16.843 Z0.575 F500
G1 X-0.758 Y16.927 Z0.575 F500
G1 X-0.658 Y17.016 Z0.575 F500
G1 X-0.549 Y17.094 Z0.575 F500
G1 X-0.432 Y17.158 Z0.575 F500
G1 X-0.309 Y17.209 Z0.575 F500
G1 X-0.181 Y17.246 Z0.575 F500
G1 X-0.049 Y17.269 Z0.575 F500
G1 X0.085 Y17.276 Z0.575 F500
G1 X33.779 Y17.276 Z0.575 F500
G1 X33.912 Y17.269 Z0.575 F500
G1 X34.044 Y17.246 Z0.575 F500
G1 X34.172 Y17.210 Z0.575 F500
G1 X34.295 Y17.158 Z0.575 F500
G1 X34.412 Y17.094 Z0.575 F500
G1 X34.521 Y17.016 Z0.575 F500
G1 X34.621 Y16.927 Z0.575 F500
G1 X34.706 Y16.843 Z0.575 F500
G1 X34.795 Y16.743 Z0.575 F500
G1 X34.872 Y16.634 Z0.575 F500
G1 X34.937 Y16.517 Z0.575 F500
G1 X34.988 Y16.394 Z0.575 F500
G1 X35.025 Y16.265 Z0.575 F500
G1 X35.047 Y16.134 Z0.575 F500
G1 X35.055 Y16.000 Z0.575 F500
G1 X35.055 Y8.043 Z0.575 F500
G1 X35.061 Y7.990 Z0.575 F500
G1 X35.078 Y7.939 Z0.575 F500
G1 X35.107 Y7.894 Z0.575 F500
G1 X35.144 Y7.856 Z0.575 F500
G1 X35.189 Y7.828 Z0.575 F500
G1 X35.240 Y7.810 Z0.575 F500
G1 X35.293 Y7.804 Z0.575 F500
G1 X35.531 Y7.804 Z0.575 F500
G1 X35.584 Y7.804 Z0.581 F500
G1 X35.634 Y7.804 Z0.599 F500
G1 X35.680 Y7.804 Z0.627 F500
G1 X35.717 Y7.804 Z0.665 F500
G1 X35.746 Y7.804 Z0.710 F500
G1 X35.763 Y7.804 Z0.761 F500
G1 X35.769 Y7.804 Z0.814 F500
G1 X35.769 Y7.804 Z6.825 F500
G1 X35.769 Y8.281 Z6.825 F500
G1 X35.769 Y8.281 Z1.052 F166.7
G1 X35.769 Y8.281 Z0.689 F166.7
G1 X35.763 Y8.281 Z0.636 F500
G1 X35.746 Y8.281 Z0.585 F500
G1 X35.717 Y8.281 Z0.540 F500
G1 X35.680 Y8.281 Z0.502 F500
G1 X35.634 Y8.281 Z0.474 F500
G1 X35.584 Y8.281 Z0.456 F500
G1 X35.531 Y8.281 Z0.450 F500
G1 X35.293 Y8.281 Z0.450 F500
G1 X35.240 Y8.275 Z0.450 F500
G1 X35.189 Y8.257 Z0.450 F500
G1 X35.144 Y8.229 Z0.450 F500
G1 X35.107 Y8.191 Z0.450 F500
G1 X35.078 Y8.146 Z0.450 F500
G1 X35.061 Y8.096 Z0.450 F500
G1 X35.055 Y8.043 Z0.450 F500
G1 X35.055 Y0.085 Z0.450 F500
G1 X35.047 Y-0.049 Z0.450 F500
G1 X35.025 Y-0.181 Z0.450 F500
G1 X34.988 Y-0.309 Z0.450 F500
G1 X34.937 Y-0.432 Z0.450 F500
G1 X34.872 Y-0.549 Z0.450 F500
G1 X34.795 Y-0.658 Z0.450 F500
G1 X34.705 Y-0.758 Z0.450 F500
G1 X34.621 Y-0.843 Z0.450 F500
G1 X34.521 Y-0.932 Z0.450 F500
G1 X34.412 Y-1.009 Z0.450 F500
G1 X34.295 Y-1.073 Z0.450 F500
G1 X34.172 Y-1.124 Z0.450 F500
G1 X34.044 Y-1.161 Z0.450 F500
G1 X33.912 Y-1.184 Z0.450 F500
G1 X33.779 Y-1.191 Z0.450 F500
G1 X0.085 Y-1.191 Z0.450 F500
G1 X-0.049 Y-1.184 Z0.450 F500
G1 X-0.180 Y-1.161 Z0.450 F500
G1 X-0.309 Y-1.124 Z0.450 F500
G1 X-0.432 Y-1.073 Z0.450 F500
G1 X-0.549 Y-1.009 Z0.450 F500
G1 X-0.658 Y-0.931 Z0.450 F500
G1 X-0.758 Y-0.842 Z0.450 F500
G1 X-0.842 Y-0.758 Z0.450 F500
G1 X-0.931 Y-0.658 Z0.450 F500
G1 X-1.009 Y-0.549 Z0.450 F500
G1 X-1.073 Y-0.432 Z0.450 F500
G1 X-1.124 Y-0.309 Z0.450 F500
G1 X-1.161 Y-0.180 Z0.450 F500
G1 X-1.184 Y-0.049 Z0.450 F500
G1 X-1.191 Y0.085 Z0.450 F500
G1 X-1.191 Y16.000 Z0.450 F500
G1 X-1.184 Y16.134 Z0.450 F500
G1 X-1.161 Y16.265 Z0.450 F500
G1 X-1.124 Y16.394 Z0.450 F500
G1 X-1.073 Y16.517 Z0.450 F500
G1 X-1.009 Y16.634 Z0.450 F500
G1 X-0.932 Y16.743 Z0.450 F500
G1 X-0.843 Y16.843 Z0.450 F500
G1 X-0.758 Y16.927 Z0.450 F500
G1 X-0.658 Y17.016 Z0.450 F500
G1 X-0.549 Y17.094 Z0.450 F500
G1 X-0.432 Y17.158 Z0.450 F500
G1 X-0.309 Y17.209 Z0.450 F500
G1 X-0.181 Y17.246 Z0.450 F500
G1 X-0.049 Y17.269 Z0.450 F500
G1 X0.085 Y17.276 Z0.450 F500
G1 X33.779 Y17.276 Z0.450 F500
G1 X33.912 Y17.269 Z0.450 F500
G1 X34.044 Y17.246 Z0.450 F500
G1 X34.172 Y17.210 Z0.450 F500
G1 X34.295 Y17.158 Z0.450 F500
G1 X34.412 Y17.094 Z0.450 F500
G1 X34.521 Y17.016 Z0.450 F500
G1 X34.621 Y16.927 Z0.450 F500
G1 X34.706 Y16.843 Z0.450 F500
G1 X34.795 Y16.743 Z0.450 F500
G1 X34.872 Y16.634 Z0.450 F500
G1 X34.937 Y16.517 Z0.450 F500
G1 X34.988 Y16.394 Z0.450 F500
G1 X35.025 Y16.265 Z0.450 F500
G1 X35.047 Y16.134 Z0.450 F500
G1 X35.055 Y16.000 Z0.450 F500
G1 X35.055 Y8.043 Z0.450 F500
G1 X35.061 Y7.990 Z0.450 F500
G1 X35.078 Y7.939 Z0.450 F500
G1 X35.107 Y7.894 Z0.450 F500
G1 X35.144 Y7.856 Z0.450 F500
G1 X35.189 Y7.828 Z0.450 F500
G1 X35.240 Y7.810 Z0.450 F500
G1 X35.293 Y7.804 Z0.450 F500
G1 X35.531 Y7.804 Z0.450 F500
G1 X35.584 Y7.804 Z0.456 F500
G1 X35.634 Y7.804 Z0.474 F500
G1 X35.680 Y7.804 Z0.502 F500
G1 X35.717 Y7.804 Z0.540 F500
G1 X35.746 Y7.804 Z0.585 F500
G1 X35.763 Y7.804 Z0.636 F500
G1 X35.769 Y7.804 Z0.689 F500
G1 X35.769 Y7.804 Z6.825 F500
G1 X35.769 Y8.281 Z6.825 F500
G1 X35.769 Y8.281 Z0.927 F166.7
G1 X35.769 Y8.281 Z0.564 F166.7
G1 X35.763 Y8.281 Z0.511 F500
G1 X35.746 Y8.281 Z0.460 F500
G1 X35.717 Y8.281 Z0.415 F500
G1 X35.680 Y8.281 Z0.377 F500
G1 X35.634 Y8.281 Z0.349 F500
G1 X35.584 Y8.281 Z0.331 F500
G1 X35.531 Y8.281 Z0.325 F500
G1 X35.293 Y8.281 Z0.325 F500
G1 X35.240 Y8.275 Z0.325 F500
G1 X35.189 Y8.257 Z0.325 F500
G1 X35.144 Y8.229 Z0.325 F500
G1 X35.107 Y8.191 Z0.325 F500
G1 X35.078 Y8.146 Z0.325 F500
G1 X35.061 Y8.096 Z0.325 F500
G1 X35.055 Y8.043 Z0.325 F500
G1 X35.055 Y0.085 Z0.325 F500
G1 X35.047 Y-0.049 Z0.325 F500
G1 X35.025 Y-0.181 Z0.325 F500
G1 X34.988 Y-0.309 Z0.325 F500
G1 X34.937 Y-0.432 Z0.325 F500
G1 X34.872 Y-0.549 Z0.325 F500
G1 X34.795 Y-0.658 Z0.325 F500
G1 X34.705 Y-0.758 Z0.325 F500
G1 X34.621 Y-0.843 Z0.325 F500
G1 X34.521 Y-0.932 Z0.325 F500
G1 X34.412 Y-1.009 Z0.325 F500
G1 X34.295 Y-1.073 Z0.325 F500
G1 X34.172 Y-1.124 Z0.325 F500
G1 X34.044 Y-1.161 Z0.325 F500
G1 X33.912 Y-1.184 Z0.325 F500
G1 X33.779 Y-1.191 Z0.325 F500
G1 X0.085 Y-1.191 Z0.325 F500
G1 X-0.049 Y-1.184 Z0.325 F500
G1 X-0.180 Y-1.161 Z0.325 F500
G1 X-0.309 Y-1.124 Z0.325 F500
G1 X-0.432 Y-1.073 Z0.325 F500
G1 X-0.549 Y-1.009 Z0.325 F500
G1 X-0.658 Y-0.931 Z0.325 F500
G1 X-0.758 Y-0.842 Z0.325 F500
G1 X-0.842 Y-0.758 Z0.325 F500
G1 X-0.931 Y-0.658 Z0.325 F500
G1 X-1.009 Y-0.549 Z0.325 F500
G1 X-1.073 Y-0.432 Z0.325 F500
G1 X-1.124 Y-0.309 Z0.325 F500
G1 X-1.161 Y-0.180 Z0.325 F500
G1 X-1.184 Y-0.049 Z0.325 F500
G1 X-1.191 Y0.085 Z0.325 F500
G1 X-1.191 Y16.000 Z0.325 F500
G1 X-1.184 Y16.134 Z0.325 F500
G1 X-1.161 Y16.265 Z0.325 F500
G1 X-1.124 Y16.394 Z0.325 F500
G1 X-1.073 Y16.517 Z0.325 F500
G1 X-1.009 Y16.634 Z0.325 F500
G1 X-0.932 Y16.743 Z0.325 F500
G1 X-0.843 Y16.843 Z0.325 F500
G1 X-0.758 Y16.927 Z0.325 F500
G1 X-0.658 Y17.016 Z0.325 F500
G1 X-0.549 Y17.094 Z0.325 F500
G1 X-0.432 Y17.158 Z0.325 F500
G1 X-0.309 Y17.209 Z0.325 F500
G1 X-0.181 Y17.246 Z0.325 F500
G1 X-0.049 Y17.269 Z0.325 F500
G1 X0.085 Y17.276 Z0.325 F500
G1 X33.779 Y17.276 Z0.325 F500
G1 X33.912 Y17.269 Z0.325 F500
G1 X34.044 Y17.246 Z0.325 F500
G1 X34.172 Y17.210 Z0.325 F500
G1 X34.295 Y17.158 Z0.325 F500
G1 X34.412 Y17.094 Z0.325 F500
G1 X34.521 Y17.016 Z0.325 F500
G1 X34.621 Y16.927 Z0.325 F500
G1 X34.706 Y16.843 Z0.325 F500
G1 X34.795 Y16.743 Z0.325 F500
G1 X34.872 Y16.634 Z0.325 F500
G1 X34.937 Y16.517 Z0.325 F500
G1 X34.988 Y16.394 Z0.325 F500
G1 X35.025 Y16.265 Z0.325 F500
G1 X35.047 Y16.134 Z0.325 F500
G1 X35.055 Y16.000 Z0.325 F500
G1 X35.055 Y8.043 Z0.325 F500
G1 X35.061 Y7.990 Z0.325 F500
G1 X35.078 Y7.939 Z0.325 F500
G1 X35.107 Y7.894 Z0.325 F500
G1 X35.144 Y7.856 Z0.325 F500
G1 X35.189 Y7.828 Z0.325 F500
G1 X35.240 Y7.810 Z0.325 F500
G1 X35.293 Y7.804 Z0.325 F500
G1 X35.531 Y7.804 Z0.325 F500
G1 X35.584 Y7.804 Z0.331 F500
G1 X35.634 Y7.804 Z0.349 F500
G1 X35.680 Y7.804 Z0.377 F500
G1 X35.717 Y7.804 Z0.415 F500
G1 X35.746 Y7.804 Z0.460 F500
G1 X35.763 Y7.804 Z0.511 F500
G1 X35.769 Y7.804 Z0.564 F500
G1 X35.769 Y7.804 Z6.825 F500
G1 X35.769 Y8.281 Z6.825 F500
G1 X35.769 Y8.281 Z0.802 F166.7
G1 X35.769 Y8.281 Z0.439 F166.7
G1 X35.763 Y8.281 Z0.386 F500
G1 X35.746 Y8.281 Z0.335 F500
G1 X35.717 Y8.281 Z0.290 F500
G1 X35.680 Y8.281 Z0.252 F500
G1 X35.634 Y8.281 Z0.224 F500
G1 X35.584 Y8.281 Z0.206 F500
G1 X35.531 Y8.281 Z0.200 F500
G1 X35.293 Y8.281 Z0.200 F500
G1 X35.240 Y8.275 Z0.200 F500
G1 X35.189 Y8.257 Z0.200 F500
G1 X35.144 Y8.229 Z0.200 F500
G1 X35.107 Y8.191 Z0.200 F500
G1 X35.078 Y8.146 Z0.200 F500
G1 X35.061 Y8.096 Z0.200 F500
G1 X35.055 Y8.043 Z0.200 F500
G1 X35.055 Y0.085 Z0.200 F500
G1 X35.047 Y-0.049 Z0.200 F500
G1 X35.025 Y-0.181 Z0.200 F500
G1 X34.988 Y-0.309 Z0.200 F500
G1 X34.937 Y-0.432 Z0.200 F500
G1 X34.872 Y-0.549 Z0.200 F500
G1 X34.795 Y-0.658 Z0.200 F500
G1 X34.705 Y-0.758 Z0.200 F500
G1 X34.621 Y-0.843 Z0.200 F500
G1 X34.521 Y-0.932 Z0.200 F500
G1 X34.412 Y-1.009 Z0.200 F500
G1 X34.295 Y-1.073 Z0.200 F500
G1 X34.172 Y-1.124 Z0.200 F500
G1 X34.044 Y-1.161 Z0.200 F500
G1 X33.912 Y-1.184 Z0.200 F500
G1 X33.779 Y-1.191 Z0.200 F500
G1 X0.085 Y-1.191 Z0.200 F500
G1 X-0.049 Y-1.184 Z0.200 F500
G1 X-0.180 Y-1.161 Z0.200 F500
G1 X-0.309 Y-1.124 Z0.200 F500
G1 X-0.432 Y-1.073 Z0.200 F500
G1 X-0.549 Y-1.009 Z0.200 F500
G1 X-0.658 Y-0.931 Z0.200 F500
G1 X-0.758 Y-0.842 Z0.200 F500
G1 X-0.842 Y-0.758 Z0.200 F500
G1 X-0.931 Y-0.658 Z0.200 F500
G1 X-1.009 Y-0.549 Z0.200 F500
G1 X-1.073 Y-0.432 Z0.200 F500
G1 X-1.124 Y-0.309 Z0.200 F500
G1 X-1.161 Y-0.180 Z0.200 F500
G1 X-1.184 Y-0.049 Z0.200 F500
G1 X-1.191 Y0.085 Z0.200 F500
G1 X-1.191 Y16.000 Z0.200 F500
G1 X-1.184 Y16.134 Z0.200 F500
G1 X-1.161 Y16.265 Z0.200 F500
G1 X-1.124 Y16.394 Z0.200 F500
G1 X-1.073 Y16.517 Z0.200 F500
G1 X-1.009 Y16.634 Z0.200 F500
G1 X-0.932 Y16.743 Z0.200 F500
G1 X-0.843 Y16.843 Z0.200 F500
G1 X-0.758 Y16.927 Z0.200 F500
G1 X-0.658 Y17.016 Z0.200 F500
G1 X-0.549 Y17.094 Z0.200 F500
G1 X-0.432 Y17.158 Z0.200 F500
G1 X-0.309 Y17.209 Z0.200 F500
G1 X-0.181 Y17.246 Z0.200 F500
G1 X-0.049 Y17.269 Z0.200 F500
G1 X0.085 Y17.276 Z0.200 F500
G1 X33.779 Y17.276 Z0.200 F500
G1 X33.912 Y17.269 Z0.200 F500
G1 X34.044 Y17.246 Z0.200 F500
G1 X34.172 Y17.210 Z0.200 F500
G1 X34.295 Y17.158 Z0.200 F500
G1 X34.412 Y17.094 Z0.200 F500
G1 X34.521 Y17.016 Z0.200 F500
G1 X34.621 Y16.927 Z0.200 F500
G1 X34.706 Y16.843 Z0.200 F500
G1 X34.795 Y16.743 Z0.200 F500
G1 X34.872 Y16.634 Z0.200 F500
G1 X34.937 Y16.517 Z0.200 F500
G1 X34.988 Y16.394 Z0.200 F500
G1 X35.025 Y16.265 Z0.200 F500
G1 X35.047 Y16.134 Z0.200 F500
G1 X35.055 Y16.000 Z0.200 F500
G1 X35.055 Y8.043 Z0.200 F500
G1 X35.061 Y7.990 Z0.200 F500
G1 X35.078 Y7.939 Z0.200 F500
G1 X35.107 Y7.894 Z0.200 F500
G1 X35.144 Y7.856 Z0.200 F500
G1 X35.189 Y7.828 Z0.200 F500
G1 X35.240 Y7.810 Z0.200 F500
G1 X35.293 Y7.804 Z0.200 F500
G1 X35.531 Y7.804 Z0.200 F500
G1 X35.584 Y7.804 Z0.206 F500
G1 X35.634 Y7.804 Z0.224 F500
G1 X35.680 Y7.804 Z0.252 F500
G1 X35.717 Y7.804 Z0.290 F500
G1 X35.746 Y7.804 Z0.335 F500
G1 X35.763 Y7.804 Z0.386 F500
G1 X35.769 Y7.804 Z0.439 F500
G1 X35.769 Y7.804 Z6.825 F500
G1 X35.769 Y8.281 Z6.825 F500
G1 X35.769 Y8.281 Z0.677 F166.7
G1 X35.769 Y8.281 Z0.314 F166.7
G1 X35.763 Y8.281 Z0.261 F500
G1 X35.746 Y8.281 Z0.210 F500
G1 X35.717 Y8.281 Z0.165 F500
G1 X35.680 Y8.281 Z0.127 F500
G1 X35.634 Y8.281 Z0.099 F500
G1 X35.584 Y8.281 Z0.081 F500
G1 X35.531 Y8.281 Z0.075 F500
G1 X35.293 Y8.281 Z0.075 F500
G1 X35.240 Y8.275 Z0.075 F500
G1 X35.189 Y8.257 Z0.075 F500
G1 X35.144 Y8.229 Z0.075 F500
G1 X35.107 Y8.191 Z0.075 F500
G1 X35.078 Y8.146 Z0.075 F500
G1 X35.061 Y8.096 Z0.075 F500
G1 X35.055 Y8.043 Z0.075 F500
G1 X35.055 Y0.085 Z0.075 F500
G1 X35.047 Y-0.049 Z0.075 F500
G1 X35.025 Y-0.181 Z0.075 F500
G1 X34.988 Y-0.309 Z0.075 F500
G1 X34.937 Y-0.432 Z0.075 F500
G1 X34.872 Y-0.549 Z0.075 F500
G1 X34.795 Y-0.658 Z0.075 F500
G1 X34.705 Y-0.758 Z0.075 F500
G1 X34.621 Y-0.843 Z0.075 F500
G1 X34.521 Y-0.932 Z0.075 F500
G1 X34.412 Y-1.009 Z0.075 F500
G1 X34.295 Y-1.073 Z0.075 F500
G1 X34.172 Y-1.124 Z0.075 F500
G1 X34.044 Y-1.161 Z0.075 F500
G1 X33.912 Y-1.184 Z0.075 F500
G1 X33.779 Y-1.191 Z0.075 F500
G1 X0.085 Y-1.191 Z0.075 F500
G1 X-0.049 Y-1.184 Z0.075 F500
G1 X-0.180 Y-1.161 Z0.075 F500
G1 X-0.309 Y-1.124 Z0.075 F500
G1 X-0.432 Y-1.073 Z0.075 F500
G1 X-0.549 Y-1.009 Z0.075 F500
G1 X-0.658 Y-0.931 Z0.075 F500
G1 X-0.758 Y-0.842 Z0.075 F500
G1 X-0.842 Y-0.758 Z0.075 F500
G1 X-0.931 Y-0.658 Z0.075 F500
G1 X-1.009 Y-0.549 Z0.075 F500
G1 X-1.073 Y-0.432 Z0.075 F500
G1 X-1.124 Y-0.309 Z0.075 F500
G1 X-1.161 Y-0.180 Z0.075 F500
G1 X-1.184 Y-0.049 Z0.075 F500
G1 X-1.191 Y0.085 Z0.075 F500
G1 X-1.191 Y16.000 Z0.075 F500
G1 X-1.184 Y16.134 Z0.075 F500
G1 X-1.161 Y16.265 Z0.075 F500
G1 X-1.124 Y16.394 Z0.075 F500
G1 X-1.073 Y16.517 Z0.075 F500
G1 X-1.009 Y16.634 Z0.075 F500
G1 X-0.932 Y16.743 Z0.075 F500
G1 X-0.843 Y16.843 Z0.075 F500
G1 X-0.758 Y16.927 Z0.075 F500
G1 X-0.658 Y17.016 Z0.075 F500
G1 X-0.549 Y17.094 Z0.075 F500
G1 X-0.432 Y17.158 Z0.075 F500
G1 X-0.309 Y17.209 Z0.075 F500
G1 X-0.181 Y17.246 Z0.075 F500
G1 X-0.049 Y17.269 Z0.075 F500
G1 X0.085 Y17.276 Z0.075 F500
G1 X33.779 Y17.276 Z0.075 F500
G1 X33.912 Y17.269 Z0.075 F500
G1 X34.044 Y17.246 Z0.075 F500
G1 X34.172 Y17.210 Z0.075 F500
G1 X34.295 Y17.158 Z0.075 F500
G1 X34.412 Y17.094 Z0.075 F500
G1 X34.521 Y17.016 Z0.075 F500
G1 X34.621 Y16.927 Z0.075 F500
G1 X34.706 Y16.843 Z0.075 F500
G1 X34.795 Y16.743 Z0.075 F500
G1 X34.872 Y16.634 Z0.075 F500
G1 X34.937 Y16.517 Z0.075 F500
G1 X34.988 Y16.394 Z0.075 F500
G1 X35.025 Y16.265 Z0.075 F500
G1 X35.047 Y16.134 Z0.075 F500
G1 X35.055 Y16.000 Z0.075 F500
G1 X35.055 Y8.043 Z0.075 F500
G1 X35.061 Y7.990 Z0.075 F500
G1 X35.078 Y7.939 Z0.075 F500
G1 X35.107 Y7.894 Z0.075 F500
G1 X35.144 Y7.856 Z0.075 F500
G1 X35.189 Y7.828 Z0.075 F500
G1 X35.240 Y7.810 Z0.075 F500
G1 X35.293 Y7.804 Z0.075 F500
G1 X35.531 Y7.804 Z0.075 F500
G1 X35.584 Y7.804 Z0.081 F500
G1 X35.634 Y7.804 Z0.099 F500
G1 X35.680 Y7.804 Z0.127 F500
G1 X35.717 Y7.804 Z0.165 F500
G1 X35.746 Y7.804 Z0.210 F500
G1 X35.763 Y7.804 Z0.261 F500
G1 X35.769 Y7.804 Z0.314 F500
G1 X35.769 Y7.804 Z6.825 F500
G1 X35.769 Y8.281 Z6.825 F500
G1 X35.769 Y8.281 Z0.552 F166.7
G1 X35.769 Y8.281 Z0.189 F166.7
G1 X35.763 Y8.281 Z0.136 F500
G1 X35.746 Y8.281 Z0.085 F500
G1 X35.717 Y8.281 Z0.040 F500
G1 X35.680 Y8.281 Z0.002 F500
G1 X35.634 Y8.281 Z-0.026 F500
G1 X35.584 Y8.281 Z-0.044 F500
G1 X35.531 Y8.281 Z-0.050 F500
G1 X35.293 Y8.281 Z-0.050 F500
G1 X35.240 Y8.275 Z-0.050 F500
G1 X35.189 Y8.257 Z-0.050 F500
G1 X35.144 Y8.229 Z-0.050 F500
G1 X35.107 Y8.191 Z-0.050 F500
G1 X35.078 Y8.146 Z-0.050 F500
G1 X35.061 Y8.096 Z-0.050 F500
G1 X35.055 Y8.043 Z-0.050 F500
G1 X35.055 Y0.085 Z-0.050 F500
G1 X35.047 Y-0.049 Z-0.050 F500
G1 X35.025 Y-0.181 Z-0.050 F500
G1 X34.988 Y-0.309 Z-0.050 F500
G1 X34.937 Y-0.432 Z-0.050 F500
G1 X34.872 Y-0.549 Z-0.050 F500
G1 X34.795 Y-0.658 Z-0.050 F500
G1 X34.705 Y-0.758 Z-0.050 F500
G1 X34.621 Y-0.843 Z-0.050 F500
G1 X34.521 Y-0.932 Z-0.050 F500
G1 X34.412 Y-1.009 Z-0.050 F500
G1 X34.295 Y-1.073 Z-0.050 F500
G1 X34.172 Y-1.124 Z-0.050 F500
G1 X34.044 Y-1.161 Z-0.050 F500
G1 X33.912 Y-1.184 Z-0.050 F500
G1 X33.779 Y-1.191 Z-0.050 F500
G1 X0.085 Y-1.191 Z-0.050 F500
G1 X-0.049 Y-1.184 Z-0.050 F500
G1 X-0.180 Y-1.161 Z-0.050 F500
G1 X-0.309 Y-1.124 Z-0.050 F500
G1 X-0.432 Y-1.073 Z-0.050 F500
G1 X-0.549 Y-1.009 Z-0.050 F500
G1 X-0.658 Y-0.931 Z-0.050 F500
G1 X-0.758 Y-0.842 Z-0.050 F500
G1 X-0.842 Y-0.758 Z-0.050 F500
G1 X-0.931 Y-0.658 Z-0.050 F500
G1 X-1.009 Y-0.549 Z-0.050 F500
G1 X-1.073 Y-0.432 Z-0.050 F500
G1 X-1.124 Y-0.309 Z-0.050 F500
G1 X-1.161 Y-0.180 Z-0.050 F500
G1 X-1.184 Y-0.049 Z-0.050 F500
G1 X-1.191 Y0.085 Z-0.050 F500
G1 X-1.191 Y16.000 Z-0.050 F500
G1 X-1.184 Y16.134 Z-0.050 F500
G1 X-1.161 Y16.265 Z-0.050 F500
G1 X-1.124 Y16.394 Z-0.050 F500
G1 X-1.073 Y16.517 Z-0.050 F500
G1 X-1.009 Y16.634 Z-0.050 F500
G1 X-0.932 Y16.743 Z-0.050 F500
G1 X-0.843 Y16.843 Z-0.050 F500
G1 X-0.758 Y16.927 Z-0.050 F500
G1 X-0.658 Y17.016 Z-0.050 F500
G1 X-0.549 Y17.094 Z-0.050 F500
G1 X-0.432 Y17.158 Z-0.050 F500
G1 X-0.309 Y17.209 Z-0.050 F500
G1 X-0.181 Y17.246 Z-0.050 F500
G1 X-0.049 Y17.269 Z-0.050 F500
G1 X0.085 Y17.276 Z-0.050 F500
G1 X33.779 Y17.276 Z-0.050 F500
G1 X33.912 Y17.269 Z-0.050 F500
G1 X34.044 Y17.246 Z-0.050 F500
G1 X34.172 Y17.210 Z-0.050 F500
G1 X34.295 Y17.158 Z-0.050 F500
G1 X34.412 Y17.094 Z-0.050 F500
G1 X34.521 Y17.016 Z-0.050 F500
G1 X34.621 Y16.927 Z-0.050 F500
G1 X34.706 Y16.843 Z-0.050 F500
G1 X34.795 Y16.743 Z-0.050 F500
G1 X34.872 Y16.634 Z-0.050 F500
G1 X34.937 Y16.517 Z-0.050 F500
G1 X34.988 Y16.394 Z-0.050 F500
G1 X35.025 Y16.265 Z-0.050 F500
G1 X35.047 Y16.134 Z-0.050 F500
G1 X35.055 Y16.000 Z-0.050 F500
G1 X35.055 Y8.043 Z-0.050 F500
G1 X35.061 Y7.990 Z-0.050 F500
G1 X35.078 Y7.939 Z-0.050 F500
G1 X35.107 Y7.894 Z-0.050 F500
G1 X35.144 Y7.856 Z-0.050 F500
G1 X35.189 Y7.828 Z-0.050 F500
G1 X35.240 Y7.810 Z-0.050 F500
G1 X35.293 Y7.804 Z-0.050 F500
G1 X35.531 Y7.804 Z-0.050 F500
G1 X35.584 Y7.804 Z-0.044 F500
G1 X35.634 Y7.804 Z-0.026 F500
G1 X35.680 Y7.804 Z0.002 F500
G1 X35.717 Y7.804 Z0.040 F500
G1 X35.746 Y7.804 Z0.085 F500
G1 X35.763 Y7.804 Z0.136 F500
G1 X35.769 Y7.804 Z0.189 F500
G1 X35.769 Y7.804 Z6.825 F500
G1 X35.769 Y8.281 Z6.825 F500
G1 X35.769 Y8.281 Z0.427 F166.7
G1 X35.769 Y8.281 Z0.064 F166.7
G1 X35.763 Y8.281 Z0.011 F500
G1 X35.746 Y8.281 Z-0.040 F500
G1 X35.717 Y8.281 Z-0.085 F500
G1 X35.680 Y8.281 Z-0.123 F500
G1 X35.634 Y8.281 Z-0.151 F500
G1 X35.584 Y8.281 Z-0.169 F500
G1 X35.531 Y8.281 Z-0.175 F500
G1 X35.293 Y8.281 Z-0.175 F500
G1 X35.240 Y8.275 Z-0.175 F500
G1 X35.189 Y8.257 Z-0.175 F500
G1 X35.144 Y8.229 Z-0.175 F500
G1 X35.107 Y8.191 Z-0.175 F500
G1 X35.078 Y8.146 Z-0.175 F500
G1 X35.061 Y8.096 Z-0.175 F500
G1 X35.055 Y8.043 Z-0.175 F500
G1 X35.055 Y0.085 Z-0.175 F500
G1 X35.047 Y-0.049 Z-0.175 F500
G1 X35.025 Y-0.181 Z-0.175 F500
G1 X34.988 Y-0.309 Z-0.175 F500
G1 X34.937 Y-0.432 Z-0.175 F500
G1 X34.872 Y-0.549 Z-0.175 F500
G1 X34.795 Y-0.658 Z-0.175 F500
G1 X34.705 Y-0.758 Z-0.175 F500
G1 X34.621 Y-0.843 Z-0.175 F500
G1 X34.521 Y-0.932 Z-0.175 F500
G1 X34.412 Y-1.009 Z-0.175 F500
G1 X34.295 Y-1.073 Z-0.175 F500
G1 X34.172 Y-1.124 Z-0.175 F500
G1 X34.044 Y-1.161 Z-0.175 F500
G1 X33.912 Y-1.184 Z-0.175 F500
G1 X33.779 Y-1.191 Z-0.175 F500
G1 X0.085 Y-1.191 Z-0.175 F500
G1 X-0.049 Y-1.184 Z-0.175 F500
G1 X-0.180 Y-1.161 Z-0.175 F500
G1 X-0.309 Y-1.124 Z-0.175 F500
G1 X-0.432 Y-1.073 Z-0.175 F500
G1 X-0.549 Y-1.009 Z-0.175 F500
G1 X-0.658 Y-0.931 Z-0.175 F500
G1 X-0.758 Y-0.842 Z-0.175 F500
G1 X-0.842 Y-0.758 Z-0.175 F500
G1 X-0.931 Y-0.658 Z-0.175 F500
G1 X-1.009 Y-0.549 Z-0.175 F500
G1 X-1.073 Y-0.432 Z-0.175 F500
G1 X-1.124 Y-0.309 Z-0.175 F500
G1 X-1.161 Y-0.180 Z-0.175 F500
G1 X-1.184 Y-0.049 Z-0.175 F500
G1 X-1.191 Y0.085 Z-0.175 F500
G1 X-1.191 Y16.000 Z-0.175 F500
G1 X-1.184 Y16.134 Z-0.175 F500
G1 X-1.161 Y16.265 Z-0.175 F500
G1 X-1.124 Y16.394 Z-0.175 F500
G1 X-1.073 Y16.517 Z-0.175 F500
G1 X-1.009 Y16.634 Z-0.175 F500
G1 X-0.932 Y16.743 Z-0.175 F500
G1 X-0.843 Y16.843 Z-0.175 F500
G1 X-0.758 Y16.927 Z-0.175 F500
G1 X-0.658 Y17.016 Z-0.175 F500
G1 X-0.549 Y17.094 Z-0.175 F500
G1 X-0.432 Y17.158 Z-0.175 F500
G1 X-0.309 Y17.209 Z-0.175 F500
G1 X-0.181 Y17.246 Z-0.175 F500
G1 X-0.049 Y17.269 Z-0.175 F500
G1 X0.085 Y17.276 Z-0.175 F500
G1 X33.779 Y17.276 Z-0.175 F500
G1 X33.912 Y17.269 Z-0.175 F500
G1 X34.044 Y17.246 Z-0.175 F500
G1 X34.172 Y17.210 Z-0.175 F500
G1 X34.295 Y17.158 Z-0.175 F500
G1 X34.412 Y17.094 Z-0.175 F500
G1 X34.521 Y17.016 Z-0.175 F500
G1 X34.621 Y16.927 Z-0.175 F500
G1 X34.706 Y16.843 Z-0.175 F500
G1 X34.795 Y16.743 Z-0.175 F500
G1 X34.872 Y16.634 Z-0.175 F500
G1 X34.937 Y16.517 Z-0.175 F500
G1 X34.988 Y16.394 Z-0.175 F500
G1 X35.025 Y16.265 Z-0.175 F500
G1 X35.047 Y16.134 Z-0.175 F500
G1 X35.055 Y16.000 Z-0.175 F500
G1 X35.055 Y8.043 Z-0.175 F500
G1 X35.061 Y7.990 Z-0.175 F500
G1 X35.078 Y7.939 Z-0.175 F500
G1 X35.107 Y7.894 Z-0.175 F500
G1 X35.144 Y7.856 Z-0.175 F500
G1 X35.189 Y7.828 Z-0.175 F500
G1 X35.240 Y7.810 Z-0.175 F500
G1 X35.293 Y7.804 Z-0.175 F500
G1 X35.531 Y7.804 Z-0.175 F500
G1 X35.584 Y7.804 Z-0.169 F500
G1 X35.634 Y7.804 Z-0.151 F500
G1 X35.680 Y7.804 Z-0.123 F500
G1 X35.717 Y7.804 Z-0.085 F500
G1 X35.746 Y7.804 Z-0.040 F500
G1 X35.763 Y7.804 Z0.011 F500
G1 X35.769 Y7.804 Z0.064 F500
G1 X35.769 Y7.804 Z6.825 F500
G1 X35.769 Y8.281 Z6.825 F500
G1 X35.769 Y8.281 Z0.302 F166.7
G1 X35.769 Y8.281 Z-0.061 F166.7
G1 X35.763 Y8.281 Z-0.114 F500
G1 X35.746 Y8.281 Z-0.165 F500
G1 X35.717 Y8.281 Z-0.210 F500
G1 X35.680 Y8.281 Z-0.248 F500
G1 X35.634 Y8.281 Z-0.276 F500
G1 X35.584 Y8.281 Z-0.294 F500
G1 X35.531 Y8.281 Z-0.300 F500
G1 X35.293 Y8.281 Z-0.300 F500
G1 X35.240 Y8.275 Z-0.300 F500
G1 X35.189 Y8.257 Z-0.300 F500
G1 X35.144 Y8.229 Z-0.300 F500
G1 X35.107 Y8.191 Z-0.300 F500
G1 X35.078 Y8.146 Z-0.300 F500
G1 X35.061 Y8.096 Z-0.300 F500
G1 X35.055 Y8.043 Z-0.300 F500
G1 X35.055 Y0.085 Z-0.300 F500
G1 X35.047 Y-0.049 Z-0.300 F500
G1 X35.025 Y-0.181 Z-0.300 F500
G1 X34.988 Y-0.309 Z-0.300 F500
G1 X34.937 Y-0.432 Z-0.300 F500
G1 X34.872 Y-0.549 Z-0.300 F500
G1 X34.795 Y-0.658 Z-0.300 F500
G1 X34.705 Y-0.758 Z-0.300 F500
G1 X34.621 Y-0.843 Z-0.300 F500
G1 X34.521 Y-0.932 Z-0.300 F500
G1 X34.412 Y-1.009 Z-0.300 F500
G1 X34.295 Y-1.073 Z-0.300 F500
G1 X34.172 Y-1.124 Z-0.300 F500
G1 X34.044 Y-1.161 Z-0.300 F500
G1 X33.912 Y-1.184 Z-0.300 F500
G1 X33.779 Y-1.191 Z-0.300 F500
G1 X0.085 Y-1.191 Z-0.300 F500
G1 X-0.049 Y-1.184 Z-0.300 F500
G1 X-0.180 Y-1.161 Z-0.300 F500
G1 X-0.309 Y-1.124 Z-0.300 F500
G1 X-0.432 Y-1.073 Z-0.300 F500
G1 X-0.549 Y-1.009 Z-0.300 F500
G1 X-0.658 Y-0.931 Z-0.300 F500
G1 X-0.758 Y-0.842 Z-0.300 F500
G1 X-0.842 Y-0.758 Z-0.300 F500
G1 X-0.931 Y-0.658 Z-0.300 F500
G1 X-1.009 Y-0.549 Z-0.300 F500
G1 X-1.073 Y-0.432 Z-0.300 F500
G1 X-1.124 Y-0.309 Z-0.300 F500
G1 X-1.161 Y-0.180 Z-0.300 F500
G1 X-1.184 Y-0.049 Z-0.300 F500
G1 X-1.191 Y0.085 Z-0.300 F500
G1 X-1.191 Y16.000 Z-0.300 F500
G1 X-1.184 Y16.134 Z-0.300 F500
G1 X-1.161 Y16.265 Z-0.300 F500
G1 X-1.124 Y16.394 Z-0.300 F500
G1 X-1.073 Y16.517 Z-0.300 F500
G1 X-1.009 Y16.634 Z-0.300 F500
G1 X-0.932 Y16.743 Z-0.300 F500
G1 X-0.843 Y16.843 Z-0.300 F500
G1 X-0.758 Y16.927 Z-0.300 F500
G1 X-0.658 Y17.016 Z-0.300 F500
G1 X-0.549 Y17.094 Z-0.300 F500
G1 X-0.432 Y17.158 Z-0.300 F500
G1 X-0.309 Y17.209 Z-0.300 F500
G1 X-0.181 Y17.246 Z-0.300 F500
G1 X-0.049 Y17.269 Z-0.300 F500
G1 X0.085 Y17.276 Z-0.300 F500
G1 X33.779 Y17.276 Z-0.300 F500
G1 X33.912 Y17.269 Z-0.300 F500
G1 X34.044 Y17.246 Z-0.300 F500
G1 X34.172 Y17.210 Z-0.300 F500
G1 X34.295 Y17.158 Z-0.300 F500
G1 X34.412 Y17.094 Z-0.300 F500
G1 X34.521 Y17.016 Z-0.300 F500
G1 X34.621 Y16.927 Z-0.300 F500
G1 X34.706 Y16.843 Z-0.300 F500
G1 X34.795 Y16.743 Z-0.300 F500
G1 X34.872 Y16.634 Z-0.300 F500
G1 X34.937 Y16.517 Z-0.300 F500
G1 X34.988 Y16.394 Z-0.300 F500
G1 X35.025 Y16.265 Z-0.300 F500
G1 X35.047 Y16.134 Z-0.300 F500
G1 X35.055 Y16.000 Z-0.300 F500
G1 X35.055 Y8.043 Z-0.300 F500
G1 X35.061 Y7.990 Z-0.300 F500
G1 X35.078 Y7.939 Z-0.300 F500
G1 X35.107 Y7.894 Z-0.300 F500
G1 X35.144 Y7.856 Z-0.300 F500
G1 X35.189 Y7.828 Z-0.300 F500
G1 X35.240 Y7.810 Z-0.300 F500
G1 X35.293 Y7.804 Z-0.300 F500
G1 X35.531 Y7.804 Z-0.300 F500
G1 X35.584 Y7.804 Z-0.294 F500
G1 X35.634 Y7.804 Z-0.276 F500
G1 X35.680 Y7.804 Z-0.248 F500
G1 X35.717 Y7.804 Z-0.210 F500
G1 X35.746 Y7.804 Z-0.165 F500
G1 X35.763 Y7.804 Z-0.114 F500
G1 X35.769 Y7.804 Z-0.061 F500
G1 X35.769 Y7.804 Z6.825 F500
G1 X35.769 Y8.281 Z6.825 F500
G1 X35.769 Y8.281 Z0.177 F166.7
G1 X35.769 Y8.281 Z-0.186 F166.7
G1 X35.763 Y8.281 Z-0.239 F500
G1 X35.746 Y8.281 Z-0.290 F500
G1 X35.717 Y8.281 Z-0.335 F500
G1 X35.680 Y8.281 Z-0.373 F500
G1 X35.634 Y8.281 Z-0.401 F500
G1 X35.584 Y8.281 Z-0.419 F500
G1 X35.531 Y8.281 Z-0.425 F500
G1 X35.293 Y8.281 Z-0.425 F500
G1 X35.240 Y8.275 Z-0.425 F500
G1 X35.189 Y8.257 Z-0.425 F500
G1 X35.144 Y8.229 Z-0.425 F500
G1 X35.107 Y8.191 Z-0.425 F500
G1 X35.078 Y8.146 Z-0.425 F500
G1 X35.061 Y8.096 Z-0.425 F500
G1 X35.055 Y8.043 Z-0.425 F500
G1 X35.055 Y0.085 Z-0.425 F500
G1 X35.047 Y-0.049 Z-0.425 F500
G1 X35.025 Y-0.181 Z-0.425 F500
G1 X34.988 Y-0.309 Z-0.425 F500
G1 X34.937 Y-0.432 Z-0.425 F500
G1 X34.872 Y-0.549 Z-0.425 F500
G1 X34.795 Y-0.658 Z-0.425 F500
G1 X34.705 Y-0.758 Z-0.425 F500
G1 X34.621 Y-0.843 Z-0.425 F500
G1 X34.521 Y-0.932 Z-0.425 F500
G1 X34.412 Y-1.009 Z-0.425 F500
G1 X34.295 Y-1.073 Z-0.425 F500
G1 X34.172 Y-1.124 Z-0.425 F500
G1 X34.044 Y-1.161 Z-0.425 F500
G1 X33.912 Y-1.184 Z-0.425 F500
G1 X33.779 Y-1.191 Z-0.425 F500
G1 X0.085 Y-1.191 Z-0.425 F500
G1 X-0.049 Y-1.184 Z-0.425 F500
G1 X-0.180 Y-1.161 Z-0.425 F500
G1 X-0.309 Y-1.124 Z-0.425 F500
G1 X-0.432 Y-1.073 Z-0.425 F500
G1 X-0.549 Y-1.009 Z-0.425 F500
G1 X-0.658 Y-0.931 Z-0.425 F500
G1 X-0.758 Y-0.842 Z-0.425 F500
G1 X-0.842 Y-0.758 Z-0.425 F500
G1 X-0.931 Y-0.658 Z-0.425 F500
G1 X-1.009 Y-0.549 Z-0.425 F500
G1 X-1.073 Y-0.432 Z-0.425 F500
G1 X-1.124 Y-0.309 Z-0.425 F500
G1 X-1.161 Y-0.180 Z-0.425 F500
G1 X-1.184 Y-0.049 Z-0.425 F500
G1 X-1.191 Y0.085 Z-0.425 F500
G1 X-1.191 Y16.000 Z-0.425 F500
G1 X-1.184 Y16.134 Z-0.425 F500
G1 X-1.161 Y16.265 Z-0.425 F500
G1 X-1.124 Y16.394 Z-0.425 F500
G1 X-1.073 Y16.517 Z-0.425 F500
G1 X-1.009 Y16.634 Z-0.425 F500
G1 X-0.932 Y16.743 Z-0.425 F500
G1 X-0.843 Y16.843 Z-0.425 F500
G1 X-0.758 Y16.927 Z-0.425 F500
G1 X-0.658 Y17.016 Z-0.425 F500
G1 X-0.549 Y17.094 Z-0.425 F500
G1 X-0.432 Y17.158 Z-0.425 F500
G1 X-0.309 Y17.209 Z-0.425 F500
G1 X-0.181 Y17.246 Z-0.425 F500
G1 X-0.049 Y17.269 Z-0.425 F500
G1 X0.085 Y17.276 Z-0.425 F500
G1 X33.779 Y17.276 Z-0.425 F500
G1 X33.912 Y17.269 Z-0.425 F500
G1 X34.044 Y17.246 Z-0.425 F500
G1 X34.172 Y17.210 Z-0.425 F500
G1 X34.295 Y17.158 Z-0.425 F500
G1 X34.412 Y17.094 Z-0.425 F500
G1 X34.521 Y17.016 Z-0.425 F500
G1 X34.621 Y16.927 Z-0.425 F500
G1 X34.706 Y16.843 Z-0.425 F500
G1 X34.795 Y16.743 Z-0.425 F500
G1 X34.872 Y16.634 Z-0.425 F500
G1 X34.937 Y16.517 Z-0.425 F500
G1 X34.988 Y16.394 Z-0.425 F500
G1 X35.025 Y16.265 Z-0.425 F500
G1 X35.047 Y16.134 Z-0.425 F500
G1 X35.055 Y16.000 Z-0.425 F500
G1 X35.055 Y8.043 Z-0.425 F500
G1 X35.061 Y7.990 Z-0.425 F500
G1 X35.078 Y7.939 Z-0.425 F500
G1 X35.107 Y7.894 Z-0.425 F500
G1 X35.144 Y7.856 Z-0.425 F500
G1 X35.189 Y7.828 Z-0.425 F500
G1 X35.240 Y7.810 Z-0.425 F500
G1 X35.293 Y7.804 Z-0.425 F500
G1 X35.531 Y7.804 Z-0.425 F500
G1 X35.584 Y7.804 Z-0.419 F500
G1 X35.634 Y7.804 Z-0.401 F500
G1 X35.680 Y7.804 Z-0.373 F500
G1 X35.717 Y7.804 Z-0.335 F500
G1 X35.746 Y7.804 Z-0.290 F500
G1 X35.763 Y7.804 Z-0.239 F500
G1 X35.769 Y7.804 Z-0.186 F500
G1 X35.769 Y7.804 Z6.825 F500
G1 X35.769 Y8.281 Z6.825 F500
G1 X35.769 Y8.281 Z0.052 F166.7
G1 X35.769 Y8.281 Z-0.311 F166.7
G1 X35.763 Y8.281 Z-0.364 F500
G1 X35.746 Y8.281 Z-0.415 F500
G1 X35.717 Y8.281 Z-0.460 F500
G1 X35.680 Y8.281 Z-0.498 F500
G1 X35.634 Y8.281 Z-0.526 F500
G1 X35.584 Y8.281 Z-0.544 F500
G1 X35.531 Y8.281 Z-0.550 F500
G1 X35.293 Y8.281 Z-0.550 F500
G1 X35.240 Y8.275 Z-0.550 F500
G1 X35.189 Y8.257 Z-0.550 F500
G1 X35.144 Y8.229 Z-0.550 F500
G1 X35.107 Y8.191 Z-0.550 F500
G1 X35.078 Y8.146 Z-0.550 F500
G1 X35.061 Y8.096 Z-0.550 F500
G1 X35.055 Y8.043 Z-0.550 F500
G1 X35.055 Y0.085 Z-0.550 F500
G1 X35.047 Y-0.049 Z-0.550 F500
G1 X35.025 Y-0.181 Z-0.550 F500
G1 X34.988 Y-0.309 Z-0.550 F500
G1 X34.937 Y-0.432 Z-0.550 F500
G1 X34.872 Y-0.549 Z-0.550 F500
G1 X34.795 Y-0.658 Z-0.550 F500
G1 X34.705 Y-0.758 Z-0.550 F500
G1 X34.621 Y-0.843 Z-0.550 F500
G1 X34.521 Y-0.932 Z-0.550 F500
G1 X34.412 Y-1.009 Z-0.550 F500
G1 X34.295 Y-1.073 Z-0.550 F500
G1 X34.172 Y-1.124 Z-0.550 F500
G1 X34.044 Y-1.161 Z-0.550 F500
G1 X33.912 Y-1.184 Z-0.550 F500
G1 X33.779 Y-1.191 Z-0.550 F500
G1 X0.085 Y-1.191 Z-0.550 F500
G1 X-0.049 Y-1.184 Z-0.550 F500
G1 X-0.180 Y-1.161 Z-0.550 F500
G1 X-0.309 Y-1.124 Z-0.550 F500
G1 X-0.432 Y-1.073 Z-0.550 F500
G1 X-0.549 Y-1.009 Z-0.550 F500
G1 X-0.658 Y-0.931 Z-0.550 F500
G1 X-0.758 Y-0.842 Z-0.550 F500
G1 X-0.842 Y-0.758 Z-0.550 F500
G1 X-0.931 Y-0.658 Z-0.550 F500
G1 X-1.009 Y-0.549 Z-0.550 F500
G1 X-1.073 Y-0.432 Z-0.550 F500
G1 X-1.124 Y-0.309 Z-0.550 F500
G1 X-1.161 Y-0.180 Z-0.550 F500
G1 X-1.184 Y-0.049 Z-0.550 F500
G1 X-1.191 Y0.085 Z-0.550 F500
G1 X-1.191 Y16.000 Z-0.550 F500
G1 X-1.184 Y16.134 Z-0.550 F500
G1 X-1.161 Y16.265 Z-0.550 F500
G1 X-1.124 Y16.394 Z-0.550 F500
G1 X-1.073 Y16.517 Z-0.550 F500
G1 X-1.009 Y16.634 Z-0.550 F500
G1 X-0.932 Y16.743 Z-0.550 F500
G1 X-0.843 Y16.843 Z-0.550 F500
G1 X-0.758 Y16.927 Z-0.550 F500
G1 X-0.658 Y17.016 Z-0.550 F500
G1 X-0.549 Y17.094 Z-0.550 F500
G1 X-0.432 Y17.158 Z-0.550 F500
G1 X-0.309 Y17.209 Z-0.550 F500
G1 X-0.181 Y17.246 Z-0.550 F500
G1 X-0.049 Y17.269 Z-0.550 F500
G1 X0.085 Y17.276 Z-0.550 F500
G1 X33.779 Y17.276 Z-0.550 F500
G1 X33.912 Y17.269 Z-0.550 F500
G1 X34.044 Y17.246 Z-0.550 F500
G1 X34.172 Y17.210 Z-0.550 F500
G1 X34.295 Y17.158 Z-0.550 F500
G1 X34.412 Y17.094 Z-0.550 F500
G1 X34.521 Y17.016 Z-0.550 F500
G1 X34.621 Y16.927 Z-0.550 F500
G1 X34.706 Y16.843 Z-0.550 F500
G1 X34.795 Y16.743 Z-0.550 F500
G1 X34.872 Y16.634 Z-0.550 F500
G1 X34.937 Y16.517 Z-0.550 F500
G1 X34.988 Y16.394 Z-0.550 F500
G1 X35.025 Y16.265 Z-0.550 F500
G1 X35.047 Y16.134 Z-0.550 F500
G1 X35.055 Y16.000 Z-0.550 F500
G1 X35.055 Y8.043 Z-0.550 F500
G1 X35.061 Y7.990 Z-0.550 F500
G1 X35.078 Y7.939 Z-0.550 F500
G1 X35.107 Y7.894 Z-0.550 F500
G1 X35.144 Y7.856 Z-0.550 F500
G1 X35.189 Y7.828 Z-0.550 F500
G1 X35.240 Y7.810 Z-0.550 F500
G1 X35.293 Y7.804 Z-0.550 F500
G1 X35.531 Y7.804 Z-0.550 F500
G1 X35.584 Y7.804 Z-0.544 F500
G1 X35.634 Y7.804 Z-0.526 F500
G1 X35.680 Y7.804 Z-0.498 F500
G1 X35.717 Y7.804 Z-0.460 F500
G1 X35.746 Y7.804 Z-0.415 F500
G1 X35.763 Y7.804 Z-0.364 F500
G1 X35.769 Y7.804 Z-0.311 F500
G1 X35.769 Y7.804 Z6.825 F500
G1 X35.769 Y8.281 Z6.825 F500
G1 X35.769 Y8.281 Z-0.073 F166.7
G1 X35.769 Y8.281 Z-0.436 F166.7
G1 X35.763 Y8.281 Z-0.489 F500
G1 X35.746 Y8.281 Z-0.540 F500
G1 X35.717 Y8.281 Z-0.585 F500
G1 X35.680 Y8.281 Z-0.623 F500
G1 X35.634 Y8.281 Z-0.651 F500
G1 X35.584 Y8.281 Z-0.669 F500
G1 X35.531 Y8.281 Z-0.675 F500
G1 X35.293 Y8.281 Z-0.675 F500
G1 X35.240 Y8.275 Z-0.675 F500
G1 X35.189 Y8.257 Z-0.675 F500
G1 X35.144 Y8.229 Z-0.675 F500
G1 X35.107 Y8.191 Z-0.675 F500
G1 X35.078 Y8.146 Z-0.675 F500
G1 X35.061 Y8.096 Z-0.675 F500
G1 X35.055 Y8.043 Z-0.675 F500
G1 X35.055 Y0.085 Z-0.675 F500
G1 X35.047 Y-0.049 Z-0.675 F500
G1 X35.025 Y-0.181 Z-0.675 F500
G1 X34.988 Y-0.309 Z-0.675 F500
G1 X34.937 Y-0.432 Z-0.675 F500
G1 X34.872 Y-0.549 Z-0.675 F500
G1 X34.795 Y-0.658 Z-0.675 F500
G1 X34.705 Y-0.758 Z-0.675 F500
G1 X34.621 Y-0.843 Z-0.675 F500
G1 X34.521 Y-0.932 Z-0.675 F500
G1 X34.412 Y-1.009 Z-0.675 F500
G1 X34.295 Y-1.073 Z-0.675 F500
G1 X34.172 Y-1.124 Z-0.675 F500
G1 X34.044 Y-1.161 Z-0.675 F500
G1 X33.912 Y-1.184 Z-0.675 F500
G1 X33.779 Y-1.191 Z-0.675 F500
G1 X0.085 Y-1.191 Z-0.675 F500
G1 X-0.049 Y-1.184 Z-0.675 F500
G1 X-0.180 Y-1.161 Z-0.675 F500
G1 X-0.309 Y-1.124 Z-0.675 F500
G1 X-0.432 Y-1.073 Z-0.675 F500
G1 X-0.549 Y-1.009 Z-0.675 F500
G1 X-0.658 Y-0.931 Z-0.675 F500
G1 X-0.758 Y-0.842 Z-0.675 F500
G1 X-0.842 Y-0.758 Z-0.675 F500
G1 X-0.931 Y-0.658 Z-0.675 F500
G1 X-1.009 Y-0.549 Z-0.675 F500
G1 X-1.073 Y-0.432 Z-0.675 F500
G1 X-1.124 Y-0.309 Z-0.675 F500
G1 X-1.161 Y-0.180 Z-0.675 F500
G1 X-1.184 Y-0.049 Z-0.675 F500
G1 X-1.191 Y0.085 Z-0.675 F500
G1 X-1.191 Y16.000 Z-0.675 F500
G1 X-1.184 Y16.134 Z-0.675 F500
G1 X-1.161 Y16.265 Z-0.675 F500
G1 X-1.124 Y16.394 Z-0.675 F500
G1 X-1.073 Y16.517 Z-0.675 F500
G1 X-1.009 Y16.634 Z-0.675 F500
G1 X-0.932 Y16.743 Z-0.675 F500
G1 X-0.843 Y16.843 Z-0.675 F500
G1 X-0.758 Y16.927 Z-0.675 F500
G1 X-0.658 Y17.016 Z-0.675 F500
G1 X-0.549 Y17.094 Z-0.675 F500
G1 X-0.432 Y17.158 Z-0.675 F500
G1 X-0.309 Y17.209 Z-0.675 F500
G1 X-0.181 Y17.246 Z-0.675 F500
G1 X-0.049 Y17.269 Z-0.675 F500
G1 X0.085 Y17.276 Z-0.675 F500
G1 X33.779 Y17.276 Z-0.675 F500
G1 X33.912 Y17.269 Z-0.675 F500
G1 X34.044 Y17.246 Z-0.675 F500
G1 X34.172 Y17.210 Z-0.675 F500
G1 X34.295 Y17.158 Z-0.675 F500
G1 X34.412 Y17.094 Z-0.675 F500
G1 X34.521 Y17.016 Z-0.675 F500
G1 X34.621 Y16.927 Z-0.675 F500
G1 X34.706 Y16.843 Z-0.675 F500
G1 X34.795 Y16.743 Z-0.675 F500
G1 X34.872 Y16.634 Z-0.675 F500
G1 X34.937 Y16.517 Z-0.675 F500
G1 X34.988 Y16.394 Z-0.675 F500
G1 X35.025 Y16.265 Z-0.675 F500
G1 X35.047 Y16.134 Z-0.675 F500
G1 X35.055 Y16.000 Z-0.675 F500
G1 X35.055 Y8.043 Z-0.675 F500
G1 X35.061 Y7.990 Z-0.675 F500
G1 X35.078 Y7.939 Z-0.675 F500
G1 X35.107 Y7.894 Z-0.675 F500
G1 X35.144 Y7.856 Z-0.675 F500
G1 X35.189 Y7.828 Z-0.675 F500
G1 X35.240 Y7.810 Z-0.675 F500
G1 X35.293 Y7.804 Z-0.675 F500
G1 X35.531 Y7.804 Z-0.675 F500
G1 X35.584 Y7.804 Z-0.669 F500
G1 X35.634 Y7.804 Z-0.651 F500
G1 X35.680 Y7.804 Z-0.623 F500
G1 X35.717 Y7.804 Z-0.585 F500
G1 X35.746 Y7.804 Z-0.540 F500
G1 X35.763 Y7.804 Z-0.489 F500
G1 X35.769 Y7.804 Z-0.436 F500
G1 X35.769 Y7.804 Z6.825 F500
G1 X35.769 Y8.281 Z6.825 F500
G1 X35.769 Y8.281 Z-0.198 F166.7
G1 X35.769 Y8.281 Z-0.561 F166.7
G1 X35.763 Y8.281 Z-0.614 F500
G1 X35.746 Y8.281 Z-0.665 F500
G1 X35.717 Y8.281 Z-0.710 F500
G1 X35.680 Y8.281 Z-0.748 F500
G1 X35.634 Y8.281 Z-0.776 F500
G1 X35.584 Y8.281 Z-0.794 F500
G1 X35.531 Y8.281 Z-0.800 F500
G1 X35.293 Y8.281 Z-0.800 F500
G1 X35.240 Y8.275 Z-0.800 F500
G1 X35.189 Y8.257 Z-0.800 F500
G1 X35.144 Y8.229 Z-0.800 F500
G1 X35.107 Y8.191 Z-0.800 F500
G1 X35.078 Y8.146 Z-0.800 F500
G1 X35.061 Y8.096 Z-0.800 F500
G1 X35.055 Y8.043 Z-0.800 F500
G1 X35.055 Y0.085 Z-0.800 F500
G1 X35.047 Y-0.049 Z-0.800 F500
G1 X35.025 Y-0.181 Z-0.800 F500
G1 X34.988 Y-0.309 Z-0.800 F500
G1 X34.937 Y-0.432 Z-0.800 F500
G1 X34.872 Y-0.549 Z-0.800 F500
G1 X34.795 Y-0.658 Z-0.800 F500
G1 X34.705 Y-0.758 Z-0.800 F500
G1 X34.621 Y-0.843 Z-0.800 F500
G1 X34.521 Y-0.932 Z-0.800 F500
G1 X34.412 Y-1.009 Z-0.800 F500
G1 X34.295 Y-1.073 Z-0.800 F500
G1 X34.172 Y-1.124 Z-0.800 F500
G1 X34.044 Y-1.161 Z-0.800 F500
G1 X33.912 Y-1.184 Z-0.800 F500
G1 X33.779 Y-1.191 Z-0.800 F500
G1 X0.085 Y-1.191 Z-0.800 F500
G1 X-0.049 Y-1.184 Z-0.800 F500
G1 X-0.180 Y-1.161 Z-0.800 F500
G1 X-0.309 Y-1.124 Z-0.800 F500
G1 X-0.432 Y-1.073 Z-0.800 F500
G1 X-0.549 Y-1.009 Z-0.800 F500
G1 X-0.658 Y-0.931 Z-0.800 F500
G1 X-0.758 Y-0.842 Z-0.800 F500
G1 X-0.842 Y-0.758 Z-0.800 F500
G1 X-0.931 Y-0.658 Z-0.800 F500
G1 X-1.009 Y-0.549 Z-0.800 F500
G1 X-1.073 Y-0.432 Z-0.800 F500
G1 X-1.124 Y-0.309 Z-0.800 F500
G1 X-1.161 Y-0.180 Z-0.800 F500
G1 X-1.184 Y-0.049 Z-0.800 F500
G1 X-1.191 Y0.085 Z-0.800 F500
G1 X-1.191 Y16.000 Z-0.800 F500
G1 X-1.184 Y16.134 Z-0.800 F500
G1 X-1.161 Y16.265 Z-0.800 F500
G1 X-1.124 Y16.394 Z-0.800 F500
G1 X-1.073 Y16.517 Z-0.800 F500
G1 X-1.009 Y16.634 Z-0.800 F500
G1 X-0.932 Y16.743 Z-0.800 F500
G1 X-0.843 Y16.843 Z-0.800 F500
G1 X-0.758 Y16.927 Z-0.800 F500
G1 X-0.658 Y17.016 Z-0.800 F500
G1 X-0.549 Y17.094 Z-0.800 F500
G1 X-0.432 Y17.158 Z-0.800 F500
G1 X-0.309 Y17.209 Z-0.800 F500
G1 X-0.181 Y17.246 Z-0.800 F500
G1 X-0.049 Y17.269 Z-0.800 F500
G1 X0.085 Y17.276 Z-0.800 F500
G1 X33.779 Y17.276 Z-0.800 F500
G1 X33.912 Y17.269 Z-0.800 F500
G1 X34.044 Y17.246 Z-0.800 F500
G1 X34.172 Y17.210 Z-0.800 F500
G1 X34.295 Y17.158 Z-0.800 F500
G1 X34.412 Y17.094 Z-0.800 F500
G1 X34.521 Y17.016 Z-0.800 F500
G1 X34.621 Y16.927 Z-0.800 F500
G1 X34.706 Y16.843 Z-0.800 F500
G1 X34.795 Y16.743 Z-0.800 F500
G1 X34.872 Y16.634 Z-0.800 F500
G1 X34.937 Y16.517 Z-0.800 F500
G1 X34.988 Y16.394 Z-0.800 F500
G1 X35.025 Y16.265 Z-0.800 F500
G1 X35.047 Y16.134 Z-0.800 F500
G1 X35.055 Y16.000 Z-0.800 F500
G1 X35.055 Y8.043 Z-0.800 F500
G1 X35.061 Y7.990 Z-0.800 F500
G1 X35.078 Y7.939 Z-0.800 F500
G1 X35.107 Y7.894 Z-0.800 F500
G1 X35.144 Y7.856 Z-0.800 F500
G1 X35.189 Y7.828 Z-0.800 F500
G1 X35.240 Y7.810 Z-0.800 F500
G1 X35.293 Y7.804 Z-0.800 F500
G1 X35.531 Y7.804 Z-0.800 F500
G1 X35.584 Y7.804 Z-0.794 F500
G1 X35.634 Y7.804 Z-0.776 F500
G1 X35.680 Y7.804 Z-0.748 F500
G1 X35.717 Y7.804 Z-0.710 F500
G1 X35.746 Y7.804 Z-0.665 F500
G1 X35.763 Y7.804 Z-0.614 F500
G1 X35.769 Y7.804 Z-0.561 F500
G1 X35.769 Y7.804 Z6.825 F500
G1 X35.769 Y8.281 Z6.825 F500
G1 X35.769 Y8.281 Z-0.323 F166.7
G1 X35.769 Y8.281 Z-0.686 F166.7
G1 X35.763 Y8.281 Z-0.739 F500
G1 X35.746 Y8.281 Z-0.790 F500
G1 X35.717 Y8.281 Z-0.835 F500
G1 X35.680 Y8.281 Z-0.873 F500
G1 X35.634 Y8.281 Z-0.901 F500
G1 X35.584 Y8.281 Z-0.919 F500
G1 X35.531 Y8.281 Z-0.925 F500
G1 X35.293 Y8.281 Z-0.925 F500
G1 X35.240 Y8.275 Z-0.925 F500
G1 X35.189 Y8.257 Z-0.925 F500
G1 X35.144 Y8.229 Z-0.925 F500
G1 X35.107 Y8.191 Z-0.925 F500
G1 X35.078 Y8.146 Z-0.925 F500
G1 X35.061 Y8.096 Z-0.925 F500
G1 X35.055 Y8.043 Z-0.925 F500
G1 X35.055 Y0.085 Z-0.925 F500
G1 X35.047 Y-0.049 Z-0.925 F500
G1 X35.025 Y-0.181 Z-0.925 F500
G1 X34.988 Y-0.309 Z-0.925 F500
G1 X34.937 Y-0.432 Z-0.925 F500
G1 X34.872 Y-0.549 Z-0.925 F500
G1 X34.795 Y-0.658 Z-0.925 F500
G1 X34.705 Y-0.758 Z-0.925 F500
G1 X34.621 Y-0.843 Z-0.925 F500
G1 X34.521 Y-0.932 Z-0.925 F500
G1 X34.412 Y-1.009 Z-0.925 F500
G1 X34.295 Y-1.073 Z-0.925 F500
G1 X34.172 Y-1.124 Z-0.925 F500
G1 X34.044 Y-1.161 Z-0.925 F500
G1 X33.912 Y-1.184 Z-0.925 F500
G1 X33.779 Y-1.191 Z-0.925 F500
G1 X0.085 Y-1.191 Z-0.925 F500
G1 X-0.049 Y-1.184 Z-0.925 F500
G1 X-0.180 Y-1.161 Z-0.925 F500
G1 X-0.309 Y-1.124 Z-0.925 F500
G1 X-0.432 Y-1.073 Z-0.925 F500
G1 X-0.549 Y-1.009 Z-0.925 F500
G1 X-0.658 Y-0.931 Z-0.925 F500
G1 X-0.758 Y-0.842 Z-0.925 F500
G1 X-0.842 Y-0.758 Z-0.925 F500
G1 X-0.931 Y-0.658 Z-0.925 F500
G1 X-1.009 Y-0.549 Z-0.925 F500
G1 X-1.073 Y-0.432 Z-0.925 F500
G1 X-1.124 Y-0.309 Z-0.925 F500
G1 X-1.161 Y-0.180 Z-0.925 F500
G1 X-1.184 Y-0.049 Z-0.925 F500
G1 X-1.191 Y0.085 Z-0.925 F500
G1 X-1.191 Y16.000 Z-0.925 F500
G1 X-1.184 Y16.134 Z-0.925 F500
G1 X-1.161 Y16.265 Z-0.925 F500
G1 X-1.124 Y16.394 Z-0.925 F500
G1 X-1.073 Y16.517 Z-0.925 F500
G1 X-1.009 Y16.634 Z-0.925 F500
G1 X-0.932 Y16.743 Z-0.925 F500
G1 X-0.843 Y16.843 Z-0.925 F500
G1 X-0.758 Y16.927 Z-0.925 F500
G1 X-0.658 Y17.016 Z-0.925 F500
G1 X-0.549 Y17.094 Z-0.925 F500
G1 X-0.432 Y17.158 Z-0.925 F500
G1 X-0.309 Y17.209 Z-0.925 F500
G1 X-0.181 Y17.246 Z-0.925 F500
G1 X-0.049 Y17.269 Z-0.925 F500
G1 X0.085 Y17.276 Z-0.925 F500
G1 X33.779 Y17.276 Z-0.925 F500
G1 X33.912 Y17.269 Z-0.925 F500
G1 X34.044 Y17.246 Z-0.925 F500
G1 X34.172 Y17.210 Z-0.925 F500
G1 X34.295 Y17.158 Z-0.925 F500
G1 X34.412 Y17.094 Z-0.925 F500
G1 X34.521 Y17.016 Z-0.925 F500
G1 X34.621 Y16.927 Z-0.925 F500
G1 X34.706 Y16.843 Z-0.925 F500
G1 X34.795 Y16.743 Z-0.925 F500
G1 X34.872 Y16.634 Z-0.925 F500
G1 X34.937 Y16.517 Z-0.925 F500
G1 X34.988 Y16.394 Z-0.925 F500
G1 X35.025 Y16.265 Z-0.925 F500
G1 X35.047 Y16.134 Z-0.925 F500
G1 X35.055 Y16.000 Z-0.925 F500
G1 X35.055 Y8.043 Z-0.925 F500
G1 X35.061 Y7.990 Z-0.925 F500
G1 X35.078 Y7.939 Z-0.925 F500
G1 X35.107 Y7.894 Z-0.925 F500
G1 X35.144 Y7.856 Z-0.925 F500
G1 X35.189 Y7.828 Z-0.925 F500
G1 X35.240 Y7.810 Z-0.925 F500
G1 X35.293 Y7.804 Z-0.925 F500
G1 X35.531 Y7.804 Z-0.925 F500
G1 X35.584 Y7.804 Z-0.919 F500
G1 X35.634 Y7.804 Z-0.901 F500
G1 X35.680 Y7.804 Z-0.873 F500
G1 X35.717 Y7.804 Z-0.835 F500
G1 X35.746 Y7.804 Z-0.790 F500
G1 X35.763 Y7.804 Z-0.739 F500
G1 X35.769 Y7.804 Z-0.686 F500
G1 X35.769 Y7.804 Z6.825 F500
G1 X35.769 Y8.281 Z6.825 F500
G1 X35.769 Y8.281 Z-0.448 F166.7
G1 X35.769 Y8.281 Z-0.811 F166.7
G1 X35.763 Y8.281 Z-0.864 F500
G1 X35.746 Y8.281 Z-0.915 F500
G1 X35.717 Y8.281 Z-0.960 F500
G1 X35.680 Y8.281 Z-0.998 F500
G1 X35.634 Y8.281 Z-1.026 F500
G1 X35.584 Y8.281 Z-1.044 F500
G1 X35.531 Y8.281 Z-1.050 F500
G1 X35.293 Y8.281 Z-1.050 F500
G1 X35.240 Y8.275 Z-1.050 F500
G1 X35.189 Y8.257 Z-1.050 F500
G1 X35.144 Y8.229 Z-1.050 F500
G1 X35.107 Y8.191 Z-1.050 F500
G1 X35.078 Y8.146 Z-1.050 F500
G1 X35.061 Y8.096 Z-1.050 F500
G1 X35.055 Y8.043 Z-1.050 F500
G1 X35.055 Y0.085 Z-1.050 F500
G1 X35.047 Y-0.049 Z-1.050 F500
G1 X35.025 Y-0.181 Z-1.050 F500
G1 X34.988 Y-0.309 Z-1.050 F500
G1 X34.937 Y-0.432 Z-1.050 F500
G1 X34.872 Y-0.549 Z-1.050 F500
G1 X34.795 Y-0.658 Z-1.050 F500
G1 X34.705 Y-0.758 Z-1.050 F500
G1 X34.621 Y-0.843 Z-1.050 F500
G1 X34.521 Y-0.932 Z-1.050 F500
G1 X34.412 Y-1.009 Z-1.050 F500
G1 X34.295 Y-1.073 Z-1.050 F500
G1 X34.172 Y-1.124 Z-1.050 F500
G1 X34.044 Y-1.161 Z-1.050 F500
G1 X33.912 Y-1.184 Z-1.050 F500
G1 X33.779 Y-1.191 Z-1.050 F500
G1 X0.085 Y-1.191 Z-1.050 F500
G1 X-0.049 Y-1.184 Z-1.050 F500
G1 X-0.180 Y-1.161 Z-1.050 F500
G1 X-0.309 Y-1.124 Z-1.050 F500
G1 X-0.432 Y-1.073 Z-1.050 F500
G1 X-0.549 Y-1.009 Z-1.050 F500
G1 X-0.658 Y-0.931 Z-1.050 F500
G1 X-0.758 Y-0.842 Z-1.050 F500
G1 X-0.842 Y-0.758 Z-1.050 F500
G1 X-0.931 Y-0.658 Z-1.050 F500
G1 X-1.009 Y-0.549 Z-1.050 F500
G1 X-1.073 Y-0.432 Z-1.050 F500
G1 X-1.124 Y-0.309 Z-1.050 F500
G1 X-1.161 Y-0.180 Z-1.050 F500
G1 X-1.184 Y-0.049 Z-1.050 F500
G1 X-1.191 Y0.085 Z-1.050 F500
G1 X-1.191 Y16.000 Z-1.050 F500
G1 X-1.184 Y16.134 Z-1.050 F500
G1 X-1.161 Y16.265 Z-1.050 F500
G1 X-1.124 Y16.394 Z-1.050 F500
G1 X-1.073 Y16.517 Z-1.050 F500
G1 X-1.009 Y16.634 Z-1.050 F500
G1 X-0.932 Y16.743 Z-1.050 F500
G1 X-0.843 Y16.843 Z-1.050 F500
G1 X-0.758 Y16.927 Z-1.050 F500
G1 X-0.658 Y17.016 Z-1.050 F500
G1 X-0.549 Y17.094 Z-1.050 F500
G1 X-0.432 Y17.158 Z-1.050 F500
G1 X-0.309 Y17.209 Z-1.050 F500
G1 X-0.181 Y17.246 Z-1.050 F500
G1 X-0.049 Y17.269 Z-1.050 F500
G1 X0.085 Y17.276 Z-1.050 F500
G1 X33.779 Y17.276 Z-1.050 F500
G1 X33.912 Y17.269 Z-1.050 F500
G1 X34.044 Y17.246 Z-1.050 F500
G1 X34.172 Y17.210 Z-1.050 F500
G1 X34.295 Y17.158 Z-1.050 F500
G1 X34.412 Y17.094 Z-1.050 F500
G1 X34.521 Y17.016 Z-1.050 F500
G1 X34.621 Y16.927 Z-1.050 F500
G1 X34.706 Y16.843 Z-1.050 F500
G1 X34.795 Y16.743 Z-1.050 F500
G1 X34.872 Y16.634 Z-1.050 F500
G1 X34.937 Y16.517 Z-1.050 F500
G1 X34.988 Y16.394 Z-1.050 F500
G1 X35.025 Y16.265 Z-1.050 F500
G1 X35.047 Y16.134 Z-1.050 F500
G1 X35.055 Y16.000 Z-1.050 F500
G1 X35.055 Y8.043 Z-1.050 F500
G1 X35.061 Y7.990 Z-1.050 F500
G1 X35.078 Y7.939 Z-1.050 F500
G1 X35.107 Y7.894 Z-1.050 F500
G1 X35.144 Y7.856 Z-1.050 F500
G1 X35.189 Y7.828 Z-1.050 F500
G1 X35.240 Y7.810 Z-1.050 F500
G1 X35.293 Y7.804 Z-1.050 F500
G1 X35.531 Y7.804 Z-1.050 F500
G1 X35.584 Y7.804 Z-1.044 F500
G1 X35.634 Y7.804 Z-1.026 F500
G1 X35.680 Y7.804 Z-0.998 F500
G1 X35.717 Y7.804 Z-0.960 F500
G1 X35.746 Y7.804 Z-0.915 F500
G1 X35.763 Y7.804 Z-0.864 F500
G1 X35.769 Y7.804 Z-0.811 F500
G1 X35.769 Y7.804 Z6.825 F500
G1 X35.769 Y8.281 Z6.825 F500
G1 X35.769 Y8.281 Z-0.573 F166.7
G1 X35.769 Y8.281 Z-0.936 F166.7
G1 X35.763 Y8.281 Z-0.989 F500
G1 X35.746 Y8.281 Z-1.040 F500
G1 X35.717 Y8.281 Z-1.085 F500
G1 X35.680 Y8.281 Z-1.123 F500
G1 X35.634 Y8.281 Z-1.151 F500
G1 X35.584 Y8.281 Z-1.169 F500
G1 X35.531 Y8.281 Z-1.175 F500
G1 X35.293 Y8.281 Z-1.175 F500
G1 X35.240 Y8.275 Z-1.175 F500
G1 X35.189 Y8.257 Z-1.175 F500
G1 X35.144 Y8.229 Z-1.175 F500
G1 X35.107 Y8.191 Z-1.175 F500
G1 X35.078 Y8.146 Z-1.175 F500
G1 X35.061 Y8.096 Z-1.175 F500
G1 X35.055 Y8.043 Z-1.175 F500
G1 X35.055 Y0.085 Z-1.175 F500
G1 X35.047 Y-0.049 Z-1.175 F500
G1 X35.025 Y-0.181 Z-1.175 F500
G1 X34.988 Y-0.309 Z-1.175 F500
G1 X34.937 Y-0.432 Z-1.175 F500
G1 X34.872 Y-0.549 Z-1.175 F500
G1 X34.795 Y-0.658 Z-1.175 F500
G1 X34.705 Y-0.758 Z-1.175 F500
G1 X34.621 Y-0.843 Z-1.175 F500
G1 X34.521 Y-0.932 Z-1.175 F500
G1 X34.412 Y-1.009 Z-1.175 F500
G1 X34.295 Y-1.073 Z-1.175 F500
G1 X34.172 Y-1.124 Z-1.175 F500
G1 X34.044 Y-1.161 Z-1.175 F500
G1 X33.912 Y-1.184 Z-1.175 F500
G1 X33.779 Y-1.191 Z-1.175 F500
G1 X0.085 Y-1.191 Z-1.175 F500
G1 X-0.049 Y-1.184 Z-1.175 F500
G1 X-0.180 Y-1.161 Z-1.175 F500
G1 X-0.309 Y-1.124 Z-1.175 F500
G1 X-0.432 Y-1.073 Z-1.175 F500
G1 X-0.549 Y-1.009 Z-1.175 F500
G1 X-0.658 Y-0.931 Z-1.175 F500
G1 X-0.758 Y-0.842 Z-1.175 F500
G1 X-0.842 Y-0.758 Z-1.175 F500
G1 X-0.931 Y-0.658 Z-1.175 F500
G1 X-1.009 Y-0.549 Z-1.175 F500
G1 X-1.073 Y-0.432 Z-1.175 F500
G1 X-1.124 Y-0.309 Z-1.175 F500
G1 X-1.161 Y-0.180 Z-1.175 F500
G1 X-1.184 Y-0.049 Z-1.175 F500
G1 X-1.191 Y0.085 Z-1.175 F500
G1 X-1.191 Y16.000 Z-1.175 F500
G1 X-1.184 Y16.134 Z-1.175 F500
G1 X-1.161 Y16.265 Z-1.175 F500
G1 X-1.124 Y16.394 Z-1.175 F500
G1 X-1.073 Y16.517 Z-1.175 F500
G1 X-1.009 Y16.634 Z-1.175 F500
G1 X-0.932 Y16.743 Z-1.175 F500
G1 X-0.843 Y16.843 Z-1.175 F500
G1 X-0.758 Y16.927 Z-1.175 F500
G1 X-0.658 Y17.016 Z-1.175 F500
G1 X-0.549 Y17.094 Z-1.175 F500
G1 X-0.432 Y17.158 Z-1.175 F500
G1 X-0.309 Y17.209 Z-1.175 F500
G1 X-0.181 Y17.246 Z-1.175 F500
G1 X-0.049 Y17.269 Z-1.175 F500
G1 X0.085 Y17.276 Z-1.175 F500
G1 X33.779 Y17.276 Z-1.175 F500
G1 X33.912 Y17.269 Z-1.175 F500
G1 X34.044 Y17.246 Z-1.175 F500
G1 X34.172 Y17.210 Z-1.175 F500
G1 X34.295 Y17.158 Z-1.175 F500
G1 X34.412 Y17.094 Z-1.175 F500
G1 X34.521 Y17.016 Z-1.175 F500
G1 X34.621 Y16.927 Z-1.175 F500
G1 X34.706 Y16.843 Z-1.175 F500
G1 X34.795 Y16.743 Z-1.175 F500
G1 X34.872 Y16.634 Z-1.175 F500
G1 X34.937 Y16.517 Z-1.175 F500
G1 X34.988 Y16.394 Z-1.175 F500
G1 X35.025 Y16.265 Z-1.175 F500
G1 X35.047 Y16.134 Z-1.175 F500
G1 X35.055 Y16.000 Z-1.175 F500
G1 X35.055 Y8.043 Z-1.175 F500
G1 X35.061 Y7.990 Z-1.175 F500
G1 X35.078 Y7.939 Z-1.175 F500
G1 X35.107 Y7.894 Z-1.175 F500
G1 X35.144 Y7.856 Z-1.175 F500
G1 X35.189 Y7.828 Z-1.175 F500
G1 X35.240 Y7.810 Z-1.175 F500
G1 X35.293 Y7.804 Z-1.175 F500
G1 X35.531 Y7.804 Z-1.175 F500
G1 X35.584 Y7.804 Z-1.169 F500
G1 X35.634 Y7.804 Z-1.151 F500
G1 X35.680 Y7.804 Z-1.123 F500
G1 X35.717 Y7.804 Z-1.085 F500
G1 X35.746 Y7.804 Z-1.040 F500
G1 X35.763 Y7.804 Z-0.989 F500
G1 X35.769 Y7.804 Z-0.936 F500
G1 X35.769 Y7.804 Z6.825 F500
G1 X35.769 Y8.281 Z6.825 F500
G1 X35.769 Y8.281 Z-0.698 F166.7
G1 X35.769 Y8.281 Z-1.061 F166.7
G1 X35.763 Y8.281 Z-1.114 F500
G1 X35.746 Y8.281 Z-1.165 F500
G1 X35.717 Y8.281 Z-1.210 F500
G1 X35.680 Y8.281 Z-1.248 F500
G1 X35.634 Y8.281 Z-1.276 F500
G1 X35.584 Y8.281 Z-1.294 F500
G1 X35.531 Y8.281 Z-1.300 F500
G1 X35.293 Y8.281 Z-1.300 F500
G1 X35.240 Y8.275 Z-1.300 F500
G1 X35.189 Y8.257 Z-1.300 F500
G1 X35.144 Y8.229 Z-1.300 F500
G1 X35.107 Y8.191 Z-1.300 F500
G1 X35.078 Y8.146 Z-1.300 F500
G1 X35.061 Y8.096 Z-1.300 F500
G1 X35.055 Y8.043 Z-1.300 F500
G1 X35.055 Y0.085 Z-1.300 F500
G1 X35.047 Y-0.049 Z-1.300 F500
G1 X35.025 Y-0.181 Z-1.300 F500
G1 X34.988 Y-0.309 Z-1.300 F500
G1 X34.937 Y-0.432 Z-1.300 F500
G1 X34.872 Y-0.549 Z-1.300 F500
G1 X34.795 Y-0.658 Z-1.300 F500
G1 X34.705 Y-0.758 Z-1.300 F500
G1 X34.621 Y-0.843 Z-1.300 F500
G1 X34.521 Y-0.932 Z-1.300 F500
G1 X34.412 Y-1.009 Z-1.300 F500
G1 X34.295 Y-1.073 Z-1.300 F500
G1 X34.172 Y-1.124 Z-1.300 F500
G1 X34.044 Y-1.161 Z-1.300 F500
G1 X33.912 Y-1.184 Z-1.300 F500
G1 X33.779 Y-1.191 Z-1.300 F500
G1 X0.085 Y-1.191 Z-1.300 F500
G1 X-0.049 Y-1.184 Z-1.300 F500
G1 X-0.180 Y-1.161 Z-1.300 F500
G1 X-0.309 Y-1.124 Z-1.300 F500
G1 X-0.432 Y-1.073 Z-1.300 F500
G1 X-0.549 Y-1.009 Z-1.300 F500
G1 X-0.658 Y-0.931 Z-1.300 F500
G1 X-0.758 Y-0.842 Z-1.300 F500
G1 X-0.842 Y-0.758 Z-1.300 F500
G1 X-0.931 Y-0.658 Z-1.300 F500
G1 X-1.009 Y-0.549 Z-1.300 F500
G1 X-1.073 Y-0.432 Z-1.300 F500
G1 X-1.124 Y-0.309 Z-1.300 F500
G1 X-1.161 Y-0.180 Z-1.300 F500
G1 X-1.184 Y-0.049 Z-1.300 F500
G1 X-1.191 Y0.085 Z-1.300 F500
G1 X-1.191 Y16.000 Z-1.300 F500
G1 X-1.184 Y16.134 Z-1.300 F500
G1 X-1.161 Y16.265 Z-1.300 F500
G1 X-1.124 Y16.394 Z-1.300 F500
G1 X-1.073 Y16.517 Z-1.300 F500
G1 X-1.009 Y16.634 Z-1.300 F500
G1 X-0.932 Y16.743 Z-1.300 F500
G1 X-0.843 Y16.843 Z-1.300 F500
G1 X-0.758 Y16.927 Z-1.300 F500
G1 X-0.658 Y17.016 Z-1.300 F500
G1 X-0.549 Y17.094 Z-1.300 F500
G1 X-0.432 Y17.158 Z-1.300 F500
G1 X-0.309 Y17.209 Z-1.300 F500
G1 X-0.181 Y17.246 Z-1.300 F500
G1 X-0.049 Y17.269 Z-1.300 F500
G1 X0.085 Y17.276 Z-1.300 F500
G1 X33.779 Y17.276 Z-1.300 F500
G1 X33.912 Y17.269 Z-1.300 F500
G1 X34.044 Y17.246 Z-1.300 F500
G1 X34.172 Y17.210 Z-1.300 F500
G1 X34.295 Y17.158 Z-1.300 F500
G1 X34.412 Y17.094 Z-1.300 F500
G1 X34.521 Y17.016 Z-1.300 F500
G1 X34.621 Y16.927 Z-1.300 F500
G1 X34.706 Y16.843 Z-1.300 F500
G1 X34.795 Y16.743 Z-1.300 F500
G1 X34.872 Y16.634 Z-1.300 F500
G1 X34.937 Y16.517 Z-1.300 F500
G1 X34.988 Y16.394 Z-1.300 F500
G1 X35.025 Y16.265 Z-1.300 F500
G1 X35.047 Y16.134 Z-1.300 F500
G1 X35.055 Y16.000 Z-1.300 F500
G1 X35.055 Y8.043 Z-1.300 F500
G1 X35.061 Y7.990 Z-1.300 F500
G1 X35.078 Y7.939 Z-1.300 F500
G1 X35.107 Y7.894 Z-1.300 F500
G1 X35.144 Y7.856 Z-1.300 F500
G1 X35.189 Y7.828 Z-1.300 F500
G1 X35.240 Y7.810 Z-1.300 F500
G1 X35.293 Y7.804 Z-1.300 F500
G1 X35.531 Y7.804 Z-1.300 F500
G1 X35.584 Y7.804 Z-1.294 F500
G1 X35.634 Y7.804 Z-1.276 F500
G1 X35.680 Y7.804 Z-1.248 F500
G1 X35.717 Y7.804 Z-1.210 F500
G1 X35.746 Y7.804 Z-1.165 F500
G1 X35.763 Y7.804 Z-1.114 F500
G1 X35.769 Y7.804 Z-1.061 F500
G1 X35.769 Y7.804 Z6.825 F500
G1 X35.769 Y8.281 Z6.825 F500
G1 X35.769 Y8.281 Z-0.823 F166.7
G1 X35.769 Y8.281 Z-1.186 F166.7
G1 X35.763 Y8.281 Z-1.239 F500
G1 X35.746 Y8.281 Z-1.290 F500
G1 X35.717 Y8.281 Z-1.335 F500
G1 X35.680 Y8.281 Z-1.373 F500
G1 X35.634 Y8.281 Z-1.401 F500
G1 X35.584 Y8.281 Z-1.419 F500
G1 X35.531 Y8.281 Z-1.425 F500
G1 X35.293 Y8.281 Z-1.425 F500
G1 X35.240 Y8.275 Z-1.425 F500
G1 X35.189 Y8.257 Z-1.425 F500
G1 X35.144 Y8.229 Z-1.425 F500
G1 X35.107 Y8.191 Z-1.425 F500
G1 X35.078 Y8.146 Z-1.425 F500
G1 X35.061 Y8.096 Z-1.425 F500
G1 X35.055 Y8.043 Z-1.425 F500
G1 X35.055 Y0.085 Z-1.425 F500
G1 X35.047 Y-0.049 Z-1.425 F500
G1 X35.025 Y-0.181 Z-1.425 F500
G1 X34.988 Y-0.309 Z-1.425 F500
G1 X34.937 Y-0.432 Z-1.425 F500
G1 X34.872 Y-0.549 Z-1.425 F500
G1 X34.795 Y-0.658 Z-1.425 F500
G1 X34.705 Y-0.758 Z-1.425 F500
G1 X34.621 Y-0.843 Z-1.425 F500
G1 X34.521 Y-0.932 Z-1.425 F500
G1 X34.412 Y-1.009 Z-1.425 F500
G1 X34.295 Y-1.073 Z-1.425 F500
G1 X34.172 Y-1.124 Z-1.425 F500
G1 X34.044 Y-1.161 Z-1.425 F500
G1 X33.912 Y-1.184 Z-1.425 F500
G1 X33.779 Y-1.191 Z-1.425 F500
G1 X0.085 Y-1.191 Z-1.425 F500
G1 X-0.049 Y-1.184 Z-1.425 F500
G1 X-0.180 Y-1.161 Z-1.425 F500
G1 X-0.309 Y-1.124 Z-1.425 F500
G1 X-0.432 Y-1.073 Z-1.425 F500
G1 X-0.549 Y-1.009 Z-1.425 F500
G1 X-0.658 Y-0.931 Z-1.425 F500
G1 X-0.758 Y-0.842 Z-1.425 F500
G1 X-0.842 Y-0.758 Z-1.425 F500
G1 X-0.931 Y-0.658 Z-1.425 F500
G1 X-1.009 Y-0.549 Z-1.425 F500
G1 X-1.073 Y-0.432 Z-1.425 F500
G1 X-1.124 Y-0.309 Z-1.425 F500
G1 X-1.161 Y-0.180 Z-1.425 F500
G1 X-1.184 Y-0.049 Z-1.425 F500
G1 X-1.191 Y0.085 Z-1.425 F500
G1 X-1.191 Y16.000 Z-1.425 F500
G1 X-1.184 Y16.134 Z-1.425 F500
G1 X-1.161 Y16.265 Z-1.425 F500
G1 X-1.124 Y16.394 Z-1.425 F500
G1 X-1.073 Y16.517 Z-1.425 F500
G1 X-1.009 Y16.634 Z-1.425 F500
G1 X-0.932 Y16.743 Z-1.425 F500
G1 X-0.843 Y16.843 Z-1.425 F500
G1 X-0.758 Y16.927 Z-1.425 F500
G1 X-0.658 Y17.016 Z-1.425 F500
G1 X-0.549 Y17.094 Z-1.425 F500
G1 X-0.432 Y17.158 Z-1.425 F500
G1 X-0.309 Y17.209 Z-1.425 F500
G1 X-0.181 Y17.246 Z-1.425 F500
G1 X-0.049 Y17.269 Z-1.425 F500
G1 X0.085 Y17.276 Z-1.425 F500
G1 X33.779 Y17.276 Z-1.425 F500
G1 X33.912 Y17.269 Z-1.425 F500
G1 X34.044 Y17.246 Z-1.425 F500
G1 X34.172 Y17.210 Z-1.425 F500
G1 X34.295 Y17.158 Z-1.425 F500
G1 X34.412 Y17.094 Z-1.425 F500
G1 X34.521 Y17.016 Z-1.425 F500
G1 X34.621 Y16.927 Z-1.425 F500
G1 X34.706 Y16.843 Z-1.425 F500
G1 X34.795 Y16.743 Z-1.425 F500
G1 X34.872 Y16.634 Z-1.425 F500
G1 X34.937 Y16.517 Z-1.425 F500
G1 X34.988 Y16.394 Z-1.425 F500
G1 X35.025 Y16.265 Z-1.425 F500
G1 X35.047 Y16.134 Z-1.425 F500
G1 X35.055 Y16.000 Z-1.425 F500
G1 X35.055 Y8.043 Z-1.425 F500
G1 X35.061 Y7.990 Z-1.425 F500
G1 X35.078 Y7.939 Z-1.425 F500
G1 X35.107 Y7.894 Z-1.425 F500
G1 X35.144 Y7.856 Z-1.425 F500
G1 X35.189 Y7.828 Z-1.425 F500
G1 X35.240 Y7.810 Z-1.425 F500
G1 X35.293 Y7.804 Z-1.425 F500
G1 X35.531 Y7.804 Z-1.425 F500
G1 X35.584 Y7.804 Z-1.419 F500
G1 X35.634 Y7.804 Z-1.401 F500
G1 X35.680 Y7.804 Z-1.373 F500
G1 X35.717 Y7.804 Z-1.335 F500
G1 X35.746 Y7.804 Z-1.290 F500
G1 X35.763 Y7.804 Z-1.239 F500
G1 X35.769 Y7.804 Z-1.186 F500
G1 X35.769 Y7.804 Z6.825 F500
G1 X35.769 Y8.281 Z6.825 F500
G1 X35.769 Y8.281 Z-0.948 F166.7
G1 X35.769 Y8.281 Z-1.311 F166.7
G1 X35.763 Y8.281 Z-1.364 F500
G1 X35.746 Y8.281 Z-1.415 F500
G1 X35.717 Y8.281 Z-1.460 F500
G1 X35.680 Y8.281 Z-1.498 F500
G1 X35.634 Y8.281 Z-1.526 F500
G1 X35.584 Y8.281 Z-1.544 F500
G1 X35.531 Y8.281 Z-1.550 F500
G1 X35.293 Y8.281 Z-1.550 F500
G1 X35.240 Y8.275 Z-1.550 F500
G1 X35.189 Y8.257 Z-1.550 F500
G1 X35.144 Y8.229 Z-1.550 F500
G1 X35.107 Y8.191 Z-1.550 F500
G1 X35.078 Y8.146 Z-1.550 F500
G1 X35.061 Y8.096 Z-1.550 F500
G1 X35.055 Y8.043 Z-1.550 F500
G1 X35.055 Y0.085 Z-1.550 F500
G1 X35.047 Y-0.049 Z-1.550 F500
G1 X35.025 Y-0.181 Z-1.550 F500
G1 X34.988 Y-0.309 Z-1.550 F500
G1 X34.937 Y-0.432 Z-1.550 F500
G1 X34.872 Y-0.549 Z-1.550 F500
G1 X34.795 Y-0.658 Z-1.550 F500
G1 X34.705 Y-0.758 Z-1.550 F500
G1 X34.621 Y-0.843 Z-1.550 F500
G1 X34.521 Y-0.932 Z-1.550 F500
G1 X34.412 Y-1.009 Z-1.550 F500
G1 X34.295 Y-1.073 Z-1.550 F500
G1 X34.172 Y-1.124 Z-1.550 F500
G1 X34.044 Y-1.161 Z-1.550 F500
G1 X33.912 Y-1.184 Z-1.550 F500
G1 X33.779 Y-1.191 Z-1.550 F500
G1 X0.085 Y-1.191 Z-1.550 F500
G1 X-0.049 Y-1.184 Z-1.550 F500
G1 X-0.180 Y-1.161 Z-1.550 F500
G1 X-0.309 Y-1.124 Z-1.550 F500
G1 X-0.432 Y-1.073 Z-1.550 F500
G1 X-0.549 Y-1.009 Z-1.550 F500
G1 X-0.658 Y-0.931 Z-1.550 F500
G1 X-0.758 Y-0.842 Z-1.550 F500
G1 X-0.842 Y-0.758 Z-1.550 F500
G1 X-0.931 Y-0.658 Z-1.550 F500
G1 X-1.009 Y-0.549 Z-1.550 F500
G1 X-1.073 Y-0.432 Z-1.550 F500
G1 X-1.124 Y-0.309 Z-1.550 F500
G1 X-1.161 Y-0.180 Z-1.550 F500
G1 X-1.184 Y-0.049 Z-1.550 F500
G1 X-1.191 Y0.085 Z-1.550 F500
G1 X-1.191 Y16.000 Z-1.550 F500
G1 X-1.184 Y16.134 Z-1.550 F500
G1 X-1.161 Y16.265 Z-1.550 F500
G1 X-1.124 Y16.394 Z-1.550 F500
G1 X-1.073 Y16.517 Z-1.550 F500
G1 X-1.009 Y16.634 Z-1.550 F500
G1 X-0.932 Y16.743 Z-1.550 F500
G1 X-0.843 Y16.843 Z-1.550 F500
G1 X-0.758 Y16.927 Z-1.550 F500
G1 X-0.658 Y17.016 Z-1.550 F500
G1 X-0.549 Y17.094 Z-1.550 F500
G1 X-0.432 Y17.158 Z-1.550 F500
G1 X-0.309 Y17.209 Z-1.550 F500
G1 X-0.181 Y17.246 Z-1.550 F500
G1 X-0.049 Y17.269 Z-1.550 F500
G1 X0.085 Y17.276 Z-1.550 F500
G1 X33.779 Y17.276 Z-1.550 F500
G1 X33.912 Y17.269 Z-1.550 F500
G1 X34.044 Y17.246 Z-1.550 F500
G1 X34.172 Y17.210 Z-1.550 F500
G1 X34.295 Y17.158 Z-1.550 F500
G1 X34.412 Y17.094 Z-1.550 F500
G1 X34.521 Y17.016 Z-1.550 F500
G1 X34.621 Y16.927 Z-1.550 F500
G1 X34.706 Y16.843 Z-1.550 F500
G1 X34.795 Y16.743 Z-1.550 F500
G1 X34.872 Y16.634 Z-1.550 F500
G1 X34.937 Y16.517 Z-1.550 F500
G1 X34.988 Y16.394 Z-1.550 F500
G1 X35.025 Y16.265 Z-1.550 F500
G1 X35.047 Y16.134 Z-1.550 F500
G1 X35.055 Y16.000 Z-1.550 F500
G1 X35.055 Y8.043 Z-1.550 F500
G1 X35.061 Y7.990 Z-1.550 F500
G1 X35.078 Y7.939 Z-1.550 F500
G1 X35.107 Y7.894 Z-1.550 F500
G1 X35.144 Y7.856 Z-1.550 F500
G1 X35.189 Y7.828 Z-1.550 F500
G1 X35.240 Y7.810 Z-1.550 F500
G1 X35.293 Y7.804 Z-1.550 F500
G1 X35.531 Y7.804 Z-1.550 F500
G1 X35.584 Y7.804 Z-1.544 F500
G1 X35.634 Y7.804 Z-1.526 F500
G1 X35.680 Y7.804 Z-1.498 F500
G1 X35.717 Y7.804 Z-1.460 F500
G1 X35.746 Y7.804 Z-1.415 F500
G1 X35.763 Y7.804 Z-1.364 F500
G1 X35.769 Y7.804 Z-1.311 F500
G1 X35.769 Y7.804 Z6.825 F500
G1 X35.769 Y8.281 Z6.825 F500
G1 X35.769 Y8.281 Z-1.073 F166.7
G1 X35.769 Y8.281 Z-1.436 F166.7
G1 X35.763 Y8.281 Z-1.489 F500
G1 X35.746 Y8.281 Z-1.540 F500
G1 X35.717 Y8.281 Z-1.585 F500
G1 X35.680 Y8.281 Z-1.623 F500
G1 X35.634 Y8.281 Z-1.651 F500
G1 X35.584 Y8.281 Z-1.669 F500
G1 X35.531 Y8.281 Z-1.675 F500
G1 X35.293 Y8.281 Z-1.675 F500
G1 X35.240 Y8.275 Z-1.675 F500
G1 X35.189 Y8.257 Z-1.675 F500
G1 X35.144 Y8.229 Z-1.675 F500
G1 X35.107 Y8.191 Z-1.675 F500
G1 X35.078 Y8.146 Z-1.675 F500
G1 X35.061 Y8.096 Z-1.675 F500
G1 X35.055 Y8.043 Z-1.675 F500
G1 X35.055 Y0.085 Z-1.675 F500
G1 X35.047 Y-0.049 Z-1.675 F500
G1 X35.025 Y-0.181 Z-1.675 F500
G1 X34.988 Y-0.309 Z-1.675 F500
G1 X34.937 Y-0.432 Z-1.675 F500
G1 X34.872 Y-0.549 Z-1.675 F500
G1 X34.795 Y-0.658 Z-1.675 F500
G1 X34.705 Y-0.758 Z-1.675 F500
G1 X34.621 Y-0.843 Z-1.675 F500
G1 X34.521 Y-0.932 Z-1.675 F500
G1 X34.412 Y-1.009 Z-1.675 F500
G1 X34.295 Y-1.073 Z-1.675 F500
G1 X34.172 Y-1.124 Z-1.675 F500
G1 X34.044 Y-1.161 Z-1.675 F500
G1 X33.912 Y-1.184 Z-1.675 F500
G1 X33.779 Y-1.191 Z-1.675 F500
G1 X0.085 Y-1.191 Z-1.675 F500
G1 X-0.049 Y-1.184 Z-1.675 F500
G1 X-0.180 Y-1.161 Z-1.675 F500
G1 X-0.309 Y-1.124 Z-1.675 F500
G1 X-0.432 Y-1.073 Z-1.675 F500
G1 X-0.549 Y-1.009 Z-1.675 F500
G1 X-0.658 Y-0.931 Z-1.675 F500
G1 X-0.758 Y-0.842 Z-1.675 F500
G1 X-0.842 Y-0.758 Z-1.675 F500
G1 X-0.931 Y-0.658 Z-1.675 F500
G1 X-1.009 Y-0.549 Z-1.675 F500
G1 X-1.073 Y-0.432 Z-1.675 F500
G1 X-1.124 Y-0.309 Z-1.675 F500
G1 X-1.161 Y-0.180 Z-1.675 F500
G1 X-1.184 Y-0.049 Z-1.675 F500
G1 X-1.191 Y0.085 Z-1.675 F500
G1 X-1.191 Y16.000 Z-1.675 F500
G1 X-1.184 Y16.134 Z-1.675 F500
G1 X-1.161 Y16.265 Z-1.675 F500
G1 X-1.124 Y16.394 Z-1.675 F500
G1 X-1.073 Y16.517 Z-1.675 F500
G1 X-1.009 Y16.634 Z-1.675 F500
G1 X-0.932 Y16.743 Z-1.675 F500
G1 X-0.843 Y16.843 Z-1.675 F500
G1 X-0.758 Y16.927 Z-1.675 F500
G1 X-0.658 Y17.016 Z-1.675 F500
G1 X-0.549 Y17.094 Z-1.675 F500
G1 X-0.432 Y17.158 Z-1.675 F500
G1 X-0.309 Y17.209 Z-1.675 F500
G1 X-0.181 Y17.246 Z-1.675 F500
G1 X-0.049 Y17.269 Z-1.675 F500
G1 X0.085 Y17.276 Z-1.675 F500
G1 X33.779 Y17.276 Z-1.675 F500
G1 X33.912 Y17.269 Z-1.675 F500
G1 X34.044 Y17.246 Z-1.675 F500
G1 X34.172 Y17.210 Z-1.675 F500
G1 X34.295 Y17.158 Z-1.675 F500
G1 X34.412 Y17.094 Z-1.675 F500
G1 X34.521 Y17.016 Z-1.675 F500
G1 X34.621 Y16.927 Z-1.675 F500
G1 X34.706 Y16.843 Z-1.675 F500
G1 X34.795 Y16.743 Z-1.675 F500
G1 X34.872 Y16.634 Z-1.675 F500
G1 X34.937 Y16.517 Z-1.675 F500
G1 X34.988 Y16.394 Z-1.675 F500
G1 X35.025 Y16.265 Z-1.675 F500
G1 X35.047 Y16.134 Z-1.675 F500
G1 X35.055 Y16.000 Z-1.675 F500
G1 X35.055 Y8.043 Z-1.675 F500
G1 X35.061 Y7.990 Z-1.675 F500
G1 X35.078 Y7.939 Z-1.675 F500
G1 X35.107 Y7.894 Z-1.675 F500
G1 X35.144 Y7.856 Z-1.675 F500
G1 X35.189 Y7.828 Z-1.675 F500
G1 X35.240 Y7.810 Z-1.675 F500
G1 X35.293 Y7.804 Z-1.675 F500
G1 X35.531 Y7.804 Z-1.675 F500
G1 X35.584 Y7.804 Z-1.669 F500
G1 X35.634 Y7.804 Z-1.651 F500
G1 X35.680 Y7.804 Z-1.623 F500
G1 X35.717 Y7.804 Z-1.585 F500
G1 X35.746 Y7.804 Z-1.540 F500
G1 X35.763 Y7.804 Z-1.489 F500
G1 X35.769 Y7.804 Z-1.436 F500
G1 X35.769 Y7.804 Z6.825 F500
G1 X35.769 Y8.281 Z6.825 F500
G1 X35.769 Y8.281 Z-1.198 F166.7
G1 X35.769 Y8.281 Z-1.561 F166.7
G1 X35.763 Y8.281 Z-1.614 F500
G1 X35.746 Y8.281 Z-1.665 F500
G1 X35.717 Y8.281 Z-1.710 F500
G1 X35.680 Y8.281 Z-1.748 F500
G1 X35.634 Y8.281 Z-1.776 F500
G1 X35.584 Y8.281 Z-1.794 F500
G1 X35.531 Y8.281 Z-1.800 F500
G1 X35.293 Y8.281 Z-1.800 F500
G1 X35.240 Y8.275 Z-1.800 F500
G1 X35.189 Y8.257 Z-1.800 F500
G1 X35.144 Y8.229 Z-1.800 F500
G1 X35.107 Y8.191 Z-1.800 F500
G1 X35.078 Y8.146 Z-1.800 F500
G1 X35.061 Y8.096 Z-1.800 F500
G1 X35.055 Y8.043 Z-1.800 F500
G1 X35.055 Y0.085 Z-1.800 F500
G1 X35.047 Y-0.049 Z-1.800 F500
G1 X35.025 Y-0.181 Z-1.800 F500
G1 X34.988 Y-0.309 Z-1.800 F500
G1 X34.937 Y-0.432 Z-1.800 F500
G1 X34.872 Y-0.549 Z-1.800 F500
G1 X34.795 Y-0.658 Z-1.800 F500
G1 X34.705 Y-0.758 Z-1.800 F500
G1 X34.621 Y-0.843 Z-1.800 F500
G1 X34.521 Y-0.932 Z-1.800 F500
G1 X34.412 Y-1.009 Z-1.800 F500
G1 X34.295 Y-1.073 Z-1.800 F500
G1 X34.172 Y-1.124 Z-1.800 F500
G1 X34.044 Y-1.161 Z-1.800 F500
G1 X33.912 Y-1.184 Z-1.800 F500
G1 X33.779 Y-1.191 Z-1.800 F500
G1 X0.085 Y-1.191 Z-1.800 F500
G1 X-0.049 Y-1.184 Z-1.800 F500
G1 X-0.180 Y-1.161 Z-1.800 F500
G1 X-0.309 Y-1.124 Z-1.800 F500
G1 X-0.432 Y-1.073 Z-1.800 F500
G1 X-0.549 Y-1.009 Z-1.800 F500
G1 X-0.658 Y-0.931 Z-1.800 F500
G1 X-0.758 Y-0.842 Z-1.800 F500
G1 X-0.842 Y-0.758 Z-1.800 F500
G1 X-0.931 Y-0.658 Z-1.800 F500
G1 X-1.009 Y-0.549 Z-1.800 F500
G1 X-1.073 Y-0.432 Z-1.800 F500
G1 X-1.124 Y-0.309 Z-1.800 F500
G1 X-1.161 Y-0.180 Z-1.800 F500
G1 X-1.184 Y-0.049 Z-1.800 F500
G1 X-1.191 Y0.085 Z-1.800 F500
G1 X-1.191 Y16.000 Z-1.800 F500
G1 X-1.184 Y16.134 Z-1.800 F500
G1 X-1.161 Y16.265 Z-1.800 F500
G1 X-1.124 Y16.394 Z-1.800 F500
G1 X-1.073 Y16.517 Z-1.800 F500
G1 X-1.009 Y16.634 Z-1.800 F500
G1 X-0.932 Y16.743 Z-1.800 F500
G1 X-0.843 Y16.843 Z-1.800 F500
G1 X-0.758 Y16.927 Z-1.800 F500
G1 X-0.658 Y17.016 Z-1.800 F500
G1 X-0.549 Y17.094 Z-1.800 F500
G1 X-0.432 Y17.158 Z-1.800 F500
G1 X-0.309 Y17.209 Z-1.800 F500
G1 X-0.181 Y17.246 Z-1.800 F500
G1 X-0.049 Y17.269 Z-1.800 F500
G1 X0.085 Y17.276 Z-1.800 F500
G1 X33.779 Y17.276 Z-1.800 F500
G1 X33.912 Y17.269 Z-1.800 F500
G1 X34.044 Y17.246 Z-1.800 F500
G1 X34.172 Y17.210 Z-1.800 F500
G1 X34.295 Y17.158 Z-1.800 F500
G1 X34.412 Y17.094 Z-1.800 F500
G1 X34.521 Y17.016 Z-1.800 F500
G1 X34.621 Y16.927 Z-1.800 F500
G1 X34.706 Y16.843 Z-1.800 F500
G1 X34.795 Y16.743 Z-1.800 F500
G1 X34.872 Y16.634 Z-1.800 F500
G1 X34.937 Y16.517 Z-1.800 F500
G1 X34.988 Y16.394 Z-1.800 F500
G1 X35.025 Y16.265 Z-1.800 F500
G1 X35.047 Y16.134 Z-1.800 F500
G1 X35.055 Y16.000 Z-1.800 F500
G1 X35.055 Y8.043 Z-1.800 F500
G1 X35.061 Y7.990 Z-1.800 F500
G1 X35.078 Y7.939 Z-1.800 F500
G1 X35.107 Y7.894 Z-1.800 F500
G1 X35.144 Y7.856 Z-1.800 F500
G1 X35.189 Y7.828 Z-1.800 F500
G1 X35.240 Y7.810 Z-1.800 F500
G1 X35.293 Y7.804 Z-1.800 F500
G1 X35.531 Y7.804 Z-1.800 F500
G1 X35.584 Y7.804 Z-1.794 F500
G1 X35.634 Y7.804 Z-1.776 F500
G1 X35.680 Y7.804 Z-1.748 F500
G1 X35.717 Y7.804 Z-1.710 F500
G1 X35.746 Y7.804 Z-1.665 F500
G1 X35.763 Y7.804 Z-1.614 F500
G1 X35.769 Y7.804 Z-1.561 F500
G1 X35.769 Y7.804 Z6.825 F500
G1 X35.769 Y8.281 Z6.825 F500
G1 X35.769 Y8.281 Z-1.323 F166.7
G1 X35.769 Y8.281 Z-1.686 F166.7
G1 X35.763 Y8.281 Z-1.739 F500
G1 X35.746 Y8.281 Z-1.790 F500
G1 X35.717 Y8.281 Z-1.835 F500
G1 X35.680 Y8.281 Z-1.873 F500
G1 X35.634 Y8.281 Z-1.901 F500
G1 X35.584 Y8.281 Z-1.919 F500
G1 X35.531 Y8.281 Z-1.925 F500
G1 X35.293 Y8.281 Z-1.925 F500
G1 X35.240 Y8.275 Z-1.925 F500
G1 X35.189 Y8.257 Z-1.925 F500
G1 X35.144 Y8.229 Z-1.925 F500
G1 X35.107 Y8.191 Z-1.925 F500
G1 X35.078 Y8.146 Z-1.925 F500
G1 X35.061 Y8.096 Z-1.925 F500
G1 X35.055 Y8.043 Z-1.925 F500
G1 X35.055 Y0.085 Z-1.925 F500
G1 X35.047 Y-0.049 Z-1.925 F500
G1 X35.025 Y-0.181 Z-1.925 F500
G1 X34.988 Y-0.309 Z-1.925 F500
G1 X34.937 Y-0.432 Z-1.925 F500
G1 X34.872 Y-0.549 Z-1.925 F500
G1 X34.795 Y-0.658 Z-1.925 F500
G1 X34.705 Y-0.758 Z-1.925 F500
G1 X34.621 Y-0.843 Z-1.925 F500
G1 X34.521 Y-0.932 Z-1.925 F500
G1 X34.412 Y-1.009 Z-1.925 F500
G1 X34.295 Y-1.073 Z-1.925 F500
G1 X34.172 Y-1.124 Z-1.925 F500
G1 X34.044 Y-1.161 Z-1.925 F500
G1 X33.912 Y-1.184 Z-1.925 F500
G1 X33.779 Y-1.191 Z-1.925 F500
G1 X0.085 Y-1.191 Z-1.925 F500
G1 X-0.049 Y-1.184 Z-1.925 F500
G1 X-0.180 Y-1.161 Z-1.925 F500
G1 X-0.309 Y-1.124 Z-1.925 F500
G1 X-0.432 Y-1.073 Z-1.925 F500
G1 X-0.549 Y-1.009 Z-1.925 F500
G1 X-0.658 Y-0.931 Z-1.925 F500
G1 X-0.758 Y-0.842 Z-1.925 F500
G1 X-0.842 Y-0.758 Z-1.925 F500
G1 X-0.931 Y-0.658 Z-1.925 F500
G1 X-1.009 Y-0.549 Z-1.925 F500
G1 X-1.073 Y-0.432 Z-1.925 F500
G1 X-1.124 Y-0.309 Z-1.925 F500
G1 X-1.161 Y-0.180 Z-1.925 F500
G1 X-1.184 Y-0.049 Z-1.925 F500
G1 X-1.191 Y0.085 Z-1.925 F500
G1 X-1.191 Y16.000 Z-1.925 F500
G1 X-1.184 Y16.134 Z-1.925 F500
G1 X-1.161 Y16.265 Z-1.925 F500
G1 X-1.124 Y16.394 Z-1.925 F500
G1 X-1.073 Y16.517 Z-1.925 F500
G1 X-1.009 Y16.634 Z-1.925 F500
G1 X-0.932 Y16.743 Z-1.925 F500
G1 X-0.843 Y16.843 Z-1.925 F500
G1 X-0.758 Y16.927 Z-1.925 F500
G1 X-0.658 Y17.016 Z-1.925 F500
G1 X-0.549 Y17.094 Z-1.925 F500
G1 X-0.432 Y17.158 Z-1.925 F500
G1 X-0.309 Y17.209 Z-1.925 F500
G1 X-0.181 Y17.246 Z-1.925 F500
G1 X-0.049 Y17.269 Z-1.925 F500
G1 X0.085 Y17.276 Z-1.925 F500
G1 X33.779 Y17.276 Z-1.925 F500
G1 X33.912 Y17.269 Z-1.925 F500
G1 X34.044 Y17.246 Z-1.925 F500
G1 X34.172 Y17.210 Z-1.925 F500
G1 X34.295 Y17.158 Z-1.925 F500
G1 X34.412 Y17.094 Z-1.925 F500
G1 X34.521 Y17.016 Z-1.925 F500
G1 X34.621 Y16.927 Z-1.925 F500
G1 X34.706 Y16.843 Z-1.925 F500
G1 X34.795 Y16.743 Z-1.925 F500
G1 X34.872 Y16.634 Z-1.925 F500
G1 X34.937 Y16.517 Z-1.925 F500
G1 X34.988 Y16.394 Z-1.925 F500
G1 X35.025 Y16.265 Z-1.925 F500
G1 X35.047 Y16.134 Z-1.925 F500
G1 X35.055 Y16.000 Z-1.925 F500
G1 X35.055 Y8.043 Z-1.925 F500
G1 X35.061 Y7.990 Z-1.925 F500
G1 X35.078 Y7.939 Z-1.925 F500
G1 X35.107 Y7.894 Z-1.925 F500
G1 X35.144 Y7.856 Z-1.925 F500
G1 X35.189 Y7.828 Z-1.925 F500
G1 X35.240 Y7.810 Z-1.925 F500
G1 X35.293 Y7.804 Z-1.925 F500
G1 X35.531 Y7.804 Z-1.925 F500
G1 X35.584 Y7.804 Z-1.919 F500
G1 X35.634 Y7.804 Z-1.901 F500
G1 X35.680 Y7.804 Z-1.873 F500
G1 X35.717 Y7.804 Z-1.835 F500
G1 X35.746 Y7.804 Z-1.790 F500
G1 X35.763 Y7.804 Z-1.739 F500
G1 X35.769 Y7.804 Z-1.686 F500
G1 X35.769 Y7.804 Z6.825 F500
G1 X35.769 Y8.281 Z6.825 F500
G1 X35.769 Y8.281 Z-1.448 F166.7
G1 X35.769 Y8.281 Z-1.811 F166.7
G1 X35.763 Y8.281 Z-1.864 F500
G1 X35.746 Y8.281 Z-1.915 F500
G1 X35.717 Y8.281 Z-1.960 F500
G1 X35.680 Y8.281 Z-1.998 F500
G1 X35.634 Y8.281 Z-2.026 F500
G1 X35.584 Y8.281 Z-2.044 F500
G1 X35.531 Y8.281 Z-2.050 F500
G1 X35.293 Y8.281 Z-2.050 F500
G1 X35.240 Y8.275 Z-2.050 F500
G1 X35.189 Y8.257 Z-2.050 F500
G1 X35.144 Y8.229 Z-2.050 F500
G1 X35.107 Y8.191 Z-2.050 F500
G1 X35.078 Y8.146 Z-2.050 F500
G1 X35.061 Y8.096 Z-2.050 F500
G1 X35.055 Y8.043 Z-2.050 F500
G1 X35.055 Y0.085 Z-2.050 F500
G1 X35.047 Y-0.049 Z-2.050 F500
G1 X35.025 Y-0.181 Z-2.050 F500
G1 X34.988 Y-0.309 Z-2.050 F500
G1 X34.937 Y-0.432 Z-2.050 F500
G1 X34.872 Y-0.549 Z-2.050 F500
G1 X34.795 Y-0.658 Z-2.050 F500
G1 X34.705 Y-0.758 Z-2.050 F500
G1 X34.621 Y-0.843 Z-2.050 F500
G1 X34.521 Y-0.932 Z-2.050 F500
G1 X34.412 Y-1.009 Z-2.050 F500
G1 X34.295 Y-1.073 Z-2.050 F500
G1 X34.172 Y-1.124 Z-2.050 F500
G1 X34.044 Y-1.161 Z-2.050 F500
G1 X33.912 Y-1.184 Z-2.050 F500
G1 X33.779 Y-1.191 Z-2.050 F500
G1 X0.085 Y-1.191 Z-2.050 F500
G1 X-0.049 Y-1.184 Z-2.050 F500
G1 X-0.180 Y-1.161 Z-2.050 F500
G1 X-0.309 Y-1.124 Z-2.050 F500
G1 X-0.432 Y-1.073 Z-2.050 F500
G1 X-0.549 Y-1.009 Z-2.050 F500
G1 X-0.658 Y-0.931 Z-2.050 F500
G1 X-0.758 Y-0.842 Z-2.050 F500
G1 X-0.842 Y-0.758 Z-2.050 F500
G1 X-0.931 Y-0.658 Z-2.050 F500
G1 X-1.009 Y-0.549 Z-2.050 F500
G1 X-1.073 Y-0.432 Z-2.050 F500
G1 X-1.124 Y-0.309 Z-2.050 F500
G1 X-1.161 Y-0.180 Z-2.050 F500
G1 X-1.184 Y-0.049 Z-2.050 F500
G1 X-1.191 Y0.085 Z-2.050 F500
G1 X-1.191 Y16.000 Z-2.050 F500
G1 X-1.184 Y16.134 Z-2.050 F500
G1 X-1.161 Y16.265 Z-2.050 F500
G1 X-1.124 Y16.394 Z-2.050 F500
G1 X-1.073 Y16.517 Z-2.050 F500
G1 X-1.009 Y16.634 Z-2.050 F500
G1 X-0.932 Y16.743 Z-2.050 F500
G1 X-0.843 Y16.843 Z-2.050 F500
G1 X-0.758 Y16.927 Z-2.050 F500
G1 X-0.658 Y17.016 Z-2.050 F500
G1 X-0.549 Y17.094 Z-2.050 F500
G1 X-0.432 Y17.158 Z-2.050 F500
G1 X-0.309 Y17.209 Z-2.050 F500
G1 X-0.181 Y17.246 Z-2.050 F500
G1 X-0.049 Y17.269 Z-2.050 F500
G1 X0.085 Y17.276 Z-2.050 F500
G1 X33.779 Y17.276 Z-2.050 F500
G1 X33.912 Y17.269 Z-2.050 F500
G1 X34.044 Y17.246 Z-2.050 F500
G1 X34.172 Y17.210 Z-2.050 F500
G1 X34.295 Y17.158 Z-2.050 F500
G1 X34.412 Y17.094 Z-2.050 F500
G1 X34.521 Y17.016 Z-2.050 F500
G1 X34.621 Y16.927 Z-2.050 F500
G1 X34.706 Y16.843 Z-2.050 F500
G1 X34.795 Y16.743 Z-2.050 F500
G1 X34.872 Y16.634 Z-2.050 F500
G1 X34.937 Y16.517 Z-2.050 F500
G1 X34.988 Y16.394 Z-2.050 F500
G1 X35.025 Y16.265 Z-2.050 F500
G1 X35.047 Y16.134 Z-2.050 F500
G1 X35.055 Y16.000 Z-2.050 F500
G1 X35.055 Y8.043 Z-2.050 F500
G1 X35.061 Y7.990 Z-2.050 F500
G1 X35.078 Y7.939 Z-2.050 F500
G1 X35.107 Y7.894 Z-2.050 F500
G1 X35.144 Y7.856 Z-2.050 F500
G1 X35.189 Y7.828 Z-2.050 F500
G1 X35.240 Y7.810 Z-2.050 F500
G1 X35.293 Y7.804 Z-2.050 F500
G1 X35.531 Y7.804 Z-2.050 F500
G1 X35.584 Y7.804 Z-2.044 F500
G1 X35.634 Y7.804 Z-2.026 F500
G1 X35.680 Y7.804 Z-1.998 F500
G1 X35.717 Y7.804 Z-1.960 F500
G1 X35.746 Y7.804 Z-1.915 F500
G1 X35.763 Y7.804 Z-1.864 F500
G1 X35.769 Y7.804 Z-1.811 F500
G1 X35.769 Y7.804 Z6.825 F500
G1 X35.769 Y8.281 Z6.825 F500
G1 X35.769 Y8.281 Z-1.573 F166.7
G1 X35.769 Y8.281 Z-1.936 F166.7
G1 X35.763 Y8.281 Z-1.989 F500
G1 X35.746 Y8.281 Z-2.040 F500
G1 X35.717 Y8.281 Z-2.085 F500
G1 X35.680 Y8.281 Z-2.123 F500
G1 X35.634 Y8.281 Z-2.151 F500
G1 X35.584 Y8.281 Z-2.169 F500
G1 X35.531 Y8.281 Z-2.175 F500
G1 X35.293 Y8.281 Z-2.175 F500
G1 X35.240 Y8.275 Z-2.175 F500
G1 X35.189 Y8.257 Z-2.175 F500
G1 X35.144 Y8.229 Z-2.175 F500
G1 X35.107 Y8.191 Z-2.175 F500
G1 X35.078 Y8.146 Z-2.175 F500
G1 X35.061 Y8.096 Z-2.175 F500
G1 X35.055 Y8.043 Z-2.175 F500
G1 X35.055 Y0.085 Z-2.175 F500
G1 X35.047 Y-0.049 Z-2.175 F500
G1 X35.025 Y-0.181 Z-2.175 F500
G1 X34.988 Y-0.309 Z-2.175 F500
G1 X34.937 Y-0.432 Z-2.175 F500
