;Titan-1-Nomad-Profile-0.1
;Now at Henrietta Hankin!
;Machine
;vendor: Snapmaker
;model: Desktop CNC
;description: Generic Snapmaker Marlin v20180725
M3 S18000
G4 S2 P2
G21
G90
;When using Fusion for Personal Use, the feedrate of rapid
;moves is reduced to match the feedrate of cutting moves,
;which can increase machining time. Unrestricted rapid moves
;are available with a Fusion Subscription.

;Titan-1-Nomad-Profile
G0 X36.403 Y8.360 Z16.825
G1 X36.403 Y8.360 Z16.825 F1000
G1 X36.403 Y8.360 Z6.825 F1000
G1 X36.403 Y8.360 Z2.460 F333.3
G1 X36.403 Y8.360 Z2.043 F333.3
G1 X36.395 Y8.360 Z1.972 F1000
G1 X36.372 Y8.360 Z1.905 F1000
G1 X36.334 Y8.360 Z1.845 F1000
G1 X36.284 Y8.360 Z1.795 F1000
G1 X36.224 Y8.360 Z1.757 F1000
G1 X36.156 Y8.360 Z1.733 F1000
G1 X36.086 Y8.360 Z1.725 F1000
G1 X35.768 Y8.360 Z1.725 F1000
G1 X35.698 Y8.352 Z1.725 F1000
G1 X35.631 Y8.329 Z1.725 F1000
G1 X35.570 Y8.291 Z1.725 F1000
G1 X35.520 Y8.241 Z1.725 F1000
G1 X35.482 Y8.180 Z1.725 F1000
G1 X35.459 Y8.113 Z1.725 F1000
G1 X35.451 Y8.043 Z1.725 F1000
G1 X35.451 Y0.085 Z1.725 F1000
G1 X35.443 Y-0.071 Z1.725 F1000
G1 X35.420 Y-0.225 Z1.725 F1000
G1 X35.382 Y-0.376 Z1.725 F1000
G1 X35.330 Y-0.523 Z1.725 F1000
G1 X35.263 Y-0.664 Z1.725 F1000
G1 X35.183 Y-0.798 Z1.725 F1000
G1 X35.090 Y-0.923 Z1.725 F1000
G1 X34.986 Y-1.038 Z1.725 F1000
G1 X34.901 Y-1.123 Z1.725 F1000
G1 X34.785 Y-1.227 Z1.725 F1000
G1 X34.660 Y-1.320 Z1.725 F1000
G1 X34.527 Y-1.400 Z1.725 F1000
G1 X34.386 Y-1.467 Z1.725 F1000
G1 X34.239 Y-1.519 Z1.725 F1000
G1 X34.088 Y-1.557 Z1.725 F1000
G1 X33.934 Y-1.580 Z1.725 F1000
G1 X33.779 Y-1.587 Z1.725 F1000
G1 X0.085 Y-1.587 Z1.725 F1000
G1 X-0.071 Y-1.580 Z1.725 F1000
G1 X-0.225 Y-1.557 Z1.725 F1000
G1 X-0.376 Y-1.519 Z1.725 F1000
G1 X-0.523 Y-1.467 Z1.725 F1000
G1 X-0.664 Y-1.400 Z1.725 F1000
G1 X-0.797 Y-1.320 Z1.725 F1000
G1 X-0.922 Y-1.227 Z1.725 F1000
G1 X-1.038 Y-1.123 Z1.725 F1000
G1 X-1.123 Y-1.038 Z1.725 F1000
G1 X-1.227 Y-0.922 Z1.725 F1000
G1 X-1.320 Y-0.797 Z1.725 F1000
G1 X-1.400 Y-0.664 Z1.725 F1000
G1 X-1.467 Y-0.523 Z1.725 F1000
G1 X-1.519 Y-0.376 Z1.725 F1000
G1 X-1.557 Y-0.225 Z1.725 F1000
G1 X-1.580 Y-0.071 Z1.725 F1000
G1 X-1.587 Y0.085 Z1.725 F1000
G1 X-1.587 Y16.000 Z1.725 F1000
G1 X-1.580 Y16.156 Z1.725 F1000
G1 X-1.557 Y16.310 Z1.725 F1000
G1 X-1.519 Y16.461 Z1.725 F1000
G1 X-1.467 Y16.608 Z1.725 F1000
G1 X-1.400 Y16.749 Z1.725 F1000
G1 X-1.320 Y16.882 Z1.725 F1000
G1 X-1.227 Y17.007 Z1.725 F1000
G1 X-1.123 Y17.123 Z1.725 F1000
G1 X-1.038 Y17.207 Z1.725 F1000
G1 X-0.923 Y17.312 Z1.725 F1000
G1 X-0.798 Y17.405 Z1.725 F1000
G1 X-0.664 Y17.485 Z1.725 F1000
G1 X-0.523 Y17.552 Z1.725 F1000
G1 X-0.376 Y17.604 Z1.725 F1000
G1 X-0.225 Y17.642 Z1.725 F1000
G1 X-0.071 Y17.665 Z1.725 F1000
G1 X0.085 Y17.673 Z1.725 F1000
G1 X33.779 Y17.673 Z1.725 F1000
G1 X33.934 Y17.665 Z1.725 F1000
G1 X34.088 Y17.642 Z1.725 F1000
G1 X34.239 Y17.604 Z1.725 F1000
G1 X34.386 Y17.552 Z1.725 F1000
G1 X34.527 Y17.485 Z1.725 F1000
G1 X34.661 Y17.405 Z1.725 F1000
G1 X34.786 Y17.312 Z1.725 F1000
G1 X34.901 Y17.208 Z1.725 F1000
G1 X34.986 Y17.123 Z1.725 F1000
G1 X35.090 Y17.007 Z1.725 F1000
G1 X35.183 Y16.882 Z1.725 F1000
G1 X35.263 Y16.749 Z1.725 F1000
G1 X35.330 Y16.608 Z1.725 F1000
G1 X35.382 Y16.461 Z1.725 F1000
G1 X35.420 Y16.310 Z1.725 F1000
G1 X35.443 Y16.156 Z1.725 F1000
G1 X35.451 Y16.000 Z1.725 F1000
G1 X35.451 Y8.043 Z1.725 F1000
G1 X35.459 Y7.972 Z1.725 F1000
G1 X35.482 Y7.905 Z1.725 F1000
G1 X35.520 Y7.845 Z1.725 F1000
G1 X35.570 Y7.794 Z1.725 F1000
G1 X35.631 Y7.756 Z1.725 F1000
G1 X35.698 Y7.733 Z1.725 F1000
G1 X35.768 Y7.725 Z1.725 F1000
G1 X36.086 Y7.725 Z1.725 F1000
G1 X36.156 Y7.725 Z1.733 F1000
G1 X36.224 Y7.725 Z1.757 F1000
G1 X36.284 Y7.725 Z1.795 F1000
G1 X36.334 Y7.725 Z1.845 F1000
G1 X36.372 Y7.725 Z1.905 F1000
G1 X36.395 Y7.725 Z1.972 F1000
G1 X36.403 Y7.725 Z2.043 F1000
G1 X36.403 Y7.725 Z6.825 F1000
G1 X36.403 Y8.360 Z6.825 F1000
G1 X36.403 Y8.360 Z2.360 F333.3
G1 X36.403 Y8.360 Z1.943 F333.3
G1 X36.395 Y8.360 Z1.872 F1000
G1 X36.372 Y8.360 Z1.805 F1000
G1 X36.334 Y8.360 Z1.745 F1000
G1 X36.284 Y8.360 Z1.695 F1000
G1 X36.224 Y8.360 Z1.657 F1000
G1 X36.156 Y8.360 Z1.633 F1000
G1 X36.086 Y8.360 Z1.625 F1000
G1 X35.768 Y8.360 Z1.625 F1000
G1 X35.698 Y8.352 Z1.625 F1000
G1 X35.631 Y8.329 Z1.625 F1000
G1 X35.570 Y8.291 Z1.625 F1000
G1 X35.520 Y8.241 Z1.625 F1000
G1 X35.482 Y8.180 Z1.625 F1000
G1 X35.459 Y8.113 Z1.625 F1000
G1 X35.451 Y8.043 Z1.625 F1000
G1 X35.451 Y0.085 Z1.625 F1000
G1 X35.443 Y-0.071 Z1.625 F1000
G1 X35.420 Y-0.225 Z1.625 F1000
G1 X35.382 Y-0.376 Z1.625 F1000
G1 X35.330 Y-0.523 Z1.625 F1000
G1 X35.263 Y-0.664 Z1.625 F1000
G1 X35.183 Y-0.798 Z1.625 F1000
G1 X35.090 Y-0.923 Z1.625 F1000
G1 X34.986 Y-1.038 Z1.625 F1000
G1 X34.901 Y-1.123 Z1.625 F1000
G1 X34.785 Y-1.227 Z1.625 F1000
G1 X34.660 Y-1.320 Z1.625 F1000
G1 X34.527 Y-1.400 Z1.625 F1000
G1 X34.386 Y-1.467 Z1.625 F1000
G1 X34.239 Y-1.519 Z1.625 F1000
G1 X34.088 Y-1.557 Z1.625 F1000
G1 X33.934 Y-1.580 Z1.625 F1000
G1 X33.779 Y-1.587 Z1.625 F1000
G1 X0.085 Y-1.587 Z1.625 F1000
G1 X-0.071 Y-1.580 Z1.625 F1000
G1 X-0.225 Y-1.557 Z1.625 F1000
G1 X-0.376 Y-1.519 Z1.625 F1000
G1 X-0.523 Y-1.467 Z1.625 F1000
G1 X-0.664 Y-1.400 Z1.625 F1000
G1 X-0.797 Y-1.320 Z1.625 F1000
G1 X-0.922 Y-1.227 Z1.625 F1000
G1 X-1.038 Y-1.123 Z1.625 F1000
G1 X-1.123 Y-1.038 Z1.625 F1000
G1 X-1.227 Y-0.922 Z1.625 F1000
G1 X-1.320 Y-0.797 Z1.625 F1000
G1 X-1.400 Y-0.664 Z1.625 F1000
G1 X-1.467 Y-0.523 Z1.625 F1000
G1 X-1.519 Y-0.376 Z1.625 F1000
G1 X-1.557 Y-0.225 Z1.625 F1000
G1 X-1.580 Y-0.071 Z1.625 F1000
G1 X-1.587 Y0.085 Z1.625 F1000
G1 X-1.587 Y16.000 Z1.625 F1000
G1 X-1.580 Y16.156 Z1.625 F1000
G1 X-1.557 Y16.310 Z1.625 F1000
G1 X-1.519 Y16.461 Z1.625 F1000
G1 X-1.467 Y16.608 Z1.625 F1000
G1 X-1.400 Y16.749 Z1.625 F1000
G1 X-1.320 Y16.882 Z1.625 F1000
G1 X-1.227 Y17.007 Z1.625 F1000
G1 X-1.123 Y17.123 Z1.625 F1000
G1 X-1.038 Y17.207 Z1.625 F1000
G1 X-0.923 Y17.312 Z1.625 F1000
G1 X-0.798 Y17.405 Z1.625 F1000
G1 X-0.664 Y17.485 Z1.625 F1000
G1 X-0.523 Y17.552 Z1.625 F1000
G1 X-0.376 Y17.604 Z1.625 F1000
G1 X-0.225 Y17.642 Z1.625 F1000
G1 X-0.071 Y17.665 Z1.625 F1000
G1 X0.085 Y17.673 Z1.625 F1000
G1 X33.779 Y17.673 Z1.625 F1000
G1 X33.934 Y17.665 Z1.625 F1000
G1 X34.088 Y17.642 Z1.625 F1000
G1 X34.239 Y17.604 Z1.625 F1000
G1 X34.386 Y17.552 Z1.625 F1000
G1 X34.527 Y17.485 Z1.625 F1000
G1 X34.661 Y17.405 Z1.625 F1000
G1 X34.786 Y17.312 Z1.625 F1000
G1 X34.901 Y17.208 Z1.625 F1000
G1 X34.986 Y17.123 Z1.625 F1000
G1 X35.090 Y17.007 Z1.625 F1000
G1 X35.183 Y16.882 Z1.625 F1000
G1 X35.263 Y16.749 Z1.625 F1000
G1 X35.330 Y16.608 Z1.625 F1000
G1 X35.382 Y16.461 Z1.625 F1000
G1 X35.420 Y16.310 Z1.625 F1000
G1 X35.443 Y16.156 Z1.625 F1000
G1 X35.451 Y16.000 Z1.625 F1000
G1 X35.451 Y8.043 Z1.625 F1000
G1 X35.459 Y7.972 Z1.625 F1000
G1 X35.482 Y7.905 Z1.625 F1000
G1 X35.520 Y7.845 Z1.625 F1000
G1 X35.570 Y7.794 Z1.625 F1000
G1 X35.631 Y7.756 Z1.625 F1000
G1 X35.698 Y7.733 Z1.625 F1000
G1 X35.768 Y7.725 Z1.625 F1000
G1 X36.086 Y7.725 Z1.625 F1000
G1 X36.156 Y7.725 Z1.633 F1000
G1 X36.224 Y7.725 Z1.657 F1000
G1 X36.284 Y7.725 Z1.695 F1000
G1 X36.334 Y7.725 Z1.745 F1000
G1 X36.372 Y7.725 Z1.805 F1000
G1 X36.395 Y7.725 Z1.872 F1000
G1 X36.403 Y7.725 Z1.943 F1000
G1 X36.403 Y7.725 Z6.825 F1000
G1 X36.403 Y8.360 Z6.825 F1000
G1 X36.403 Y8.360 Z2.260 F333.3
G1 X36.403 Y8.360 Z1.843 F333.3
G1 X36.395 Y8.360 Z1.772 F1000
G1 X36.372 Y8.360 Z1.705 F1000
G1 X36.334 Y8.360 Z1.645 F1000
G1 X36.284 Y8.360 Z1.595 F1000
G1 X36.224 Y8.360 Z1.557 F1000
G1 X36.156 Y8.360 Z1.533 F1000
G1 X36.086 Y8.360 Z1.525 F1000
G1 X35.768 Y8.360 Z1.525 F1000
G1 X35.698 Y8.352 Z1.525 F1000
G1 X35.631 Y8.329 Z1.525 F1000
G1 X35.570 Y8.291 Z1.525 F1000
G1 X35.520 Y8.241 Z1.525 F1000
G1 X35.482 Y8.180 Z1.525 F1000
G1 X35.459 Y8.113 Z1.525 F1000
G1 X35.451 Y8.043 Z1.525 F1000
G1 X35.451 Y0.085 Z1.525 F1000
G1 X35.443 Y-0.071 Z1.525 F1000
G1 X35.420 Y-0.225 Z1.525 F1000
G1 X35.382 Y-0.376 Z1.525 F1000
G1 X35.330 Y-0.523 Z1.525 F1000
G1 X35.263 Y-0.664 Z1.525 F1000
G1 X35.183 Y-0.798 Z1.525 F1000
G1 X35.090 Y-0.923 Z1.525 F1000
G1 X34.986 Y-1.038 Z1.525 F1000
G1 X34.901 Y-1.123 Z1.525 F1000
G1 X34.785 Y-1.227 Z1.525 F1000
G1 X34.660 Y-1.320 Z1.525 F1000
G1 X34.527 Y-1.400 Z1.525 F1000
G1 X34.386 Y-1.467 Z1.525 F1000
G1 X34.239 Y-1.519 Z1.525 F1000
G1 X34.088 Y-1.557 Z1.525 F1000
G1 X33.934 Y-1.580 Z1.525 F1000
G1 X33.779 Y-1.587 Z1.525 F1000
G1 X0.085 Y-1.587 Z1.525 F1000
G1 X-0.071 Y-1.580 Z1.525 F1000
G1 X-0.225 Y-1.557 Z1.525 F1000
G1 X-0.376 Y-1.519 Z1.525 F1000
G1 X-0.523 Y-1.467 Z1.525 F1000
G1 X-0.664 Y-1.400 Z1.525 F1000
G1 X-0.797 Y-1.320 Z1.525 F1000
G1 X-0.922 Y-1.227 Z1.525 F1000
G1 X-1.038 Y-1.123 Z1.525 F1000
G1 X-1.123 Y-1.038 Z1.525 F1000
G1 X-1.227 Y-0.922 Z1.525 F1000
G1 X-1.320 Y-0.797 Z1.525 F1000
G1 X-1.400 Y-0.664 Z1.525 F1000
G1 X-1.467 Y-0.523 Z1.525 F1000
G1 X-1.519 Y-0.376 Z1.525 F1000
G1 X-1.557 Y-0.225 Z1.525 F1000
G1 X-1.580 Y-0.071 Z1.525 F1000
G1 X-1.587 Y0.085 Z1.525 F1000
G1 X-1.587 Y16.000 Z1.525 F1000
G1 X-1.580 Y16.156 Z1.525 F1000
G1 X-1.557 Y16.310 Z1.525 F1000
G1 X-1.519 Y16.461 Z1.525 F1000
G1 X-1.467 Y16.608 Z1.525 F1000
G1 X-1.400 Y16.749 Z1.525 F1000
G1 X-1.320 Y16.882 Z1.525 F1000
G1 X-1.227 Y17.007 Z1.525 F1000
G1 X-1.123 Y17.123 Z1.525 F1000
G1 X-1.038 Y17.207 Z1.525 F1000
G1 X-0.923 Y17.312 Z1.525 F1000
G1 X-0.798 Y17.405 Z1.525 F1000
G1 X-0.664 Y17.485 Z1.525 F1000
G1 X-0.523 Y17.552 Z1.525 F1000
G1 X-0.376 Y17.604 Z1.525 F1000
G1 X-0.225 Y17.642 Z1.525 F1000
G1 X-0.071 Y17.665 Z1.525 F1000
G1 X0.085 Y17.673 Z1.525 F1000
G1 X33.779 Y17.673 Z1.525 F1000
G1 X33.934 Y17.665 Z1.525 F1000
G1 X34.088 Y17.642 Z1.525 F1000
G1 X34.239 Y17.604 Z1.525 F1000
G1 X34.386 Y17.552 Z1.525 F1000
G1 X34.527 Y17.485 Z1.525 F1000
G1 X34.661 Y17.405 Z1.525 F1000
G1 X34.786 Y17.312 Z1.525 F1000
G1 X34.901 Y17.208 Z1.525 F1000
G1 X34.986 Y17.123 Z1.525 F1000
G1 X35.090 Y17.007 Z1.525 F1000
G1 X35.183 Y16.882 Z1.525 F1000
G1 X35.263 Y16.749 Z1.525 F1000
G1 X35.330 Y16.608 Z1.525 F1000
G1 X35.382 Y16.461 Z1.525 F1000
G1 X35.420 Y16.310 Z1.525 F1000
G1 X35.443 Y16.156 Z1.525 F1000
G1 X35.451 Y16.000 Z1.525 F1000
G1 X35.451 Y8.043 Z1.525 F1000
G1 X35.459 Y7.972 Z1.525 F1000
G1 X35.482 Y7.905 Z1.525 F1000
G1 X35.520 Y7.845 Z1.525 F1000
G1 X35.570 Y7.794 Z1.525 F1000
G1 X35.631 Y7.756 Z1.525 F1000
G1 X35.698 Y7.733 Z1.525 F1000
G1 X35.768 Y7.725 Z1.525 F1000
G1 X36.086 Y7.725 Z1.525 F1000
G1 X36.156 Y7.725 Z1.533 F1000
G1 X36.224 Y7.725 Z1.557 F1000
G1 X36.284 Y7.725 Z1.595 F1000
G1 X36.334 Y7.725 Z1.645 F1000
G1 X36.372 Y7.725 Z1.705 F1000
G1 X36.395 Y7.725 Z1.772 F1000
G1 X36.403 Y7.725 Z1.843 F1000
G1 X36.403 Y7.725 Z6.825 F1000
G1 X36.403 Y8.360 Z6.825 F1000
G1 X36.403 Y8.360 Z2.160 F333.3
G1 X36.403 Y8.360 Z1.743 F333.3
G1 X36.395 Y8.360 Z1.672 F1000
G1 X36.372 Y8.360 Z1.605 F1000
G1 X36.334 Y8.360 Z1.545 F1000
G1 X36.284 Y8.360 Z1.495 F1000
G1 X36.224 Y8.360 Z1.457 F1000
G1 X36.156 Y8.360 Z1.433 F1000
G1 X36.086 Y8.360 Z1.425 F1000
G1 X35.768 Y8.360 Z1.425 F1000
G1 X35.698 Y8.352 Z1.425 F1000
G1 X35.631 Y8.329 Z1.425 F1000
G1 X35.570 Y8.291 Z1.425 F1000
G1 X35.520 Y8.241 Z1.425 F1000
G1 X35.482 Y8.180 Z1.425 F1000
G1 X35.459 Y8.113 Z1.425 F1000
G1 X35.451 Y8.043 Z1.425 F1000
G1 X35.451 Y0.085 Z1.425 F1000
G1 X35.443 Y-0.071 Z1.425 F1000
G1 X35.420 Y-0.225 Z1.425 F1000
G1 X35.382 Y-0.376 Z1.425 F1000
G1 X35.330 Y-0.523 Z1.425 F1000
G1 X35.263 Y-0.664 Z1.425 F1000
G1 X35.183 Y-0.798 Z1.425 F1000
G1 X35.090 Y-0.923 Z1.425 F1000
G1 X34.986 Y-1.038 Z1.425 F1000
G1 X34.901 Y-1.123 Z1.425 F1000
G1 X34.785 Y-1.227 Z1.425 F1000
G1 X34.660 Y-1.320 Z1.425 F1000
G1 X34.527 Y-1.400 Z1.425 F1000
G1 X34.386 Y-1.467 Z1.425 F1000
G1 X34.239 Y-1.519 Z1.425 F1000
G1 X34.088 Y-1.557 Z1.425 F1000
G1 X33.934 Y-1.580 Z1.425 F1000
G1 X33.779 Y-1.587 Z1.425 F1000
G1 X0.085 Y-1.587 Z1.425 F1000
G1 X-0.071 Y-1.580 Z1.425 F1000
G1 X-0.225 Y-1.557 Z1.425 F1000
G1 X-0.376 Y-1.519 Z1.425 F1000
G1 X-0.523 Y-1.467 Z1.425 F1000
G1 X-0.664 Y-1.400 Z1.425 F1000
G1 X-0.797 Y-1.320 Z1.425 F1000
G1 X-0.922 Y-1.227 Z1.425 F1000
G1 X-1.038 Y-1.123 Z1.425 F1000
G1 X-1.123 Y-1.038 Z1.425 F1000
G1 X-1.227 Y-0.922 Z1.425 F1000
G1 X-1.320 Y-0.797 Z1.425 F1000
G1 X-1.400 Y-0.664 Z1.425 F1000
G1 X-1.467 Y-0.523 Z1.425 F1000
G1 X-1.519 Y-0.376 Z1.425 F1000
G1 X-1.557 Y-0.225 Z1.425 F1000
G1 X-1.580 Y-0.071 Z1.425 F1000
G1 X-1.587 Y0.085 Z1.425 F1000
G1 X-1.587 Y16.000 Z1.425 F1000
G1 X-1.580 Y16.156 Z1.425 F1000
G1 X-1.557 Y16.310 Z1.425 F1000
G1 X-1.519 Y16.461 Z1.425 F1000
G1 X-1.467 Y16.608 Z1.425 F1000
G1 X-1.400 Y16.749 Z1.425 F1000
G1 X-1.320 Y16.882 Z1.425 F1000
G1 X-1.227 Y17.007 Z1.425 F1000
G1 X-1.123 Y17.123 Z1.425 F1000
G1 X-1.038 Y17.207 Z1.425 F1000
G1 X-0.923 Y17.312 Z1.425 F1000
G1 X-0.798 Y17.405 Z1.425 F1000
G1 X-0.664 Y17.485 Z1.425 F1000
G1 X-0.523 Y17.552 Z1.425 F1000
G1 X-0.376 Y17.604 Z1.425 F1000
G1 X-0.225 Y17.642 Z1.425 F1000
G1 X-0.071 Y17.665 Z1.425 F1000
G1 X0.085 Y17.673 Z1.425 F1000
G1 X33.779 Y17.673 Z1.425 F1000
G1 X33.934 Y17.665 Z1.425 F1000
G1 X34.088 Y17.642 Z1.425 F1000
G1 X34.239 Y17.604 Z1.425 F1000
G1 X34.386 Y17.552 Z1.425 F1000
G1 X34.527 Y17.485 Z1.425 F1000
G1 X34.661 Y17.405 Z1.425 F1000
G1 X34.786 Y17.312 Z1.425 F1000
G1 X34.901 Y17.208 Z1.425 F1000
G1 X34.986 Y17.123 Z1.425 F1000
G1 X35.090 Y17.007 Z1.425 F1000
G1 X35.183 Y16.882 Z1.425 F1000
G1 X35.263 Y16.749 Z1.425 F1000
G1 X35.330 Y16.608 Z1.425 F1000
G1 X35.382 Y16.461 Z1.425 F1000
G1 X35.420 Y16.310 Z1.425 F1000
G1 X35.443 Y16.156 Z1.425 F1000
G1 X35.451 Y16.000 Z1.425 F1000
G1 X35.451 Y8.043 Z1.425 F1000
G1 X35.459 Y7.972 Z1.425 F1000
G1 X35.482 Y7.905 Z1.425 F1000
G1 X35.520 Y7.845 Z1.425 F1000
G1 X35.570 Y7.794 Z1.425 F1000
G1 X35.631 Y7.756 Z1.425 F1000
G1 X35.698 Y7.733 Z1.425 F1000
G1 X35.768 Y7.725 Z1.425 F1000
G1 X36.086 Y7.725 Z1.425 F1000
G1 X36.156 Y7.725 Z1.433 F1000
G1 X36.224 Y7.725 Z1.457 F1000
G1 X36.284 Y7.725 Z1.495 F1000
G1 X36.334 Y7.725 Z1.545 F1000
G1 X36.372 Y7.725 Z1.605 F1000
G1 X36.395 Y7.725 Z1.672 F1000
G1 X36.403 Y7.725 Z1.743 F1000
G1 X36.403 Y7.725 Z6.825 F1000
G1 X36.403 Y8.360 Z6.825 F1000
G1 X36.403 Y8.360 Z2.060 F333.3
G1 X36.403 Y8.360 Z1.643 F333.3
G1 X36.395 Y8.360 Z1.572 F1000
G1 X36.372 Y8.360 Z1.505 F1000
G1 X36.334 Y8.360 Z1.445 F1000
G1 X36.284 Y8.360 Z1.395 F1000
G1 X36.224 Y8.360 Z1.357 F1000
G1 X36.156 Y8.360 Z1.333 F1000
G1 X36.086 Y8.360 Z1.325 F1000
G1 X35.768 Y8.360 Z1.325 F1000
G1 X35.698 Y8.352 Z1.325 F1000
G1 X35.631 Y8.329 Z1.325 F1000
G1 X35.570 Y8.291 Z1.325 F1000
G1 X35.520 Y8.241 Z1.325 F1000
G1 X35.482 Y8.180 Z1.325 F1000
G1 X35.459 Y8.113 Z1.325 F1000
G1 X35.451 Y8.043 Z1.325 F1000
G1 X35.451 Y0.085 Z1.325 F1000
G1 X35.443 Y-0.071 Z1.325 F1000
G1 X35.420 Y-0.225 Z1.325 F1000
G1 X35.382 Y-0.376 Z1.325 F1000
G1 X35.330 Y-0.523 Z1.325 F1000
G1 X35.263 Y-0.664 Z1.325 F1000
G1 X35.183 Y-0.798 Z1.325 F1000
G1 X35.090 Y-0.923 Z1.325 F1000
G1 X34.986 Y-1.038 Z1.325 F1000
G1 X34.901 Y-1.123 Z1.325 F1000
G1 X34.785 Y-1.227 Z1.325 F1000
G1 X34.660 Y-1.320 Z1.325 F1000
G1 X34.527 Y-1.400 Z1.325 F1000
G1 X34.386 Y-1.467 Z1.325 F1000
G1 X34.239 Y-1.519 Z1.325 F1000
G1 X34.088 Y-1.557 Z1.325 F1000
G1 X33.934 Y-1.580 Z1.325 F1000
G1 X33.779 Y-1.587 Z1.325 F1000
G1 X0.085 Y-1.587 Z1.325 F1000
G1 X-0.071 Y-1.580 Z1.325 F1000
G1 X-0.225 Y-1.557 Z1.325 F1000
G1 X-0.376 Y-1.519 Z1.325 F1000
G1 X-0.523 Y-1.467 Z1.325 F1000
G1 X-0.664 Y-1.400 Z1.325 F1000
G1 X-0.797 Y-1.320 Z1.325 F1000
G1 X-0.922 Y-1.227 Z1.325 F1000
G1 X-1.038 Y-1.123 Z1.325 F1000
G1 X-1.123 Y-1.038 Z1.325 F1000
G1 X-1.227 Y-0.922 Z1.325 F1000
G1 X-1.320 Y-0.797 Z1.325 F1000
G1 X-1.400 Y-0.664 Z1.325 F1000
G1 X-1.467 Y-0.523 Z1.325 F1000
G1 X-1.519 Y-0.376 Z1.325 F1000
G1 X-1.557 Y-0.225 Z1.325 F1000
G1 X-1.580 Y-0.071 Z1.325 F1000
G1 X-1.587 Y0.085 Z1.325 F1000
G1 X-1.587 Y16.000 Z1.325 F1000
G1 X-1.580 Y16.156 Z1.325 F1000
G1 X-1.557 Y16.310 Z1.325 F1000
G1 X-1.519 Y16.461 Z1.325 F1000
G1 X-1.467 Y16.608 Z1.325 F1000
G1 X-1.400 Y16.749 Z1.325 F1000
G1 X-1.320 Y16.882 Z1.325 F1000
G1 X-1.227 Y17.007 Z1.325 F1000
G1 X-1.123 Y17.123 Z1.325 F1000
G1 X-1.038 Y17.207 Z1.325 F1000
G1 X-0.923 Y17.312 Z1.325 F1000
G1 X-0.798 Y17.405 Z1.325 F1000
G1 X-0.664 Y17.485 Z1.325 F1000
G1 X-0.523 Y17.552 Z1.325 F1000
G1 X-0.376 Y17.604 Z1.325 F1000
G1 X-0.225 Y17.642 Z1.325 F1000
G1 X-0.071 Y17.665 Z1.325 F1000
G1 X0.085 Y17.673 Z1.325 F1000
G1 X33.779 Y17.673 Z1.325 F1000
G1 X33.934 Y17.665 Z1.325 F1000
G1 X34.088 Y17.642 Z1.325 F1000
G1 X34.239 Y17.604 Z1.325 F1000
G1 X34.386 Y17.552 Z1.325 F1000
G1 X34.527 Y17.485 Z1.325 F1000
G1 X34.661 Y17.405 Z1.325 F1000
G1 X34.786 Y17.312 Z1.325 F1000
G1 X34.901 Y17.208 Z1.325 F1000
G1 X34.986 Y17.123 Z1.325 F1000
G1 X35.090 Y17.007 Z1.325 F1000
G1 X35.183 Y16.882 Z1.325 F1000
G1 X35.263 Y16.749 Z1.325 F1000
G1 X35.330 Y16.608 Z1.325 F1000
G1 X35.382 Y16.461 Z1.325 F1000
G1 X35.420 Y16.310 Z1.325 F1000
G1 X35.443 Y16.156 Z1.325 F1000
G1 X35.451 Y16.000 Z1.325 F1000
G1 X35.451 Y8.043 Z1.325 F1000
G1 X35.459 Y7.972 Z1.325 F1000
G1 X35.482 Y7.905 Z1.325 F1000
G1 X35.520 Y7.845 Z1.325 F1000
G1 X35.570 Y7.794 Z1.325 F1000
G1 X35.631 Y7.756 Z1.325 F1000
G1 X35.698 Y7.733 Z1.325 F1000
G1 X35.768 Y7.725 Z1.325 F1000
G1 X36.086 Y7.725 Z1.325 F1000
G1 X36.156 Y7.725 Z1.333 F1000
G1 X36.224 Y7.725 Z1.357 F1000
G1 X36.284 Y7.725 Z1.395 F1000
G1 X36.334 Y7.725 Z1.445 F1000
G1 X36.372 Y7.725 Z1.505 F1000
G1 X36.395 Y7.725 Z1.572 F1000
G1 X36.403 Y7.725 Z1.643 F1000
G1 X36.403 Y7.725 Z6.825 F1000
G1 X36.403 Y8.360 Z6.825 F1000
G1 X36.403 Y8.360 Z1.960 F333.3
G1 X36.403 Y8.360 Z1.543 F333.3
G1 X36.395 Y8.360 Z1.472 F1000
G1 X36.372 Y8.360 Z1.405 F1000
G1 X36.334 Y8.360 Z1.345 F1000
G1 X36.284 Y8.360 Z1.295 F1000
G1 X36.224 Y8.360 Z1.257 F1000
G1 X36.156 Y8.360 Z1.233 F1000
G1 X36.086 Y8.360 Z1.225 F1000
G1 X35.768 Y8.360 Z1.225 F1000
G1 X35.698 Y8.352 Z1.225 F1000
G1 X35.631 Y8.329 Z1.225 F1000
G1 X35.570 Y8.291 Z1.225 F1000
G1 X35.520 Y8.241 Z1.225 F1000
G1 X35.482 Y8.180 Z1.225 F1000
G1 X35.459 Y8.113 Z1.225 F1000
G1 X35.451 Y8.043 Z1.225 F1000
G1 X35.451 Y0.085 Z1.225 F1000
G1 X35.443 Y-0.071 Z1.225 F1000
G1 X35.420 Y-0.225 Z1.225 F1000
G1 X35.382 Y-0.376 Z1.225 F1000
G1 X35.330 Y-0.523 Z1.225 F1000
G1 X35.263 Y-0.664 Z1.225 F1000
G1 X35.183 Y-0.798 Z1.225 F1000
G1 X35.090 Y-0.923 Z1.225 F1000
G1 X34.986 Y-1.038 Z1.225 F1000
G1 X34.901 Y-1.123 Z1.225 F1000
G1 X34.785 Y-1.227 Z1.225 F1000
G1 X34.660 Y-1.320 Z1.225 F1000
G1 X34.527 Y-1.400 Z1.225 F1000
G1 X34.386 Y-1.467 Z1.225 F1000
G1 X34.239 Y-1.519 Z1.225 F1000
G1 X34.088 Y-1.557 Z1.225 F1000
G1 X33.934 Y-1.580 Z1.225 F1000
G1 X33.779 Y-1.587 Z1.225 F1000
G1 X0.085 Y-1.587 Z1.225 F1000
G1 X-0.071 Y-1.580 Z1.225 F1000
G1 X-0.225 Y-1.557 Z1.225 F1000
G1 X-0.376 Y-1.519 Z1.225 F1000
G1 X-0.523 Y-1.467 Z1.225 F1000
G1 X-0.664 Y-1.400 Z1.225 F1000
G1 X-0.797 Y-1.320 Z1.225 F1000
G1 X-0.922 Y-1.227 Z1.225 F1000
G1 X-1.038 Y-1.123 Z1.225 F1000
G1 X-1.123 Y-1.038 Z1.225 F1000
G1 X-1.227 Y-0.922 Z1.225 F1000
G1 X-1.320 Y-0.797 Z1.225 F1000
G1 X-1.400 Y-0.664 Z1.225 F1000
G1 X-1.467 Y-0.523 Z1.225 F1000
G1 X-1.519 Y-0.376 Z1.225 F1000
G1 X-1.557 Y-0.225 Z1.225 F1000
G1 X-1.580 Y-0.071 Z1.225 F1000
G1 X-1.587 Y0.085 Z1.225 F1000
G1 X-1.587 Y16.000 Z1.225 F1000
G1 X-1.580 Y16.156 Z1.225 F1000
G1 X-1.557 Y16.310 Z1.225 F1000
G1 X-1.519 Y16.461 Z1.225 F1000
G1 X-1.467 Y16.608 Z1.225 F1000
G1 X-1.400 Y16.749 Z1.225 F1000
G1 X-1.320 Y16.882 Z1.225 F1000
G1 X-1.227 Y17.007 Z1.225 F1000
G1 X-1.123 Y17.123 Z1.225 F1000
G1 X-1.038 Y17.207 Z1.225 F1000
G1 X-0.923 Y17.312 Z1.225 F1000
G1 X-0.798 Y17.405 Z1.225 F1000
G1 X-0.664 Y17.485 Z1.225 F1000
G1 X-0.523 Y17.552 Z1.225 F1000
G1 X-0.376 Y17.604 Z1.225 F1000
G1 X-0.225 Y17.642 Z1.225 F1000
G1 X-0.071 Y17.665 Z1.225 F1000
G1 X0.085 Y17.673 Z1.225 F1000
G1 X33.779 Y17.673 Z1.225 F1000
G1 X33.934 Y17.665 Z1.225 F1000
G1 X34.088 Y17.642 Z1.225 F1000
G1 X34.239 Y17.604 Z1.225 F1000
G1 X34.386 Y17.552 Z1.225 F1000
G1 X34.527 Y17.485 Z1.225 F1000
G1 X34.661 Y17.405 Z1.225 F1000
G1 X34.786 Y17.312 Z1.225 F1000
G1 X34.901 Y17.208 Z1.225 F1000
G1 X34.986 Y17.123 Z1.225 F1000
G1 X35.090 Y17.007 Z1.225 F1000
G1 X35.183 Y16.882 Z1.225 F1000
G1 X35.263 Y16.749 Z1.225 F1000
G1 X35.330 Y16.608 Z1.225 F1000
G1 X35.382 Y16.461 Z1.225 F1000
G1 X35.420 Y16.310 Z1.225 F1000
G1 X35.443 Y16.156 Z1.225 F1000
G1 X35.451 Y16.000 Z1.225 F1000
G1 X35.451 Y8.043 Z1.225 F1000
G1 X35.459 Y7.972 Z1.225 F1000
G1 X35.482 Y7.905 Z1.225 F1000
G1 X35.520 Y7.845 Z1.225 F1000
G1 X35.570 Y7.794 Z1.225 F1000
G1 X35.631 Y7.756 Z1.225 F1000
G1 X35.698 Y7.733 Z1.225 F1000
G1 X35.768 Y7.725 Z1.225 F1000
G1 X36.086 Y7.725 Z1.225 F1000
G1 X36.156 Y7.725 Z1.233 F1000
G1 X36.224 Y7.725 Z1.257 F1000
G1 X36.284 Y7.725 Z1.295 F1000
G1 X36.334 Y7.725 Z1.345 F1000
G1 X36.372 Y7.725 Z1.405 F1000
G1 X36.395 Y7.725 Z1.472 F1000
G1 X36.403 Y7.725 Z1.543 F1000
G1 X36.403 Y7.725 Z6.825 F1000
G1 X36.403 Y8.360 Z6.825 F1000
G1 X36.403 Y8.360 Z1.860 F333.3
G1 X36.403 Y8.360 Z1.443 F333.3
G1 X36.395 Y8.360 Z1.372 F1000
G1 X36.372 Y8.360 Z1.305 F1000
G1 X36.334 Y8.360 Z1.245 F1000
G1 X36.284 Y8.360 Z1.195 F1000
G1 X36.224 Y8.360 Z1.157 F1000
G1 X36.156 Y8.360 Z1.133 F1000
G1 X36.086 Y8.360 Z1.125 F1000
G1 X35.768 Y8.360 Z1.125 F1000
G1 X35.698 Y8.352 Z1.125 F1000
G1 X35.631 Y8.329 Z1.125 F1000
G1 X35.570 Y8.291 Z1.125 F1000
G1 X35.520 Y8.241 Z1.125 F1000
G1 X35.482 Y8.180 Z1.125 F1000
G1 X35.459 Y8.113 Z1.125 F1000
G1 X35.451 Y8.043 Z1.125 F1000
G1 X35.451 Y0.085 Z1.125 F1000
G1 X35.443 Y-0.071 Z1.125 F1000
G1 X35.420 Y-0.225 Z1.125 F1000
G1 X35.382 Y-0.376 Z1.125 F1000
G1 X35.330 Y-0.523 Z1.125 F1000
G1 X35.263 Y-0.664 Z1.125 F1000
G1 X35.183 Y-0.798 Z1.125 F1000
G1 X35.090 Y-0.923 Z1.125 F1000
G1 X34.986 Y-1.038 Z1.125 F1000
G1 X34.901 Y-1.123 Z1.125 F1000
G1 X34.785 Y-1.227 Z1.125 F1000
G1 X34.660 Y-1.320 Z1.125 F1000
G1 X34.527 Y-1.400 Z1.125 F1000
G1 X34.386 Y-1.467 Z1.125 F1000
G1 X34.239 Y-1.519 Z1.125 F1000
G1 X34.088 Y-1.557 Z1.125 F1000
G1 X33.934 Y-1.580 Z1.125 F1000
G1 X33.779 Y-1.587 Z1.125 F1000
G1 X0.085 Y-1.587 Z1.125 F1000
G1 X-0.071 Y-1.580 Z1.125 F1000
G1 X-0.225 Y-1.557 Z1.125 F1000
G1 X-0.376 Y-1.519 Z1.125 F1000
G1 X-0.523 Y-1.467 Z1.125 F1000
G1 X-0.664 Y-1.400 Z1.125 F1000
G1 X-0.797 Y-1.320 Z1.125 F1000
G1 X-0.922 Y-1.227 Z1.125 F1000
G1 X-1.038 Y-1.123 Z1.125 F1000
G1 X-1.123 Y-1.038 Z1.125 F1000
G1 X-1.227 Y-0.922 Z1.125 F1000
G1 X-1.320 Y-0.797 Z1.125 F1000
G1 X-1.400 Y-0.664 Z1.125 F1000
G1 X-1.467 Y-0.523 Z1.125 F1000
G1 X-1.519 Y-0.376 Z1.125 F1000
G1 X-1.557 Y-0.225 Z1.125 F1000
G1 X-1.580 Y-0.071 Z1.125 F1000
G1 X-1.587 Y0.085 Z1.125 F1000
G1 X-1.587 Y16.000 Z1.125 F1000
G1 X-1.580 Y16.156 Z1.125 F1000
G1 X-1.557 Y16.310 Z1.125 F1000
G1 X-1.519 Y16.461 Z1.125 F1000
G1 X-1.467 Y16.608 Z1.125 F1000
G1 X-1.400 Y16.749 Z1.125 F1000
G1 X-1.320 Y16.882 Z1.125 F1000
G1 X-1.227 Y17.007 Z1.125 F1000
G1 X-1.123 Y17.123 Z1.125 F1000
G1 X-1.038 Y17.207 Z1.125 F1000
G1 X-0.923 Y17.312 Z1.125 F1000
G1 X-0.798 Y17.405 Z1.125 F1000
G1 X-0.664 Y17.485 Z1.125 F1000
G1 X-0.523 Y17.552 Z1.125 F1000
G1 X-0.376 Y17.604 Z1.125 F1000
G1 X-0.225 Y17.642 Z1.125 F1000
G1 X-0.071 Y17.665 Z1.125 F1000
G1 X0.085 Y17.673 Z1.125 F1000
G1 X33.779 Y17.673 Z1.125 F1000
G1 X33.934 Y17.665 Z1.125 F1000
G1 X34.088 Y17.642 Z1.125 F1000
G1 X34.239 Y17.604 Z1.125 F1000
G1 X34.386 Y17.552 Z1.125 F1000
G1 X34.527 Y17.485 Z1.125 F1000
G1 X34.661 Y17.405 Z1.125 F1000
G1 X34.786 Y17.312 Z1.125 F1000
G1 X34.901 Y17.208 Z1.125 F1000
G1 X34.986 Y17.123 Z1.125 F1000
G1 X35.090 Y17.007 Z1.125 F1000
G1 X35.183 Y16.882 Z1.125 F1000
G1 X35.263 Y16.749 Z1.125 F1000
G1 X35.330 Y16.608 Z1.125 F1000
G1 X35.382 Y16.461 Z1.125 F1000
G1 X35.420 Y16.310 Z1.125 F1000
G1 X35.443 Y16.156 Z1.125 F1000
G1 X35.451 Y16.000 Z1.125 F1000
G1 X35.451 Y8.043 Z1.125 F1000
G1 X35.459 Y7.972 Z1.125 F1000
G1 X35.482 Y7.905 Z1.125 F1000
G1 X35.520 Y7.845 Z1.125 F1000
G1 X35.570 Y7.794 Z1.125 F1000
G1 X35.631 Y7.756 Z1.125 F1000
G1 X35.698 Y7.733 Z1.125 F1000
G1 X35.768 Y7.725 Z1.125 F1000
G1 X36.086 Y7.725 Z1.125 F1000
G1 X36.156 Y7.725 Z1.133 F1000
G1 X36.224 Y7.725 Z1.157 F1000
G1 X36.284 Y7.725 Z1.195 F1000
G1 X36.334 Y7.725 Z1.245 F1000
G1 X36.372 Y7.725 Z1.305 F1000
G1 X36.395 Y7.725 Z1.372 F1000
G1 X36.403 Y7.725 Z1.443 F1000
G1 X36.403 Y7.725 Z6.825 F1000
G1 X36.403 Y8.360 Z6.825 F1000
G1 X36.403 Y8.360 Z1.760 F333.3
G1 X36.403 Y8.360 Z1.343 F333.3
G1 X36.395 Y8.360 Z1.272 F1000
G1 X36.372 Y8.360 Z1.205 F1000
G1 X36.334 Y8.360 Z1.145 F1000
G1 X36.284 Y8.360 Z1.095 F1000
G1 X36.224 Y8.360 Z1.057 F1000
G1 X36.156 Y8.360 Z1.033 F1000
G1 X36.086 Y8.360 Z1.025 F1000
G1 X35.768 Y8.360 Z1.025 F1000
G1 X35.698 Y8.352 Z1.025 F1000
G1 X35.631 Y8.329 Z1.025 F1000
G1 X35.570 Y8.291 Z1.025 F1000
G1 X35.520 Y8.241 Z1.025 F1000
G1 X35.482 Y8.180 Z1.025 F1000
G1 X35.459 Y8.113 Z1.025 F1000
G1 X35.451 Y8.043 Z1.025 F1000
G1 X35.451 Y0.085 Z1.025 F1000
G1 X35.443 Y-0.071 Z1.025 F1000
G1 X35.420 Y-0.225 Z1.025 F1000
G1 X35.382 Y-0.376 Z1.025 F1000
G1 X35.330 Y-0.523 Z1.025 F1000
G1 X35.263 Y-0.664 Z1.025 F1000
G1 X35.183 Y-0.798 Z1.025 F1000
G1 X35.090 Y-0.923 Z1.025 F1000
G1 X34.986 Y-1.038 Z1.025 F1000
G1 X34.901 Y-1.123 Z1.025 F1000
G1 X34.785 Y-1.227 Z1.025 F1000
G1 X34.660 Y-1.320 Z1.025 F1000
G1 X34.527 Y-1.400 Z1.025 F1000
G1 X34.386 Y-1.467 Z1.025 F1000
G1 X34.239 Y-1.519 Z1.025 F1000
G1 X34.088 Y-1.557 Z1.025 F1000
G1 X33.934 Y-1.580 Z1.025 F1000
G1 X33.779 Y-1.587 Z1.025 F1000
G1 X0.085 Y-1.587 Z1.025 F1000
G1 X-0.071 Y-1.580 Z1.025 F1000
G1 X-0.225 Y-1.557 Z1.025 F1000
G1 X-0.376 Y-1.519 Z1.025 F1000
G1 X-0.523 Y-1.467 Z1.025 F1000
G1 X-0.664 Y-1.400 Z1.025 F1000
G1 X-0.797 Y-1.320 Z1.025 F1000
G1 X-0.922 Y-1.227 Z1.025 F1000
G1 X-1.038 Y-1.123 Z1.025 F1000
G1 X-1.123 Y-1.038 Z1.025 F1000
G1 X-1.227 Y-0.922 Z1.025 F1000
G1 X-1.320 Y-0.797 Z1.025 F1000
G1 X-1.400 Y-0.664 Z1.025 F1000
G1 X-1.467 Y-0.523 Z1.025 F1000
G1 X-1.519 Y-0.376 Z1.025 F1000
G1 X-1.557 Y-0.225 Z1.025 F1000
G1 X-1.580 Y-0.071 Z1.025 F1000
G1 X-1.587 Y0.085 Z1.025 F1000
G1 X-1.587 Y16.000 Z1.025 F1000
G1 X-1.580 Y16.156 Z1.025 F1000
G1 X-1.557 Y16.310 Z1.025 F1000
G1 X-1.519 Y16.461 Z1.025 F1000
G1 X-1.467 Y16.608 Z1.025 F1000
G1 X-1.400 Y16.749 Z1.025 F1000
G1 X-1.320 Y16.882 Z1.025 F1000
G1 X-1.227 Y17.007 Z1.025 F1000
G1 X-1.123 Y17.123 Z1.025 F1000
G1 X-1.038 Y17.207 Z1.025 F1000
G1 X-0.923 Y17.312 Z1.025 F1000
G1 X-0.798 Y17.405 Z1.025 F1000
G1 X-0.664 Y17.485 Z1.025 F1000
G1 X-0.523 Y17.552 Z1.025 F1000
G1 X-0.376 Y17.604 Z1.025 F1000
G1 X-0.225 Y17.642 Z1.025 F1000
G1 X-0.071 Y17.665 Z1.025 F1000
G1 X0.085 Y17.673 Z1.025 F1000
G1 X33.779 Y17.673 Z1.025 F1000
G1 X33.934 Y17.665 Z1.025 F1000
G1 X34.088 Y17.642 Z1.025 F1000
G1 X34.239 Y17.604 Z1.025 F1000
G1 X34.386 Y17.552 Z1.025 F1000
G1 X34.527 Y17.485 Z1.025 F1000
G1 X34.661 Y17.405 Z1.025 F1000
G1 X34.786 Y17.312 Z1.025 F1000
G1 X34.901 Y17.208 Z1.025 F1000
G1 X34.986 Y17.123 Z1.025 F1000
G1 X35.090 Y17.007 Z1.025 F1000
G1 X35.183 Y16.882 Z1.025 F1000
G1 X35.263 Y16.749 Z1.025 F1000
G1 X35.330 Y16.608 Z1.025 F1000
G1 X35.382 Y16.461 Z1.025 F1000
G1 X35.420 Y16.310 Z1.025 F1000
G1 X35.443 Y16.156 Z1.025 F1000
G1 X35.451 Y16.000 Z1.025 F1000
G1 X35.451 Y8.043 Z1.025 F1000
G1 X35.459 Y7.972 Z1.025 F1000
G1 X35.482 Y7.905 Z1.025 F1000
G1 X35.520 Y7.845 Z1.025 F1000
G1 X35.570 Y7.794 Z1.025 F1000
G1 X35.631 Y7.756 Z1.025 F1000
G1 X35.698 Y7.733 Z1.025 F1000
G1 X35.768 Y7.725 Z1.025 F1000
G1 X36.086 Y7.725 Z1.025 F1000
G1 X36.156 Y7.725 Z1.033 F1000
G1 X36.224 Y7.725 Z1.057 F1000
G1 X36.284 Y7.725 Z1.095 F1000
G1 X36.334 Y7.725 Z1.145 F1000
G1 X36.372 Y7.725 Z1.205 F1000
G1 X36.395 Y7.725 Z1.272 F1000
G1 X36.403 Y7.725 Z1.343 F1000
G1 X36.403 Y7.725 Z6.825 F1000
G1 X36.403 Y8.360 Z6.825 F1000
G1 X36.403 Y8.360 Z1.660 F333.3
G1 X36.403 Y8.360 Z1.243 F333.3
G1 X36.395 Y8.360 Z1.172 F1000
G1 X36.372 Y8.360 Z1.105 F1000
G1 X36.334 Y8.360 Z1.045 F1000
G1 X36.284 Y8.360 Z0.995 F1000
G1 X36.224 Y8.360 Z0.957 F1000
G1 X36.156 Y8.360 Z0.933 F1000
G1 X36.086 Y8.360 Z0.925 F1000
G1 X35.768 Y8.360 Z0.925 F1000
G1 X35.698 Y8.352 Z0.925 F1000
G1 X35.631 Y8.329 Z0.925 F1000
G1 X35.570 Y8.291 Z0.925 F1000
G1 X35.520 Y8.241 Z0.925 F1000
G1 X35.482 Y8.180 Z0.925 F1000
G1 X35.459 Y8.113 Z0.925 F1000
G1 X35.451 Y8.043 Z0.925 F1000
G1 X35.451 Y0.085 Z0.925 F1000
G1 X35.443 Y-0.071 Z0.925 F1000
G1 X35.420 Y-0.225 Z0.925 F1000
G1 X35.382 Y-0.376 Z0.925 F1000
G1 X35.330 Y-0.523 Z0.925 F1000
G1 X35.263 Y-0.664 Z0.925 F1000
G1 X35.183 Y-0.798 Z0.925 F1000
G1 X35.090 Y-0.923 Z0.925 F1000
G1 X34.986 Y-1.038 Z0.925 F1000
G1 X34.901 Y-1.123 Z0.925 F1000
G1 X34.785 Y-1.227 Z0.925 F1000
G1 X34.660 Y-1.320 Z0.925 F1000
G1 X34.527 Y-1.400 Z0.925 F1000
G1 X34.386 Y-1.467 Z0.925 F1000
G1 X34.239 Y-1.519 Z0.925 F1000
G1 X34.088 Y-1.557 Z0.925 F1000
G1 X33.934 Y-1.580 Z0.925 F1000
G1 X33.779 Y-1.587 Z0.925 F1000
G1 X0.085 Y-1.587 Z0.925 F1000
G1 X-0.071 Y-1.580 Z0.925 F1000
G1 X-0.225 Y-1.557 Z0.925 F1000
G1 X-0.376 Y-1.519 Z0.925 F1000
G1 X-0.523 Y-1.467 Z0.925 F1000
G1 X-0.664 Y-1.400 Z0.925 F1000
G1 X-0.797 Y-1.320 Z0.925 F1000
G1 X-0.922 Y-1.227 Z0.925 F1000
G1 X-1.038 Y-1.123 Z0.925 F1000
G1 X-1.123 Y-1.038 Z0.925 F1000
G1 X-1.227 Y-0.922 Z0.925 F1000
G1 X-1.320 Y-0.797 Z0.925 F1000
G1 X-1.400 Y-0.664 Z0.925 F1000
G1 X-1.467 Y-0.523 Z0.925 F1000
G1 X-1.519 Y-0.376 Z0.925 F1000
G1 X-1.557 Y-0.225 Z0.925 F1000
G1 X-1.580 Y-0.071 Z0.925 F1000
G1 X-1.587 Y0.085 Z0.925 F1000
G1 X-1.587 Y16.000 Z0.925 F1000
G1 X-1.580 Y16.156 Z0.925 F1000
G1 X-1.557 Y16.310 Z0.925 F1000
G1 X-1.519 Y16.461 Z0.925 F1000
G1 X-1.467 Y16.608 Z0.925 F1000
G1 X-1.400 Y16.749 Z0.925 F1000
G1 X-1.320 Y16.882 Z0.925 F1000
G1 X-1.227 Y17.007 Z0.925 F1000
G1 X-1.123 Y17.123 Z0.925 F1000
G1 X-1.038 Y17.207 Z0.925 F1000
G1 X-0.923 Y17.312 Z0.925 F1000
G1 X-0.798 Y17.405 Z0.925 F1000
G1 X-0.664 Y17.485 Z0.925 F1000
G1 X-0.523 Y17.552 Z0.925 F1000
G1 X-0.376 Y17.604 Z0.925 F1000
G1 X-0.225 Y17.642 Z0.925 F1000
G1 X-0.071 Y17.665 Z0.925 F1000
G1 X0.085 Y17.673 Z0.925 F1000
G1 X33.779 Y17.673 Z0.925 F1000
G1 X33.934 Y17.665 Z0.925 F1000
G1 X34.088 Y17.642 Z0.925 F1000
G1 X34.239 Y17.604 Z0.925 F1000
G1 X34.386 Y17.552 Z0.925 F1000
G1 X34.527 Y17.485 Z0.925 F1000
G1 X34.661 Y17.405 Z0.925 F1000
G1 X34.786 Y17.312 Z0.925 F1000
G1 X34.901 Y17.208 Z0.925 F1000
G1 X34.986 Y17.123 Z0.925 F1000
G1 X35.090 Y17.007 Z0.925 F1000
G1 X35.183 Y16.882 Z0.925 F1000
G1 X35.263 Y16.749 Z0.925 F1000
G1 X35.330 Y16.608 Z0.925 F1000
G1 X35.382 Y16.461 Z0.925 F1000
G1 X35.420 Y16.310 Z0.925 F1000
G1 X35.443 Y16.156 Z0.925 F1000
G1 X35.451 Y16.000 Z0.925 F1000
G1 X35.451 Y8.043 Z0.925 F1000
G1 X35.459 Y7.972 Z0.925 F1000
G1 X35.482 Y7.905 Z0.925 F1000
G1 X35.520 Y7.845 Z0.925 F1000
G1 X35.570 Y7.794 Z0.925 F1000
G1 X35.631 Y7.756 Z0.925 F1000
G1 X35.698 Y7.733 Z0.925 F1000
G1 X35.768 Y7.725 Z0.925 F1000
G1 X36.086 Y7.725 Z0.925 F1000
G1 X36.156 Y7.725 Z0.933 F1000
G1 X36.224 Y7.725 Z0.957 F1000
G1 X36.284 Y7.725 Z0.995 F1000
G1 X36.334 Y7.725 Z1.045 F1000
G1 X36.372 Y7.725 Z1.105 F1000
G1 X36.395 Y7.725 Z1.172 F1000
G1 X36.403 Y7.725 Z1.243 F1000
G1 X36.403 Y7.725 Z6.825 F1000
G1 X36.403 Y8.360 Z6.825 F1000
G1 X36.403 Y8.360 Z1.560 F333.3
G1 X36.403 Y8.360 Z1.143 F333.3
G1 X36.395 Y8.360 Z1.072 F1000
G1 X36.372 Y8.360 Z1.005 F1000
G1 X36.334 Y8.360 Z0.945 F1000
G1 X36.284 Y8.360 Z0.895 F1000
G1 X36.224 Y8.360 Z0.857 F1000
G1 X36.156 Y8.360 Z0.833 F1000
G1 X36.086 Y8.360 Z0.825 F1000
G1 X35.768 Y8.360 Z0.825 F1000
G1 X35.698 Y8.352 Z0.825 F1000
G1 X35.631 Y8.329 Z0.825 F1000
G1 X35.570 Y8.291 Z0.825 F1000
G1 X35.520 Y8.241 Z0.825 F1000
G1 X35.482 Y8.180 Z0.825 F1000
G1 X35.459 Y8.113 Z0.825 F1000
G1 X35.451 Y8.043 Z0.825 F1000
G1 X35.451 Y0.085 Z0.825 F1000
G1 X35.443 Y-0.071 Z0.825 F1000
G1 X35.420 Y-0.225 Z0.825 F1000
G1 X35.382 Y-0.376 Z0.825 F1000
G1 X35.330 Y-0.523 Z0.825 F1000
G1 X35.263 Y-0.664 Z0.825 F1000
G1 X35.183 Y-0.798 Z0.825 F1000
G1 X35.090 Y-0.923 Z0.825 F1000
G1 X34.986 Y-1.038 Z0.825 F1000
G1 X34.901 Y-1.123 Z0.825 F1000
G1 X34.785 Y-1.227 Z0.825 F1000
G1 X34.660 Y-1.320 Z0.825 F1000
G1 X34.527 Y-1.400 Z0.825 F1000
G1 X34.386 Y-1.467 Z0.825 F1000
G1 X34.239 Y-1.519 Z0.825 F1000
G1 X34.088 Y-1.557 Z0.825 F1000
G1 X33.934 Y-1.580 Z0.825 F1000
G1 X33.779 Y-1.587 Z0.825 F1000
G1 X0.085 Y-1.587 Z0.825 F1000
G1 X-0.071 Y-1.580 Z0.825 F1000
G1 X-0.225 Y-1.557 Z0.825 F1000
G1 X-0.376 Y-1.519 Z0.825 F1000
G1 X-0.523 Y-1.467 Z0.825 F1000
G1 X-0.664 Y-1.400 Z0.825 F1000
G1 X-0.797 Y-1.320 Z0.825 F1000
G1 X-0.922 Y-1.227 Z0.825 F1000
G1 X-1.038 Y-1.123 Z0.825 F1000
G1 X-1.123 Y-1.038 Z0.825 F1000
G1 X-1.227 Y-0.922 Z0.825 F1000
G1 X-1.320 Y-0.797 Z0.825 F1000
G1 X-1.400 Y-0.664 Z0.825 F1000
G1 X-1.467 Y-0.523 Z0.825 F1000
G1 X-1.519 Y-0.376 Z0.825 F1000
G1 X-1.557 Y-0.225 Z0.825 F1000
G1 X-1.580 Y-0.071 Z0.825 F1000
G1 X-1.587 Y0.085 Z0.825 F1000
G1 X-1.587 Y16.000 Z0.825 F1000
G1 X-1.580 Y16.156 Z0.825 F1000
G1 X-1.557 Y16.310 Z0.825 F1000
G1 X-1.519 Y16.461 Z0.825 F1000
G1 X-1.467 Y16.608 Z0.825 F1000
G1 X-1.400 Y16.749 Z0.825 F1000
G1 X-1.320 Y16.882 Z0.825 F1000
G1 X-1.227 Y17.007 Z0.825 F1000
G1 X-1.123 Y17.123 Z0.825 F1000
G1 X-1.038 Y17.207 Z0.825 F1000
G1 X-0.923 Y17.312 Z0.825 F1000
G1 X-0.798 Y17.405 Z0.825 F1000
G1 X-0.664 Y17.485 Z0.825 F1000
G1 X-0.523 Y17.552 Z0.825 F1000
G1 X-0.376 Y17.604 Z0.825 F1000
G1 X-0.225 Y17.642 Z0.825 F1000
G1 X-0.071 Y17.665 Z0.825 F1000
G1 X0.085 Y17.673 Z0.825 F1000
G1 X33.779 Y17.673 Z0.825 F1000
G1 X33.934 Y17.665 Z0.825 F1000
G1 X34.088 Y17.642 Z0.825 F1000
G1 X34.239 Y17.604 Z0.825 F1000
G1 X34.386 Y17.552 Z0.825 F1000
G1 X34.527 Y17.485 Z0.825 F1000
G1 X34.661 Y17.405 Z0.825 F1000
G1 X34.786 Y17.312 Z0.825 F1000
G1 X34.901 Y17.208 Z0.825 F1000
G1 X34.986 Y17.123 Z0.825 F1000
G1 X35.090 Y17.007 Z0.825 F1000
G1 X35.183 Y16.882 Z0.825 F1000
G1 X35.263 Y16.749 Z0.825 F1000
G1 X35.330 Y16.608 Z0.825 F1000
G1 X35.382 Y16.461 Z0.825 F1000
G1 X35.420 Y16.310 Z0.825 F1000
G1 X35.443 Y16.156 Z0.825 F1000
G1 X35.451 Y16.000 Z0.825 F1000
G1 X35.451 Y8.043 Z0.825 F1000
G1 X35.459 Y7.972 Z0.825 F1000
G1 X35.482 Y7.905 Z0.825 F1000
G1 X35.520 Y7.845 Z0.825 F1000
G1 X35.570 Y7.794 Z0.825 F1000
G1 X35.631 Y7.756 Z0.825 F1000
G1 X35.698 Y7.733 Z0.825 F1000
G1 X35.768 Y7.725 Z0.825 F1000
G1 X36.086 Y7.725 Z0.825 F1000
G1 X36.156 Y7.725 Z0.833 F1000
G1 X36.224 Y7.725 Z0.857 F1000
G1 X36.284 Y7.725 Z0.895 F1000
G1 X36.334 Y7.725 Z0.945 F1000
G1 X36.372 Y7.725 Z1.005 F1000
G1 X36.395 Y7.725 Z1.072 F1000
G1 X36.403 Y7.725 Z1.143 F1000
G1 X36.403 Y7.725 Z6.825 F1000
G1 X36.403 Y8.360 Z6.825 F1000
G1 X36.403 Y8.360 Z1.460 F333.3
G1 X36.403 Y8.360 Z1.043 F333.3
G1 X36.395 Y8.360 Z0.972 F1000
G1 X36.372 Y8.360 Z0.905 F1000
G1 X36.334 Y8.360 Z0.845 F1000
G1 X36.284 Y8.360 Z0.795 F1000
G1 X36.224 Y8.360 Z0.757 F1000
G1 X36.156 Y8.360 Z0.733 F1000
G1 X36.086 Y8.360 Z0.725 F1000
G1 X35.768 Y8.360 Z0.725 F1000
G1 X35.698 Y8.352 Z0.725 F1000
G1 X35.631 Y8.329 Z0.725 F1000
G1 X35.570 Y8.291 Z0.725 F1000
G1 X35.520 Y8.241 Z0.725 F1000
G1 X35.482 Y8.180 Z0.725 F1000
G1 X35.459 Y8.113 Z0.725 F1000
G1 X35.451 Y8.043 Z0.725 F1000
G1 X35.451 Y0.085 Z0.725 F1000
G1 X35.443 Y-0.071 Z0.725 F1000
G1 X35.420 Y-0.225 Z0.725 F1000
G1 X35.382 Y-0.376 Z0.725 F1000
G1 X35.330 Y-0.523 Z0.725 F1000
G1 X35.263 Y-0.664 Z0.725 F1000
G1 X35.183 Y-0.798 Z0.725 F1000
G1 X35.090 Y-0.923 Z0.725 F1000
G1 X34.986 Y-1.038 Z0.725 F1000
G1 X34.901 Y-1.123 Z0.725 F1000
G1 X34.785 Y-1.227 Z0.725 F1000
G1 X34.660 Y-1.320 Z0.725 F1000
G1 X34.527 Y-1.400 Z0.725 F1000
G1 X34.386 Y-1.467 Z0.725 F1000
G1 X34.239 Y-1.519 Z0.725 F1000
G1 X34.088 Y-1.557 Z0.725 F1000
G1 X33.934 Y-1.580 Z0.725 F1000
G1 X33.779 Y-1.587 Z0.725 F1000
G1 X0.085 Y-1.587 Z0.725 F1000
G1 X-0.071 Y-1.580 Z0.725 F1000
G1 X-0.225 Y-1.557 Z0.725 F1000
G1 X-0.376 Y-1.519 Z0.725 F1000
G1 X-0.523 Y-1.467 Z0.725 F1000
G1 X-0.664 Y-1.400 Z0.725 F1000
G1 X-0.797 Y-1.320 Z0.725 F1000
G1 X-0.922 Y-1.227 Z0.725 F1000
G1 X-1.038 Y-1.123 Z0.725 F1000
G1 X-1.123 Y-1.038 Z0.725 F1000
G1 X-1.227 Y-0.922 Z0.725 F1000
G1 X-1.320 Y-0.797 Z0.725 F1000
G1 X-1.400 Y-0.664 Z0.725 F1000
G1 X-1.467 Y-0.523 Z0.725 F1000
G1 X-1.519 Y-0.376 Z0.725 F1000
G1 X-1.557 Y-0.225 Z0.725 F1000
G1 X-1.580 Y-0.071 Z0.725 F1000
G1 X-1.587 Y0.085 Z0.725 F1000
G1 X-1.587 Y16.000 Z0.725 F1000
G1 X-1.580 Y16.156 Z0.725 F1000
G1 X-1.557 Y16.310 Z0.725 F1000
G1 X-1.519 Y16.461 Z0.725 F1000
G1 X-1.467 Y16.608 Z0.725 F1000
G1 X-1.400 Y16.749 Z0.725 F1000
G1 X-1.320 Y16.882 Z0.725 F1000
G1 X-1.227 Y17.007 Z0.725 F1000
G1 X-1.123 Y17.123 Z0.725 F1000
G1 X-1.038 Y17.207 Z0.725 F1000
G1 X-0.923 Y17.312 Z0.725 F1000
G1 X-0.798 Y17.405 Z0.725 F1000
G1 X-0.664 Y17.485 Z0.725 F1000
G1 X-0.523 Y17.552 Z0.725 F1000
G1 X-0.376 Y17.604 Z0.725 F1000
G1 X-0.225 Y17.642 Z0.725 F1000
G1 X-0.071 Y17.665 Z0.725 F1000
G1 X0.085 Y17.673 Z0.725 F1000
G1 X33.779 Y17.673 Z0.725 F1000
G1 X33.934 Y17.665 Z0.725 F1000
G1 X34.088 Y17.642 Z0.725 F1000
G1 X34.239 Y17.604 Z0.725 F1000
G1 X34.386 Y17.552 Z0.725 F1000
G1 X34.527 Y17.485 Z0.725 F1000
G1 X34.661 Y17.405 Z0.725 F1000
G1 X34.786 Y17.312 Z0.725 F1000
G1 X34.901 Y17.208 Z0.725 F1000
G1 X34.986 Y17.123 Z0.725 F1000
G1 X35.090 Y17.007 Z0.725 F1000
G1 X35.183 Y16.882 Z0.725 F1000
G1 X35.263 Y16.749 Z0.725 F1000
G1 X35.330 Y16.608 Z0.725 F1000
G1 X35.382 Y16.461 Z0.725 F1000
G1 X35.420 Y16.310 Z0.725 F1000
G1 X35.443 Y16.156 Z0.725 F1000
G1 X35.451 Y16.000 Z0.725 F1000
G1 X35.451 Y8.043 Z0.725 F1000
G1 X35.459 Y7.972 Z0.725 F1000
G1 X35.482 Y7.905 Z0.725 F1000
G1 X35.520 Y7.845 Z0.725 F1000
G1 X35.570 Y7.794 Z0.725 F1000
G1 X35.631 Y7.756 Z0.725 F1000
G1 X35.698 Y7.733 Z0.725 F1000
G1 X35.768 Y7.725 Z0.725 F1000
G1 X36.086 Y7.725 Z0.725 F1000
G1 X36.156 Y7.725 Z0.733 F1000
G1 X36.224 Y7.725 Z0.757 F1000
G1 X36.284 Y7.725 Z0.795 F1000
G1 X36.334 Y7.725 Z0.845 F1000
G1 X36.372 Y7.725 Z0.905 F1000
G1 X36.395 Y7.725 Z0.972 F1000
G1 X36.403 Y7.725 Z1.043 F1000
G1 X36.403 Y7.725 Z6.825 F1000
G1 X36.403 Y8.360 Z6.825 F1000
G1 X36.403 Y8.360 Z1.360 F333.3
G1 X36.403 Y8.360 Z0.943 F333.3
G1 X36.395 Y8.360 Z0.872 F1000
G1 X36.372 Y8.360 Z0.805 F1000
G1 X36.334 Y8.360 Z0.745 F1000
G1 X36.284 Y8.360 Z0.695 F1000
G1 X36.224 Y8.360 Z0.657 F1000
G1 X36.156 Y8.360 Z0.633 F1000
G1 X36.086 Y8.360 Z0.625 F1000
G1 X35.768 Y8.360 Z0.625 F1000
G1 X35.698 Y8.352 Z0.625 F1000
G1 X35.631 Y8.329 Z0.625 F1000
G1 X35.570 Y8.291 Z0.625 F1000
G1 X35.520 Y8.241 Z0.625 F1000
G1 X35.482 Y8.180 Z0.625 F1000
G1 X35.459 Y8.113 Z0.625 F1000
G1 X35.451 Y8.043 Z0.625 F1000
G1 X35.451 Y0.085 Z0.625 F1000
G1 X35.443 Y-0.071 Z0.625 F1000
G1 X35.420 Y-0.225 Z0.625 F1000
G1 X35.382 Y-0.376 Z0.625 F1000
G1 X35.330 Y-0.523 Z0.625 F1000
G1 X35.263 Y-0.664 Z0.625 F1000
G1 X35.183 Y-0.798 Z0.625 F1000
G1 X35.090 Y-0.923 Z0.625 F1000
G1 X34.986 Y-1.038 Z0.625 F1000
G1 X34.901 Y-1.123 Z0.625 F1000
G1 X34.785 Y-1.227 Z0.625 F1000
G1 X34.660 Y-1.320 Z0.625 F1000
G1 X34.527 Y-1.400 Z0.625 F1000
G1 X34.386 Y-1.467 Z0.625 F1000
G1 X34.239 Y-1.519 Z0.625 F1000
G1 X34.088 Y-1.557 Z0.625 F1000
G1 X33.934 Y-1.580 Z0.625 F1000
G1 X33.779 Y-1.587 Z0.625 F1000
G1 X0.085 Y-1.587 Z0.625 F1000
G1 X-0.071 Y-1.580 Z0.625 F1000
G1 X-0.225 Y-1.557 Z0.625 F1000
G1 X-0.376 Y-1.519 Z0.625 F1000
G1 X-0.523 Y-1.467 Z0.625 F1000
G1 X-0.664 Y-1.400 Z0.625 F1000
G1 X-0.797 Y-1.320 Z0.625 F1000
G1 X-0.922 Y-1.227 Z0.625 F1000
G1 X-1.038 Y-1.123 Z0.625 F1000
G1 X-1.123 Y-1.038 Z0.625 F1000
G1 X-1.227 Y-0.922 Z0.625 F1000
G1 X-1.320 Y-0.797 Z0.625 F1000
G1 X-1.400 Y-0.664 Z0.625 F1000
G1 X-1.467 Y-0.523 Z0.625 F1000
G1 X-1.519 Y-0.376 Z0.625 F1000
G1 X-1.557 Y-0.225 Z0.625 F1000
G1 X-1.580 Y-0.071 Z0.625 F1000
G1 X-1.587 Y0.085 Z0.625 F1000
G1 X-1.587 Y16.000 Z0.625 F1000
G1 X-1.580 Y16.156 Z0.625 F1000
G1 X-1.557 Y16.310 Z0.625 F1000
G1 X-1.519 Y16.461 Z0.625 F1000
G1 X-1.467 Y16.608 Z0.625 F1000
G1 X-1.400 Y16.749 Z0.625 F1000
G1 X-1.320 Y16.882 Z0.625 F1000
G1 X-1.227 Y17.007 Z0.625 F1000
G1 X-1.123 Y17.123 Z0.625 F1000
G1 X-1.038 Y17.207 Z0.625 F1000
G1 X-0.923 Y17.312 Z0.625 F1000
G1 X-0.798 Y17.405 Z0.625 F1000
G1 X-0.664 Y17.485 Z0.625 F1000
G1 X-0.523 Y17.552 Z0.625 F1000
G1 X-0.376 Y17.604 Z0.625 F1000
G1 X-0.225 Y17.642 Z0.625 F1000
G1 X-0.071 Y17.665 Z0.625 F1000
G1 X0.085 Y17.673 Z0.625 F1000
G1 X33.779 Y17.673 Z0.625 F1000
G1 X33.934 Y17.665 Z0.625 F1000
G1 X34.088 Y17.642 Z0.625 F1000
G1 X34.239 Y17.604 Z0.625 F1000
G1 X34.386 Y17.552 Z0.625 F1000
G1 X34.527 Y17.485 Z0.625 F1000
G1 X34.661 Y17.405 Z0.625 F1000
G1 X34.786 Y17.312 Z0.625 F1000
G1 X34.901 Y17.208 Z0.625 F1000
G1 X34.986 Y17.123 Z0.625 F1000
G1 X35.090 Y17.007 Z0.625 F1000
G1 X35.183 Y16.882 Z0.625 F1000
G1 X35.263 Y16.749 Z0.625 F1000
G1 X35.330 Y16.608 Z0.625 F1000
G1 X35.382 Y16.461 Z0.625 F1000
G1 X35.420 Y16.310 Z0.625 F1000
G1 X35.443 Y16.156 Z0.625 F1000
G1 X35.451 Y16.000 Z0.625 F1000
G1 X35.451 Y8.043 Z0.625 F1000
G1 X35.459 Y7.972 Z0.625 F1000
G1 X35.482 Y7.905 Z0.625 F1000
G1 X35.520 Y7.845 Z0.625 F1000
G1 X35.570 Y7.794 Z0.625 F1000
G1 X35.631 Y7.756 Z0.625 F1000
G1 X35.698 Y7.733 Z0.625 F1000
G1 X35.768 Y7.725 Z0.625 F1000
G1 X36.086 Y7.725 Z0.625 F1000
G1 X36.156 Y7.725 Z0.633 F1000
G1 X36.224 Y7.725 Z0.657 F1000
G1 X36.284 Y7.725 Z0.695 F1000
G1 X36.334 Y7.725 Z0.745 F1000
G1 X36.372 Y7.725 Z0.805 F1000
G1 X36.395 Y7.725 Z0.872 F1000
G1 X36.403 Y7.725 Z0.943 F1000
G1 X36.403 Y7.725 Z6.825 F1000
G1 X36.403 Y8.360 Z6.825 F1000
G1 X36.403 Y8.360 Z1.260 F333.3
G1 X36.403 Y8.360 Z0.843 F333.3
G1 X36.395 Y8.360 Z0.772 F1000
G1 X36.372 Y8.360 Z0.705 F1000
G1 X36.334 Y8.360 Z0.645 F1000
G1 X36.284 Y8.360 Z0.595 F1000
G1 X36.224 Y8.360 Z0.557 F1000
G1 X36.156 Y8.360 Z0.533 F1000
G1 X36.086 Y8.360 Z0.525 F1000
G1 X35.768 Y8.360 Z0.525 F1000
G1 X35.698 Y8.352 Z0.525 F1000
G1 X35.631 Y8.329 Z0.525 F1000
G1 X35.570 Y8.291 Z0.525 F1000
G1 X35.520 Y8.241 Z0.525 F1000
G1 X35.482 Y8.180 Z0.525 F1000
G1 X35.459 Y8.113 Z0.525 F1000
G1 X35.451 Y8.043 Z0.525 F1000
G1 X35.451 Y0.085 Z0.525 F1000
G1 X35.443 Y-0.071 Z0.525 F1000
G1 X35.420 Y-0.225 Z0.525 F1000
G1 X35.382 Y-0.376 Z0.525 F1000
G1 X35.330 Y-0.523 Z0.525 F1000
G1 X35.263 Y-0.664 Z0.525 F1000
G1 X35.183 Y-0.798 Z0.525 F1000
G1 X35.090 Y-0.923 Z0.525 F1000
G1 X34.986 Y-1.038 Z0.525 F1000
G1 X34.901 Y-1.123 Z0.525 F1000
G1 X34.785 Y-1.227 Z0.525 F1000
G1 X34.660 Y-1.320 Z0.525 F1000
G1 X34.527 Y-1.400 Z0.525 F1000
G1 X34.386 Y-1.467 Z0.525 F1000
G1 X34.239 Y-1.519 Z0.525 F1000
G1 X34.088 Y-1.557 Z0.525 F1000
G1 X33.934 Y-1.580 Z0.525 F1000
G1 X33.779 Y-1.587 Z0.525 F1000
G1 X0.085 Y-1.587 Z0.525 F1000
G1 X-0.071 Y-1.580 Z0.525 F1000
G1 X-0.225 Y-1.557 Z0.525 F1000
G1 X-0.376 Y-1.519 Z0.525 F1000
G1 X-0.523 Y-1.467 Z0.525 F1000
G1 X-0.664 Y-1.400 Z0.525 F1000
G1 X-0.797 Y-1.320 Z0.525 F1000
G1 X-0.922 Y-1.227 Z0.525 F1000
G1 X-1.038 Y-1.123 Z0.525 F1000
G1 X-1.123 Y-1.038 Z0.525 F1000
G1 X-1.227 Y-0.922 Z0.525 F1000
G1 X-1.320 Y-0.797 Z0.525 F1000
G1 X-1.400 Y-0.664 Z0.525 F1000
G1 X-1.467 Y-0.523 Z0.525 F1000
G1 X-1.519 Y-0.376 Z0.525 F1000
G1 X-1.557 Y-0.225 Z0.525 F1000
G1 X-1.580 Y-0.071 Z0.525 F1000
G1 X-1.587 Y0.085 Z0.525 F1000
G1 X-1.587 Y16.000 Z0.525 F1000
G1 X-1.580 Y16.156 Z0.525 F1000
G1 X-1.557 Y16.310 Z0.525 F1000
G1 X-1.519 Y16.461 Z0.525 F1000
G1 X-1.467 Y16.608 Z0.525 F1000
G1 X-1.400 Y16.749 Z0.525 F1000
G1 X-1.320 Y16.882 Z0.525 F1000
G1 X-1.227 Y17.007 Z0.525 F1000
G1 X-1.123 Y17.123 Z0.525 F1000
G1 X-1.038 Y17.207 Z0.525 F1000
G1 X-0.923 Y17.312 Z0.525 F1000
G1 X-0.798 Y17.405 Z0.525 F1000
G1 X-0.664 Y17.485 Z0.525 F1000
G1 X-0.523 Y17.552 Z0.525 F1000
G1 X-0.376 Y17.604 Z0.525 F1000
G1 X-0.225 Y17.642 Z0.525 F1000
G1 X-0.071 Y17.665 Z0.525 F1000
G1 X0.085 Y17.673 Z0.525 F1000
G1 X33.779 Y17.673 Z0.525 F1000
G1 X33.934 Y17.665 Z0.525 F1000
G1 X34.088 Y17.642 Z0.525 F1000
G1 X34.239 Y17.604 Z0.525 F1000
G1 X34.386 Y17.552 Z0.525 F1000
G1 X34.527 Y17.485 Z0.525 F1000
G1 X34.661 Y17.405 Z0.525 F1000
G1 X34.786 Y17.312 Z0.525 F1000
G1 X34.901 Y17.208 Z0.525 F1000
G1 X34.986 Y17.123 Z0.525 F1000
G1 X35.090 Y17.007 Z0.525 F1000
G1 X35.183 Y16.882 Z0.525 F1000
G1 X35.263 Y16.749 Z0.525 F1000
G1 X35.330 Y16.608 Z0.525 F1000
G1 X35.382 Y16.461 Z0.525 F1000
G1 X35.420 Y16.310 Z0.525 F1000
G1 X35.443 Y16.156 Z0.525 F1000
G1 X35.451 Y16.000 Z0.525 F1000
G1 X35.451 Y8.043 Z0.525 F1000
G1 X35.459 Y7.972 Z0.525 F1000
G1 X35.482 Y7.905 Z0.525 F1000
G1 X35.520 Y7.845 Z0.525 F1000
G1 X35.570 Y7.794 Z0.525 F1000
G1 X35.631 Y7.756 Z0.525 F1000
G1 X35.698 Y7.733 Z0.525 F1000
G1 X35.768 Y7.725 Z0.525 F1000
G1 X36.086 Y7.725 Z0.525 F1000
G1 X36.156 Y7.725 Z0.533 F1000
G1 X36.224 Y7.725 Z0.557 F1000
G1 X36.284 Y7.725 Z0.595 F1000
G1 X36.334 Y7.725 Z0.645 F1000
G1 X36.372 Y7.725 Z0.705 F1000
G1 X36.395 Y7.725 Z0.772 F1000
G1 X36.403 Y7.725 Z0.843 F1000
G1 X36.403 Y7.725 Z6.825 F1000
G1 X36.403 Y8.360 Z6.825 F1000
G1 X36.403 Y8.360 Z1.160 F333.3
G1 X36.403 Y8.360 Z0.743 F333.3
G1 X36.395 Y8.360 Z0.672 F1000
G1 X36.372 Y8.360 Z0.605 F1000
G1 X36.334 Y8.360 Z0.545 F1000
G1 X36.284 Y8.360 Z0.495 F1000
G1 X36.224 Y8.360 Z0.457 F1000
G1 X36.156 Y8.360 Z0.433 F1000
G1 X36.086 Y8.360 Z0.425 F1000
G1 X35.768 Y8.360 Z0.425 F1000
G1 X35.698 Y8.352 Z0.425 F1000
G1 X35.631 Y8.329 Z0.425 F1000
G1 X35.570 Y8.291 Z0.425 F1000
G1 X35.520 Y8.241 Z0.425 F1000
G1 X35.482 Y8.180 Z0.425 F1000
G1 X35.459 Y8.113 Z0.425 F1000
G1 X35.451 Y8.043 Z0.425 F1000
G1 X35.451 Y0.085 Z0.425 F1000
G1 X35.443 Y-0.071 Z0.425 F1000
G1 X35.420 Y-0.225 Z0.425 F1000
G1 X35.382 Y-0.376 Z0.425 F1000
G1 X35.330 Y-0.523 Z0.425 F1000
G1 X35.263 Y-0.664 Z0.425 F1000
G1 X35.183 Y-0.798 Z0.425 F1000
G1 X35.090 Y-0.923 Z0.425 F1000
G1 X34.986 Y-1.038 Z0.425 F1000
G1 X34.901 Y-1.123 Z0.425 F1000
G1 X34.785 Y-1.227 Z0.425 F1000
G1 X34.660 Y-1.320 Z0.425 F1000
G1 X34.527 Y-1.400 Z0.425 F1000
G1 X34.386 Y-1.467 Z0.425 F1000
G1 X34.239 Y-1.519 Z0.425 F1000
G1 X34.088 Y-1.557 Z0.425 F1000
G1 X33.934 Y-1.580 Z0.425 F1000
G1 X33.779 Y-1.587 Z0.425 F1000
G1 X0.085 Y-1.587 Z0.425 F1000
G1 X-0.071 Y-1.580 Z0.425 F1000
G1 X-0.225 Y-1.557 Z0.425 F1000
G1 X-0.376 Y-1.519 Z0.425 F1000
G1 X-0.523 Y-1.467 Z0.425 F1000
G1 X-0.664 Y-1.400 Z0.425 F1000
G1 X-0.797 Y-1.320 Z0.425 F1000
G1 X-0.922 Y-1.227 Z0.425 F1000
G1 X-1.038 Y-1.123 Z0.425 F1000
G1 X-1.123 Y-1.038 Z0.425 F1000
G1 X-1.227 Y-0.922 Z0.425 F1000
G1 X-1.320 Y-0.797 Z0.425 F1000
G1 X-1.400 Y-0.664 Z0.425 F1000
G1 X-1.467 Y-0.523 Z0.425 F1000
G1 X-1.519 Y-0.376 Z0.425 F1000
G1 X-1.557 Y-0.225 Z0.425 F1000
G1 X-1.580 Y-0.071 Z0.425 F1000
G1 X-1.587 Y0.085 Z0.425 F1000
G1 X-1.587 Y16.000 Z0.425 F1000
G1 X-1.580 Y16.156 Z0.425 F1000
G1 X-1.557 Y16.310 Z0.425 F1000
G1 X-1.519 Y16.461 Z0.425 F1000
G1 X-1.467 Y16.608 Z0.425 F1000
G1 X-1.400 Y16.749 Z0.425 F1000
G1 X-1.320 Y16.882 Z0.425 F1000
G1 X-1.227 Y17.007 Z0.425 F1000
G1 X-1.123 Y17.123 Z0.425 F1000
G1 X-1.038 Y17.207 Z0.425 F1000
G1 X-0.923 Y17.312 Z0.425 F1000
G1 X-0.798 Y17.405 Z0.425 F1000
G1 X-0.664 Y17.485 Z0.425 F1000
G1 X-0.523 Y17.552 Z0.425 F1000
G1 X-0.376 Y17.604 Z0.425 F1000
G1 X-0.225 Y17.642 Z0.425 F1000
G1 X-0.071 Y17.665 Z0.425 F1000
G1 X0.085 Y17.673 Z0.425 F1000
G1 X33.779 Y17.673 Z0.425 F1000
G1 X33.934 Y17.665 Z0.425 F1000
G1 X34.088 Y17.642 Z0.425 F1000
G1 X34.239 Y17.604 Z0.425 F1000
G1 X34.386 Y17.552 Z0.425 F1000
G1 X34.527 Y17.485 Z0.425 F1000
G1 X34.661 Y17.405 Z0.425 F1000
G1 X34.786 Y17.312 Z0.425 F1000
G1 X34.901 Y17.208 Z0.425 F1000
G1 X34.986 Y17.123 Z0.425 F1000
G1 X35.090 Y17.007 Z0.425 F1000
G1 X35.183 Y16.882 Z0.425 F1000
G1 X35.263 Y16.749 Z0.425 F1000
G1 X35.330 Y16.608 Z0.425 F1000
G1 X35.382 Y16.461 Z0.425 F1000
G1 X35.420 Y16.310 Z0.425 F1000
G1 X35.443 Y16.156 Z0.425 F1000
G1 X35.451 Y16.000 Z0.425 F1000
G1 X35.451 Y8.043 Z0.425 F1000
G1 X35.459 Y7.972 Z0.425 F1000
G1 X35.482 Y7.905 Z0.425 F1000
G1 X35.520 Y7.845 Z0.425 F1000
G1 X35.570 Y7.794 Z0.425 F1000
G1 X35.631 Y7.756 Z0.425 F1000
G1 X35.698 Y7.733 Z0.425 F1000
G1 X35.768 Y7.725 Z0.425 F1000
G1 X36.086 Y7.725 Z0.425 F1000
G1 X36.156 Y7.725 Z0.433 F1000
G1 X36.224 Y7.725 Z0.457 F1000
G1 X36.284 Y7.725 Z0.495 F1000
G1 X36.334 Y7.725 Z0.545 F1000
G1 X36.372 Y7.725 Z0.605 F1000
G1 X36.395 Y7.725 Z0.672 F1000
G1 X36.403 Y7.725 Z0.743 F1000
G1 X36.403 Y7.725 Z6.825 F1000
G1 X36.403 Y8.360 Z6.825 F1000
G1 X36.403 Y8.360 Z1.060 F333.3
G1 X36.403 Y8.360 Z0.643 F333.3
G1 X36.395 Y8.360 Z0.572 F1000
G1 X36.372 Y8.360 Z0.505 F1000
G1 X36.334 Y8.360 Z0.445 F1000
G1 X36.284 Y8.360 Z0.395 F1000
G1 X36.224 Y8.360 Z0.357 F1000
G1 X36.156 Y8.360 Z0.333 F1000
G1 X36.086 Y8.360 Z0.325 F1000
G1 X35.768 Y8.360 Z0.325 F1000
G1 X35.698 Y8.352 Z0.325 F1000
G1 X35.631 Y8.329 Z0.325 F1000
G1 X35.570 Y8.291 Z0.325 F1000
G1 X35.520 Y8.241 Z0.325 F1000
G1 X35.482 Y8.180 Z0.325 F1000
G1 X35.459 Y8.113 Z0.325 F1000
G1 X35.451 Y8.043 Z0.325 F1000
G1 X35.451 Y0.085 Z0.325 F1000
G1 X35.443 Y-0.071 Z0.325 F1000
G1 X35.420 Y-0.225 Z0.325 F1000
G1 X35.382 Y-0.376 Z0.325 F1000
G1 X35.330 Y-0.523 Z0.325 F1000
G1 X35.263 Y-0.664 Z0.325 F1000
G1 X35.183 Y-0.798 Z0.325 F1000
G1 X35.090 Y-0.923 Z0.325 F1000
G1 X34.986 Y-1.038 Z0.325 F1000
G1 X34.901 Y-1.123 Z0.325 F1000
G1 X34.785 Y-1.227 Z0.325 F1000
G1 X34.660 Y-1.320 Z0.325 F1000
G1 X34.527 Y-1.400 Z0.325 F1000
G1 X34.386 Y-1.467 Z0.325 F1000
G1 X34.239 Y-1.519 Z0.325 F1000
G1 X34.088 Y-1.557 Z0.325 F1000
G1 X33.934 Y-1.580 Z0.325 F1000
G1 X33.779 Y-1.587 Z0.325 F1000
G1 X0.085 Y-1.587 Z0.325 F1000
G1 X-0.071 Y-1.580 Z0.325 F1000
G1 X-0.225 Y-1.557 Z0.325 F1000
G1 X-0.376 Y-1.519 Z0.325 F1000
G1 X-0.523 Y-1.467 Z0.325 F1000
G1 X-0.664 Y-1.400 Z0.325 F1000
G1 X-0.797 Y-1.320 Z0.325 F1000
G1 X-0.922 Y-1.227 Z0.325 F1000
G1 X-1.038 Y-1.123 Z0.325 F1000
G1 X-1.123 Y-1.038 Z0.325 F1000
G1 X-1.227 Y-0.922 Z0.325 F1000
G1 X-1.320 Y-0.797 Z0.325 F1000
G1 X-1.400 Y-0.664 Z0.325 F1000
G1 X-1.467 Y-0.523 Z0.325 F1000
G1 X-1.519 Y-0.376 Z0.325 F1000
G1 X-1.557 Y-0.225 Z0.325 F1000
G1 X-1.580 Y-0.071 Z0.325 F1000
G1 X-1.587 Y0.085 Z0.325 F1000
G1 X-1.587 Y16.000 Z0.325 F1000
G1 X-1.580 Y16.156 Z0.325 F1000
G1 X-1.557 Y16.310 Z0.325 F1000
G1 X-1.519 Y16.461 Z0.325 F1000
G1 X-1.467 Y16.608 Z0.325 F1000
G1 X-1.400 Y16.749 Z0.325 F1000
G1 X-1.320 Y16.882 Z0.325 F1000
G1 X-1.227 Y17.007 Z0.325 F1000
G1 X-1.123 Y17.123 Z0.325 F1000
G1 X-1.038 Y17.207 Z0.325 F1000
G1 X-0.923 Y17.312 Z0.325 F1000
G1 X-0.798 Y17.405 Z0.325 F1000
G1 X-0.664 Y17.485 Z0.325 F1000
G1 X-0.523 Y17.552 Z0.325 F1000
G1 X-0.376 Y17.604 Z0.325 F1000
G1 X-0.225 Y17.642 Z0.325 F1000
G1 X-0.071 Y17.665 Z0.325 F1000
G1 X0.085 Y17.673 Z0.325 F1000
G1 X33.779 Y17.673 Z0.325 F1000
G1 X33.934 Y17.665 Z0.325 F1000
G1 X34.088 Y17.642 Z0.325 F1000
G1 X34.239 Y17.604 Z0.325 F1000
G1 X34.386 Y17.552 Z0.325 F1000
G1 X34.527 Y17.485 Z0.325 F1000
G1 X34.661 Y17.405 Z0.325 F1000
G1 X34.786 Y17.312 Z0.325 F1000
G1 X34.901 Y17.208 Z0.325 F1000
G1 X34.986 Y17.123 Z0.325 F1000
G1 X35.090 Y17.007 Z0.325 F1000
G1 X35.183 Y16.882 Z0.325 F1000
G1 X35.263 Y16.749 Z0.325 F1000
G1 X35.330 Y16.608 Z0.325 F1000
G1 X35.382 Y16.461 Z0.325 F1000
G1 X35.420 Y16.310 Z0.325 F1000
G1 X35.443 Y16.156 Z0.325 F1000
G1 X35.451 Y16.000 Z0.325 F1000
G1 X35.451 Y8.043 Z0.325 F1000
G1 X35.459 Y7.972 Z0.325 F1000
G1 X35.482 Y7.905 Z0.325 F1000
G1 X35.520 Y7.845 Z0.325 F1000
G1 X35.570 Y7.794 Z0.325 F1000
G1 X35.631 Y7.756 Z0.325 F1000
G1 X35.698 Y7.733 Z0.325 F1000
G1 X35.768 Y7.725 Z0.325 F1000
G1 X36.086 Y7.725 Z0.325 F1000
G1 X36.156 Y7.725 Z0.333 F1000
G1 X36.224 Y7.725 Z0.357 F1000
G1 X36.284 Y7.725 Z0.395 F1000
G1 X36.334 Y7.725 Z0.445 F1000
G1 X36.372 Y7.725 Z0.505 F1000
G1 X36.395 Y7.725 Z0.572 F1000
G1 X36.403 Y7.725 Z0.643 F1000
G1 X36.403 Y7.725 Z6.825 F1000
G1 X36.403 Y8.360 Z6.825 F1000
G1 X36.403 Y8.360 Z0.960 F333.3
G1 X36.403 Y8.360 Z0.543 F333.3
G1 X36.395 Y8.360 Z0.472 F1000
G1 X36.372 Y8.360 Z0.405 F1000
G1 X36.334 Y8.360 Z0.345 F1000
G1 X36.284 Y8.360 Z0.295 F1000
G1 X36.224 Y8.360 Z0.257 F1000
G1 X36.156 Y8.360 Z0.233 F1000
G1 X36.086 Y8.360 Z0.225 F1000
G1 X35.768 Y8.360 Z0.225 F1000
G1 X35.698 Y8.352 Z0.225 F1000
G1 X35.631 Y8.329 Z0.225 F1000
G1 X35.570 Y8.291 Z0.225 F1000
G1 X35.520 Y8.241 Z0.225 F1000
G1 X35.482 Y8.180 Z0.225 F1000
G1 X35.459 Y8.113 Z0.225 F1000
G1 X35.451 Y8.043 Z0.225 F1000
G1 X35.451 Y0.085 Z0.225 F1000
G1 X35.443 Y-0.071 Z0.225 F1000
G1 X35.420 Y-0.225 Z0.225 F1000
G1 X35.382 Y-0.376 Z0.225 F1000
G1 X35.330 Y-0.523 Z0.225 F1000
G1 X35.263 Y-0.664 Z0.225 F1000
G1 X35.183 Y-0.798 Z0.225 F1000
G1 X35.090 Y-0.923 Z0.225 F1000
G1 X34.986 Y-1.038 Z0.225 F1000
G1 X34.901 Y-1.123 Z0.225 F1000
G1 X34.785 Y-1.227 Z0.225 F1000
G1 X34.660 Y-1.320 Z0.225 F1000
G1 X34.527 Y-1.400 Z0.225 F1000
G1 X34.386 Y-1.467 Z0.225 F1000
G1 X34.239 Y-1.519 Z0.225 F1000
G1 X34.088 Y-1.557 Z0.225 F1000
G1 X33.934 Y-1.580 Z0.225 F1000
G1 X33.779 Y-1.587 Z0.225 F1000
G1 X0.085 Y-1.587 Z0.225 F1000
G1 X-0.071 Y-1.580 Z0.225 F1000
G1 X-0.225 Y-1.557 Z0.225 F1000
G1 X-0.376 Y-1.519 Z0.225 F1000
G1 X-0.523 Y-1.467 Z0.225 F1000
G1 X-0.664 Y-1.400 Z0.225 F1000
G1 X-0.797 Y-1.320 Z0.225 F1000
G1 X-0.922 Y-1.227 Z0.225 F1000
G1 X-1.038 Y-1.123 Z0.225 F1000
G1 X-1.123 Y-1.038 Z0.225 F1000
G1 X-1.227 Y-0.922 Z0.225 F1000
G1 X-1.320 Y-0.797 Z0.225 F1000
G1 X-1.400 Y-0.664 Z0.225 F1000
G1 X-1.467 Y-0.523 Z0.225 F1000
G1 X-1.519 Y-0.376 Z0.225 F1000
G1 X-1.557 Y-0.225 Z0.225 F1000
G1 X-1.580 Y-0.071 Z0.225 F1000
G1 X-1.587 Y0.085 Z0.225 F1000
G1 X-1.587 Y16.000 Z0.225 F1000
G1 X-1.580 Y16.156 Z0.225 F1000
G1 X-1.557 Y16.310 Z0.225 F1000
G1 X-1.519 Y16.461 Z0.225 F1000
G1 X-1.467 Y16.608 Z0.225 F1000
G1 X-1.400 Y16.749 Z0.225 F1000
G1 X-1.320 Y16.882 Z0.225 F1000
G1 X-1.227 Y17.007 Z0.225 F1000
G1 X-1.123 Y17.123 Z0.225 F1000
G1 X-1.038 Y17.207 Z0.225 F1000
G1 X-0.923 Y17.312 Z0.225 F1000
G1 X-0.798 Y17.405 Z0.225 F1000
G1 X-0.664 Y17.485 Z0.225 F1000
G1 X-0.523 Y17.552 Z0.225 F1000
G1 X-0.376 Y17.604 Z0.225 F1000
G1 X-0.225 Y17.642 Z0.225 F1000
G1 X-0.071 Y17.665 Z0.225 F1000
G1 X0.085 Y17.673 Z0.225 F1000
G1 X33.779 Y17.673 Z0.225 F1000
G1 X33.934 Y17.665 Z0.225 F1000
G1 X34.088 Y17.642 Z0.225 F1000
G1 X34.239 Y17.604 Z0.225 F1000
G1 X34.386 Y17.552 Z0.225 F1000
G1 X34.527 Y17.485 Z0.225 F1000
G1 X34.661 Y17.405 Z0.225 F1000
G1 X34.786 Y17.312 Z0.225 F1000
G1 X34.901 Y17.208 Z0.225 F1000
G1 X34.986 Y17.123 Z0.225 F1000
G1 X35.090 Y17.007 Z0.225 F1000
G1 X35.183 Y16.882 Z0.225 F1000
G1 X35.263 Y16.749 Z0.225 F1000
G1 X35.330 Y16.608 Z0.225 F1000
G1 X35.382 Y16.461 Z0.225 F1000
G1 X35.420 Y16.310 Z0.225 F1000
G1 X35.443 Y16.156 Z0.225 F1000
G1 X35.451 Y16.000 Z0.225 F1000
G1 X35.451 Y8.043 Z0.225 F1000
G1 X35.459 Y7.972 Z0.225 F1000
G1 X35.482 Y7.905 Z0.225 F1000
G1 X35.520 Y7.845 Z0.225 F1000
G1 X35.570 Y7.794 Z0.225 F1000
G1 X35.631 Y7.756 Z0.225 F1000
G1 X35.698 Y7.733 Z0.225 F1000
G1 X35.768 Y7.725 Z0.225 F1000
G1 X36.086 Y7.725 Z0.225 F1000
G1 X36.156 Y7.725 Z0.233 F1000
G1 X36.224 Y7.725 Z0.257 F1000
G1 X36.284 Y7.725 Z0.295 F1000
G1 X36.334 Y7.725 Z0.345 F1000
G1 X36.372 Y7.725 Z0.405 F1000
G1 X36.395 Y7.725 Z0.472 F1000
G1 X36.403 Y7.725 Z0.543 F1000
G1 X36.403 Y7.725 Z6.825 F1000
G1 X36.403 Y8.360 Z6.825 F1000
G1 X36.403 Y8.360 Z0.860 F333.3
G1 X36.403 Y8.360 Z0.443 F333.3
G1 X36.395 Y8.360 Z0.372 F1000
G1 X36.372 Y8.360 Z0.305 F1000
G1 X36.334 Y8.360 Z0.245 F1000
G1 X36.284 Y8.360 Z0.195 F1000
G1 X36.224 Y8.360 Z0.157 F1000
G1 X36.156 Y8.360 Z0.133 F1000
G1 X36.086 Y8.360 Z0.125 F1000
G1 X35.768 Y8.360 Z0.125 F1000
G1 X35.698 Y8.352 Z0.125 F1000
G1 X35.631 Y8.329 Z0.125 F1000
G1 X35.570 Y8.291 Z0.125 F1000
G1 X35.520 Y8.241 Z0.125 F1000
G1 X35.482 Y8.180 Z0.125 F1000
G1 X35.459 Y8.113 Z0.125 F1000
G1 X35.451 Y8.043 Z0.125 F1000
G1 X35.451 Y0.085 Z0.125 F1000
G1 X35.443 Y-0.071 Z0.125 F1000
G1 X35.420 Y-0.225 Z0.125 F1000
G1 X35.382 Y-0.376 Z0.125 F1000
G1 X35.330 Y-0.523 Z0.125 F1000
G1 X35.263 Y-0.664 Z0.125 F1000
G1 X35.183 Y-0.798 Z0.125 F1000
G1 X35.090 Y-0.923 Z0.125 F1000
G1 X34.986 Y-1.038 Z0.125 F1000
G1 X34.901 Y-1.123 Z0.125 F1000
G1 X34.785 Y-1.227 Z0.125 F1000
G1 X34.660 Y-1.320 Z0.125 F1000
G1 X34.527 Y-1.400 Z0.125 F1000
G1 X34.386 Y-1.467 Z0.125 F1000
G1 X34.239 Y-1.519 Z0.125 F1000
G1 X34.088 Y-1.557 Z0.125 F1000
G1 X33.934 Y-1.580 Z0.125 F1000
G1 X33.779 Y-1.587 Z0.125 F1000
G1 X0.085 Y-1.587 Z0.125 F1000
G1 X-0.071 Y-1.580 Z0.125 F1000
G1 X-0.225 Y-1.557 Z0.125 F1000
G1 X-0.376 Y-1.519 Z0.125 F1000
G1 X-0.523 Y-1.467 Z0.125 F1000
G1 X-0.664 Y-1.400 Z0.125 F1000
G1 X-0.797 Y-1.320 Z0.125 F1000
G1 X-0.922 Y-1.227 Z0.125 F1000
G1 X-1.038 Y-1.123 Z0.125 F1000
G1 X-1.123 Y-1.038 Z0.125 F1000
G1 X-1.227 Y-0.922 Z0.125 F1000
G1 X-1.320 Y-0.797 Z0.125 F1000
G1 X-1.400 Y-0.664 Z0.125 F1000
G1 X-1.467 Y-0.523 Z0.125 F1000
G1 X-1.519 Y-0.376 Z0.125 F1000
G1 X-1.557 Y-0.225 Z0.125 F1000
G1 X-1.580 Y-0.071 Z0.125 F1000
G1 X-1.587 Y0.085 Z0.125 F1000
G1 X-1.587 Y16.000 Z0.125 F1000
G1 X-1.580 Y16.156 Z0.125 F1000
G1 X-1.557 Y16.310 Z0.125 F1000
G1 X-1.519 Y16.461 Z0.125 F1000
G1 X-1.467 Y16.608 Z0.125 F1000
G1 X-1.400 Y16.749 Z0.125 F1000
G1 X-1.320 Y16.882 Z0.125 F1000
G1 X-1.227 Y17.007 Z0.125 F1000
G1 X-1.123 Y17.123 Z0.125 F1000
G1 X-1.038 Y17.207 Z0.125 F1000
G1 X-0.923 Y17.312 Z0.125 F1000
G1 X-0.798 Y17.405 Z0.125 F1000
G1 X-0.664 Y17.485 Z0.125 F1000
G1 X-0.523 Y17.552 Z0.125 F1000
G1 X-0.376 Y17.604 Z0.125 F1000
G1 X-0.225 Y17.642 Z0.125 F1000
G1 X-0.071 Y17.665 Z0.125 F1000
G1 X0.085 Y17.673 Z0.125 F1000
G1 X33.779 Y17.673 Z0.125 F1000
G1 X33.934 Y17.665 Z0.125 F1000
G1 X34.088 Y17.642 Z0.125 F1000
G1 X34.239 Y17.604 Z0.125 F1000
G1 X34.386 Y17.552 Z0.125 F1000
G1 X34.527 Y17.485 Z0.125 F1000
G1 X34.661 Y17.405 Z0.125 F1000
G1 X34.786 Y17.312 Z0.125 F1000
G1 X34.901 Y17.208 Z0.125 F1000
G1 X34.986 Y17.123 Z0.125 F1000
G1 X35.090 Y17.007 Z0.125 F1000
G1 X35.183 Y16.882 Z0.125 F1000
G1 X35.263 Y16.749 Z0.125 F1000
G1 X35.330 Y16.608 Z0.125 F1000
G1 X35.382 Y16.461 Z0.125 F1000
G1 X35.420 Y16.310 Z0.125 F1000
G1 X35.443 Y16.156 Z0.125 F1000
G1 X35.451 Y16.000 Z0.125 F1000
G1 X35.451 Y8.043 Z0.125 F1000
G1 X35.459 Y7.972 Z0.125 F1000
G1 X35.482 Y7.905 Z0.125 F1000
G1 X35.520 Y7.845 Z0.125 F1000
G1 X35.570 Y7.794 Z0.125 F1000
G1 X35.631 Y7.756 Z0.125 F1000
G1 X35.698 Y7.733 Z0.125 F1000
G1 X35.768 Y7.725 Z0.125 F1000
G1 X36.086 Y7.725 Z0.125 F1000
G1 X36.156 Y7.725 Z0.133 F1000
G1 X36.224 Y7.725 Z0.157 F1000
G1 X36.284 Y7.725 Z0.195 F1000
G1 X36.334 Y7.725 Z0.245 F1000
G1 X36.372 Y7.725 Z0.305 F1000
G1 X36.395 Y7.725 Z0.372 F1000
G1 X36.403 Y7.725 Z0.443 F1000
G1 X36.403 Y7.725 Z6.825 F1000
G1 X36.403 Y8.360 Z6.825 F1000
G1 X36.403 Y8.360 Z0.760 F333.3
G1 X36.403 Y8.360 Z0.343 F333.3
G1 X36.395 Y8.360 Z0.272 F1000
G1 X36.372 Y8.360 Z0.205 F1000
G1 X36.334 Y8.360 Z0.145 F1000
G1 X36.284 Y8.360 Z0.095 F1000
G1 X36.224 Y8.360 Z0.057 F1000
G1 X36.156 Y8.360 Z0.033 F1000
G1 X36.086 Y8.360 Z0.025 F1000
G1 X35.768 Y8.360 Z0.025 F1000
G1 X35.698 Y8.352 Z0.025 F1000
G1 X35.631 Y8.329 Z0.025 F1000
G1 X35.570 Y8.291 Z0.025 F1000
G1 X35.520 Y8.241 Z0.025 F1000
G1 X35.482 Y8.180 Z0.025 F1000
G1 X35.459 Y8.113 Z0.025 F1000
G1 X35.451 Y8.043 Z0.025 F1000
G1 X35.451 Y0.085 Z0.025 F1000
G1 X35.443 Y-0.071 Z0.025 F1000
G1 X35.420 Y-0.225 Z0.025 F1000
G1 X35.382 Y-0.376 Z0.025 F1000
G1 X35.330 Y-0.523 Z0.025 F1000
G1 X35.263 Y-0.664 Z0.025 F1000
G1 X35.183 Y-0.798 Z0.025 F1000
G1 X35.090 Y-0.923 Z0.025 F1000
G1 X34.986 Y-1.038 Z0.025 F1000
G1 X34.901 Y-1.123 Z0.025 F1000
G1 X34.785 Y-1.227 Z0.025 F1000
G1 X34.660 Y-1.320 Z0.025 F1000
G1 X34.527 Y-1.400 Z0.025 F1000
G1 X34.386 Y-1.467 Z0.025 F1000
G1 X34.239 Y-1.519 Z0.025 F1000
G1 X34.088 Y-1.557 Z0.025 F1000
G1 X33.934 Y-1.580 Z0.025 F1000
G1 X33.779 Y-1.587 Z0.025 F1000
G1 X0.085 Y-1.587 Z0.025 F1000
G1 X-0.071 Y-1.580 Z0.025 F1000
G1 X-0.225 Y-1.557 Z0.025 F1000
G1 X-0.376 Y-1.519 Z0.025 F1000
G1 X-0.523 Y-1.467 Z0.025 F1000
G1 X-0.664 Y-1.400 Z0.025 F1000
G1 X-0.797 Y-1.320 Z0.025 F1000
G1 X-0.922 Y-1.227 Z0.025 F1000
G1 X-1.038 Y-1.123 Z0.025 F1000
G1 X-1.123 Y-1.038 Z0.025 F1000
G1 X-1.227 Y-0.922 Z0.025 F1000
G1 X-1.320 Y-0.797 Z0.025 F1000
G1 X-1.400 Y-0.664 Z0.025 F1000
G1 X-1.467 Y-0.523 Z0.025 F1000
G1 X-1.519 Y-0.376 Z0.025 F1000
G1 X-1.557 Y-0.225 Z0.025 F1000
G1 X-1.580 Y-0.071 Z0.025 F1000
G1 X-1.587 Y0.085 Z0.025 F1000
G1 X-1.587 Y16.000 Z0.025 F1000
G1 X-1.580 Y16.156 Z0.025 F1000
G1 X-1.557 Y16.310 Z0.025 F1000
G1 X-1.519 Y16.461 Z0.025 F1000
G1 X-1.467 Y16.608 Z0.025 F1000
G1 X-1.400 Y16.749 Z0.025 F1000
G1 X-1.320 Y16.882 Z0.025 F1000
G1 X-1.227 Y17.007 Z0.025 F1000
G1 X-1.123 Y17.123 Z0.025 F1000
G1 X-1.038 Y17.207 Z0.025 F1000
G1 X-0.923 Y17.312 Z0.025 F1000
G1 X-0.798 Y17.405 Z0.025 F1000
G1 X-0.664 Y17.485 Z0.025 F1000
G1 X-0.523 Y17.552 Z0.025 F1000
G1 X-0.376 Y17.604 Z0.025 F1000
G1 X-0.225 Y17.642 Z0.025 F1000
G1 X-0.071 Y17.665 Z0.025 F1000
G1 X0.085 Y17.673 Z0.025 F1000
G1 X33.779 Y17.673 Z0.025 F1000
G1 X33.934 Y17.665 Z0.025 F1000
G1 X34.088 Y17.642 Z0.025 F1000
G1 X34.239 Y17.604 Z0.025 F1000
G1 X34.386 Y17.552 Z0.025 F1000
G1 X34.527 Y17.485 Z0.025 F1000
G1 X34.661 Y17.405 Z0.025 F1000
G1 X34.786 Y17.312 Z0.025 F1000
G1 X34.901 Y17.208 Z0.025 F1000
G1 X34.986 Y17.123 Z0.025 F1000
G1 X35.090 Y17.007 Z0.025 F1000
G1 X35.183 Y16.882 Z0.025 F1000
G1 X35.263 Y16.749 Z0.025 F1000
G1 X35.330 Y16.608 Z0.025 F1000
G1 X35.382 Y16.461 Z0.025 F1000
G1 X35.420 Y16.310 Z0.025 F1000
G1 X35.443 Y16.156 Z0.025 F1000
G1 X35.451 Y16.000 Z0.025 F1000
G1 X35.451 Y8.043 Z0.025 F1000
G1 X35.459 Y7.972 Z0.025 F1000
G1 X35.482 Y7.905 Z0.025 F1000
G1 X35.520 Y7.845 Z0.025 F1000
G1 X35.570 Y7.794 Z0.025 F1000
G1 X35.631 Y7.756 Z0.025 F1000
G1 X35.698 Y7.733 Z0.025 F1000
G1 X35.768 Y7.725 Z0.025 F1000
G1 X36.086 Y7.725 Z0.025 F1000
G1 X36.156 Y7.725 Z0.033 F1000
G1 X36.224 Y7.725 Z0.057 F1000
G1 X36.284 Y7.725 Z0.095 F1000
G1 X36.334 Y7.725 Z0.145 F1000
G1 X36.372 Y7.725 Z0.205 F1000
G1 X36.395 Y7.725 Z0.272 F1000
G1 X36.403 Y7.725 Z0.343 F1000
G1 X36.403 Y7.725 Z6.825 F1000
G1 X36.403 Y8.360 Z6.825 F1000
G1 X36.403 Y8.360 Z0.660 F333.3
G1 X36.403 Y8.360 Z0.243 F333.3
G1 X36.395 Y8.360 Z0.172 F1000
G1 X36.372 Y8.360 Z0.105 F1000
G1 X36.334 Y8.360 Z0.045 F1000
G1 X36.284 Y8.360 Z-0.005 F1000
G1 X36.224 Y8.360 Z-0.043 F1000
G1 X36.156 Y8.360 Z-0.067 F1000
G1 X36.086 Y8.360 Z-0.075 F1000
G1 X35.768 Y8.360 Z-0.075 F1000
G1 X35.698 Y8.352 Z-0.075 F1000
G1 X35.631 Y8.329 Z-0.075 F1000
G1 X35.570 Y8.291 Z-0.075 F1000
G1 X35.520 Y8.241 Z-0.075 F1000
G1 X35.482 Y8.180 Z-0.075 F1000
G1 X35.459 Y8.113 Z-0.075 F1000
G1 X35.451 Y8.043 Z-0.075 F1000
G1 X35.451 Y0.085 Z-0.075 F1000
G1 X35.443 Y-0.071 Z-0.075 F1000
G1 X35.420 Y-0.225 Z-0.075 F1000
G1 X35.382 Y-0.376 Z-0.075 F1000
G1 X35.330 Y-0.523 Z-0.075 F1000
G1 X35.263 Y-0.664 Z-0.075 F1000
G1 X35.183 Y-0.798 Z-0.075 F1000
G1 X35.090 Y-0.923 Z-0.075 F1000
G1 X34.986 Y-1.038 Z-0.075 F1000
G1 X34.901 Y-1.123 Z-0.075 F1000
G1 X34.785 Y-1.227 Z-0.075 F1000
G1 X34.660 Y-1.320 Z-0.075 F1000
G1 X34.527 Y-1.400 Z-0.075 F1000
G1 X34.386 Y-1.467 Z-0.075 F1000
G1 X34.239 Y-1.519 Z-0.075 F1000
G1 X34.088 Y-1.557 Z-0.075 F1000
G1 X33.934 Y-1.580 Z-0.075 F1000
G1 X33.779 Y-1.587 Z-0.075 F1000
G1 X0.085 Y-1.587 Z-0.075 F1000
G1 X-0.071 Y-1.580 Z-0.075 F1000
G1 X-0.225 Y-1.557 Z-0.075 F1000
G1 X-0.376 Y-1.519 Z-0.075 F1000
G1 X-0.523 Y-1.467 Z-0.075 F1000
G1 X-0.664 Y-1.400 Z-0.075 F1000
G1 X-0.797 Y-1.320 Z-0.075 F1000
G1 X-0.922 Y-1.227 Z-0.075 F1000
G1 X-1.038 Y-1.123 Z-0.075 F1000
G1 X-1.123 Y-1.038 Z-0.075 F1000
G1 X-1.227 Y-0.922 Z-0.075 F1000
G1 X-1.320 Y-0.797 Z-0.075 F1000
G1 X-1.400 Y-0.664 Z-0.075 F1000
G1 X-1.467 Y-0.523 Z-0.075 F1000
G1 X-1.519 Y-0.376 Z-0.075 F1000
G1 X-1.557 Y-0.225 Z-0.075 F1000
G1 X-1.580 Y-0.071 Z-0.075 F1000
G1 X-1.587 Y0.085 Z-0.075 F1000
G1 X-1.587 Y16.000 Z-0.075 F1000
G1 X-1.580 Y16.156 Z-0.075 F1000
G1 X-1.557 Y16.310 Z-0.075 F1000
G1 X-1.519 Y16.461 Z-0.075 F1000
G1 X-1.467 Y16.608 Z-0.075 F1000
G1 X-1.400 Y16.749 Z-0.075 F1000
G1 X-1.320 Y16.882 Z-0.075 F1000
G1 X-1.227 Y17.007 Z-0.075 F1000
G1 X-1.123 Y17.123 Z-0.075 F1000
G1 X-1.038 Y17.207 Z-0.075 F1000
G1 X-0.923 Y17.312 Z-0.075 F1000
G1 X-0.798 Y17.405 Z-0.075 F1000
G1 X-0.664 Y17.485 Z-0.075 F1000
G1 X-0.523 Y17.552 Z-0.075 F1000
G1 X-0.376 Y17.604 Z-0.075 F1000
G1 X-0.225 Y17.642 Z-0.075 F1000
G1 X-0.071 Y17.665 Z-0.075 F1000
G1 X0.085 Y17.673 Z-0.075 F1000
G1 X33.779 Y17.673 Z-0.075 F1000
G1 X33.934 Y17.665 Z-0.075 F1000
G1 X34.088 Y17.642 Z-0.075 F1000
G1 X34.239 Y17.604 Z-0.075 F1000
G1 X34.386 Y17.552 Z-0.075 F1000
G1 X34.527 Y17.485 Z-0.075 F1000
G1 X34.661 Y17.405 Z-0.075 F1000
G1 X34.786 Y17.312 Z-0.075 F1000
G1 X34.901 Y17.208 Z-0.075 F1000
G1 X34.986 Y17.123 Z-0.075 F1000
G1 X35.090 Y17.007 Z-0.075 F1000
G1 X35.183 Y16.882 Z-0.075 F1000
G1 X35.263 Y16.749 Z-0.075 F1000
G1 X35.330 Y16.608 Z-0.075 F1000
G1 X35.382 Y16.461 Z-0.075 F1000
G1 X35.420 Y16.310 Z-0.075 F1000
G1 X35.443 Y16.156 Z-0.075 F1000
G1 X35.451 Y16.000 Z-0.075 F1000
G1 X35.451 Y8.043 Z-0.075 F1000
G1 X35.459 Y7.972 Z-0.075 F1000
G1 X35.482 Y7.905 Z-0.075 F1000
G1 X35.520 Y7.845 Z-0.075 F1000
G1 X35.570 Y7.794 Z-0.075 F1000
G1 X35.631 Y7.756 Z-0.075 F1000
G1 X35.698 Y7.733 Z-0.075 F1000
G1 X35.768 Y7.725 Z-0.075 F1000
G1 X36.086 Y7.725 Z-0.075 F1000
G1 X36.156 Y7.725 Z-0.067 F1000
G1 X36.224 Y7.725 Z-0.043 F1000
G1 X36.284 Y7.725 Z-0.005 F1000
G1 X36.334 Y7.725 Z0.045 F1000
G1 X36.372 Y7.725 Z0.105 F1000
G1 X36.395 Y7.725 Z0.172 F1000
G1 X36.403 Y7.725 Z0.243 F1000
G1 X36.403 Y7.725 Z6.825 F1000
G1 X36.403 Y8.360 Z6.825 F1000
G1 X36.403 Y8.360 Z0.560 F333.3
G1 X36.403 Y8.360 Z0.143 F333.3
G1 X36.395 Y8.360 Z0.072 F1000
G1 X36.372 Y8.360 Z0.005 F1000
G1 X36.334 Y8.360 Z-0.055 F1000
G1 X36.284 Y8.360 Z-0.105 F1000
G1 X36.224 Y8.360 Z-0.143 F1000
G1 X36.156 Y8.360 Z-0.167 F1000
G1 X36.086 Y8.360 Z-0.175 F1000
G1 X35.768 Y8.360 Z-0.175 F1000
G1 X35.698 Y8.352 Z-0.175 F1000
G1 X35.631 Y8.329 Z-0.175 F1000
G1 X35.570 Y8.291 Z-0.175 F1000
G1 X35.520 Y8.241 Z-0.175 F1000
G1 X35.482 Y8.180 Z-0.175 F1000
G1 X35.459 Y8.113 Z-0.175 F1000
G1 X35.451 Y8.043 Z-0.175 F1000
G1 X35.451 Y0.085 Z-0.175 F1000
G1 X35.443 Y-0.071 Z-0.175 F1000
G1 X35.420 Y-0.225 Z-0.175 F1000
G1 X35.382 Y-0.376 Z-0.175 F1000
G1 X35.330 Y-0.523 Z-0.175 F1000
G1 X35.263 Y-0.664 Z-0.175 F1000
G1 X35.183 Y-0.798 Z-0.175 F1000
G1 X35.090 Y-0.923 Z-0.175 F1000
G1 X34.986 Y-1.038 Z-0.175 F1000
G1 X34.901 Y-1.123 Z-0.175 F1000
G1 X34.785 Y-1.227 Z-0.175 F1000
G1 X34.660 Y-1.320 Z-0.175 F1000
G1 X34.527 Y-1.400 Z-0.175 F1000
G1 X34.386 Y-1.467 Z-0.175 F1000
G1 X34.239 Y-1.519 Z-0.175 F1000
G1 X34.088 Y-1.557 Z-0.175 F1000
G1 X33.934 Y-1.580 Z-0.175 F1000
G1 X33.779 Y-1.587 Z-0.175 F1000
G1 X0.085 Y-1.587 Z-0.175 F1000
G1 X-0.071 Y-1.580 Z-0.175 F1000
G1 X-0.225 Y-1.557 Z-0.175 F1000
G1 X-0.376 Y-1.519 Z-0.175 F1000
G1 X-0.523 Y-1.467 Z-0.175 F1000
G1 X-0.664 Y-1.400 Z-0.175 F1000
G1 X-0.797 Y-1.320 Z-0.175 F1000
G1 X-0.922 Y-1.227 Z-0.175 F1000
G1 X-1.038 Y-1.123 Z-0.175 F1000
G1 X-1.123 Y-1.038 Z-0.175 F1000
G1 X-1.227 Y-0.922 Z-0.175 F1000
G1 X-1.320 Y-0.797 Z-0.175 F1000
G1 X-1.400 Y-0.664 Z-0.175 F1000
G1 X-1.467 Y-0.523 Z-0.175 F1000
G1 X-1.519 Y-0.376 Z-0.175 F1000
G1 X-1.557 Y-0.225 Z-0.175 F1000
G1 X-1.580 Y-0.071 Z-0.175 F1000
G1 X-1.587 Y0.085 Z-0.175 F1000
G1 X-1.587 Y16.000 Z-0.175 F1000
G1 X-1.580 Y16.156 Z-0.175 F1000
G1 X-1.557 Y16.310 Z-0.175 F1000
G1 X-1.519 Y16.461 Z-0.175 F1000
G1 X-1.467 Y16.608 Z-0.175 F1000
G1 X-1.400 Y16.749 Z-0.175 F1000
G1 X-1.320 Y16.882 Z-0.175 F1000
G1 X-1.227 Y17.007 Z-0.175 F1000
G1 X-1.123 Y17.123 Z-0.175 F1000
G1 X-1.038 Y17.207 Z-0.175 F1000
G1 X-0.923 Y17.312 Z-0.175 F1000
G1 X-0.798 Y17.405 Z-0.175 F1000
G1 X-0.664 Y17.485 Z-0.175 F1000
G1 X-0.523 Y17.552 Z-0.175 F1000
G1 X-0.376 Y17.604 Z-0.175 F1000
G1 X-0.225 Y17.642 Z-0.175 F1000
G1 X-0.071 Y17.665 Z-0.175 F1000
G1 X0.085 Y17.673 Z-0.175 F1000
G1 X33.779 Y17.673 Z-0.175 F1000
G1 X33.934 Y17.665 Z-0.175 F1000
G1 X34.088 Y17.642 Z-0.175 F1000
G1 X34.239 Y17.604 Z-0.175 F1000
G1 X34.386 Y17.552 Z-0.175 F1000
G1 X34.527 Y17.485 Z-0.175 F1000
G1 X34.661 Y17.405 Z-0.175 F1000
G1 X34.786 Y17.312 Z-0.175 F1000
G1 X34.901 Y17.208 Z-0.175 F1000
G1 X34.986 Y17.123 Z-0.175 F1000
G1 X35.090 Y17.007 Z-0.175 F1000
G1 X35.183 Y16.882 Z-0.175 F1000
G1 X35.263 Y16.749 Z-0.175 F1000
G1 X35.330 Y16.608 Z-0.175 F1000
G1 X35.382 Y16.461 Z-0.175 F1000
G1 X35.420 Y16.310 Z-0.175 F1000
G1 X35.443 Y16.156 Z-0.175 F1000
G1 X35.451 Y16.000 Z-0.175 F1000
G1 X35.451 Y8.043 Z-0.175 F1000
G1 X35.459 Y7.972 Z-0.175 F1000
G1 X35.482 Y7.905 Z-0.175 F1000
G1 X35.520 Y7.845 Z-0.175 F1000
G1 X35.570 Y7.794 Z-0.175 F1000
G1 X35.631 Y7.756 Z-0.175 F1000
G1 X35.698 Y7.733 Z-0.175 F1000
G1 X35.768 Y7.725 Z-0.175 F1000
G1 X36.086 Y7.725 Z-0.175 F1000
G1 X36.156 Y7.725 Z-0.167 F1000
G1 X36.224 Y7.725 Z-0.143 F1000
G1 X36.284 Y7.725 Z-0.105 F1000
G1 X36.334 Y7.725 Z-0.055 F1000
G1 X36.372 Y7.725 Z0.005 F1000
G1 X36.395 Y7.725 Z0.072 F1000
G1 X36.403 Y7.725 Z0.143 F1000
G1 X36.403 Y7.725 Z6.825 F1000
G1 X36.403 Y8.360 Z6.825 F1000
G1 X36.403 Y8.360 Z0.460 F333.3
G1 X36.403 Y8.360 Z0.043 F333.3
G1 X36.395 Y8.360 Z-0.028 F1000
G1 X36.372 Y8.360 Z-0.095 F1000
G1 X36.334 Y8.360 Z-0.155 F1000
G1 X36.284 Y8.360 Z-0.205 F1000
G1 X36.224 Y8.360 Z-0.243 F1000
G1 X36.156 Y8.360 Z-0.267 F1000
G1 X36.086 Y8.360 Z-0.275 F1000
G1 X35.768 Y8.360 Z-0.275 F1000
G1 X35.698 Y8.352 Z-0.275 F1000
G1 X35.631 Y8.329 Z-0.275 F1000
G1 X35.570 Y8.291 Z-0.275 F1000
G1 X35.520 Y8.241 Z-0.275 F1000
G1 X35.482 Y8.180 Z-0.275 F1000
G1 X35.459 Y8.113 Z-0.275 F1000
G1 X35.451 Y8.043 Z-0.275 F1000
G1 X35.451 Y0.085 Z-0.275 F1000
G1 X35.443 Y-0.071 Z-0.275 F1000
G1 X35.420 Y-0.225 Z-0.275 F1000
G1 X35.382 Y-0.376 Z-0.275 F1000
G1 X35.330 Y-0.523 Z-0.275 F1000
G1 X35.263 Y-0.664 Z-0.275 F1000
G1 X35.183 Y-0.798 Z-0.275 F1000
G1 X35.090 Y-0.923 Z-0.275 F1000
G1 X34.986 Y-1.038 Z-0.275 F1000
G1 X34.901 Y-1.123 Z-0.275 F1000
G1 X34.785 Y-1.227 Z-0.275 F1000
G1 X34.660 Y-1.320 Z-0.275 F1000
G1 X34.527 Y-1.400 Z-0.275 F1000
G1 X34.386 Y-1.467 Z-0.275 F1000
G1 X34.239 Y-1.519 Z-0.275 F1000
G1 X34.088 Y-1.557 Z-0.275 F1000
G1 X33.934 Y-1.580 Z-0.275 F1000
G1 X33.779 Y-1.587 Z-0.275 F1000
G1 X0.085 Y-1.587 Z-0.275 F1000
G1 X-0.071 Y-1.580 Z-0.275 F1000
G1 X-0.225 Y-1.557 Z-0.275 F1000
G1 X-0.376 Y-1.519 Z-0.275 F1000
G1 X-0.523 Y-1.467 Z-0.275 F1000
G1 X-0.664 Y-1.400 Z-0.275 F1000
G1 X-0.797 Y-1.320 Z-0.275 F1000
G1 X-0.922 Y-1.227 Z-0.275 F1000
G1 X-1.038 Y-1.123 Z-0.275 F1000
G1 X-1.123 Y-1.038 Z-0.275 F1000
G1 X-1.227 Y-0.922 Z-0.275 F1000
G1 X-1.320 Y-0.797 Z-0.275 F1000
G1 X-1.400 Y-0.664 Z-0.275 F1000
G1 X-1.467 Y-0.523 Z-0.275 F1000
G1 X-1.519 Y-0.376 Z-0.275 F1000
G1 X-1.557 Y-0.225 Z-0.275 F1000
G1 X-1.580 Y-0.071 Z-0.275 F1000
G1 X-1.587 Y0.085 Z-0.275 F1000
G1 X-1.587 Y16.000 Z-0.275 F1000
G1 X-1.580 Y16.156 Z-0.275 F1000
G1 X-1.557 Y16.310 Z-0.275 F1000
G1 X-1.519 Y16.461 Z-0.275 F1000
G1 X-1.467 Y16.608 Z-0.275 F1000
G1 X-1.400 Y16.749 Z-0.275 F1000
G1 X-1.320 Y16.882 Z-0.275 F1000
G1 X-1.227 Y17.007 Z-0.275 F1000
G1 X-1.123 Y17.123 Z-0.275 F1000
G1 X-1.038 Y17.207 Z-0.275 F1000
G1 X-0.923 Y17.312 Z-0.275 F1000
G1 X-0.798 Y17.405 Z-0.275 F1000
G1 X-0.664 Y17.485 Z-0.275 F1000
G1 X-0.523 Y17.552 Z-0.275 F1000
G1 X-0.376 Y17.604 Z-0.275 F1000
G1 X-0.225 Y17.642 Z-0.275 F1000
G1 X-0.071 Y17.665 Z-0.275 F1000
G1 X0.085 Y17.673 Z-0.275 F1000
G1 X33.779 Y17.673 Z-0.275 F1000
G1 X33.934 Y17.665 Z-0.275 F1000
G1 X34.088 Y17.642 Z-0.275 F1000
G1 X34.239 Y17.604 Z-0.275 F1000
G1 X34.386 Y17.552 Z-0.275 F1000
G1 X34.527 Y17.485 Z-0.275 F1000
G1 X34.661 Y17.405 Z-0.275 F1000
G1 X34.786 Y17.312 Z-0.275 F1000
G1 X34.901 Y17.208 Z-0.275 F1000
G1 X34.986 Y17.123 Z-0.275 F1000
G1 X35.090 Y17.007 Z-0.275 F1000
G1 X35.183 Y16.882 Z-0.275 F1000
G1 X35.263 Y16.749 Z-0.275 F1000
G1 X35.330 Y16.608 Z-0.275 F1000
G1 X35.382 Y16.461 Z-0.275 F1000
G1 X35.420 Y16.310 Z-0.275 F1000
G1 X35.443 Y16.156 Z-0.275 F1000
G1 X35.451 Y16.000 Z-0.275 F1000
G1 X35.451 Y8.043 Z-0.275 F1000
G1 X35.459 Y7.972 Z-0.275 F1000
G1 X35.482 Y7.905 Z-0.275 F1000
G1 X35.520 Y7.845 Z-0.275 F1000
G1 X35.570 Y7.794 Z-0.275 F1000
G1 X35.631 Y7.756 Z-0.275 F1000
G1 X35.698 Y7.733 Z-0.275 F1000
G1 X35.768 Y7.725 Z-0.275 F1000
G1 X36.086 Y7.725 Z-0.275 F1000
G1 X36.156 Y7.725 Z-0.267 F1000
G1 X36.224 Y7.725 Z-0.243 F1000
G1 X36.284 Y7.725 Z-0.205 F1000
G1 X36.334 Y7.725 Z-0.155 F1000
G1 X36.372 Y7.725 Z-0.095 F1000
G1 X36.395 Y7.725 Z-0.028 F1000
G1 X36.403 Y7.725 Z0.043 F1000
G1 X36.403 Y7.725 Z6.825 F1000
G1 X36.403 Y8.360 Z6.825 F1000
G1 X36.403 Y8.360 Z0.360 F333.3
G1 X36.403 Y8.360 Z-0.057 F333.3
G1 X36.395 Y8.360 Z-0.128 F1000
G1 X36.372 Y8.360 Z-0.195 F1000
G1 X36.334 Y8.360 Z-0.255 F1000
G1 X36.284 Y8.360 Z-0.305 F1000
G1 X36.224 Y8.360 Z-0.343 F1000
G1 X36.156 Y8.360 Z-0.367 F1000
G1 X36.086 Y8.360 Z-0.375 F1000
G1 X35.768 Y8.360 Z-0.375 F1000
G1 X35.698 Y8.352 Z-0.375 F1000
G1 X35.631 Y8.329 Z-0.375 F1000
G1 X35.570 Y8.291 Z-0.375 F1000
G1 X35.520 Y8.241 Z-0.375 F1000
G1 X35.482 Y8.180 Z-0.375 F1000
G1 X35.459 Y8.113 Z-0.375 F1000
G1 X35.451 Y8.043 Z-0.375 F1000
G1 X35.451 Y0.085 Z-0.375 F1000
G1 X35.443 Y-0.071 Z-0.375 F1000
G1 X35.420 Y-0.225 Z-0.375 F1000
G1 X35.382 Y-0.376 Z-0.375 F1000
G1 X35.330 Y-0.523 Z-0.375 F1000
G1 X35.263 Y-0.664 Z-0.375 F1000
G1 X35.183 Y-0.798 Z-0.375 F1000
G1 X35.090 Y-0.923 Z-0.375 F1000
G1 X34.986 Y-1.038 Z-0.375 F1000
G1 X34.901 Y-1.123 Z-0.375 F1000
G1 X34.785 Y-1.227 Z-0.375 F1000
G1 X34.660 Y-1.320 Z-0.375 F1000
G1 X34.527 Y-1.400 Z-0.375 F1000
G1 X34.386 Y-1.467 Z-0.375 F1000
G1 X34.239 Y-1.519 Z-0.375 F1000
G1 X34.088 Y-1.557 Z-0.375 F1000
G1 X33.934 Y-1.580 Z-0.375 F1000
G1 X33.779 Y-1.587 Z-0.375 F1000
G1 X0.085 Y-1.587 Z-0.375 F1000
G1 X-0.071 Y-1.580 Z-0.375 F1000
G1 X-0.225 Y-1.557 Z-0.375 F1000
G1 X-0.376 Y-1.519 Z-0.375 F1000
G1 X-0.523 Y-1.467 Z-0.375 F1000
G1 X-0.664 Y-1.400 Z-0.375 F1000
G1 X-0.797 Y-1.320 Z-0.375 F1000
G1 X-0.922 Y-1.227 Z-0.375 F1000
G1 X-1.038 Y-1.123 Z-0.375 F1000
G1 X-1.123 Y-1.038 Z-0.375 F1000
G1 X-1.227 Y-0.922 Z-0.375 F1000
G1 X-1.320 Y-0.797 Z-0.375 F1000
G1 X-1.400 Y-0.664 Z-0.375 F1000
G1 X-1.467 Y-0.523 Z-0.375 F1000
G1 X-1.519 Y-0.376 Z-0.375 F1000
G1 X-1.557 Y-0.225 Z-0.375 F1000
G1 X-1.580 Y-0.071 Z-0.375 F1000
G1 X-1.587 Y0.085 Z-0.375 F1000
G1 X-1.587 Y16.000 Z-0.375 F1000
G1 X-1.580 Y16.156 Z-0.375 F1000
G1 X-1.557 Y16.310 Z-0.375 F1000
G1 X-1.519 Y16.461 Z-0.375 F1000
G1 X-1.467 Y16.608 Z-0.375 F1000
G1 X-1.400 Y16.749 Z-0.375 F1000
G1 X-1.320 Y16.882 Z-0.375 F1000
G1 X-1.227 Y17.007 Z-0.375 F1000
G1 X-1.123 Y17.123 Z-0.375 F1000
G1 X-1.038 Y17.207 Z-0.375 F1000
G1 X-0.923 Y17.312 Z-0.375 F1000
G1 X-0.798 Y17.405 Z-0.375 F1000
G1 X-0.664 Y17.485 Z-0.375 F1000
G1 X-0.523 Y17.552 Z-0.375 F1000
G1 X-0.376 Y17.604 Z-0.375 F1000
G1 X-0.225 Y17.642 Z-0.375 F1000
G1 X-0.071 Y17.665 Z-0.375 F1000
G1 X0.085 Y17.673 Z-0.375 F1000
G1 X33.779 Y17.673 Z-0.375 F1000
G1 X33.934 Y17.665 Z-0.375 F1000
G1 X34.088 Y17.642 Z-0.375 F1000
G1 X34.239 Y17.604 Z-0.375 F1000
G1 X34.386 Y17.552 Z-0.375 F1000
G1 X34.527 Y17.485 Z-0.375 F1000
G1 X34.661 Y17.405 Z-0.375 F1000
G1 X34.786 Y17.312 Z-0.375 F1000
G1 X34.901 Y17.208 Z-0.375 F1000
G1 X34.986 Y17.123 Z-0.375 F1000
G1 X35.090 Y17.007 Z-0.375 F1000
G1 X35.183 Y16.882 Z-0.375 F1000
G1 X35.263 Y16.749 Z-0.375 F1000
G1 X35.330 Y16.608 Z-0.375 F1000
G1 X35.382 Y16.461 Z-0.375 F1000
G1 X35.420 Y16.310 Z-0.375 F1000
G1 X35.443 Y16.156 Z-0.375 F1000
G1 X35.451 Y16.000 Z-0.375 F1000
G1 X35.451 Y8.043 Z-0.375 F1000
G1 X35.459 Y7.972 Z-0.375 F1000
G1 X35.482 Y7.905 Z-0.375 F1000
G1 X35.520 Y7.845 Z-0.375 F1000
G1 X35.570 Y7.794 Z-0.375 F1000
G1 X35.631 Y7.756 Z-0.375 F1000
G1 X35.698 Y7.733 Z-0.375 F1000
G1 X35.768 Y7.725 Z-0.375 F1000
G1 X36.086 Y7.725 Z-0.375 F1000
G1 X36.156 Y7.725 Z-0.367 F1000
G1 X36.224 Y7.725 Z-0.343 F1000
G1 X36.284 Y7.725 Z-0.305 F1000
G1 X36.334 Y7.725 Z-0.255 F1000
G1 X36.372 Y7.725 Z-0.195 F1000
G1 X36.395 Y7.725 Z-0.128 F1000
G1 X36.403 Y7.725 Z-0.057 F1000
G1 X36.403 Y7.725 Z6.825 F1000
G1 X36.403 Y8.360 Z6.825 F1000
G1 X36.403 Y8.360 Z0.260 F333.3
G1 X36.403 Y8.360 Z-0.157 F333.3
G1 X36.395 Y8.360 Z-0.228 F1000
G1 X36.372 Y8.360 Z-0.295 F1000
G1 X36.334 Y8.360 Z-0.355 F1000
G1 X36.284 Y8.360 Z-0.405 F1000
G1 X36.224 Y8.360 Z-0.443 F1000
G1 X36.156 Y8.360 Z-0.467 F1000
G1 X36.086 Y8.360 Z-0.475 F1000
G1 X35.768 Y8.360 Z-0.475 F1000
G1 X35.698 Y8.352 Z-0.475 F1000
G1 X35.631 Y8.329 Z-0.475 F1000
G1 X35.570 Y8.291 Z-0.475 F1000
G1 X35.520 Y8.241 Z-0.475 F1000
G1 X35.482 Y8.180 Z-0.475 F1000
G1 X35.459 Y8.113 Z-0.475 F1000
G1 X35.451 Y8.043 Z-0.475 F1000
G1 X35.451 Y0.085 Z-0.475 F1000
G1 X35.443 Y-0.071 Z-0.475 F1000
G1 X35.420 Y-0.225 Z-0.475 F1000
G1 X35.382 Y-0.376 Z-0.475 F1000
G1 X35.330 Y-0.523 Z-0.475 F1000
G1 X35.263 Y-0.664 Z-0.475 F1000
G1 X35.183 Y-0.798 Z-0.475 F1000
G1 X35.090 Y-0.923 Z-0.475 F1000
G1 X34.986 Y-1.038 Z-0.475 F1000
G1 X34.901 Y-1.123 Z-0.475 F1000
G1 X34.785 Y-1.227 Z-0.475 F1000
G1 X34.660 Y-1.320 Z-0.475 F1000
G1 X34.527 Y-1.400 Z-0.475 F1000
G1 X34.386 Y-1.467 Z-0.475 F1000
G1 X34.239 Y-1.519 Z-0.475 F1000
G1 X34.088 Y-1.557 Z-0.475 F1000
G1 X33.934 Y-1.580 Z-0.475 F1000
G1 X33.779 Y-1.587 Z-0.475 F1000
G1 X0.085 Y-1.587 Z-0.475 F1000
G1 X-0.071 Y-1.580 Z-0.475 F1000
G1 X-0.225 Y-1.557 Z-0.475 F1000
G1 X-0.376 Y-1.519 Z-0.475 F1000
G1 X-0.523 Y-1.467 Z-0.475 F1000
G1 X-0.664 Y-1.400 Z-0.475 F1000
G1 X-0.797 Y-1.320 Z-0.475 F1000
G1 X-0.922 Y-1.227 Z-0.475 F1000
G1 X-1.038 Y-1.123 Z-0.475 F1000
G1 X-1.123 Y-1.038 Z-0.475 F1000
G1 X-1.227 Y-0.922 Z-0.475 F1000
G1 X-1.320 Y-0.797 Z-0.475 F1000
G1 X-1.400 Y-0.664 Z-0.475 F1000
G1 X-1.467 Y-0.523 Z-0.475 F1000
G1 X-1.519 Y-0.376 Z-0.475 F1000
G1 X-1.557 Y-0.225 Z-0.475 F1000
G1 X-1.580 Y-0.071 Z-0.475 F1000
G1 X-1.587 Y0.085 Z-0.475 F1000
G1 X-1.587 Y16.000 Z-0.475 F1000
G1 X-1.580 Y16.156 Z-0.475 F1000
G1 X-1.557 Y16.310 Z-0.475 F1000
G1 X-1.519 Y16.461 Z-0.475 F1000
G1 X-1.467 Y16.608 Z-0.475 F1000
G1 X-1.400 Y16.749 Z-0.475 F1000
G1 X-1.320 Y16.882 Z-0.475 F1000
G1 X-1.227 Y17.007 Z-0.475 F1000
G1 X-1.123 Y17.123 Z-0.475 F1000
G1 X-1.038 Y17.207 Z-0.475 F1000
G1 X-0.923 Y17.312 Z-0.475 F1000
G1 X-0.798 Y17.405 Z-0.475 F1000
G1 X-0.664 Y17.485 Z-0.475 F1000
G1 X-0.523 Y17.552 Z-0.475 F1000
G1 X-0.376 Y17.604 Z-0.475 F1000
G1 X-0.225 Y17.642 Z-0.475 F1000
G1 X-0.071 Y17.665 Z-0.475 F1000
G1 X0.085 Y17.673 Z-0.475 F1000
G1 X33.779 Y17.673 Z-0.475 F1000
G1 X33.934 Y17.665 Z-0.475 F1000
G1 X34.088 Y17.642 Z-0.475 F1000
G1 X34.239 Y17.604 Z-0.475 F1000
G1 X34.386 Y17.552 Z-0.475 F1000
G1 X34.527 Y17.485 Z-0.475 F1000
G1 X34.661 Y17.405 Z-0.475 F1000
G1 X34.786 Y17.312 Z-0.475 F1000
G1 X34.901 Y17.208 Z-0.475 F1000
G1 X34.986 Y17.123 Z-0.475 F1000
G1 X35.090 Y17.007 Z-0.475 F1000
G1 X35.183 Y16.882 Z-0.475 F1000
G1 X35.263 Y16.749 Z-0.475 F1000
G1 X35.330 Y16.608 Z-0.475 F1000
G1 X35.382 Y16.461 Z-0.475 F1000
G1 X35.420 Y16.310 Z-0.475 F1000
G1 X35.443 Y16.156 Z-0.475 F1000
G1 X35.451 Y16.000 Z-0.475 F1000
G1 X35.451 Y8.043 Z-0.475 F1000
G1 X35.459 Y7.972 Z-0.475 F1000
G1 X35.482 Y7.905 Z-0.475 F1000
G1 X35.520 Y7.845 Z-0.475 F1000
G1 X35.570 Y7.794 Z-0.475 F1000
G1 X35.631 Y7.756 Z-0.475 F1000
G1 X35.698 Y7.733 Z-0.475 F1000
G1 X35.768 Y7.725 Z-0.475 F1000
G1 X36.086 Y7.725 Z-0.475 F1000
G1 X36.156 Y7.725 Z-0.467 F1000
G1 X36.224 Y7.725 Z-0.443 F1000
G1 X36.284 Y7.725 Z-0.405 F1000
G1 X36.334 Y7.725 Z-0.355 F1000
G1 X36.372 Y7.725 Z-0.295 F1000
G1 X36.395 Y7.725 Z-0.228 F1000
G1 X36.403 Y7.725 Z-0.157 F1000
G1 X36.403 Y7.725 Z6.825 F1000
G1 X36.403 Y8.360 Z6.825 F1000
G1 X36.403 Y8.360 Z0.160 F333.3
G1 X36.403 Y8.360 Z-0.257 F333.3
G1 X36.395 Y8.360 Z-0.328 F1000
G1 X36.372 Y8.360 Z-0.395 F1000
G1 X36.334 Y8.360 Z-0.455 F1000
G1 X36.284 Y8.360 Z-0.505 F1000
G1 X36.224 Y8.360 Z-0.543 F1000
G1 X36.156 Y8.360 Z-0.567 F1000
G1 X36.086 Y8.360 Z-0.575 F1000
G1 X35.768 Y8.360 Z-0.575 F1000
G1 X35.698 Y8.352 Z-0.575 F1000
G1 X35.631 Y8.329 Z-0.575 F1000
G1 X35.570 Y8.291 Z-0.575 F1000
G1 X35.520 Y8.241 Z-0.575 F1000
G1 X35.482 Y8.180 Z-0.575 F1000
G1 X35.459 Y8.113 Z-0.575 F1000
G1 X35.451 Y8.043 Z-0.575 F1000
G1 X35.451 Y0.085 Z-0.575 F1000
G1 X35.443 Y-0.071 Z-0.575 F1000
G1 X35.420 Y-0.225 Z-0.575 F1000
G1 X35.382 Y-0.376 Z-0.575 F1000
G1 X35.330 Y-0.523 Z-0.575 F1000
G1 X35.263 Y-0.664 Z-0.575 F1000
G1 X35.183 Y-0.798 Z-0.575 F1000
G1 X35.090 Y-0.923 Z-0.575 F1000
G1 X34.986 Y-1.038 Z-0.575 F1000
G1 X34.901 Y-1.123 Z-0.575 F1000
G1 X34.785 Y-1.227 Z-0.575 F1000
G1 X34.660 Y-1.320 Z-0.575 F1000
G1 X34.527 Y-1.400 Z-0.575 F1000
G1 X34.386 Y-1.467 Z-0.575 F1000
G1 X34.239 Y-1.519 Z-0.575 F1000
G1 X34.088 Y-1.557 Z-0.575 F1000
G1 X33.934 Y-1.580 Z-0.575 F1000
G1 X33.779 Y-1.587 Z-0.575 F1000
G1 X0.085 Y-1.587 Z-0.575 F1000
G1 X-0.071 Y-1.580 Z-0.575 F1000
G1 X-0.225 Y-1.557 Z-0.575 F1000
G1 X-0.376 Y-1.519 Z-0.575 F1000
G1 X-0.523 Y-1.467 Z-0.575 F1000
G1 X-0.664 Y-1.400 Z-0.575 F1000
G1 X-0.797 Y-1.320 Z-0.575 F1000
G1 X-0.922 Y-1.227 Z-0.575 F1000
G1 X-1.038 Y-1.123 Z-0.575 F1000
G1 X-1.123 Y-1.038 Z-0.575 F1000
G1 X-1.227 Y-0.922 Z-0.575 F1000
G1 X-1.320 Y-0.797 Z-0.575 F1000
G1 X-1.400 Y-0.664 Z-0.575 F1000
G1 X-1.467 Y-0.523 Z-0.575 F1000
G1 X-1.519 Y-0.376 Z-0.575 F1000
G1 X-1.557 Y-0.225 Z-0.575 F1000
G1 X-1.580 Y-0.071 Z-0.575 F1000
G1 X-1.587 Y0.085 Z-0.575 F1000
G1 X-1.587 Y16.000 Z-0.575 F1000
G1 X-1.580 Y16.156 Z-0.575 F1000
G1 X-1.557 Y16.310 Z-0.575 F1000
G1 X-1.519 Y16.461 Z-0.575 F1000
G1 X-1.467 Y16.608 Z-0.575 F1000
G1 X-1.400 Y16.749 Z-0.575 F1000
G1 X-1.320 Y16.882 Z-0.575 F1000
G1 X-1.227 Y17.007 Z-0.575 F1000
G1 X-1.123 Y17.123 Z-0.575 F1000
G1 X-1.038 Y17.207 Z-0.575 F1000
G1 X-0.923 Y17.312 Z-0.575 F1000
G1 X-0.798 Y17.405 Z-0.575 F1000
G1 X-0.664 Y17.485 Z-0.575 F1000
G1 X-0.523 Y17.552 Z-0.575 F1000
G1 X-0.376 Y17.604 Z-0.575 F1000
G1 X-0.225 Y17.642 Z-0.575 F1000
G1 X-0.071 Y17.665 Z-0.575 F1000
G1 X0.085 Y17.673 Z-0.575 F1000
G1 X33.779 Y17.673 Z-0.575 F1000
G1 X33.934 Y17.665 Z-0.575 F1000
G1 X34.088 Y17.642 Z-0.575 F1000
G1 X34.239 Y17.604 Z-0.575 F1000
G1 X34.386 Y17.552 Z-0.575 F1000
G1 X34.527 Y17.485 Z-0.575 F1000
G1 X34.661 Y17.405 Z-0.575 F1000
G1 X34.786 Y17.312 Z-0.575 F1000
G1 X34.901 Y17.208 Z-0.575 F1000
G1 X34.986 Y17.123 Z-0.575 F1000
G1 X35.090 Y17.007 Z-0.575 F1000
G1 X35.183 Y16.882 Z-0.575 F1000
G1 X35.263 Y16.749 Z-0.575 F1000
G1 X35.330 Y16.608 Z-0.575 F1000
G1 X35.382 Y16.461 Z-0.575 F1000
G1 X35.420 Y16.310 Z-0.575 F1000
G1 X35.443 Y16.156 Z-0.575 F1000
G1 X35.451 Y16.000 Z-0.575 F1000
G1 X35.451 Y8.043 Z-0.575 F1000
G1 X35.459 Y7.972 Z-0.575 F1000
G1 X35.482 Y7.905 Z-0.575 F1000
G1 X35.520 Y7.845 Z-0.575 F1000
G1 X35.570 Y7.794 Z-0.575 F1000
G1 X35.631 Y7.756 Z-0.575 F1000
G1 X35.698 Y7.733 Z-0.575 F1000
G1 X35.768 Y7.725 Z-0.575 F1000
G1 X36.086 Y7.725 Z-0.575 F1000
G1 X36.156 Y7.725 Z-0.567 F1000
G1 X36.224 Y7.725 Z-0.543 F1000
G1 X36.284 Y7.725 Z-0.505 F1000
G1 X36.334 Y7.725 Z-0.455 F1000
G1 X36.372 Y7.725 Z-0.395 F1000
G1 X36.395 Y7.725 Z-0.328 F1000
G1 X36.403 Y7.725 Z-0.257 F1000
G1 X36.403 Y7.725 Z6.825 F1000
G1 X36.403 Y8.360 Z6.825 F1000
G1 X36.403 Y8.360 Z0.060 F333.3
G1 X36.403 Y8.360 Z-0.357 F333.3
G1 X36.395 Y8.360 Z-0.428 F1000
G1 X36.372 Y8.360 Z-0.495 F1000
G1 X36.334 Y8.360 Z-0.555 F1000
G1 X36.284 Y8.360 Z-0.605 F1000
G1 X36.224 Y8.360 Z-0.643 F1000
G1 X36.156 Y8.360 Z-0.667 F1000
G1 X36.086 Y8.360 Z-0.675 F1000
G1 X35.768 Y8.360 Z-0.675 F1000
G1 X35.698 Y8.352 Z-0.675 F1000
G1 X35.631 Y8.329 Z-0.675 F1000
G1 X35.570 Y8.291 Z-0.675 F1000
G1 X35.520 Y8.241 Z-0.675 F1000
G1 X35.482 Y8.180 Z-0.675 F1000
G1 X35.459 Y8.113 Z-0.675 F1000
G1 X35.451 Y8.043 Z-0.675 F1000
G1 X35.451 Y0.085 Z-0.675 F1000
G1 X35.443 Y-0.071 Z-0.675 F1000
G1 X35.420 Y-0.225 Z-0.675 F1000
G1 X35.382 Y-0.376 Z-0.675 F1000
G1 X35.330 Y-0.523 Z-0.675 F1000
G1 X35.263 Y-0.664 Z-0.675 F1000
G1 X35.183 Y-0.798 Z-0.675 F1000
G1 X35.090 Y-0.923 Z-0.675 F1000
G1 X34.986 Y-1.038 Z-0.675 F1000
G1 X34.901 Y-1.123 Z-0.675 F1000
G1 X34.785 Y-1.227 Z-0.675 F1000
G1 X34.660 Y-1.320 Z-0.675 F1000
G1 X34.527 Y-1.400 Z-0.675 F1000
G1 X34.386 Y-1.467 Z-0.675 F1000
G1 X34.239 Y-1.519 Z-0.675 F1000
G1 X34.088 Y-1.557 Z-0.675 F1000
G1 X33.934 Y-1.580 Z-0.675 F1000
G1 X33.779 Y-1.587 Z-0.675 F1000
G1 X0.085 Y-1.587 Z-0.675 F1000
G1 X-0.071 Y-1.580 Z-0.675 F1000
G1 X-0.225 Y-1.557 Z-0.675 F1000
G1 X-0.376 Y-1.519 Z-0.675 F1000
G1 X-0.523 Y-1.467 Z-0.675 F1000
G1 X-0.664 Y-1.400 Z-0.675 F1000
G1 X-0.797 Y-1.320 Z-0.675 F1000
G1 X-0.922 Y-1.227 Z-0.675 F1000
G1 X-1.038 Y-1.123 Z-0.675 F1000
G1 X-1.123 Y-1.038 Z-0.675 F1000
G1 X-1.227 Y-0.922 Z-0.675 F1000
G1 X-1.320 Y-0.797 Z-0.675 F1000
G1 X-1.400 Y-0.664 Z-0.675 F1000
G1 X-1.467 Y-0.523 Z-0.675 F1000
G1 X-1.519 Y-0.376 Z-0.675 F1000
G1 X-1.557 Y-0.225 Z-0.675 F1000
G1 X-1.580 Y-0.071 Z-0.675 F1000
G1 X-1.587 Y0.085 Z-0.675 F1000
G1 X-1.587 Y16.000 Z-0.675 F1000
G1 X-1.580 Y16.156 Z-0.675 F1000
G1 X-1.557 Y16.310 Z-0.675 F1000
G1 X-1.519 Y16.461 Z-0.675 F1000
G1 X-1.467 Y16.608 Z-0.675 F1000
G1 X-1.400 Y16.749 Z-0.675 F1000
G1 X-1.320 Y16.882 Z-0.675 F1000
G1 X-1.227 Y17.007 Z-0.675 F1000
G1 X-1.123 Y17.123 Z-0.675 F1000
G1 X-1.038 Y17.207 Z-0.675 F1000
G1 X-0.923 Y17.312 Z-0.675 F1000
G1 X-0.798 Y17.405 Z-0.675 F1000
G1 X-0.664 Y17.485 Z-0.675 F1000
G1 X-0.523 Y17.552 Z-0.675 F1000
G1 X-0.376 Y17.604 Z-0.675 F1000
G1 X-0.225 Y17.642 Z-0.675 F1000
G1 X-0.071 Y17.665 Z-0.675 F1000
G1 X0.085 Y17.673 Z-0.675 F1000
G1 X33.779 Y17.673 Z-0.675 F1000
G1 X33.934 Y17.665 Z-0.675 F1000
G1 X34.088 Y17.642 Z-0.675 F1000
G1 X34.239 Y17.604 Z-0.675 F1000
G1 X34.386 Y17.552 Z-0.675 F1000
G1 X34.527 Y17.485 Z-0.675 F1000
G1 X34.661 Y17.405 Z-0.675 F1000
G1 X34.786 Y17.312 Z-0.675 F1000
G1 X34.901 Y17.208 Z-0.675 F1000
G1 X34.986 Y17.123 Z-0.675 F1000
G1 X35.090 Y17.007 Z-0.675 F1000
G1 X35.183 Y16.882 Z-0.675 F1000
G1 X35.263 Y16.749 Z-0.675 F1000
G1 X35.330 Y16.608 Z-0.675 F1000
G1 X35.382 Y16.461 Z-0.675 F1000
G1 X35.420 Y16.310 Z-0.675 F1000
G1 X35.443 Y16.156 Z-0.675 F1000
G1 X35.451 Y16.000 Z-0.675 F1000
G1 X35.451 Y8.043 Z-0.675 F1000
G1 X35.459 Y7.972 Z-0.675 F1000
G1 X35.482 Y7.905 Z-0.675 F1000
G1 X35.520 Y7.845 Z-0.675 F1000
G1 X35.570 Y7.794 Z-0.675 F1000
G1 X35.631 Y7.756 Z-0.675 F1000
G1 X35.698 Y7.733 Z-0.675 F1000
G1 X35.768 Y7.725 Z-0.675 F1000
G1 X36.086 Y7.725 Z-0.675 F1000
G1 X36.156 Y7.725 Z-0.667 F1000
G1 X36.224 Y7.725 Z-0.643 F1000
G1 X36.284 Y7.725 Z-0.605 F1000
G1 X36.334 Y7.725 Z-0.555 F1000
G1 X36.372 Y7.725 Z-0.495 F1000
G1 X36.395 Y7.725 Z-0.428 F1000
G1 X36.403 Y7.725 Z-0.357 F1000
G1 X36.403 Y7.725 Z6.825 F1000
G1 X36.403 Y8.360 Z6.825 F1000
G1 X36.403 Y8.360 Z-0.040 F333.3
G1 X36.403 Y8.360 Z-0.457 F333.3
G1 X36.395 Y8.360 Z-0.528 F1000
G1 X36.372 Y8.360 Z-0.595 F1000
G1 X36.334 Y8.360 Z-0.655 F1000
G1 X36.284 Y8.360 Z-0.705 F1000
G1 X36.224 Y8.360 Z-0.743 F1000
G1 X36.156 Y8.360 Z-0.767 F1000
G1 X36.086 Y8.360 Z-0.775 F1000
G1 X35.768 Y8.360 Z-0.775 F1000
G1 X35.698 Y8.352 Z-0.775 F1000
G1 X35.631 Y8.329 Z-0.775 F1000
G1 X35.570 Y8.291 Z-0.775 F1000
G1 X35.520 Y8.241 Z-0.775 F1000
G1 X35.482 Y8.180 Z-0.775 F1000
G1 X35.459 Y8.113 Z-0.775 F1000
G1 X35.451 Y8.043 Z-0.775 F1000
G1 X35.451 Y0.085 Z-0.775 F1000
G1 X35.443 Y-0.071 Z-0.775 F1000
G1 X35.420 Y-0.225 Z-0.775 F1000
G1 X35.382 Y-0.376 Z-0.775 F1000
G1 X35.330 Y-0.523 Z-0.775 F1000
G1 X35.263 Y-0.664 Z-0.775 F1000
G1 X35.183 Y-0.798 Z-0.775 F1000
G1 X35.090 Y-0.923 Z-0.775 F1000
G1 X34.986 Y-1.038 Z-0.775 F1000
G1 X34.901 Y-1.123 Z-0.775 F1000
G1 X34.785 Y-1.227 Z-0.775 F1000
G1 X34.660 Y-1.320 Z-0.775 F1000
G1 X34.527 Y-1.400 Z-0.775 F1000
G1 X34.386 Y-1.467 Z-0.775 F1000
G1 X34.239 Y-1.519 Z-0.775 F1000
G1 X34.088 Y-1.557 Z-0.775 F1000
G1 X33.934 Y-1.580 Z-0.775 F1000
G1 X33.779 Y-1.587 Z-0.775 F1000
G1 X0.085 Y-1.587 Z-0.775 F1000
G1 X-0.071 Y-1.580 Z-0.775 F1000
G1 X-0.225 Y-1.557 Z-0.775 F1000
G1 X-0.376 Y-1.519 Z-0.775 F1000
G1 X-0.523 Y-1.467 Z-0.775 F1000
G1 X-0.664 Y-1.400 Z-0.775 F1000
G1 X-0.797 Y-1.320 Z-0.775 F1000
G1 X-0.922 Y-1.227 Z-0.775 F1000
G1 X-1.038 Y-1.123 Z-0.775 F1000
G1 X-1.123 Y-1.038 Z-0.775 F1000
G1 X-1.227 Y-0.922 Z-0.775 F1000
G1 X-1.320 Y-0.797 Z-0.775 F1000
G1 X-1.400 Y-0.664 Z-0.775 F1000
G1 X-1.467 Y-0.523 Z-0.775 F1000
G1 X-1.519 Y-0.376 Z-0.775 F1000
G1 X-1.557 Y-0.225 Z-0.775 F1000
G1 X-1.580 Y-0.071 Z-0.775 F1000
G1 X-1.587 Y0.085 Z-0.775 F1000
G1 X-1.587 Y16.000 Z-0.775 F1000
G1 X-1.580 Y16.156 Z-0.775 F1000
G1 X-1.557 Y16.310 Z-0.775 F1000
G1 X-1.519 Y16.461 Z-0.775 F1000
G1 X-1.467 Y16.608 Z-0.775 F1000
G1 X-1.400 Y16.749 Z-0.775 F1000
G1 X-1.320 Y16.882 Z-0.775 F1000
G1 X-1.227 Y17.007 Z-0.775 F1000
G1 X-1.123 Y17.123 Z-0.775 F1000
G1 X-1.038 Y17.207 Z-0.775 F1000
G1 X-0.923 Y17.312 Z-0.775 F1000
G1 X-0.798 Y17.405 Z-0.775 F1000
G1 X-0.664 Y17.485 Z-0.775 F1000
G1 X-0.523 Y17.552 Z-0.775 F1000
G1 X-0.376 Y17.604 Z-0.775 F1000
G1 X-0.225 Y17.642 Z-0.775 F1000
G1 X-0.071 Y17.665 Z-0.775 F1000
G1 X0.085 Y17.673 Z-0.775 F1000
G1 X33.779 Y17.673 Z-0.775 F1000
G1 X33.934 Y17.665 Z-0.775 F1000
G1 X34.088 Y17.642 Z-0.775 F1000
G1 X34.239 Y17.604 Z-0.775 F1000
G1 X34.386 Y17.552 Z-0.775 F1000
G1 X34.527 Y17.485 Z-0.775 F1000
G1 X34.661 Y17.405 Z-0.775 F1000
G1 X34.786 Y17.312 Z-0.775 F1000
G1 X34.901 Y17.208 Z-0.775 F1000
G1 X34.986 Y17.123 Z-0.775 F1000
G1 X35.090 Y17.007 Z-0.775 F1000
G1 X35.183 Y16.882 Z-0.775 F1000
G1 X35.263 Y16.749 Z-0.775 F1000
G1 X35.330 Y16.608 Z-0.775 F1000
G1 X35.382 Y16.461 Z-0.775 F1000
G1 X35.420 Y16.310 Z-0.775 F1000
G1 X35.443 Y16.156 Z-0.775 F1000
G1 X35.451 Y16.000 Z-0.775 F1000
G1 X35.451 Y8.043 Z-0.775 F1000
G1 X35.459 Y7.972 Z-0.775 F1000
G1 X35.482 Y7.905 Z-0.775 F1000
G1 X35.520 Y7.845 Z-0.775 F1000
G1 X35.570 Y7.794 Z-0.775 F1000
G1 X35.631 Y7.756 Z-0.775 F1000
G1 X35.698 Y7.733 Z-0.775 F1000
G1 X35.768 Y7.725 Z-0.775 F1000
G1 X36.086 Y7.725 Z-0.775 F1000
G1 X36.156 Y7.725 Z-0.767 F1000
G1 X36.224 Y7.725 Z-0.743 F1000
G1 X36.284 Y7.725 Z-0.705 F1000
G1 X36.334 Y7.725 Z-0.655 F1000
G1 X36.372 Y7.725 Z-0.595 F1000
G1 X36.395 Y7.725 Z-0.528 F1000
G1 X36.403 Y7.725 Z-0.457 F1000
G1 X36.403 Y7.725 Z6.825 F1000
G1 X36.403 Y8.360 Z6.825 F1000
G1 X36.403 Y8.360 Z-0.140 F333.3
G1 X36.403 Y8.360 Z-0.557 F333.3
G1 X36.395 Y8.360 Z-0.628 F1000
G1 X36.372 Y8.360 Z-0.695 F1000
G1 X36.334 Y8.360 Z-0.755 F1000
G1 X36.284 Y8.360 Z-0.805 F1000
G1 X36.224 Y8.360 Z-0.843 F1000
G1 X36.156 Y8.360 Z-0.867 F1000
G1 X36.086 Y8.360 Z-0.875 F1000
G1 X35.768 Y8.360 Z-0.875 F1000
G1 X35.698 Y8.352 Z-0.875 F1000
G1 X35.631 Y8.329 Z-0.875 F1000
G1 X35.570 Y8.291 Z-0.875 F1000
G1 X35.520 Y8.241 Z-0.875 F1000
G1 X35.482 Y8.180 Z-0.875 F1000
G1 X35.459 Y8.113 Z-0.875 F1000
G1 X35.451 Y8.043 Z-0.875 F1000
G1 X35.451 Y0.085 Z-0.875 F1000
G1 X35.443 Y-0.071 Z-0.875 F1000
G1 X35.420 Y-0.225 Z-0.875 F1000
G1 X35.382 Y-0.376 Z-0.875 F1000
G1 X35.330 Y-0.523 Z-0.875 F1000
G1 X35.263 Y-0.664 Z-0.875 F1000
G1 X35.183 Y-0.798 Z-0.875 F1000
G1 X35.090 Y-0.923 Z-0.875 F1000
G1 X34.986 Y-1.038 Z-0.875 F1000
G1 X34.901 Y-1.123 Z-0.875 F1000
G1 X34.785 Y-1.227 Z-0.875 F1000
G1 X34.660 Y-1.320 Z-0.875 F1000
G1 X34.527 Y-1.400 Z-0.875 F1000
G1 X34.386 Y-1.467 Z-0.875 F1000
G1 X34.239 Y-1.519 Z-0.875 F1000
G1 X34.088 Y-1.557 Z-0.875 F1000
G1 X33.934 Y-1.580 Z-0.875 F1000
G1 X33.779 Y-1.587 Z-0.875 F1000
G1 X0.085 Y-1.587 Z-0.875 F1000
G1 X-0.071 Y-1.580 Z-0.875 F1000
G1 X-0.225 Y-1.557 Z-0.875 F1000
G1 X-0.376 Y-1.519 Z-0.875 F1000
G1 X-0.523 Y-1.467 Z-0.875 F1000
G1 X-0.664 Y-1.400 Z-0.875 F1000
G1 X-0.797 Y-1.320 Z-0.875 F1000
G1 X-0.922 Y-1.227 Z-0.875 F1000
G1 X-1.038 Y-1.123 Z-0.875 F1000
G1 X-1.123 Y-1.038 Z-0.875 F1000
G1 X-1.227 Y-0.922 Z-0.875 F1000
G1 X-1.320 Y-0.797 Z-0.875 F1000
G1 X-1.400 Y-0.664 Z-0.875 F1000
G1 X-1.467 Y-0.523 Z-0.875 F1000
G1 X-1.519 Y-0.376 Z-0.875 F1000
G1 X-1.557 Y-0.225 Z-0.875 F1000
G1 X-1.580 Y-0.071 Z-0.875 F1000
G1 X-1.587 Y0.085 Z-0.875 F1000
G1 X-1.587 Y16.000 Z-0.875 F1000
G1 X-1.580 Y16.156 Z-0.875 F1000
G1 X-1.557 Y16.310 Z-0.875 F1000
G1 X-1.519 Y16.461 Z-0.875 F1000
G1 X-1.467 Y16.608 Z-0.875 F1000
G1 X-1.400 Y16.749 Z-0.875 F1000
G1 X-1.320 Y16.882 Z-0.875 F1000
G1 X-1.227 Y17.007 Z-0.875 F1000
G1 X-1.123 Y17.123 Z-0.875 F1000
G1 X-1.038 Y17.207 Z-0.875 F1000
G1 X-0.923 Y17.312 Z-0.875 F1000
G1 X-0.798 Y17.405 Z-0.875 F1000
G1 X-0.664 Y17.485 Z-0.875 F1000
G1 X-0.523 Y17.552 Z-0.875 F1000
G1 X-0.376 Y17.604 Z-0.875 F1000
G1 X-0.225 Y17.642 Z-0.875 F1000
G1 X-0.071 Y17.665 Z-0.875 F1000
G1 X0.085 Y17.673 Z-0.875 F1000
G1 X33.779 Y17.673 Z-0.875 F1000
G1 X33.934 Y17.665 Z-0.875 F1000
G1 X34.088 Y17.642 Z-0.875 F1000
G1 X34.239 Y17.604 Z-0.875 F1000
G1 X34.386 Y17.552 Z-0.875 F1000
G1 X34.527 Y17.485 Z-0.875 F1000
G1 X34.661 Y17.405 Z-0.875 F1000
G1 X34.786 Y17.312 Z-0.875 F1000
G1 X34.901 Y17.208 Z-0.875 F1000
G1 X34.986 Y17.123 Z-0.875 F1000
G1 X35.090 Y17.007 Z-0.875 F1000
G1 X35.183 Y16.882 Z-0.875 F1000
G1 X35.263 Y16.749 Z-0.875 F1000
G1 X35.330 Y16.608 Z-0.875 F1000
G1 X35.382 Y16.461 Z-0.875 F1000
G1 X35.420 Y16.310 Z-0.875 F1000
G1 X35.443 Y16.156 Z-0.875 F1000
G1 X35.451 Y16.000 Z-0.875 F1000
G1 X35.451 Y8.043 Z-0.875 F1000
G1 X35.459 Y7.972 Z-0.875 F1000
G1 X35.482 Y7.905 Z-0.875 F1000
G1 X35.520 Y7.845 Z-0.875 F1000
G1 X35.570 Y7.794 Z-0.875 F1000
G1 X35.631 Y7.756 Z-0.875 F1000
G1 X35.698 Y7.733 Z-0.875 F1000
G1 X35.768 Y7.725 Z-0.875 F1000
G1 X36.086 Y7.725 Z-0.875 F1000
G1 X36.156 Y7.725 Z-0.867 F1000
G1 X36.224 Y7.725 Z-0.843 F1000
G1 X36.284 Y7.725 Z-0.805 F1000
G1 X36.334 Y7.725 Z-0.755 F1000
G1 X36.372 Y7.725 Z-0.695 F1000
G1 X36.395 Y7.725 Z-0.628 F1000
G1 X36.403 Y7.725 Z-0.557 F1000
G1 X36.403 Y7.725 Z6.825 F1000
G1 X36.403 Y8.360 Z6.825 F1000
G1 X36.403 Y8.360 Z-0.240 F333.3
G1 X36.403 Y8.360 Z-0.657 F333.3
G1 X36.395 Y8.360 Z-0.728 F1000
G1 X36.372 Y8.360 Z-0.795 F1000
G1 X36.334 Y8.360 Z-0.855 F1000
G1 X36.284 Y8.360 Z-0.905 F1000
G1 X36.224 Y8.360 Z-0.943 F1000
G1 X36.156 Y8.360 Z-0.967 F1000
G1 X36.086 Y8.360 Z-0.975 F1000
G1 X35.768 Y8.360 Z-0.975 F1000
G1 X35.698 Y8.352 Z-0.975 F1000
G1 X35.631 Y8.329 Z-0.975 F1000
G1 X35.570 Y8.291 Z-0.975 F1000
G1 X35.520 Y8.241 Z-0.975 F1000
G1 X35.482 Y8.180 Z-0.975 F1000
G1 X35.459 Y8.113 Z-0.975 F1000
G1 X35.451 Y8.043 Z-0.975 F1000
G1 X35.451 Y0.085 Z-0.975 F1000
G1 X35.443 Y-0.071 Z-0.975 F1000
G1 X35.420 Y-0.225 Z-0.975 F1000
G1 X35.382 Y-0.376 Z-0.975 F1000
G1 X35.330 Y-0.523 Z-0.975 F1000
G1 X35.263 Y-0.664 Z-0.975 F1000
G1 X35.183 Y-0.798 Z-0.975 F1000
G1 X35.090 Y-0.923 Z-0.975 F1000
G1 X34.986 Y-1.038 Z-0.975 F1000
G1 X34.901 Y-1.123 Z-0.975 F1000
G1 X34.785 Y-1.227 Z-0.975 F1000
G1 X34.660 Y-1.320 Z-0.975 F1000
G1 X34.527 Y-1.400 Z-0.975 F1000
G1 X34.386 Y-1.467 Z-0.975 F1000
G1 X34.239 Y-1.519 Z-0.975 F1000
G1 X34.088 Y-1.557 Z-0.975 F1000
G1 X33.934 Y-1.580 Z-0.975 F1000
G1 X33.779 Y-1.587 Z-0.975 F1000
G1 X0.085 Y-1.587 Z-0.975 F1000
G1 X-0.071 Y-1.580 Z-0.975 F1000
G1 X-0.225 Y-1.557 Z-0.975 F1000
G1 X-0.376 Y-1.519 Z-0.975 F1000
G1 X-0.523 Y-1.467 Z-0.975 F1000
G1 X-0.664 Y-1.400 Z-0.975 F1000
G1 X-0.797 Y-1.320 Z-0.975 F1000
G1 X-0.922 Y-1.227 Z-0.975 F1000
G1 X-1.038 Y-1.123 Z-0.975 F1000
G1 X-1.123 Y-1.038 Z-0.975 F1000
G1 X-1.227 Y-0.922 Z-0.975 F1000
G1 X-1.320 Y-0.797 Z-0.975 F1000
G1 X-1.400 Y-0.664 Z-0.975 F1000
G1 X-1.467 Y-0.523 Z-0.975 F1000
G1 X-1.519 Y-0.376 Z-0.975 F1000
G1 X-1.557 Y-0.225 Z-0.975 F1000
G1 X-1.580 Y-0.071 Z-0.975 F1000
G1 X-1.587 Y0.085 Z-0.975 F1000
G1 X-1.587 Y16.000 Z-0.975 F1000
G1 X-1.580 Y16.156 Z-0.975 F1000
G1 X-1.557 Y16.310 Z-0.975 F1000
G1 X-1.519 Y16.461 Z-0.975 F1000
G1 X-1.467 Y16.608 Z-0.975 F1000
G1 X-1.400 Y16.749 Z-0.975 F1000
G1 X-1.320 Y16.882 Z-0.975 F1000
G1 X-1.227 Y17.007 Z-0.975 F1000
G1 X-1.123 Y17.123 Z-0.975 F1000
G1 X-1.038 Y17.207 Z-0.975 F1000
G1 X-0.923 Y17.312 Z-0.975 F1000
G1 X-0.798 Y17.405 Z-0.975 F1000
G1 X-0.664 Y17.485 Z-0.975 F1000
G1 X-0.523 Y17.552 Z-0.975 F1000
G1 X-0.376 Y17.604 Z-0.975 F1000
G1 X-0.225 Y17.642 Z-0.975 F1000
G1 X-0.071 Y17.665 Z-0.975 F1000
G1 X0.085 Y17.673 Z-0.975 F1000
G1 X33.779 Y17.673 Z-0.975 F1000
G1 X33.934 Y17.665 Z-0.975 F1000
G1 X34.088 Y17.642 Z-0.975 F1000
G1 X34.239 Y17.604 Z-0.975 F1000
G1 X34.386 Y17.552 Z-0.975 F1000
G1 X34.527 Y17.485 Z-0.975 F1000
G1 X34.661 Y17.405 Z-0.975 F1000
G1 X34.786 Y17.312 Z-0.975 F1000
G1 X34.901 Y17.208 Z-0.975 F1000
G1 X34.986 Y17.123 Z-0.975 F1000
G1 X35.090 Y17.007 Z-0.975 F1000
G1 X35.183 Y16.882 Z-0.975 F1000
G1 X35.263 Y16.749 Z-0.975 F1000
G1 X35.330 Y16.608 Z-0.975 F1000
G1 X35.382 Y16.461 Z-0.975 F1000
G1 X35.420 Y16.310 Z-0.975 F1000
G1 X35.443 Y16.156 Z-0.975 F1000
G1 X35.451 Y16.000 Z-0.975 F1000
G1 X35.451 Y8.043 Z-0.975 F1000
G1 X35.459 Y7.972 Z-0.975 F1000
G1 X35.482 Y7.905 Z-0.975 F1000
G1 X35.520 Y7.845 Z-0.975 F1000
G1 X35.570 Y7.794 Z-0.975 F1000
G1 X35.631 Y7.756 Z-0.975 F1000
G1 X35.698 Y7.733 Z-0.975 F1000
G1 X35.768 Y7.725 Z-0.975 F1000
G1 X36.086 Y7.725 Z-0.975 F1000
G1 X36.156 Y7.725 Z-0.967 F1000
G1 X36.224 Y7.725 Z-0.943 F1000
G1 X36.284 Y7.725 Z-0.905 F1000
G1 X36.334 Y7.725 Z-0.855 F1000
G1 X36.372 Y7.725 Z-0.795 F1000
G1 X36.395 Y7.725 Z-0.728 F1000
G1 X36.403 Y7.725 Z-0.657 F1000
G1 X36.403 Y7.725 Z6.825 F1000
G1 X36.403 Y8.360 Z6.825 F1000
G1 X36.403 Y8.360 Z-0.340 F333.3
G1 X36.403 Y8.360 Z-0.757 F333.3
G1 X36.395 Y8.360 Z-0.828 F1000
G1 X36.372 Y8.360 Z-0.895 F1000
G1 X36.334 Y8.360 Z-0.955 F1000
G1 X36.284 Y8.360 Z-1.005 F1000
G1 X36.224 Y8.360 Z-1.043 F1000
G1 X36.156 Y8.360 Z-1.067 F1000
G1 X36.086 Y8.360 Z-1.075 F1000
G1 X35.768 Y8.360 Z-1.075 F1000
G1 X35.698 Y8.352 Z-1.075 F1000
G1 X35.631 Y8.329 Z-1.075 F1000
G1 X35.570 Y8.291 Z-1.075 F1000
G1 X35.520 Y8.241 Z-1.075 F1000
G1 X35.482 Y8.180 Z-1.075 F1000
G1 X35.459 Y8.113 Z-1.075 F1000
G1 X35.451 Y8.043 Z-1.075 F1000
G1 X35.451 Y0.085 Z-1.075 F1000
