;Titan-1-Blank-Facing
;Machine
;vendor: Snapmaker
;model: Desktop CNC
;description: Generic Snapmaker Marlin v20180725
M3 S18000
G4 S2 P2
G21
G90
;When using Fusion for Personal Use, the feedrate of rapid
;moves is reduced to match the feedrate of cutting moves,
;which can increase machining time. Unrestricted rapid moves
;are available with a Fusion Subscription.

;Blank Face Move
G0 X-0.103 Y-3.056 Z6.000
G1 X-0.103 Y-3.056 Z6.000 F300
G1 X-0.103 Y-3.056 Z0.218 F300
G1 X-0.103 Y-3.048 Z0.147 F300
G1 X-0.103 Y-3.025 Z0.080 F300
G1 X-0.103 Y-2.987 Z0.020 F300
G1 X-0.103 Y-2.937 Z-0.031 F300
G1 X-0.103 Y-2.877 Z-0.069 F300
G1 X-0.103 Y-2.810 Z-0.092 F300
G1 X-0.103 Y-2.739 Z-0.100 F300
G1 X-0.103 Y-2.598 Z-0.100 F300
G1 X-0.103 Y41.597 Z-0.100 F300
G1 X-0.095 Y41.702 Z-0.100 F1000
G1 X-0.073 Y41.805 Z-0.100 F1000
G1 X-0.036 Y41.903 Z-0.100 F1000
G1 X0.014 Y41.995 Z-0.100 F1000
G1 X0.077 Y42.079 Z-0.100 F1000
G1 X0.151 Y42.153 Z-0.100 F1000
G1 X0.235 Y42.216 Z-0.100 F1000
G1 X0.327 Y42.266 Z-0.100 F1000
G1 X0.425 Y42.303 Z-0.100 F1000
G1 X0.528 Y42.325 Z-0.100 F1000
G1 X0.632 Y42.332 Z-0.100 F1000
G1 X0.737 Y42.325 Z-0.100 F1000
G1 X0.840 Y42.303 Z-0.100 F1000
G1 X0.938 Y42.266 Z-0.100 F1000
G1 X1.030 Y42.216 Z-0.100 F1000
G1 X1.114 Y42.153 Z-0.100 F1000
G1 X1.188 Y42.079 Z-0.100 F1000
G1 X1.251 Y41.995 Z-0.100 F1000
G1 X1.301 Y41.903 Z-0.100 F1000
G1 X1.338 Y41.805 Z-0.100 F1000
G1 X1.360 Y41.702 Z-0.100 F1000
G1 X1.367 Y41.597 Z-0.100 F1000
G1 X1.367 Y-2.598 Z-0.100 F300
G1 X1.375 Y-2.702 Z-0.100 F1000
G1 X1.397 Y-2.805 Z-0.100 F1000
G1 X1.434 Y-2.903 Z-0.100 F1000
G1 X1.484 Y-2.995 Z-0.100 F1000
G1 X1.547 Y-3.079 Z-0.100 F1000
G1 X1.621 Y-3.153 Z-0.100 F1000
G1 X1.705 Y-3.216 Z-0.100 F1000
G1 X1.797 Y-3.266 Z-0.100 F1000
G1 X1.895 Y-3.303 Z-0.100 F1000
G1 X1.998 Y-3.325 Z-0.100 F1000
G1 X2.102 Y-3.332 Z-0.100 F1000
G1 X2.207 Y-3.325 Z-0.100 F1000
G1 X2.309 Y-3.303 Z-0.100 F1000
G1 X2.408 Y-3.266 Z-0.100 F1000
G1 X2.500 Y-3.216 Z-0.100 F1000
G1 X2.584 Y-3.153 Z-0.100 F1000
G1 X2.658 Y-3.079 Z-0.100 F1000
G1 X2.721 Y-2.995 Z-0.100 F1000
G1 X2.771 Y-2.903 Z-0.100 F1000
G1 X2.808 Y-2.805 Z-0.100 F1000
G1 X2.830 Y-2.702 Z-0.100 F1000
G1 X2.837 Y-2.598 Z-0.100 F1000
G1 X2.837 Y41.597 Z-0.100 F300
G1 X2.845 Y41.702 Z-0.100 F1000
G1 X2.867 Y41.805 Z-0.100 F1000
G1 X2.904 Y41.903 Z-0.100 F1000
G1 X2.954 Y41.995 Z-0.100 F1000
G1 X3.017 Y42.079 Z-0.100 F1000
G1 X3.091 Y42.153 Z-0.100 F1000
G1 X3.175 Y42.216 Z-0.100 F1000
G1 X3.267 Y42.266 Z-0.100 F1000
G1 X3.365 Y42.303 Z-0.100 F1000
G1 X3.468 Y42.325 Z-0.100 F1000
G1 X3.572 Y42.332 Z-0.100 F1000
G1 X3.677 Y42.325 Z-0.100 F1000
G1 X3.779 Y42.303 Z-0.100 F1000
G1 X3.878 Y42.266 Z-0.100 F1000
G1 X3.970 Y42.216 Z-0.100 F1000
G1 X4.054 Y42.153 Z-0.100 F1000
G1 X4.128 Y42.079 Z-0.100 F1000
G1 X4.191 Y41.995 Z-0.100 F1000
G1 X4.241 Y41.903 Z-0.100 F1000
G1 X4.278 Y41.805 Z-0.100 F1000
G1 X4.300 Y41.702 Z-0.100 F1000
G1 X4.307 Y41.597 Z-0.100 F1000
G1 X4.307 Y-2.598 Z-0.100 F300
G1 X4.315 Y-2.702 Z-0.100 F1000
G1 X4.337 Y-2.805 Z-0.100 F1000
G1 X4.374 Y-2.903 Z-0.100 F1000
G1 X4.424 Y-2.995 Z-0.100 F1000
G1 X4.487 Y-3.079 Z-0.100 F1000
G1 X4.561 Y-3.153 Z-0.100 F1000
G1 X4.645 Y-3.216 Z-0.100 F1000
G1 X4.737 Y-3.266 Z-0.100 F1000
G1 X4.835 Y-3.303 Z-0.100 F1000
G1 X4.938 Y-3.325 Z-0.100 F1000
G1 X5.042 Y-3.332 Z-0.100 F1000
G1 X5.147 Y-3.325 Z-0.100 F1000
G1 X5.249 Y-3.303 Z-0.100 F1000
G1 X5.348 Y-3.266 Z-0.100 F1000
G1 X5.440 Y-3.216 Z-0.100 F1000
G1 X5.524 Y-3.153 Z-0.100 F1000
G1 X5.598 Y-3.079 Z-0.100 F1000
G1 X5.661 Y-2.995 Z-0.100 F1000
G1 X5.711 Y-2.903 Z-0.100 F1000
G1 X5.748 Y-2.805 Z-0.100 F1000
G1 X5.770 Y-2.702 Z-0.100 F1000
G1 X5.777 Y-2.598 Z-0.100 F1000
G1 X5.777 Y41.597 Z-0.100 F300
G1 X5.785 Y41.702 Z-0.100 F1000
G1 X5.807 Y41.805 Z-0.100 F1000
G1 X5.844 Y41.903 Z-0.100 F1000
G1 X5.894 Y41.995 Z-0.100 F1000
G1 X5.957 Y42.079 Z-0.100 F1000
G1 X6.031 Y42.153 Z-0.100 F1000
G1 X6.115 Y42.216 Z-0.100 F1000
G1 X6.207 Y42.266 Z-0.100 F1000
G1 X6.305 Y42.303 Z-0.100 F1000
G1 X6.408 Y42.325 Z-0.100 F1000
G1 X6.512 Y42.332 Z-0.100 F1000
G1 X6.617 Y42.325 Z-0.100 F1000
G1 X6.719 Y42.303 Z-0.100 F1000
G1 X6.818 Y42.266 Z-0.100 F1000
G1 X6.910 Y42.216 Z-0.100 F1000
G1 X6.994 Y42.153 Z-0.100 F1000
G1 X7.068 Y42.079 Z-0.100 F1000
G1 X7.131 Y41.995 Z-0.100 F1000
G1 X7.181 Y41.903 Z-0.100 F1000
G1 X7.217 Y41.805 Z-0.100 F1000
G1 X7.240 Y41.702 Z-0.100 F1000
G1 X7.247 Y41.597 Z-0.100 F1000
G1 X7.247 Y-2.598 Z-0.100 F300
G1 X7.255 Y-2.702 Z-0.100 F1000
G1 X7.277 Y-2.805 Z-0.100 F1000
G1 X7.314 Y-2.903 Z-0.100 F1000
G1 X7.364 Y-2.995 Z-0.100 F1000
G1 X7.427 Y-3.079 Z-0.100 F1000
G1 X7.501 Y-3.153 Z-0.100 F1000
G1 X7.585 Y-3.216 Z-0.100 F1000
G1 X7.677 Y-3.266 Z-0.100 F1000
G1 X7.775 Y-3.303 Z-0.100 F1000
G1 X7.878 Y-3.325 Z-0.100 F1000
G1 X7.982 Y-3.332 Z-0.100 F1000
G1 X8.087 Y-3.325 Z-0.100 F1000
G1 X8.189 Y-3.303 Z-0.100 F1000
G1 X8.288 Y-3.266 Z-0.100 F1000
G1 X8.380 Y-3.216 Z-0.100 F1000
G1 X8.464 Y-3.153 Z-0.100 F1000
G1 X8.538 Y-3.079 Z-0.100 F1000
G1 X8.601 Y-2.995 Z-0.100 F1000
G1 X8.651 Y-2.903 Z-0.100 F1000
G1 X8.687 Y-2.805 Z-0.100 F1000
G1 X8.710 Y-2.702 Z-0.100 F1000
G1 X8.717 Y-2.598 Z-0.100 F1000
G1 X8.717 Y41.597 Z-0.100 F300
G1 X8.725 Y41.702 Z-0.100 F1000
G1 X8.747 Y41.805 Z-0.100 F1000
G1 X8.784 Y41.903 Z-0.100 F1000
G1 X8.834 Y41.995 Z-0.100 F1000
G1 X8.897 Y42.079 Z-0.100 F1000
G1 X8.971 Y42.153 Z-0.100 F1000
G1 X9.055 Y42.216 Z-0.100 F1000
G1 X9.147 Y42.266 Z-0.100 F1000
G1 X9.245 Y42.303 Z-0.100 F1000
G1 X9.348 Y42.325 Z-0.100 F1000
G1 X9.452 Y42.332 Z-0.100 F1000
G1 X9.557 Y42.325 Z-0.100 F1000
G1 X9.659 Y42.303 Z-0.100 F1000
G1 X9.758 Y42.266 Z-0.100 F1000
G1 X9.850 Y42.216 Z-0.100 F1000
G1 X9.933 Y42.153 Z-0.100 F1000
G1 X10.008 Y42.079 Z-0.100 F1000
G1 X10.070 Y41.995 Z-0.100 F1000
G1 X10.121 Y41.903 Z-0.100 F1000
G1 X10.157 Y41.805 Z-0.100 F1000
G1 X10.180 Y41.702 Z-0.100 F1000
G1 X10.187 Y41.597 Z-0.100 F1000
G1 X10.187 Y-2.598 Z-0.100 F300
G1 X10.195 Y-2.702 Z-0.100 F1000
G1 X10.217 Y-2.805 Z-0.100 F1000
G1 X10.254 Y-2.903 Z-0.100 F1000
G1 X10.304 Y-2.995 Z-0.100 F1000
G1 X10.367 Y-3.079 Z-0.100 F1000
G1 X10.441 Y-3.153 Z-0.100 F1000
G1 X10.525 Y-3.216 Z-0.100 F1000
G1 X10.617 Y-3.266 Z-0.100 F1000
G1 X10.715 Y-3.303 Z-0.100 F1000
G1 X10.818 Y-3.325 Z-0.100 F1000
G1 X10.922 Y-3.332 Z-0.100 F1000
G1 X11.027 Y-3.325 Z-0.100 F1000
G1 X11.129 Y-3.303 Z-0.100 F1000
G1 X11.227 Y-3.266 Z-0.100 F1000
G1 X11.320 Y-3.216 Z-0.100 F1000
G1 X11.403 Y-3.153 Z-0.100 F1000
G1 X11.478 Y-3.079 Z-0.100 F1000
G1 X11.540 Y-2.995 Z-0.100 F1000
G1 X11.591 Y-2.903 Z-0.100 F1000
G1 X11.627 Y-2.805 Z-0.100 F1000
G1 X11.650 Y-2.702 Z-0.100 F1000
G1 X11.657 Y-2.598 Z-0.100 F1000
G1 X11.657 Y41.597 Z-0.100 F300
G1 X11.665 Y41.702 Z-0.100 F1000
G1 X11.687 Y41.805 Z-0.100 F1000
G1 X11.724 Y41.903 Z-0.100 F1000
G1 X11.774 Y41.995 Z-0.100 F1000
G1 X11.837 Y42.079 Z-0.100 F1000
G1 X11.911 Y42.153 Z-0.100 F1000
G1 X11.995 Y42.216 Z-0.100 F1000
G1 X12.087 Y42.266 Z-0.100 F1000
G1 X12.185 Y42.303 Z-0.100 F1000
G1 X12.288 Y42.325 Z-0.100 F1000
G1 X12.392 Y42.332 Z-0.100 F1000
G1 X12.497 Y42.325 Z-0.100 F1000
G1 X12.599 Y42.303 Z-0.100 F1000
G1 X12.697 Y42.266 Z-0.100 F1000
G1 X12.789 Y42.216 Z-0.100 F1000
G1 X12.873 Y42.153 Z-0.100 F1000
G1 X12.948 Y42.079 Z-0.100 F1000
G1 X13.010 Y41.995 Z-0.100 F1000
G1 X13.061 Y41.903 Z-0.100 F1000
G1 X13.097 Y41.805 Z-0.100 F1000
G1 X13.120 Y41.702 Z-0.100 F1000
G1 X13.127 Y41.597 Z-0.100 F1000
G1 X13.127 Y-2.598 Z-0.100 F300
G1 X13.135 Y-2.702 Z-0.100 F1000
G1 X13.157 Y-2.805 Z-0.100 F1000
G1 X13.194 Y-2.903 Z-0.100 F1000
G1 X13.244 Y-2.995 Z-0.100 F1000
G1 X13.307 Y-3.079 Z-0.100 F1000
G1 X13.381 Y-3.153 Z-0.100 F1000
G1 X13.465 Y-3.216 Z-0.100 F1000
G1 X13.557 Y-3.266 Z-0.100 F1000
G1 X13.655 Y-3.303 Z-0.100 F1000
G1 X13.757 Y-3.325 Z-0.100 F1000
G1 X13.862 Y-3.332 Z-0.100 F1000
G1 X13.967 Y-3.325 Z-0.100 F1000
G1 X14.069 Y-3.303 Z-0.100 F1000
G1 X14.167 Y-3.266 Z-0.100 F1000
G1 X14.259 Y-3.216 Z-0.100 F1000
G1 X14.343 Y-3.153 Z-0.100 F1000
G1 X14.418 Y-3.079 Z-0.100 F1000
G1 X14.480 Y-2.995 Z-0.100 F1000
G1 X14.531 Y-2.903 Z-0.100 F1000
G1 X14.567 Y-2.805 Z-0.100 F1000
G1 X14.590 Y-2.702 Z-0.100 F1000
G1 X14.597 Y-2.598 Z-0.100 F1000
G1 X14.597 Y41.597 Z-0.100 F300
G1 X14.605 Y41.702 Z-0.100 F1000
G1 X14.627 Y41.805 Z-0.100 F1000
G1 X14.663 Y41.903 Z-0.100 F1000
G1 X14.714 Y41.995 Z-0.100 F1000
G1 X14.777 Y42.079 Z-0.100 F1000
G1 X14.851 Y42.153 Z-0.100 F1000
G1 X14.935 Y42.216 Z-0.100 F1000
G1 X15.027 Y42.266 Z-0.100 F1000
G1 X15.125 Y42.303 Z-0.100 F1000
G1 X15.227 Y42.325 Z-0.100 F1000
G1 X15.332 Y42.332 Z-0.100 F1000
G1 X15.437 Y42.325 Z-0.100 F1000
G1 X15.539 Y42.303 Z-0.100 F1000
G1 X15.637 Y42.266 Z-0.100 F1000
G1 X15.729 Y42.216 Z-0.100 F1000
G1 X15.813 Y42.153 Z-0.100 F1000
G1 X15.887 Y42.079 Z-0.100 F1000
G1 X15.950 Y41.995 Z-0.100 F1000
G1 X16.001 Y41.903 Z-0.100 F1000
G1 X16.037 Y41.805 Z-0.100 F1000
G1 X16.060 Y41.702 Z-0.100 F1000
G1 X16.067 Y41.597 Z-0.100 F1000
G1 X16.067 Y-2.598 Z-0.100 F300
G1 X16.074 Y-2.702 Z-0.100 F1000
G1 X16.097 Y-2.805 Z-0.100 F1000
G1 X16.133 Y-2.903 Z-0.100 F1000
G1 X16.184 Y-2.995 Z-0.100 F1000
G1 X16.247 Y-3.079 Z-0.100 F1000
G1 X16.321 Y-3.153 Z-0.100 F1000
G1 X16.405 Y-3.216 Z-0.100 F1000
G1 X16.497 Y-3.266 Z-0.100 F1000
G1 X16.595 Y-3.303 Z-0.100 F1000
G1 X16.697 Y-3.325 Z-0.100 F1000
G1 X16.802 Y-3.332 Z-0.100 F1000
G1 X16.907 Y-3.325 Z-0.100 F1000
G1 X17.009 Y-3.303 Z-0.100 F1000
G1 X17.107 Y-3.266 Z-0.100 F1000
G1 X17.199 Y-3.216 Z-0.100 F1000
G1 X17.283 Y-3.153 Z-0.100 F1000
G1 X17.357 Y-3.079 Z-0.100 F1000
G1 X17.420 Y-2.995 Z-0.100 F1000
G1 X17.471 Y-2.903 Z-0.100 F1000
G1 X17.507 Y-2.805 Z-0.100 F1000
G1 X17.529 Y-2.702 Z-0.100 F1000
G1 X17.537 Y-2.598 Z-0.100 F1000
G1 X17.537 Y41.597 Z-0.100 F300
G1 X17.544 Y41.702 Z-0.100 F1000
G1 X17.567 Y41.805 Z-0.100 F1000
G1 X17.603 Y41.903 Z-0.100 F1000
G1 X17.654 Y41.995 Z-0.100 F1000
G1 X17.716 Y42.079 Z-0.100 F1000
G1 X17.791 Y42.153 Z-0.100 F1000
G1 X17.875 Y42.216 Z-0.100 F1000
G1 X17.967 Y42.266 Z-0.100 F1000
G1 X18.065 Y42.303 Z-0.100 F1000
G1 X18.167 Y42.325 Z-0.100 F1000
G1 X18.272 Y42.332 Z-0.100 F1000
G1 X18.377 Y42.325 Z-0.100 F1000
G1 X18.479 Y42.303 Z-0.100 F1000
G1 X18.577 Y42.266 Z-0.100 F1000
G1 X18.669 Y42.216 Z-0.100 F1000
G1 X18.753 Y42.153 Z-0.100 F1000
G1 X18.827 Y42.079 Z-0.100 F1000
G1 X18.890 Y41.995 Z-0.100 F1000
G1 X18.940 Y41.903 Z-0.100 F1000
G1 X18.977 Y41.805 Z-0.100 F1000
G1 X18.999 Y41.702 Z-0.100 F1000
G1 X19.007 Y41.597 Z-0.100 F1000
G1 X19.007 Y-2.598 Z-0.100 F300
G1 X19.014 Y-2.702 Z-0.100 F1000
G1 X19.037 Y-2.805 Z-0.100 F1000
G1 X19.073 Y-2.903 Z-0.100 F1000
G1 X19.124 Y-2.995 Z-0.100 F1000
G1 X19.186 Y-3.079 Z-0.100 F1000
G1 X19.261 Y-3.153 Z-0.100 F1000
G1 X19.345 Y-3.216 Z-0.100 F1000
G1 X19.437 Y-3.266 Z-0.100 F1000
G1 X19.535 Y-3.303 Z-0.100 F1000
G1 X19.637 Y-3.325 Z-0.100 F1000
G1 X19.742 Y-3.332 Z-0.100 F1000
G1 X19.846 Y-3.325 Z-0.100 F1000
G1 X19.949 Y-3.303 Z-0.100 F1000
G1 X20.047 Y-3.266 Z-0.100 F1000
G1 X20.139 Y-3.216 Z-0.100 F1000
G1 X20.223 Y-3.153 Z-0.100 F1000
G1 X20.297 Y-3.079 Z-0.100 F1000
G1 X20.360 Y-2.995 Z-0.100 F1000
G1 X20.410 Y-2.903 Z-0.100 F1000
G1 X20.447 Y-2.805 Z-0.100 F1000
G1 X20.469 Y-2.702 Z-0.100 F1000
G1 X20.477 Y-2.598 Z-0.100 F1000
G1 X20.477 Y41.597 Z-0.100 F300
G1 X20.477 Y41.668 Z-0.092 F1500
G1 X20.477 Y41.735 Z-0.069 F1500
G1 X20.477 Y41.795 Z-0.031 F1500
G1 X20.477 Y41.846 Z0.020 F1500
G1 X20.477 Y41.884 Z0.080 F1500
G1 X20.477 Y41.907 Z0.147 F1500
G1 X20.477 Y41.915 Z0.218 F1500
G1 X20.477 Y41.915 Z1.000 F300
G1 X-0.103 Y42.056 Z1.000 F300
G1 X-0.103 Y42.056 Z0.117 F300
G1 X-0.103 Y42.048 Z0.047 F300
G1 X-0.103 Y42.025 Z-0.020 F300
G1 X-0.103 Y41.987 Z-0.080 F300
G1 X-0.103 Y41.937 Z-0.131 F300
G1 X-0.103 Y41.877 Z-0.169 F300
G1 X-0.103 Y41.810 Z-0.192 F300
G1 X-0.103 Y41.739 Z-0.200 F300
G1 X-0.103 Y41.597 Z-0.200 F300
G1 X-0.103 Y-2.598 Z-0.200 F300
G1 X-0.095 Y-2.702 Z-0.200 F1000
G1 X-0.073 Y-2.805 Z-0.200 F1000
G1 X-0.036 Y-2.903 Z-0.200 F1000
G1 X0.014 Y-2.995 Z-0.200 F1000
G1 X0.077 Y-3.079 Z-0.200 F1000
G1 X0.151 Y-3.153 Z-0.200 F1000
G1 X0.235 Y-3.216 Z-0.200 F1000
G1 X0.327 Y-3.266 Z-0.200 F1000
G1 X0.425 Y-3.303 Z-0.200 F1000
G1 X0.528 Y-3.325 Z-0.200 F1000
G1 X0.632 Y-3.332 Z-0.200 F1000
G1 X0.737 Y-3.325 Z-0.200 F1000
G1 X0.840 Y-3.303 Z-0.200 F1000
G1 X0.938 Y-3.266 Z-0.200 F1000
G1 X1.030 Y-3.216 Z-0.200 F1000
G1 X1.114 Y-3.153 Z-0.200 F1000
G1 X1.188 Y-3.079 Z-0.200 F1000
G1 X1.251 Y-2.995 Z-0.200 F1000
G1 X1.301 Y-2.903 Z-0.200 F1000
G1 X1.338 Y-2.805 Z-0.200 F1000
G1 X1.360 Y-2.702 Z-0.200 F1000
G1 X1.367 Y-2.598 Z-0.200 F1000
G1 X1.367 Y41.597 Z-0.200 F300
G1 X1.375 Y41.702 Z-0.200 F1000
G1 X1.397 Y41.805 Z-0.200 F1000
G1 X1.434 Y41.903 Z-0.200 F1000
G1 X1.484 Y41.995 Z-0.200 F1000
G1 X1.547 Y42.079 Z-0.200 F1000
G1 X1.621 Y42.153 Z-0.200 F1000
G1 X1.705 Y42.216 Z-0.200 F1000
G1 X1.797 Y42.266 Z-0.200 F1000
G1 X1.895 Y42.303 Z-0.200 F1000
G1 X1.998 Y42.325 Z-0.200 F1000
G1 X2.102 Y42.332 Z-0.200 F1000
G1 X2.207 Y42.325 Z-0.200 F1000
G1 X2.309 Y42.303 Z-0.200 F1000
G1 X2.408 Y42.266 Z-0.200 F1000
G1 X2.500 Y42.216 Z-0.200 F1000
G1 X2.584 Y42.153 Z-0.200 F1000
G1 X2.658 Y42.079 Z-0.200 F1000
G1 X2.721 Y41.995 Z-0.200 F1000
G1 X2.771 Y41.903 Z-0.200 F1000
G1 X2.808 Y41.805 Z-0.200 F1000
G1 X2.830 Y41.702 Z-0.200 F1000
G1 X2.837 Y41.597 Z-0.200 F1000
G1 X2.837 Y-2.598 Z-0.200 F300
G1 X2.845 Y-2.702 Z-0.200 F1000
G1 X2.867 Y-2.805 Z-0.200 F1000
G1 X2.904 Y-2.903 Z-0.200 F1000
G1 X2.954 Y-2.995 Z-0.200 F1000
G1 X3.017 Y-3.079 Z-0.200 F1000
G1 X3.091 Y-3.153 Z-0.200 F1000
G1 X3.175 Y-3.216 Z-0.200 F1000
G1 X3.267 Y-3.266 Z-0.200 F1000
G1 X3.365 Y-3.303 Z-0.200 F1000
G1 X3.468 Y-3.325 Z-0.200 F1000
G1 X3.572 Y-3.332 Z-0.200 F1000
G1 X3.677 Y-3.325 Z-0.200 F1000
G1 X3.779 Y-3.303 Z-0.200 F1000
G1 X3.878 Y-3.266 Z-0.200 F1000
G1 X3.970 Y-3.216 Z-0.200 F1000
G1 X4.054 Y-3.153 Z-0.200 F1000
G1 X4.128 Y-3.079 Z-0.200 F1000
G1 X4.191 Y-2.995 Z-0.200 F1000
G1 X4.241 Y-2.903 Z-0.200 F1000
G1 X4.278 Y-2.805 Z-0.200 F1000
G1 X4.300 Y-2.702 Z-0.200 F1000
G1 X4.307 Y-2.598 Z-0.200 F1000
G1 X4.307 Y41.597 Z-0.200 F300
G1 X4.315 Y41.702 Z-0.200 F1000
G1 X4.337 Y41.805 Z-0.200 F1000
G1 X4.374 Y41.903 Z-0.200 F1000
G1 X4.424 Y41.995 Z-0.200 F1000
G1 X4.487 Y42.079 Z-0.200 F1000
G1 X4.561 Y42.153 Z-0.200 F1000
G1 X4.645 Y42.216 Z-0.200 F1000
G1 X4.737 Y42.266 Z-0.200 F1000
G1 X4.835 Y42.303 Z-0.200 F1000
G1 X4.938 Y42.325 Z-0.200 F1000
G1 X5.042 Y42.332 Z-0.200 F1000
G1 X5.147 Y42.325 Z-0.200 F1000
G1 X5.249 Y42.303 Z-0.200 F1000
G1 X5.348 Y42.266 Z-0.200 F1000
G1 X5.440 Y42.216 Z-0.200 F1000
G1 X5.524 Y42.153 Z-0.200 F1000
G1 X5.598 Y42.079 Z-0.200 F1000
G1 X5.661 Y41.995 Z-0.200 F1000
G1 X5.711 Y41.903 Z-0.200 F1000
G1 X5.748 Y41.805 Z-0.200 F1000
G1 X5.770 Y41.702 Z-0.200 F1000
G1 X5.777 Y41.597 Z-0.200 F1000
G1 X5.777 Y-2.598 Z-0.200 F300
G1 X5.785 Y-2.702 Z-0.200 F1000
G1 X5.807 Y-2.805 Z-0.200 F1000
G1 X5.844 Y-2.903 Z-0.200 F1000
G1 X5.894 Y-2.995 Z-0.200 F1000
G1 X5.957 Y-3.079 Z-0.200 F1000
G1 X6.031 Y-3.153 Z-0.200 F1000
G1 X6.115 Y-3.216 Z-0.200 F1000
G1 X6.207 Y-3.266 Z-0.200 F1000
G1 X6.305 Y-3.303 Z-0.200 F1000
G1 X6.408 Y-3.325 Z-0.200 F1000
G1 X6.512 Y-3.332 Z-0.200 F1000
G1 X6.617 Y-3.325 Z-0.200 F1000
G1 X6.719 Y-3.303 Z-0.200 F1000
G1 X6.818 Y-3.266 Z-0.200 F1000
G1 X6.910 Y-3.216 Z-0.200 F1000
G1 X6.994 Y-3.153 Z-0.200 F1000
G1 X7.068 Y-3.079 Z-0.200 F1000
G1 X7.131 Y-2.995 Z-0.200 F1000
G1 X7.181 Y-2.903 Z-0.200 F1000
G1 X7.217 Y-2.805 Z-0.200 F1000
G1 X7.240 Y-2.702 Z-0.200 F1000
G1 X7.247 Y-2.598 Z-0.200 F1000
G1 X7.247 Y41.597 Z-0.200 F300
G1 X7.255 Y41.702 Z-0.200 F1000
G1 X7.277 Y41.805 Z-0.200 F1000
G1 X7.314 Y41.903 Z-0.200 F1000
G1 X7.364 Y41.995 Z-0.200 F1000
G1 X7.427 Y42.079 Z-0.200 F1000
G1 X7.501 Y42.153 Z-0.200 F1000
G1 X7.585 Y42.216 Z-0.200 F1000
G1 X7.677 Y42.266 Z-0.200 F1000
G1 X7.775 Y42.303 Z-0.200 F1000
G1 X7.878 Y42.325 Z-0.200 F1000
G1 X7.982 Y42.332 Z-0.200 F1000
G1 X8.087 Y42.325 Z-0.200 F1000
G1 X8.189 Y42.303 Z-0.200 F1000
G1 X8.288 Y42.266 Z-0.200 F1000
G1 X8.380 Y42.216 Z-0.200 F1000
G1 X8.464 Y42.153 Z-0.200 F1000
G1 X8.538 Y42.079 Z-0.200 F1000
G1 X8.601 Y41.995 Z-0.200 F1000
G1 X8.651 Y41.903 Z-0.200 F1000
G1 X8.687 Y41.805 Z-0.200 F1000
G1 X8.710 Y41.702 Z-0.200 F1000
G1 X8.717 Y41.597 Z-0.200 F1000
G1 X8.717 Y-2.598 Z-0.200 F300
G1 X8.725 Y-2.702 Z-0.200 F1000
G1 X8.747 Y-2.805 Z-0.200 F1000
G1 X8.784 Y-2.903 Z-0.200 F1000
G1 X8.834 Y-2.995 Z-0.200 F1000
G1 X8.897 Y-3.079 Z-0.200 F1000
G1 X8.971 Y-3.153 Z-0.200 F1000
G1 X9.055 Y-3.216 Z-0.200 F1000
G1 X9.147 Y-3.266 Z-0.200 F1000
G1 X9.245 Y-3.303 Z-0.200 F1000
G1 X9.348 Y-3.325 Z-0.200 F1000
G1 X9.452 Y-3.332 Z-0.200 F1000
G1 X9.557 Y-3.325 Z-0.200 F1000
G1 X9.659 Y-3.303 Z-0.200 F1000
G1 X9.758 Y-3.266 Z-0.200 F1000
G1 X9.850 Y-3.216 Z-0.200 F1000
G1 X9.933 Y-3.153 Z-0.200 F1000
G1 X10.008 Y-3.079 Z-0.200 F1000
G1 X10.070 Y-2.995 Z-0.200 F1000
G1 X10.121 Y-2.903 Z-0.200 F1000
G1 X10.157 Y-2.805 Z-0.200 F1000
G1 X10.180 Y-2.702 Z-0.200 F1000
G1 X10.187 Y-2.598 Z-0.200 F1000
G1 X10.187 Y41.597 Z-0.200 F300
G1 X10.195 Y41.702 Z-0.200 F1000
G1 X10.217 Y41.805 Z-0.200 F1000
G1 X10.254 Y41.903 Z-0.200 F1000
G1 X10.304 Y41.995 Z-0.200 F1000
G1 X10.367 Y42.079 Z-0.200 F1000
G1 X10.441 Y42.153 Z-0.200 F1000
G1 X10.525 Y42.216 Z-0.200 F1000
G1 X10.617 Y42.266 Z-0.200 F1000
G1 X10.715 Y42.303 Z-0.200 F1000
G1 X10.818 Y42.325 Z-0.200 F1000
G1 X10.922 Y42.332 Z-0.200 F1000
G1 X11.027 Y42.325 Z-0.200 F1000
G1 X11.129 Y42.303 Z-0.200 F1000
G1 X11.227 Y42.266 Z-0.200 F1000
G1 X11.320 Y42.216 Z-0.200 F1000
G1 X11.403 Y42.153 Z-0.200 F1000
G1 X11.478 Y42.079 Z-0.200 F1000
G1 X11.540 Y41.995 Z-0.200 F1000
G1 X11.591 Y41.903 Z-0.200 F1000
G1 X11.627 Y41.805 Z-0.200 F1000
G1 X11.650 Y41.702 Z-0.200 F1000
G1 X11.657 Y41.597 Z-0.200 F1000
G1 X11.657 Y-2.598 Z-0.200 F300
G1 X11.665 Y-2.702 Z-0.200 F1000
G1 X11.687 Y-2.805 Z-0.200 F1000
G1 X11.724 Y-2.903 Z-0.200 F1000
G1 X11.774 Y-2.995 Z-0.200 F1000
G1 X11.837 Y-3.079 Z-0.200 F1000
G1 X11.911 Y-3.153 Z-0.200 F1000
G1 X11.995 Y-3.216 Z-0.200 F1000
G1 X12.087 Y-3.266 Z-0.200 F1000
G1 X12.185 Y-3.303 Z-0.200 F1000
G1 X12.288 Y-3.325 Z-0.200 F1000
G1 X12.392 Y-3.332 Z-0.200 F1000
G1 X12.497 Y-3.325 Z-0.200 F1000
G1 X12.599 Y-3.303 Z-0.200 F1000
G1 X12.697 Y-3.266 Z-0.200 F1000
G1 X12.789 Y-3.216 Z-0.200 F1000
G1 X12.873 Y-3.153 Z-0.200 F1000
G1 X12.948 Y-3.079 Z-0.200 F1000
G1 X13.010 Y-2.995 Z-0.200 F1000
G1 X13.061 Y-2.903 Z-0.200 F1000
G1 X13.097 Y-2.805 Z-0.200 F1000
G1 X13.120 Y-2.702 Z-0.200 F1000
G1 X13.127 Y-2.598 Z-0.200 F1000
G1 X13.127 Y41.597 Z-0.200 F300
G1 X13.135 Y41.702 Z-0.200 F1000
G1 X13.157 Y41.805 Z-0.200 F1000
G1 X13.194 Y41.903 Z-0.200 F1000
G1 X13.244 Y41.995 Z-0.200 F1000
G1 X13.307 Y42.079 Z-0.200 F1000
G1 X13.381 Y42.153 Z-0.200 F1000
G1 X13.465 Y42.216 Z-0.200 F1000
G1 X13.557 Y42.266 Z-0.200 F1000
G1 X13.655 Y42.303 Z-0.200 F1000
G1 X13.757 Y42.325 Z-0.200 F1000
G1 X13.862 Y42.332 Z-0.200 F1000
G1 X13.967 Y42.325 Z-0.200 F1000
G1 X14.069 Y42.303 Z-0.200 F1000
G1 X14.167 Y42.266 Z-0.200 F1000
G1 X14.259 Y42.216 Z-0.200 F1000
G1 X14.343 Y42.153 Z-0.200 F1000
G1 X14.418 Y42.079 Z-0.200 F1000
G1 X14.480 Y41.995 Z-0.200 F1000
G1 X14.531 Y41.903 Z-0.200 F1000
G1 X14.567 Y41.805 Z-0.200 F1000
G1 X14.590 Y41.702 Z-0.200 F1000
G1 X14.597 Y41.597 Z-0.200 F1000
G1 X14.597 Y-2.598 Z-0.200 F300
G1 X14.605 Y-2.702 Z-0.200 F1000
G1 X14.627 Y-2.805 Z-0.200 F1000
G1 X14.663 Y-2.903 Z-0.200 F1000
G1 X14.714 Y-2.995 Z-0.200 F1000
G1 X14.777 Y-3.079 Z-0.200 F1000
G1 X14.851 Y-3.153 Z-0.200 F1000
G1 X14.935 Y-3.216 Z-0.200 F1000
G1 X15.027 Y-3.266 Z-0.200 F1000
G1 X15.125 Y-3.303 Z-0.200 F1000
G1 X15.227 Y-3.325 Z-0.200 F1000
G1 X15.332 Y-3.332 Z-0.200 F1000
G1 X15.437 Y-3.325 Z-0.200 F1000
G1 X15.539 Y-3.303 Z-0.200 F1000
G1 X15.637 Y-3.266 Z-0.200 F1000
G1 X15.729 Y-3.216 Z-0.200 F1000
G1 X15.813 Y-3.153 Z-0.200 F1000
G1 X15.887 Y-3.079 Z-0.200 F1000
G1 X15.950 Y-2.995 Z-0.200 F1000
G1 X16.001 Y-2.903 Z-0.200 F1000
G1 X16.037 Y-2.805 Z-0.200 F1000
G1 X16.060 Y-2.702 Z-0.200 F1000
G1 X16.067 Y-2.598 Z-0.200 F1000
G1 X16.067 Y41.597 Z-0.200 F300
G1 X16.074 Y41.702 Z-0.200 F1000
G1 X16.097 Y41.805 Z-0.200 F1000
G1 X16.133 Y41.903 Z-0.200 F1000
G1 X16.184 Y41.995 Z-0.200 F1000
G1 X16.247 Y42.079 Z-0.200 F1000
G1 X16.321 Y42.153 Z-0.200 F1000
G1 X16.405 Y42.216 Z-0.200 F1000
G1 X16.497 Y42.266 Z-0.200 F1000
G1 X16.595 Y42.303 Z-0.200 F1000
G1 X16.697 Y42.325 Z-0.200 F1000
G1 X16.802 Y42.332 Z-0.200 F1000
G1 X16.907 Y42.325 Z-0.200 F1000
G1 X17.009 Y42.303 Z-0.200 F1000
G1 X17.107 Y42.266 Z-0.200 F1000
G1 X17.199 Y42.216 Z-0.200 F1000
G1 X17.283 Y42.153 Z-0.200 F1000
G1 X17.357 Y42.079 Z-0.200 F1000
G1 X17.420 Y41.995 Z-0.200 F1000
G1 X17.471 Y41.903 Z-0.200 F1000
G1 X17.507 Y41.805 Z-0.200 F1000
G1 X17.529 Y41.702 Z-0.200 F1000
G1 X17.537 Y41.597 Z-0.200 F1000
G1 X17.537 Y-2.598 Z-0.200 F300
G1 X17.544 Y-2.702 Z-0.200 F1000
G1 X17.567 Y-2.805 Z-0.200 F1000
G1 X17.603 Y-2.903 Z-0.200 F1000
G1 X17.654 Y-2.995 Z-0.200 F1000
G1 X17.716 Y-3.079 Z-0.200 F1000
G1 X17.791 Y-3.153 Z-0.200 F1000
G1 X17.875 Y-3.216 Z-0.200 F1000
G1 X17.967 Y-3.266 Z-0.200 F1000
G1 X18.065 Y-3.303 Z-0.200 F1000
G1 X18.167 Y-3.325 Z-0.200 F1000
G1 X18.272 Y-3.332 Z-0.200 F1000
G1 X18.377 Y-3.325 Z-0.200 F1000
G1 X18.479 Y-3.303 Z-0.200 F1000
G1 X18.577 Y-3.266 Z-0.200 F1000
G1 X18.669 Y-3.216 Z-0.200 F1000
G1 X18.753 Y-3.153 Z-0.200 F1000
G1 X18.827 Y-3.079 Z-0.200 F1000
G1 X18.890 Y-2.995 Z-0.200 F1000
G1 X18.940 Y-2.903 Z-0.200 F1000
G1 X18.977 Y-2.805 Z-0.200 F1000
G1 X18.999 Y-2.702 Z-0.200 F1000
G1 X19.007 Y-2.598 Z-0.200 F1000
G1 X19.007 Y41.597 Z-0.200 F300
G1 X19.014 Y41.702 Z-0.200 F1000
G1 X19.037 Y41.805 Z-0.200 F1000
G1 X19.073 Y41.903 Z-0.200 F1000
G1 X19.124 Y41.995 Z-0.200 F1000
G1 X19.186 Y42.079 Z-0.200 F1000
G1 X19.261 Y42.153 Z-0.200 F1000
G1 X19.345 Y42.216 Z-0.200 F1000
G1 X19.437 Y42.266 Z-0.200 F1000
G1 X19.535 Y42.303 Z-0.200 F1000
G1 X19.637 Y42.325 Z-0.200 F1000
G1 X19.742 Y42.332 Z-0.200 F1000
G1 X19.846 Y42.325 Z-0.200 F1000
G1 X19.949 Y42.303 Z-0.200 F1000
G1 X20.047 Y42.266 Z-0.200 F1000
G1 X20.139 Y42.216 Z-0.200 F1000
G1 X20.223 Y42.153 Z-0.200 F1000
G1 X20.297 Y42.079 Z-0.200 F1000
G1 X20.360 Y41.995 Z-0.200 F1000
G1 X20.410 Y41.903 Z-0.200 F1000
G1 X20.447 Y41.805 Z-0.200 F1000
G1 X20.469 Y41.702 Z-0.200 F1000
G1 X20.477 Y41.597 Z-0.200 F1000
G1 X20.477 Y-2.598 Z-0.200 F300
G1 X20.477 Y-2.668 Z-0.192 F1500
G1 X20.477 Y-2.735 Z-0.169 F1500
G1 X20.477 Y-2.795 Z-0.131 F1500
G1 X20.477 Y-2.846 Z-0.080 F1500
G1 X20.477 Y-2.884 Z-0.020 F1500
G1 X20.477 Y-2.907 Z0.047 F1500
G1 X20.477 Y-2.915 Z0.117 F1500
G1 X20.477 Y-2.915 Z1.000 F300
G1 X-0.103 Y-3.056 Z1.000 F300
G1 X-0.103 Y-3.056 Z0.018 F300
G1 X-0.103 Y-3.048 Z-0.053 F300
G1 X-0.103 Y-3.025 Z-0.120 F300
G1 X-0.103 Y-2.987 Z-0.180 F300
G1 X-0.103 Y-2.937 Z-0.231 F300
G1 X-0.103 Y-2.877 Z-0.269 F300
G1 X-0.103 Y-2.810 Z-0.292 F300
G1 X-0.103 Y-2.739 Z-0.300 F300
G1 X-0.103 Y-2.598 Z-0.300 F300
G1 X-0.103 Y41.597 Z-0.300 F300
G1 X-0.095 Y41.702 Z-0.300 F1000
G1 X-0.073 Y41.805 Z-0.300 F1000
G1 X-0.036 Y41.903 Z-0.300 F1000
G1 X0.014 Y41.995 Z-0.300 F1000
G1 X0.077 Y42.079 Z-0.300 F1000
G1 X0.151 Y42.153 Z-0.300 F1000
G1 X0.235 Y42.216 Z-0.300 F1000
G1 X0.327 Y42.266 Z-0.300 F1000
G1 X0.425 Y42.303 Z-0.300 F1000
G1 X0.528 Y42.325 Z-0.300 F1000
G1 X0.632 Y42.332 Z-0.300 F1000
G1 X0.737 Y42.325 Z-0.300 F1000
G1 X0.840 Y42.303 Z-0.300 F1000
G1 X0.938 Y42.266 Z-0.300 F1000
G1 X1.030 Y42.216 Z-0.300 F1000
G1 X1.114 Y42.153 Z-0.300 F1000
G1 X1.188 Y42.079 Z-0.300 F1000
G1 X1.251 Y41.995 Z-0.300 F1000
G1 X1.301 Y41.903 Z-0.300 F1000
G1 X1.338 Y41.805 Z-0.300 F1000
G1 X1.360 Y41.702 Z-0.300 F1000
G1 X1.367 Y41.597 Z-0.300 F1000
G1 X1.367 Y-2.598 Z-0.300 F300
G1 X1.375 Y-2.702 Z-0.300 F1000
G1 X1.397 Y-2.805 Z-0.300 F1000
G1 X1.434 Y-2.903 Z-0.300 F1000
G1 X1.484 Y-2.995 Z-0.300 F1000
G1 X1.547 Y-3.079 Z-0.300 F1000
G1 X1.621 Y-3.153 Z-0.300 F1000
G1 X1.705 Y-3.216 Z-0.300 F1000
G1 X1.797 Y-3.266 Z-0.300 F1000
G1 X1.895 Y-3.303 Z-0.300 F1000
G1 X1.998 Y-3.325 Z-0.300 F1000
G1 X2.102 Y-3.332 Z-0.300 F1000
G1 X2.207 Y-3.325 Z-0.300 F1000
G1 X2.309 Y-3.303 Z-0.300 F1000
G1 X2.408 Y-3.266 Z-0.300 F1000
G1 X2.500 Y-3.216 Z-0.300 F1000
G1 X2.584 Y-3.153 Z-0.300 F1000
G1 X2.658 Y-3.079 Z-0.300 F1000
G1 X2.721 Y-2.995 Z-0.300 F1000
G1 X2.771 Y-2.903 Z-0.300 F1000
G1 X2.808 Y-2.805 Z-0.300 F1000
G1 X2.830 Y-2.702 Z-0.300 F1000
G1 X2.837 Y-2.598 Z-0.300 F1000
G1 X2.837 Y41.597 Z-0.300 F300
G1 X2.845 Y41.702 Z-0.300 F1000
G1 X2.867 Y41.805 Z-0.300 F1000
G1 X2.904 Y41.903 Z-0.300 F1000
G1 X2.954 Y41.995 Z-0.300 F1000
G1 X3.017 Y42.079 Z-0.300 F1000
G1 X3.091 Y42.153 Z-0.300 F1000
G1 X3.175 Y42.216 Z-0.300 F1000
G1 X3.267 Y42.266 Z-0.300 F1000
G1 X3.365 Y42.303 Z-0.300 F1000
G1 X3.468 Y42.325 Z-0.300 F1000
G1 X3.572 Y42.332 Z-0.300 F1000
G1 X3.677 Y42.325 Z-0.300 F1000
G1 X3.779 Y42.303 Z-0.300 F1000
G1 X3.878 Y42.266 Z-0.300 F1000
G1 X3.970 Y42.216 Z-0.300 F1000
G1 X4.054 Y42.153 Z-0.300 F1000
G1 X4.128 Y42.079 Z-0.300 F1000
G1 X4.191 Y41.995 Z-0.300 F1000
G1 X4.241 Y41.903 Z-0.300 F1000
G1 X4.278 Y41.805 Z-0.300 F1000
G1 X4.300 Y41.702 Z-0.300 F1000
G1 X4.307 Y41.597 Z-0.300 F1000
G1 X4.307 Y-2.598 Z-0.300 F300
G1 X4.315 Y-2.702 Z-0.300 F1000
G1 X4.337 Y-2.805 Z-0.300 F1000
G1 X4.374 Y-2.903 Z-0.300 F1000
G1 X4.424 Y-2.995 Z-0.300 F1000
G1 X4.487 Y-3.079 Z-0.300 F1000
G1 X4.561 Y-3.153 Z-0.300 F1000
G1 X4.645 Y-3.216 Z-0.300 F1000
G1 X4.737 Y-3.266 Z-0.300 F1000
G1 X4.835 Y-3.303 Z-0.300 F1000
G1 X4.938 Y-3.325 Z-0.300 F1000
G1 X5.042 Y-3.332 Z-0.300 F1000
G1 X5.147 Y-3.325 Z-0.300 F1000
G1 X5.249 Y-3.303 Z-0.300 F1000
G1 X5.348 Y-3.266 Z-0.300 F1000
G1 X5.440 Y-3.216 Z-0.300 F1000
G1 X5.524 Y-3.153 Z-0.300 F1000
G1 X5.598 Y-3.079 Z-0.300 F1000
G1 X5.661 Y-2.995 Z-0.300 F1000
G1 X5.711 Y-2.903 Z-0.300 F1000
G1 X5.748 Y-2.805 Z-0.300 F1000
G1 X5.770 Y-2.702 Z-0.300 F1000
G1 X5.777 Y-2.598 Z-0.300 F1000
G1 X5.777 Y41.597 Z-0.300 F300
G1 X5.785 Y41.702 Z-0.300 F1000
G1 X5.807 Y41.805 Z-0.300 F1000
G1 X5.844 Y41.903 Z-0.300 F1000
G1 X5.894 Y41.995 Z-0.300 F1000
G1 X5.957 Y42.079 Z-0.300 F1000
G1 X6.031 Y42.153 Z-0.300 F1000
G1 X6.115 Y42.216 Z-0.300 F1000
G1 X6.207 Y42.266 Z-0.300 F1000
G1 X6.305 Y42.303 Z-0.300 F1000
G1 X6.408 Y42.325 Z-0.300 F1000
G1 X6.512 Y42.332 Z-0.300 F1000
G1 X6.617 Y42.325 Z-0.300 F1000
G1 X6.719 Y42.303 Z-0.300 F1000
G1 X6.818 Y42.266 Z-0.300 F1000
G1 X6.910 Y42.216 Z-0.300 F1000
G1 X6.994 Y42.153 Z-0.300 F1000
G1 X7.068 Y42.079 Z-0.300 F1000
G1 X7.131 Y41.995 Z-0.300 F1000
G1 X7.181 Y41.903 Z-0.300 F1000
G1 X7.217 Y41.805 Z-0.300 F1000
G1 X7.240 Y41.702 Z-0.300 F1000
G1 X7.247 Y41.597 Z-0.300 F1000
G1 X7.247 Y-2.598 Z-0.300 F300
G1 X7.255 Y-2.702 Z-0.300 F1000
G1 X7.277 Y-2.805 Z-0.300 F1000
G1 X7.314 Y-2.903 Z-0.300 F1000
G1 X7.364 Y-2.995 Z-0.300 F1000
G1 X7.427 Y-3.079 Z-0.300 F1000
G1 X7.501 Y-3.153 Z-0.300 F1000
G1 X7.585 Y-3.216 Z-0.300 F1000
G1 X7.677 Y-3.266 Z-0.300 F1000
G1 X7.775 Y-3.303 Z-0.300 F1000
G1 X7.878 Y-3.325 Z-0.300 F1000
G1 X7.982 Y-3.332 Z-0.300 F1000
G1 X8.087 Y-3.325 Z-0.300 F1000
G1 X8.189 Y-3.303 Z-0.300 F1000
G1 X8.288 Y-3.266 Z-0.300 F1000
G1 X8.380 Y-3.216 Z-0.300 F1000
G1 X8.464 Y-3.153 Z-0.300 F1000
G1 X8.538 Y-3.079 Z-0.300 F1000
G1 X8.601 Y-2.995 Z-0.300 F1000
G1 X8.651 Y-2.903 Z-0.300 F1000
G1 X8.687 Y-2.805 Z-0.300 F1000
G1 X8.710 Y-2.702 Z-0.300 F1000
G1 X8.717 Y-2.598 Z-0.300 F1000
G1 X8.717 Y41.597 Z-0.300 F300
G1 X8.725 Y41.702 Z-0.300 F1000
G1 X8.747 Y41.805 Z-0.300 F1000
G1 X8.784 Y41.903 Z-0.300 F1000
G1 X8.834 Y41.995 Z-0.300 F1000
G1 X8.897 Y42.079 Z-0.300 F1000
G1 X8.971 Y42.153 Z-0.300 F1000
G1 X9.055 Y42.216 Z-0.300 F1000
G1 X9.147 Y42.266 Z-0.300 F1000
G1 X9.245 Y42.303 Z-0.300 F1000
G1 X9.348 Y42.325 Z-0.300 F1000
G1 X9.452 Y42.332 Z-0.300 F1000
G1 X9.557 Y42.325 Z-0.300 F1000
G1 X9.659 Y42.303 Z-0.300 F1000
G1 X9.758 Y42.266 Z-0.300 F1000
G1 X9.850 Y42.216 Z-0.300 F1000
G1 X9.933 Y42.153 Z-0.300 F1000
G1 X10.008 Y42.079 Z-0.300 F1000
G1 X10.070 Y41.995 Z-0.300 F1000
G1 X10.121 Y41.903 Z-0.300 F1000
G1 X10.157 Y41.805 Z-0.300 F1000
G1 X10.180 Y41.702 Z-0.300 F1000
G1 X10.187 Y41.597 Z-0.300 F1000
G1 X10.187 Y-2.598 Z-0.300 F300
G1 X10.195 Y-2.702 Z-0.300 F1000
G1 X10.217 Y-2.805 Z-0.300 F1000
G1 X10.254 Y-2.903 Z-0.300 F1000
G1 X10.304 Y-2.995 Z-0.300 F1000
G1 X10.367 Y-3.079 Z-0.300 F1000
G1 X10.441 Y-3.153 Z-0.300 F1000
G1 X10.525 Y-3.216 Z-0.300 F1000
G1 X10.617 Y-3.266 Z-0.300 F1000
G1 X10.715 Y-3.303 Z-0.300 F1000
G1 X10.818 Y-3.325 Z-0.300 F1000
G1 X10.922 Y-3.332 Z-0.300 F1000
G1 X11.027 Y-3.325 Z-0.300 F1000
G1 X11.129 Y-3.303 Z-0.300 F1000
G1 X11.227 Y-3.266 Z-0.300 F1000
G1 X11.320 Y-3.216 Z-0.300 F1000
G1 X11.403 Y-3.153 Z-0.300 F1000
G1 X11.478 Y-3.079 Z-0.300 F1000
G1 X11.540 Y-2.995 Z-0.300 F1000
G1 X11.591 Y-2.903 Z-0.300 F1000
G1 X11.627 Y-2.805 Z-0.300 F1000
G1 X11.650 Y-2.702 Z-0.300 F1000
G1 X11.657 Y-2.598 Z-0.300 F1000
G1 X11.657 Y41.597 Z-0.300 F300
G1 X11.665 Y41.702 Z-0.300 F1000
G1 X11.687 Y41.805 Z-0.300 F1000
G1 X11.724 Y41.903 Z-0.300 F1000
G1 X11.774 Y41.995 Z-0.300 F1000
G1 X11.837 Y42.079 Z-0.300 F1000
G1 X11.911 Y42.153 Z-0.300 F1000
G1 X11.995 Y42.216 Z-0.300 F1000
G1 X12.087 Y42.266 Z-0.300 F1000
G1 X12.185 Y42.303 Z-0.300 F1000
G1 X12.288 Y42.325 Z-0.300 F1000
G1 X12.392 Y42.332 Z-0.300 F1000
G1 X12.497 Y42.325 Z-0.300 F1000
G1 X12.599 Y42.303 Z-0.300 F1000
G1 X12.697 Y42.266 Z-0.300 F1000
G1 X12.789 Y42.216 Z-0.300 F1000
G1 X12.873 Y42.153 Z-0.300 F1000
G1 X12.948 Y42.079 Z-0.300 F1000
G1 X13.010 Y41.995 Z-0.300 F1000
G1 X13.061 Y41.903 Z-0.300 F1000
G1 X13.097 Y41.805 Z-0.300 F1000
G1 X13.120 Y41.702 Z-0.300 F1000
G1 X13.127 Y41.597 Z-0.300 F1000
G1 X13.127 Y-2.598 Z-0.300 F300
G1 X13.135 Y-2.702 Z-0.300 F1000
G1 X13.157 Y-2.805 Z-0.300 F1000
G1 X13.194 Y-2.903 Z-0.300 F1000
G1 X13.244 Y-2.995 Z-0.300 F1000
G1 X13.307 Y-3.079 Z-0.300 F1000
G1 X13.381 Y-3.153 Z-0.300 F1000
G1 X13.465 Y-3.216 Z-0.300 F1000
G1 X13.557 Y-3.266 Z-0.300 F1000
G1 X13.655 Y-3.303 Z-0.300 F1000
G1 X13.757 Y-3.325 Z-0.300 F1000
G1 X13.862 Y-3.332 Z-0.300 F1000
G1 X13.967 Y-3.325 Z-0.300 F1000
G1 X14.069 Y-3.303 Z-0.300 F1000
G1 X14.167 Y-3.266 Z-0.300 F1000
G1 X14.259 Y-3.216 Z-0.300 F1000
G1 X14.343 Y-3.153 Z-0.300 F1000
G1 X14.418 Y-3.079 Z-0.300 F1000
G1 X14.480 Y-2.995 Z-0.300 F1000
G1 X14.531 Y-2.903 Z-0.300 F1000
G1 X14.567 Y-2.805 Z-0.300 F1000
G1 X14.590 Y-2.702 Z-0.300 F1000
G1 X14.597 Y-2.598 Z-0.300 F1000
G1 X14.597 Y41.597 Z-0.300 F300
G1 X14.605 Y41.702 Z-0.300 F1000
G1 X14.627 Y41.805 Z-0.300 F1000
G1 X14.663 Y41.903 Z-0.300 F1000
G1 X14.714 Y41.995 Z-0.300 F1000
G1 X14.777 Y42.079 Z-0.300 F1000
G1 X14.851 Y42.153 Z-0.300 F1000
G1 X14.935 Y42.216 Z-0.300 F1000
G1 X15.027 Y42.266 Z-0.300 F1000
G1 X15.125 Y42.303 Z-0.300 F1000
G1 X15.227 Y42.325 Z-0.300 F1000
G1 X15.332 Y42.332 Z-0.300 F1000
G1 X15.437 Y42.325 Z-0.300 F1000
G1 X15.539 Y42.303 Z-0.300 F1000
G1 X15.637 Y42.266 Z-0.300 F1000
G1 X15.729 Y42.216 Z-0.300 F1000
G1 X15.813 Y42.153 Z-0.300 F1000
G1 X15.887 Y42.079 Z-0.300 F1000
G1 X15.950 Y41.995 Z-0.300 F1000
G1 X16.001 Y41.903 Z-0.300 F1000
G1 X16.037 Y41.805 Z-0.300 F1000
G1 X16.060 Y41.702 Z-0.300 F1000
G1 X16.067 Y41.597 Z-0.300 F1000
G1 X16.067 Y-2.598 Z-0.300 F300
G1 X16.074 Y-2.702 Z-0.300 F1000
G1 X16.097 Y-2.805 Z-0.300 F1000
G1 X16.133 Y-2.903 Z-0.300 F1000
G1 X16.184 Y-2.995 Z-0.300 F1000
G1 X16.247 Y-3.079 Z-0.300 F1000
G1 X16.321 Y-3.153 Z-0.300 F1000
G1 X16.405 Y-3.216 Z-0.300 F1000
G1 X16.497 Y-3.266 Z-0.300 F1000
G1 X16.595 Y-3.303 Z-0.300 F1000
G1 X16.697 Y-3.325 Z-0.300 F1000
G1 X16.802 Y-3.332 Z-0.300 F1000
G1 X16.907 Y-3.325 Z-0.300 F1000
G1 X17.009 Y-3.303 Z-0.300 F1000
G1 X17.107 Y-3.266 Z-0.300 F1000
G1 X17.199 Y-3.216 Z-0.300 F1000
G1 X17.283 Y-3.153 Z-0.300 F1000
G1 X17.357 Y-3.079 Z-0.300 F1000
G1 X17.420 Y-2.995 Z-0.300 F1000
G1 X17.471 Y-2.903 Z-0.300 F1000
G1 X17.507 Y-2.805 Z-0.300 F1000
G1 X17.529 Y-2.702 Z-0.300 F1000
G1 X17.537 Y-2.598 Z-0.300 F1000
G1 X17.537 Y41.597 Z-0.300 F300
G1 X17.544 Y41.702 Z-0.300 F1000
G1 X17.567 Y41.805 Z-0.300 F1000
G1 X17.603 Y41.903 Z-0.300 F1000
G1 X17.654 Y41.995 Z-0.300 F1000
G1 X17.716 Y42.079 Z-0.300 F1000
G1 X17.791 Y42.153 Z-0.300 F1000
G1 X17.875 Y42.216 Z-0.300 F1000
G1 X17.967 Y42.266 Z-0.300 F1000
G1 X18.065 Y42.303 Z-0.300 F1000
G1 X18.167 Y42.325 Z-0.300 F1000
G1 X18.272 Y42.332 Z-0.300 F1000
G1 X18.377 Y42.325 Z-0.300 F1000
G1 X18.479 Y42.303 Z-0.300 F1000
G1 X18.577 Y42.266 Z-0.300 F1000
G1 X18.669 Y42.216 Z-0.300 F1000
G1 X18.753 Y42.153 Z-0.300 F1000
G1 X18.827 Y42.079 Z-0.300 F1000
G1 X18.890 Y41.995 Z-0.300 F1000
G1 X18.940 Y41.903 Z-0.300 F1000
G1 X18.977 Y41.805 Z-0.300 F1000
G1 X18.999 Y41.702 Z-0.300 F1000
G1 X19.007 Y41.597 Z-0.300 F1000
G1 X19.007 Y-2.598 Z-0.300 F300
G1 X19.014 Y-2.702 Z-0.300 F1000
G1 X19.037 Y-2.805 Z-0.300 F1000
G1 X19.073 Y-2.903 Z-0.300 F1000
G1 X19.124 Y-2.995 Z-0.300 F1000
G1 X19.186 Y-3.079 Z-0.300 F1000
G1 X19.261 Y-3.153 Z-0.300 F1000
G1 X19.345 Y-3.216 Z-0.300 F1000
G1 X19.437 Y-3.266 Z-0.300 F1000
G1 X19.535 Y-3.303 Z-0.300 F1000
G1 X19.637 Y-3.325 Z-0.300 F1000
G1 X19.742 Y-3.332 Z-0.300 F1000
G1 X19.846 Y-3.325 Z-0.300 F1000
G1 X19.949 Y-3.303 Z-0.300 F1000
G1 X20.047 Y-3.266 Z-0.300 F1000
G1 X20.139 Y-3.216 Z-0.300 F1000
G1 X20.223 Y-3.153 Z-0.300 F1000
G1 X20.297 Y-3.079 Z-0.300 F1000
G1 X20.360 Y-2.995 Z-0.300 F1000
G1 X20.410 Y-2.903 Z-0.300 F1000
G1 X20.447 Y-2.805 Z-0.300 F1000
G1 X20.469 Y-2.702 Z-0.300 F1000
G1 X20.477 Y-2.598 Z-0.300 F1000
G1 X20.477 Y41.597 Z-0.300 F300
G1 X20.477 Y41.668 Z-0.292 F1500
G1 X20.477 Y41.735 Z-0.269 F1500
G1 X20.477 Y41.795 Z-0.231 F1500
G1 X20.477 Y41.846 Z-0.180 F1500
G1 X20.477 Y41.884 Z-0.120 F1500
G1 X20.477 Y41.907 Z-0.053 F1500
G1 X20.477 Y41.915 Z0.018 F1500
G1 X20.477 Y41.915 Z1.000 F300
G1 X-0.103 Y42.056 Z1.000 F300
G1 X-0.103 Y42.056 Z0.000 F300
G1 X-0.103 Y42.056 Z-0.083 F200
G1 X-0.103 Y42.048 Z-0.153 F300
G1 X-0.103 Y42.025 Z-0.220 F300
G1 X-0.103 Y41.987 Z-0.280 F300
G1 X-0.103 Y41.937 Z-0.331 F300
G1 X-0.103 Y41.877 Z-0.369 F300
G1 X-0.103 Y41.810 Z-0.392 F300
G1 X-0.103 Y41.739 Z-0.400 F300
G1 X-0.103 Y41.597 Z-0.400 F300
G1 X-0.103 Y-2.598 Z-0.400 F300
G1 X-0.095 Y-2.702 Z-0.400 F1000
G1 X-0.073 Y-2.805 Z-0.400 F1000
G1 X-0.036 Y-2.903 Z-0.400 F1000
G1 X0.014 Y-2.995 Z-0.400 F1000
G1 X0.077 Y-3.079 Z-0.400 F1000
G1 X0.151 Y-3.153 Z-0.400 F1000
G1 X0.235 Y-3.216 Z-0.400 F1000
G1 X0.327 Y-3.266 Z-0.400 F1000
G1 X0.425 Y-3.303 Z-0.400 F1000
G1 X0.528 Y-3.325 Z-0.400 F1000
G1 X0.632 Y-3.332 Z-0.400 F1000
G1 X0.737 Y-3.325 Z-0.400 F1000
G1 X0.840 Y-3.303 Z-0.400 F1000
G1 X0.938 Y-3.266 Z-0.400 F1000
G1 X1.030 Y-3.216 Z-0.400 F1000
G1 X1.114 Y-3.153 Z-0.400 F1000
G1 X1.188 Y-3.079 Z-0.400 F1000
G1 X1.251 Y-2.995 Z-0.400 F1000
G1 X1.301 Y-2.903 Z-0.400 F1000
G1 X1.338 Y-2.805 Z-0.400 F1000
G1 X1.360 Y-2.702 Z-0.400 F1000
G1 X1.367 Y-2.598 Z-0.400 F1000
G1 X1.367 Y41.597 Z-0.400 F300
G1 X1.375 Y41.702 Z-0.400 F1000
G1 X1.397 Y41.805 Z-0.400 F1000
G1 X1.434 Y41.903 Z-0.400 F1000
G1 X1.484 Y41.995 Z-0.400 F1000
G1 X1.547 Y42.079 Z-0.400 F1000
G1 X1.621 Y42.153 Z-0.400 F1000
G1 X1.705 Y42.216 Z-0.400 F1000
G1 X1.797 Y42.266 Z-0.400 F1000
G1 X1.895 Y42.303 Z-0.400 F1000
G1 X1.998 Y42.325 Z-0.400 F1000
G1 X2.102 Y42.332 Z-0.400 F1000
G1 X2.207 Y42.325 Z-0.400 F1000
G1 X2.309 Y42.303 Z-0.400 F1000
G1 X2.408 Y42.266 Z-0.400 F1000
G1 X2.500 Y42.216 Z-0.400 F1000
G1 X2.584 Y42.153 Z-0.400 F1000
G1 X2.658 Y42.079 Z-0.400 F1000
G1 X2.721 Y41.995 Z-0.400 F1000
G1 X2.771 Y41.903 Z-0.400 F1000
G1 X2.808 Y41.805 Z-0.400 F1000
G1 X2.830 Y41.702 Z-0.400 F1000
G1 X2.837 Y41.597 Z-0.400 F1000
G1 X2.837 Y-2.598 Z-0.400 F300
G1 X2.845 Y-2.702 Z-0.400 F1000
G1 X2.867 Y-2.805 Z-0.400 F1000
G1 X2.904 Y-2.903 Z-0.400 F1000
G1 X2.954 Y-2.995 Z-0.400 F1000
G1 X3.017 Y-3.079 Z-0.400 F1000
G1 X3.091 Y-3.153 Z-0.400 F1000
G1 X3.175 Y-3.216 Z-0.400 F1000
G1 X3.267 Y-3.266 Z-0.400 F1000
G1 X3.365 Y-3.303 Z-0.400 F1000
G1 X3.468 Y-3.325 Z-0.400 F1000
G1 X3.572 Y-3.332 Z-0.400 F1000
G1 X3.677 Y-3.325 Z-0.400 F1000
G1 X3.779 Y-3.303 Z-0.400 F1000
G1 X3.878 Y-3.266 Z-0.400 F1000
G1 X3.970 Y-3.216 Z-0.400 F1000
G1 X4.054 Y-3.153 Z-0.400 F1000
G1 X4.128 Y-3.079 Z-0.400 F1000
G1 X4.191 Y-2.995 Z-0.400 F1000
G1 X4.241 Y-2.903 Z-0.400 F1000
G1 X4.278 Y-2.805 Z-0.400 F1000
G1 X4.300 Y-2.702 Z-0.400 F1000
G1 X4.307 Y-2.598 Z-0.400 F1000
G1 X4.307 Y41.597 Z-0.400 F300
G1 X4.315 Y41.702 Z-0.400 F1000
G1 X4.337 Y41.805 Z-0.400 F1000
G1 X4.374 Y41.903 Z-0.400 F1000
G1 X4.424 Y41.995 Z-0.400 F1000
G1 X4.487 Y42.079 Z-0.400 F1000
G1 X4.561 Y42.153 Z-0.400 F1000
G1 X4.645 Y42.216 Z-0.400 F1000
G1 X4.737 Y42.266 Z-0.400 F1000
G1 X4.835 Y42.303 Z-0.400 F1000
G1 X4.938 Y42.325 Z-0.400 F1000
G1 X5.042 Y42.332 Z-0.400 F1000
G1 X5.147 Y42.325 Z-0.400 F1000
G1 X5.249 Y42.303 Z-0.400 F1000
G1 X5.348 Y42.266 Z-0.400 F1000
G1 X5.440 Y42.216 Z-0.400 F1000
G1 X5.524 Y42.153 Z-0.400 F1000
G1 X5.598 Y42.079 Z-0.400 F1000
G1 X5.661 Y41.995 Z-0.400 F1000
G1 X5.711 Y41.903 Z-0.400 F1000
G1 X5.748 Y41.805 Z-0.400 F1000
G1 X5.770 Y41.702 Z-0.400 F1000
G1 X5.777 Y41.597 Z-0.400 F1000
G1 X5.777 Y-2.598 Z-0.400 F300
G1 X5.785 Y-2.702 Z-0.400 F1000
G1 X5.807 Y-2.805 Z-0.400 F1000
G1 X5.844 Y-2.903 Z-0.400 F1000
G1 X5.894 Y-2.995 Z-0.400 F1000
G1 X5.957 Y-3.079 Z-0.400 F1000
G1 X6.031 Y-3.153 Z-0.400 F1000
G1 X6.115 Y-3.216 Z-0.400 F1000
G1 X6.207 Y-3.266 Z-0.400 F1000
G1 X6.305 Y-3.303 Z-0.400 F1000
G1 X6.408 Y-3.325 Z-0.400 F1000
G1 X6.512 Y-3.332 Z-0.400 F1000
G1 X6.617 Y-3.325 Z-0.400 F1000
G1 X6.719 Y-3.303 Z-0.400 F1000
G1 X6.818 Y-3.266 Z-0.400 F1000
G1 X6.910 Y-3.216 Z-0.400 F1000
G1 X6.994 Y-3.153 Z-0.400 F1000
G1 X7.068 Y-3.079 Z-0.400 F1000
G1 X7.131 Y-2.995 Z-0.400 F1000
G1 X7.181 Y-2.903 Z-0.400 F1000
G1 X7.217 Y-2.805 Z-0.400 F1000
G1 X7.240 Y-2.702 Z-0.400 F1000
G1 X7.247 Y-2.598 Z-0.400 F1000
G1 X7.247 Y41.597 Z-0.400 F300
G1 X7.255 Y41.702 Z-0.400 F1000
G1 X7.277 Y41.805 Z-0.400 F1000
G1 X7.314 Y41.903 Z-0.400 F1000
G1 X7.364 Y41.995 Z-0.400 F1000
G1 X7.427 Y42.079 Z-0.400 F1000
G1 X7.501 Y42.153 Z-0.400 F1000
G1 X7.585 Y42.216 Z-0.400 F1000
G1 X7.677 Y42.266 Z-0.400 F1000
G1 X7.775 Y42.303 Z-0.400 F1000
G1 X7.878 Y42.325 Z-0.400 F1000
G1 X7.982 Y42.332 Z-0.400 F1000
G1 X8.087 Y42.325 Z-0.400 F1000
G1 X8.189 Y42.303 Z-0.400 F1000
G1 X8.288 Y42.266 Z-0.400 F1000
G1 X8.380 Y42.216 Z-0.400 F1000
G1 X8.464 Y42.153 Z-0.400 F1000
G1 X8.538 Y42.079 Z-0.400 F1000
G1 X8.601 Y41.995 Z-0.400 F1000
G1 X8.651 Y41.903 Z-0.400 F1000
G1 X8.687 Y41.805 Z-0.400 F1000
G1 X8.710 Y41.702 Z-0.400 F1000
G1 X8.717 Y41.597 Z-0.400 F1000
G1 X8.717 Y-2.598 Z-0.400 F300
G1 X8.725 Y-2.702 Z-0.400 F1000
G1 X8.747 Y-2.805 Z-0.400 F1000
G1 X8.784 Y-2.903 Z-0.400 F1000
G1 X8.834 Y-2.995 Z-0.400 F1000
G1 X8.897 Y-3.079 Z-0.400 F1000
G1 X8.971 Y-3.153 Z-0.400 F1000
G1 X9.055 Y-3.216 Z-0.400 F1000
G1 X9.147 Y-3.266 Z-0.400 F1000
G1 X9.245 Y-3.303 Z-0.400 F1000
G1 X9.348 Y-3.325 Z-0.400 F1000
G1 X9.452 Y-3.332 Z-0.400 F1000
G1 X9.557 Y-3.325 Z-0.400 F1000
G1 X9.659 Y-3.303 Z-0.400 F1000
G1 X9.758 Y-3.266 Z-0.400 F1000
G1 X9.850 Y-3.216 Z-0.400 F1000
G1 X9.933 Y-3.153 Z-0.400 F1000
G1 X10.008 Y-3.079 Z-0.400 F1000
G1 X10.070 Y-2.995 Z-0.400 F1000
G1 X10.121 Y-2.903 Z-0.400 F1000
G1 X10.157 Y-2.805 Z-0.400 F1000
G1 X10.180 Y-2.702 Z-0.400 F1000
G1 X10.187 Y-2.598 Z-0.400 F1000
G1 X10.187 Y41.597 Z-0.400 F300
G1 X10.195 Y41.702 Z-0.400 F1000
G1 X10.217 Y41.805 Z-0.400 F1000
G1 X10.254 Y41.903 Z-0.400 F1000
G1 X10.304 Y41.995 Z-0.400 F1000
G1 X10.367 Y42.079 Z-0.400 F1000
G1 X10.441 Y42.153 Z-0.400 F1000
G1 X10.525 Y42.216 Z-0.400 F1000
G1 X10.617 Y42.266 Z-0.400 F1000
G1 X10.715 Y42.303 Z-0.400 F1000
G1 X10.818 Y42.325 Z-0.400 F1000
G1 X10.922 Y42.332 Z-0.400 F1000
G1 X11.027 Y42.325 Z-0.400 F1000
G1 X11.129 Y42.303 Z-0.400 F1000
G1 X11.227 Y42.266 Z-0.400 F1000
G1 X11.320 Y42.216 Z-0.400 F1000
G1 X11.403 Y42.153 Z-0.400 F1000
G1 X11.478 Y42.079 Z-0.400 F1000
G1 X11.540 Y41.995 Z-0.400 F1000
G1 X11.591 Y41.903 Z-0.400 F1000
G1 X11.627 Y41.805 Z-0.400 F1000
G1 X11.650 Y41.702 Z-0.400 F1000
G1 X11.657 Y41.597 Z-0.400 F1000
G1 X11.657 Y-2.598 Z-0.400 F300
G1 X11.665 Y-2.702 Z-0.400 F1000
G1 X11.687 Y-2.805 Z-0.400 F1000
G1 X11.724 Y-2.903 Z-0.400 F1000
G1 X11.774 Y-2.995 Z-0.400 F1000
G1 X11.837 Y-3.079 Z-0.400 F1000
G1 X11.911 Y-3.153 Z-0.400 F1000
G1 X11.995 Y-3.216 Z-0.400 F1000
G1 X12.087 Y-3.266 Z-0.400 F1000
G1 X12.185 Y-3.303 Z-0.400 F1000
G1 X12.288 Y-3.325 Z-0.400 F1000
G1 X12.392 Y-3.332 Z-0.400 F1000
G1 X12.497 Y-3.325 Z-0.400 F1000
G1 X12.599 Y-3.303 Z-0.400 F1000
G1 X12.697 Y-3.266 Z-0.400 F1000
G1 X12.789 Y-3.216 Z-0.400 F1000
G1 X12.873 Y-3.153 Z-0.400 F1000
G1 X12.948 Y-3.079 Z-0.400 F1000
G1 X13.010 Y-2.995 Z-0.400 F1000
G1 X13.061 Y-2.903 Z-0.400 F1000
G1 X13.097 Y-2.805 Z-0.400 F1000
G1 X13.120 Y-2.702 Z-0.400 F1000
G1 X13.127 Y-2.598 Z-0.400 F1000
G1 X13.127 Y41.597 Z-0.400 F300
G1 X13.135 Y41.702 Z-0.400 F1000
G1 X13.157 Y41.805 Z-0.400 F1000
G1 X13.194 Y41.903 Z-0.400 F1000
G1 X13.244 Y41.995 Z-0.400 F1000
G1 X13.307 Y42.079 Z-0.400 F1000
G1 X13.381 Y42.153 Z-0.400 F1000
G1 X13.465 Y42.216 Z-0.400 F1000
G1 X13.557 Y42.266 Z-0.400 F1000
G1 X13.655 Y42.303 Z-0.400 F1000
G1 X13.757 Y42.325 Z-0.400 F1000
G1 X13.862 Y42.332 Z-0.400 F1000
G1 X13.967 Y42.325 Z-0.400 F1000
G1 X14.069 Y42.303 Z-0.400 F1000
G1 X14.167 Y42.266 Z-0.400 F1000
G1 X14.259 Y42.216 Z-0.400 F1000
G1 X14.343 Y42.153 Z-0.400 F1000
G1 X14.418 Y42.079 Z-0.400 F1000
G1 X14.480 Y41.995 Z-0.400 F1000
G1 X14.531 Y41.903 Z-0.400 F1000
G1 X14.567 Y41.805 Z-0.400 F1000
G1 X14.590 Y41.702 Z-0.400 F1000
G1 X14.597 Y41.597 Z-0.400 F1000
G1 X14.597 Y-2.598 Z-0.400 F300
G1 X14.605 Y-2.702 Z-0.400 F1000
G1 X14.627 Y-2.805 Z-0.400 F1000
G1 X14.663 Y-2.903 Z-0.400 F1000
G1 X14.714 Y-2.995 Z-0.400 F1000
G1 X14.777 Y-3.079 Z-0.400 F1000
G1 X14.851 Y-3.153 Z-0.400 F1000
G1 X14.935 Y-3.216 Z-0.400 F1000
G1 X15.027 Y-3.266 Z-0.400 F1000
G1 X15.125 Y-3.303 Z-0.400 F1000
G1 X15.227 Y-3.325 Z-0.400 F1000
G1 X15.332 Y-3.332 Z-0.400 F1000
G1 X15.437 Y-3.325 Z-0.400 F1000
G1 X15.539 Y-3.303 Z-0.400 F1000
G1 X15.637 Y-3.266 Z-0.400 F1000
G1 X15.729 Y-3.216 Z-0.400 F1000
G1 X15.813 Y-3.153 Z-0.400 F1000
G1 X15.887 Y-3.079 Z-0.400 F1000
G1 X15.950 Y-2.995 Z-0.400 F1000
G1 X16.001 Y-2.903 Z-0.400 F1000
G1 X16.037 Y-2.805 Z-0.400 F1000
G1 X16.060 Y-2.702 Z-0.400 F1000
G1 X16.067 Y-2.598 Z-0.400 F1000
G1 X16.067 Y41.597 Z-0.400 F300
G1 X16.074 Y41.702 Z-0.400 F1000
G1 X16.097 Y41.805 Z-0.400 F1000
G1 X16.133 Y41.903 Z-0.400 F1000
G1 X16.184 Y41.995 Z-0.400 F1000
G1 X16.247 Y42.079 Z-0.400 F1000
G1 X16.321 Y42.153 Z-0.400 F1000
G1 X16.405 Y42.216 Z-0.400 F1000
G1 X16.497 Y42.266 Z-0.400 F1000
G1 X16.595 Y42.303 Z-0.400 F1000
G1 X16.697 Y42.325 Z-0.400 F1000
G1 X16.802 Y42.332 Z-0.400 F1000
G1 X16.907 Y42.325 Z-0.400 F1000
G1 X17.009 Y42.303 Z-0.400 F1000
G1 X17.107 Y42.266 Z-0.400 F1000
G1 X17.199 Y42.216 Z-0.400 F1000
G1 X17.283 Y42.153 Z-0.400 F1000
G1 X17.357 Y42.079 Z-0.400 F1000
G1 X17.420 Y41.995 Z-0.400 F1000
G1 X17.471 Y41.903 Z-0.400 F1000
G1 X17.507 Y41.805 Z-0.400 F1000
G1 X17.529 Y41.702 Z-0.400 F1000
G1 X17.537 Y41.597 Z-0.400 F1000
G1 X17.537 Y-2.598 Z-0.400 F300
G1 X17.544 Y-2.702 Z-0.400 F1000
G1 X17.567 Y-2.805 Z-0.400 F1000
G1 X17.603 Y-2.903 Z-0.400 F1000
G1 X17.654 Y-2.995 Z-0.400 F1000
G1 X17.716 Y-3.079 Z-0.400 F1000
G1 X17.791 Y-3.153 Z-0.400 F1000
G1 X17.875 Y-3.216 Z-0.400 F1000
G1 X17.967 Y-3.266 Z-0.400 F1000
G1 X18.065 Y-3.303 Z-0.400 F1000
G1 X18.167 Y-3.325 Z-0.400 F1000
G1 X18.272 Y-3.332 Z-0.400 F1000
G1 X18.377 Y-3.325 Z-0.400 F1000
G1 X18.479 Y-3.303 Z-0.400 F1000
G1 X18.577 Y-3.266 Z-0.400 F1000
G1 X18.669 Y-3.216 Z-0.400 F1000
G1 X18.753 Y-3.153 Z-0.400 F1000
G1 X18.827 Y-3.079 Z-0.400 F1000
G1 X18.890 Y-2.995 Z-0.400 F1000
G1 X18.940 Y-2.903 Z-0.400 F1000
G1 X18.977 Y-2.805 Z-0.400 F1000
G1 X18.999 Y-2.702 Z-0.400 F1000
G1 X19.007 Y-2.598 Z-0.400 F1000
G1 X19.007 Y41.597 Z-0.400 F300
G1 X19.014 Y41.702 Z-0.400 F1000
G1 X19.037 Y41.805 Z-0.400 F1000
G1 X19.073 Y41.903 Z-0.400 F1000
G1 X19.124 Y41.995 Z-0.400 F1000
G1 X19.186 Y42.079 Z-0.400 F1000
G1 X19.261 Y42.153 Z-0.400 F1000
G1 X19.345 Y42.216 Z-0.400 F1000
G1 X19.437 Y42.266 Z-0.400 F1000
G1 X19.535 Y42.303 Z-0.400 F1000
G1 X19.637 Y42.325 Z-0.400 F1000
G1 X19.742 Y42.332 Z-0.400 F1000
G1 X19.846 Y42.325 Z-0.400 F1000
G1 X19.949 Y42.303 Z-0.400 F1000
G1 X20.047 Y42.266 Z-0.400 F1000
G1 X20.139 Y42.216 Z-0.400 F1000
G1 X20.223 Y42.153 Z-0.400 F1000
G1 X20.297 Y42.079 Z-0.400 F1000
G1 X20.360 Y41.995 Z-0.400 F1000
G1 X20.410 Y41.903 Z-0.400 F1000
G1 X20.447 Y41.805 Z-0.400 F1000
G1 X20.469 Y41.702 Z-0.400 F1000
G1 X20.477 Y41.597 Z-0.400 F1000
G1 X20.477 Y-2.598 Z-0.400 F300
G1 X20.477 Y-2.668 Z-0.392 F1500
G1 X20.477 Y-2.735 Z-0.369 F1500
G1 X20.477 Y-2.795 Z-0.331 F1500
G1 X20.477 Y-2.846 Z-0.280 F1500
G1 X20.477 Y-2.884 Z-0.220 F1500
G1 X20.477 Y-2.907 Z-0.153 F1500
G1 X20.477 Y-2.915 Z-0.083 F1500
G1 X20.477 Y-2.915 Z1.000 F300
G1 X-0.103 Y-3.056 Z1.000 F300
G1 X-0.103 Y-3.056 Z0.000 F300
G1 X-0.103 Y-3.056 Z-0.183 F200
G1 X-0.103 Y-3.048 Z-0.253 F300
G1 X-0.103 Y-3.025 Z-0.320 F300
G1 X-0.103 Y-2.987 Z-0.380 F300
G1 X-0.103 Y-2.937 Z-0.431 F300
G1 X-0.103 Y-2.877 Z-0.469 F300
G1 X-0.103 Y-2.810 Z-0.492 F300
G1 X-0.103 Y-2.739 Z-0.500 F300
G1 X-0.103 Y-2.598 Z-0.500 F300
G1 X-0.103 Y41.597 Z-0.500 F300
G1 X-0.095 Y41.702 Z-0.500 F1000
G1 X-0.073 Y41.805 Z-0.500 F1000
G1 X-0.036 Y41.903 Z-0.500 F1000
G1 X0.014 Y41.995 Z-0.500 F1000
G1 X0.077 Y42.079 Z-0.500 F1000
G1 X0.151 Y42.153 Z-0.500 F1000
G1 X0.235 Y42.216 Z-0.500 F1000
G1 X0.327 Y42.266 Z-0.500 F1000
G1 X0.425 Y42.303 Z-0.500 F1000
G1 X0.528 Y42.325 Z-0.500 F1000
G1 X0.632 Y42.332 Z-0.500 F1000
G1 X0.737 Y42.325 Z-0.500 F1000
G1 X0.840 Y42.303 Z-0.500 F1000
G1 X0.938 Y42.266 Z-0.500 F1000
G1 X1.030 Y42.216 Z-0.500 F1000
G1 X1.114 Y42.153 Z-0.500 F1000
G1 X1.188 Y42.079 Z-0.500 F1000
G1 X1.251 Y41.995 Z-0.500 F1000
G1 X1.301 Y41.903 Z-0.500 F1000
G1 X1.338 Y41.805 Z-0.500 F1000
G1 X1.360 Y41.702 Z-0.500 F1000
G1 X1.367 Y41.597 Z-0.500 F1000
G1 X1.367 Y-2.598 Z-0.500 F300
G1 X1.375 Y-2.702 Z-0.500 F1000
G1 X1.397 Y-2.805 Z-0.500 F1000
G1 X1.434 Y-2.903 Z-0.500 F1000
G1 X1.484 Y-2.995 Z-0.500 F1000
G1 X1.547 Y-3.079 Z-0.500 F1000
G1 X1.621 Y-3.153 Z-0.500 F1000
G1 X1.705 Y-3.216 Z-0.500 F1000
G1 X1.797 Y-3.266 Z-0.500 F1000
G1 X1.895 Y-3.303 Z-0.500 F1000
G1 X1.998 Y-3.325 Z-0.500 F1000
G1 X2.102 Y-3.332 Z-0.500 F1000
G1 X2.207 Y-3.325 Z-0.500 F1000
G1 X2.309 Y-3.303 Z-0.500 F1000
G1 X2.408 Y-3.266 Z-0.500 F1000
G1 X2.500 Y-3.216 Z-0.500 F1000
G1 X2.584 Y-3.153 Z-0.500 F1000
G1 X2.658 Y-3.079 Z-0.500 F1000
G1 X2.721 Y-2.995 Z-0.500 F1000
G1 X2.771 Y-2.903 Z-0.500 F1000
G1 X2.808 Y-2.805 Z-0.500 F1000
G1 X2.830 Y-2.702 Z-0.500 F1000
G1 X2.837 Y-2.598 Z-0.500 F1000
G1 X2.837 Y41.597 Z-0.500 F300
G1 X2.845 Y41.702 Z-0.500 F1000
G1 X2.867 Y41.805 Z-0.500 F1000
G1 X2.904 Y41.903 Z-0.500 F1000
G1 X2.954 Y41.995 Z-0.500 F1000
G1 X3.017 Y42.079 Z-0.500 F1000
G1 X3.091 Y42.153 Z-0.500 F1000
G1 X3.175 Y42.216 Z-0.500 F1000
G1 X3.267 Y42.266 Z-0.500 F1000
G1 X3.365 Y42.303 Z-0.500 F1000
G1 X3.468 Y42.325 Z-0.500 F1000
G1 X3.572 Y42.332 Z-0.500 F1000
G1 X3.677 Y42.325 Z-0.500 F1000
G1 X3.779 Y42.303 Z-0.500 F1000
G1 X3.878 Y42.266 Z-0.500 F1000
G1 X3.970 Y42.216 Z-0.500 F1000
G1 X4.054 Y42.153 Z-0.500 F1000
G1 X4.128 Y42.079 Z-0.500 F1000
G1 X4.191 Y41.995 Z-0.500 F1000
G1 X4.241 Y41.903 Z-0.500 F1000
G1 X4.278 Y41.805 Z-0.500 F1000
G1 X4.300 Y41.702 Z-0.500 F1000
G1 X4.307 Y41.597 Z-0.500 F1000
G1 X4.307 Y-2.598 Z-0.500 F300
G1 X4.315 Y-2.702 Z-0.500 F1000
G1 X4.337 Y-2.805 Z-0.500 F1000
G1 X4.374 Y-2.903 Z-0.500 F1000
G1 X4.424 Y-2.995 Z-0.500 F1000
G1 X4.487 Y-3.079 Z-0.500 F1000
G1 X4.561 Y-3.153 Z-0.500 F1000
G1 X4.645 Y-3.216 Z-0.500 F1000
G1 X4.737 Y-3.266 Z-0.500 F1000
G1 X4.835 Y-3.303 Z-0.500 F1000
G1 X4.938 Y-3.325 Z-0.500 F1000
G1 X5.042 Y-3.332 Z-0.500 F1000
G1 X5.147 Y-3.325 Z-0.500 F1000
G1 X5.249 Y-3.303 Z-0.500 F1000
G1 X5.348 Y-3.266 Z-0.500 F1000
G1 X5.440 Y-3.216 Z-0.500 F1000
G1 X5.524 Y-3.153 Z-0.500 F1000
G1 X5.598 Y-3.079 Z-0.500 F1000
G1 X5.661 Y-2.995 Z-0.500 F1000
G1 X5.711 Y-2.903 Z-0.500 F1000
G1 X5.748 Y-2.805 Z-0.500 F1000
G1 X5.770 Y-2.702 Z-0.500 F1000
G1 X5.777 Y-2.598 Z-0.500 F1000
G1 X5.777 Y41.597 Z-0.500 F300
G1 X5.785 Y41.702 Z-0.500 F1000
G1 X5.807 Y41.805 Z-0.500 F1000
G1 X5.844 Y41.903 Z-0.500 F1000
G1 X5.894 Y41.995 Z-0.500 F1000
G1 X5.957 Y42.079 Z-0.500 F1000
G1 X6.031 Y42.153 Z-0.500 F1000
G1 X6.115 Y42.216 Z-0.500 F1000
G1 X6.207 Y42.266 Z-0.500 F1000
G1 X6.305 Y42.303 Z-0.500 F1000
G1 X6.408 Y42.325 Z-0.500 F1000
G1 X6.512 Y42.332 Z-0.500 F1000
G1 X6.617 Y42.325 Z-0.500 F1000
G1 X6.719 Y42.303 Z-0.500 F1000
G1 X6.818 Y42.266 Z-0.500 F1000
G1 X6.910 Y42.216 Z-0.500 F1000
G1 X6.994 Y42.153 Z-0.500 F1000
G1 X7.068 Y42.079 Z-0.500 F1000
G1 X7.131 Y41.995 Z-0.500 F1000
G1 X7.181 Y41.903 Z-0.500 F1000
G1 X7.217 Y41.805 Z-0.500 F1000
G1 X7.240 Y41.702 Z-0.500 F1000
G1 X7.247 Y41.597 Z-0.500 F1000
G1 X7.247 Y-2.598 Z-0.500 F300
G1 X7.255 Y-2.702 Z-0.500 F1000
G1 X7.277 Y-2.805 Z-0.500 F1000
G1 X7.314 Y-2.903 Z-0.500 F1000
G1 X7.364 Y-2.995 Z-0.500 F1000
G1 X7.427 Y-3.079 Z-0.500 F1000
G1 X7.501 Y-3.153 Z-0.500 F1000
G1 X7.585 Y-3.216 Z-0.500 F1000
G1 X7.677 Y-3.266 Z-0.500 F1000
G1 X7.775 Y-3.303 Z-0.500 F1000
G1 X7.878 Y-3.325 Z-0.500 F1000
G1 X7.982 Y-3.332 Z-0.500 F1000
G1 X8.087 Y-3.325 Z-0.500 F1000
G1 X8.189 Y-3.303 Z-0.500 F1000
G1 X8.288 Y-3.266 Z-0.500 F1000
G1 X8.380 Y-3.216 Z-0.500 F1000
G1 X8.464 Y-3.153 Z-0.500 F1000
G1 X8.538 Y-3.079 Z-0.500 F1000
G1 X8.601 Y-2.995 Z-0.500 F1000
G1 X8.651 Y-2.903 Z-0.500 F1000
G1 X8.687 Y-2.805 Z-0.500 F1000
G1 X8.710 Y-2.702 Z-0.500 F1000
G1 X8.717 Y-2.598 Z-0.500 F1000
G1 X8.717 Y41.597 Z-0.500 F300
G1 X8.725 Y41.702 Z-0.500 F1000
G1 X8.747 Y41.805 Z-0.500 F1000
G1 X8.784 Y41.903 Z-0.500 F1000
G1 X8.834 Y41.995 Z-0.500 F1000
G1 X8.897 Y42.079 Z-0.500 F1000
G1 X8.971 Y42.153 Z-0.500 F1000
G1 X9.055 Y42.216 Z-0.500 F1000
G1 X9.147 Y42.266 Z-0.500 F1000
G1 X9.245 Y42.303 Z-0.500 F1000
G1 X9.348 Y42.325 Z-0.500 F1000
G1 X9.452 Y42.332 Z-0.500 F1000
G1 X9.557 Y42.325 Z-0.500 F1000
G1 X9.659 Y42.303 Z-0.500 F1000
G1 X9.758 Y42.266 Z-0.500 F1000
G1 X9.850 Y42.216 Z-0.500 F1000
G1 X9.933 Y42.153 Z-0.500 F1000
G1 X10.008 Y42.079 Z-0.500 F1000
G1 X10.070 Y41.995 Z-0.500 F1000
G1 X10.121 Y41.903 Z-0.500 F1000
G1 X10.157 Y41.805 Z-0.500 F1000
G1 X10.180 Y41.702 Z-0.500 F1000
G1 X10.187 Y41.597 Z-0.500 F1000
G1 X10.187 Y-2.598 Z-0.500 F300
G1 X10.195 Y-2.702 Z-0.500 F1000
G1 X10.217 Y-2.805 Z-0.500 F1000
G1 X10.254 Y-2.903 Z-0.500 F1000
G1 X10.304 Y-2.995 Z-0.500 F1000
G1 X10.367 Y-3.079 Z-0.500 F1000
G1 X10.441 Y-3.153 Z-0.500 F1000
G1 X10.525 Y-3.216 Z-0.500 F1000
G1 X10.617 Y-3.266 Z-0.500 F1000
G1 X10.715 Y-3.303 Z-0.500 F1000
G1 X10.818 Y-3.325 Z-0.500 F1000
G1 X10.922 Y-3.332 Z-0.500 F1000
G1 X11.027 Y-3.325 Z-0.500 F1000
G1 X11.129 Y-3.303 Z-0.500 F1000
G1 X11.227 Y-3.266 Z-0.500 F1000
G1 X11.320 Y-3.216 Z-0.500 F1000
G1 X11.403 Y-3.153 Z-0.500 F1000
G1 X11.478 Y-3.079 Z-0.500 F1000
G1 X11.540 Y-2.995 Z-0.500 F1000
G1 X11.591 Y-2.903 Z-0.500 F1000
G1 X11.627 Y-2.805 Z-0.500 F1000
G1 X11.650 Y-2.702 Z-0.500 F1000
G1 X11.657 Y-2.598 Z-0.500 F1000
G1 X11.657 Y41.597 Z-0.500 F300
G1 X11.665 Y41.702 Z-0.500 F1000
G1 X11.687 Y41.805 Z-0.500 F1000
G1 X11.724 Y41.903 Z-0.500 F1000
G1 X11.774 Y41.995 Z-0.500 F1000
G1 X11.837 Y42.079 Z-0.500 F1000
G1 X11.911 Y42.153 Z-0.500 F1000
G1 X11.995 Y42.216 Z-0.500 F1000
G1 X12.087 Y42.266 Z-0.500 F1000
G1 X12.185 Y42.303 Z-0.500 F1000
G1 X12.288 Y42.325 Z-0.500 F1000
G1 X12.392 Y42.332 Z-0.500 F1000
G1 X12.497 Y42.325 Z-0.500 F1000
G1 X12.599 Y42.303 Z-0.500 F1000
G1 X12.697 Y42.266 Z-0.500 F1000
G1 X12.789 Y42.216 Z-0.500 F1000
G1 X12.873 Y42.153 Z-0.500 F1000
G1 X12.948 Y42.079 Z-0.500 F1000
G1 X13.010 Y41.995 Z-0.500 F1000
G1 X13.061 Y41.903 Z-0.500 F1000
G1 X13.097 Y41.805 Z-0.500 F1000
G1 X13.120 Y41.702 Z-0.500 F1000
G1 X13.127 Y41.597 Z-0.500 F1000
G1 X13.127 Y-2.598 Z-0.500 F300
G1 X13.135 Y-2.702 Z-0.500 F1000
G1 X13.157 Y-2.805 Z-0.500 F1000
G1 X13.194 Y-2.903 Z-0.500 F1000
G1 X13.244 Y-2.995 Z-0.500 F1000
G1 X13.307 Y-3.079 Z-0.500 F1000
G1 X13.381 Y-3.153 Z-0.500 F1000
G1 X13.465 Y-3.216 Z-0.500 F1000
G1 X13.557 Y-3.266 Z-0.500 F1000
G1 X13.655 Y-3.303 Z-0.500 F1000
G1 X13.757 Y-3.325 Z-0.500 F1000
G1 X13.862 Y-3.332 Z-0.500 F1000
G1 X13.967 Y-3.325 Z-0.500 F1000
G1 X14.069 Y-3.303 Z-0.500 F1000
G1 X14.167 Y-3.266 Z-0.500 F1000
G1 X14.259 Y-3.216 Z-0.500 F1000
G1 X14.343 Y-3.153 Z-0.500 F1000
G1 X14.418 Y-3.079 Z-0.500 F1000
G1 X14.480 Y-2.995 Z-0.500 F1000
G1 X14.531 Y-2.903 Z-0.500 F1000
G1 X14.567 Y-2.805 Z-0.500 F1000
G1 X14.590 Y-2.702 Z-0.500 F1000
G1 X14.597 Y-2.598 Z-0.500 F1000
G1 X14.597 Y41.597 Z-0.500 F300
G1 X14.605 Y41.702 Z-0.500 F1000
G1 X14.627 Y41.805 Z-0.500 F1000
G1 X14.663 Y41.903 Z-0.500 F1000
G1 X14.714 Y41.995 Z-0.500 F1000
G1 X14.777 Y42.079 Z-0.500 F1000
G1 X14.851 Y42.153 Z-0.500 F1000
G1 X14.935 Y42.216 Z-0.500 F1000
G1 X15.027 Y42.266 Z-0.500 F1000
G1 X15.125 Y42.303 Z-0.500 F1000
G1 X15.227 Y42.325 Z-0.500 F1000
G1 X15.332 Y42.332 Z-0.500 F1000
G1 X15.437 Y42.325 Z-0.500 F1000
G1 X15.539 Y42.303 Z-0.500 F1000
G1 X15.637 Y42.266 Z-0.500 F1000
G1 X15.729 Y42.216 Z-0.500 F1000
G1 X15.813 Y42.153 Z-0.500 F1000
G1 X15.887 Y42.079 Z-0.500 F1000
G1 X15.950 Y41.995 Z-0.500 F1000
G1 X16.001 Y41.903 Z-0.500 F1000
G1 X16.037 Y41.805 Z-0.500 F1000
G1 X16.060 Y41.702 Z-0.500 F1000
G1 X16.067 Y41.597 Z-0.500 F1000
G1 X16.067 Y-2.598 Z-0.500 F300
G1 X16.074 Y-2.702 Z-0.500 F1000
G1 X16.097 Y-2.805 Z-0.500 F1000
G1 X16.133 Y-2.903 Z-0.500 F1000
G1 X16.184 Y-2.995 Z-0.500 F1000
G1 X16.247 Y-3.079 Z-0.500 F1000
G1 X16.321 Y-3.153 Z-0.500 F1000
G1 X16.405 Y-3.216 Z-0.500 F1000
G1 X16.497 Y-3.266 Z-0.500 F1000
G1 X16.595 Y-3.303 Z-0.500 F1000
G1 X16.697 Y-3.325 Z-0.500 F1000
G1 X16.802 Y-3.332 Z-0.500 F1000
G1 X16.907 Y-3.325 Z-0.500 F1000
G1 X17.009 Y-3.303 Z-0.500 F1000
G1 X17.107 Y-3.266 Z-0.500 F1000
G1 X17.199 Y-3.216 Z-0.500 F1000
G1 X17.283 Y-3.153 Z-0.500 F1000
G1 X17.357 Y-3.079 Z-0.500 F1000
G1 X17.420 Y-2.995 Z-0.500 F1000
G1 X17.471 Y-2.903 Z-0.500 F1000
G1 X17.507 Y-2.805 Z-0.500 F1000
G1 X17.529 Y-2.702 Z-0.500 F1000
G1 X17.537 Y-2.598 Z-0.500 F1000
G1 X17.537 Y41.597 Z-0.500 F300
G1 X17.544 Y41.702 Z-0.500 F1000
G1 X17.567 Y41.805 Z-0.500 F1000
G1 X17.603 Y41.903 Z-0.500 F1000
G1 X17.654 Y41.995 Z-0.500 F1000
G1 X17.716 Y42.079 Z-0.500 F1000
G1 X17.791 Y42.153 Z-0.500 F1000
G1 X17.875 Y42.216 Z-0.500 F1000
G1 X17.967 Y42.266 Z-0.500 F1000
G1 X18.065 Y42.303 Z-0.500 F1000
G1 X18.167 Y42.325 Z-0.500 F1000
G1 X18.272 Y42.332 Z-0.500 F1000
G1 X18.377 Y42.325 Z-0.500 F1000
G1 X18.479 Y42.303 Z-0.500 F1000
G1 X18.577 Y42.266 Z-0.500 F1000
G1 X18.669 Y42.216 Z-0.500 F1000
G1 X18.753 Y42.153 Z-0.500 F1000
G1 X18.827 Y42.079 Z-0.500 F1000
G1 X18.890 Y41.995 Z-0.500 F1000
G1 X18.940 Y41.903 Z-0.500 F1000
G1 X18.977 Y41.805 Z-0.500 F1000
G1 X18.999 Y41.702 Z-0.500 F1000
G1 X19.007 Y41.597 Z-0.500 F1000
G1 X19.007 Y-2.598 Z-0.500 F300
G1 X19.014 Y-2.702 Z-0.500 F1000
G1 X19.037 Y-2.805 Z-0.500 F1000
G1 X19.073 Y-2.903 Z-0.500 F1000
G1 X19.124 Y-2.995 Z-0.500 F1000
G1 X19.186 Y-3.079 Z-0.500 F1000
G1 X19.261 Y-3.153 Z-0.500 F1000
G1 X19.345 Y-3.216 Z-0.500 F1000
G1 X19.437 Y-3.266 Z-0.500 F1000
G1 X19.535 Y-3.303 Z-0.500 F1000
G1 X19.637 Y-3.325 Z-0.500 F1000
G1 X19.742 Y-3.332 Z-0.500 F1000
G1 X19.846 Y-3.325 Z-0.500 F1000
G1 X19.949 Y-3.303 Z-0.500 F1000
G1 X20.047 Y-3.266 Z-0.500 F1000
G1 X20.139 Y-3.216 Z-0.500 F1000
G1 X20.223 Y-3.153 Z-0.500 F1000
G1 X20.297 Y-3.079 Z-0.500 F1000
G1 X20.360 Y-2.995 Z-0.500 F1000
G1 X20.410 Y-2.903 Z-0.500 F1000
G1 X20.447 Y-2.805 Z-0.500 F1000
G1 X20.469 Y-2.702 Z-0.500 F1000
G1 X20.477 Y-2.598 Z-0.500 F1000
G1 X20.477 Y41.597 Z-0.500 F300
G1 X20.477 Y41.668 Z-0.492 F1500
G1 X20.477 Y41.735 Z-0.469 F1500
G1 X20.477 Y41.795 Z-0.431 F1500
G1 X20.477 Y41.846 Z-0.380 F1500
G1 X20.477 Y41.884 Z-0.320 F1500
G1 X20.477 Y41.907 Z-0.253 F1500
G1 X20.477 Y41.915 Z-0.183 F1500
G1 X20.477 Y41.915 Z1.000 F300
G1 X-0.103 Y42.056 Z1.000 F300
G1 X-0.103 Y42.056 Z0.000 F300
G1 X-0.103 Y42.056 Z-0.282 F200
G1 X-0.103 Y42.048 Z-0.353 F300
G1 X-0.103 Y42.025 Z-0.420 F300
G1 X-0.103 Y41.987 Z-0.480 F300
G1 X-0.103 Y41.937 Z-0.531 F300
G1 X-0.103 Y41.877 Z-0.569 F300
G1 X-0.103 Y41.810 Z-0.592 F300
G1 X-0.103 Y41.739 Z-0.600 F300
G1 X-0.103 Y41.597 Z-0.600 F300
G1 X-0.103 Y-2.598 Z-0.600 F300
G1 X-0.095 Y-2.702 Z-0.600 F1000
G1 X-0.073 Y-2.805 Z-0.600 F1000
G1 X-0.036 Y-2.903 Z-0.600 F1000
G1 X0.014 Y-2.995 Z-0.600 F1000
G1 X0.077 Y-3.079 Z-0.600 F1000
G1 X0.151 Y-3.153 Z-0.600 F1000
G1 X0.235 Y-3.216 Z-0.600 F1000
G1 X0.327 Y-3.266 Z-0.600 F1000
G1 X0.425 Y-3.303 Z-0.600 F1000
G1 X0.528 Y-3.325 Z-0.600 F1000
G1 X0.632 Y-3.332 Z-0.600 F1000
G1 X0.737 Y-3.325 Z-0.600 F1000
G1 X0.840 Y-3.303 Z-0.600 F1000
G1 X0.938 Y-3.266 Z-0.600 F1000
G1 X1.030 Y-3.216 Z-0.600 F1000
G1 X1.114 Y-3.153 Z-0.600 F1000
G1 X1.188 Y-3.079 Z-0.600 F1000
G1 X1.251 Y-2.995 Z-0.600 F1000
G1 X1.301 Y-2.903 Z-0.600 F1000
G1 X1.338 Y-2.805 Z-0.600 F1000
G1 X1.360 Y-2.702 Z-0.600 F1000
G1 X1.367 Y-2.598 Z-0.600 F1000
G1 X1.367 Y41.597 Z-0.600 F300
G1 X1.375 Y41.702 Z-0.600 F1000
G1 X1.397 Y41.805 Z-0.600 F1000
G1 X1.434 Y41.903 Z-0.600 F1000
G1 X1.484 Y41.995 Z-0.600 F1000
G1 X1.547 Y42.079 Z-0.600 F1000
G1 X1.621 Y42.153 Z-0.600 F1000
G1 X1.705 Y42.216 Z-0.600 F1000
G1 X1.797 Y42.266 Z-0.600 F1000
G1 X1.895 Y42.303 Z-0.600 F1000
G1 X1.998 Y42.325 Z-0.600 F1000
G1 X2.102 Y42.332 Z-0.600 F1000
G1 X2.207 Y42.325 Z-0.600 F1000
G1 X2.309 Y42.303 Z-0.600 F1000
G1 X2.408 Y42.266 Z-0.600 F1000
G1 X2.500 Y42.216 Z-0.600 F1000
G1 X2.584 Y42.153 Z-0.600 F1000
G1 X2.658 Y42.079 Z-0.600 F1000
G1 X2.721 Y41.995 Z-0.600 F1000
G1 X2.771 Y41.903 Z-0.600 F1000
G1 X2.808 Y41.805 Z-0.600 F1000
G1 X2.830 Y41.702 Z-0.600 F1000
G1 X2.837 Y41.597 Z-0.600 F1000
G1 X2.837 Y-2.598 Z-0.600 F300
G1 X2.845 Y-2.702 Z-0.600 F1000
G1 X2.867 Y-2.805 Z-0.600 F1000
G1 X2.904 Y-2.903 Z-0.600 F1000
G1 X2.954 Y-2.995 Z-0.600 F1000
G1 X3.017 Y-3.079 Z-0.600 F1000
G1 X3.091 Y-3.153 Z-0.600 F1000
G1 X3.175 Y-3.216 Z-0.600 F1000
G1 X3.267 Y-3.266 Z-0.600 F1000
G1 X3.365 Y-3.303 Z-0.600 F1000
G1 X3.468 Y-3.325 Z-0.600 F1000
G1 X3.572 Y-3.332 Z-0.600 F1000
G1 X3.677 Y-3.325 Z-0.600 F1000
G1 X3.779 Y-3.303 Z-0.600 F1000
G1 X3.878 Y-3.266 Z-0.600 F1000
G1 X3.970 Y-3.216 Z-0.600 F1000
G1 X4.054 Y-3.153 Z-0.600 F1000
G1 X4.128 Y-3.079 Z-0.600 F1000
G1 X4.191 Y-2.995 Z-0.600 F1000
G1 X4.241 Y-2.903 Z-0.600 F1000
G1 X4.278 Y-2.805 Z-0.600 F1000
G1 X4.300 Y-2.702 Z-0.600 F1000
G1 X4.307 Y-2.598 Z-0.600 F1000
G1 X4.307 Y41.597 Z-0.600 F300
G1 X4.315 Y41.702 Z-0.600 F1000
G1 X4.337 Y41.805 Z-0.600 F1000
G1 X4.374 Y41.903 Z-0.600 F1000
G1 X4.424 Y41.995 Z-0.600 F1000
G1 X4.487 Y42.079 Z-0.600 F1000
G1 X4.561 Y42.153 Z-0.600 F1000
G1 X4.645 Y42.216 Z-0.600 F1000
G1 X4.737 Y42.266 Z-0.600 F1000
G1 X4.835 Y42.303 Z-0.600 F1000
G1 X4.938 Y42.325 Z-0.600 F1000
G1 X5.042 Y42.332 Z-0.600 F1000
G1 X5.147 Y42.325 Z-0.600 F1000
G1 X5.249 Y42.303 Z-0.600 F1000
G1 X5.348 Y42.266 Z-0.600 F1000
G1 X5.440 Y42.216 Z-0.600 F1000
G1 X5.524 Y42.153 Z-0.600 F1000
G1 X5.598 Y42.079 Z-0.600 F1000
G1 X5.661 Y41.995 Z-0.600 F1000
G1 X5.711 Y41.903 Z-0.600 F1000
G1 X5.748 Y41.805 Z-0.600 F1000
G1 X5.770 Y41.702 Z-0.600 F1000
G1 X5.777 Y41.597 Z-0.600 F1000
G1 X5.777 Y-2.598 Z-0.600 F300
G1 X5.785 Y-2.702 Z-0.600 F1000
G1 X5.807 Y-2.805 Z-0.600 F1000
G1 X5.844 Y-2.903 Z-0.600 F1000
G1 X5.894 Y-2.995 Z-0.600 F1000
G1 X5.957 Y-3.079 Z-0.600 F1000
G1 X6.031 Y-3.153 Z-0.600 F1000
G1 X6.115 Y-3.216 Z-0.600 F1000
G1 X6.207 Y-3.266 Z-0.600 F1000
G1 X6.305 Y-3.303 Z-0.600 F1000
G1 X6.408 Y-3.325 Z-0.600 F1000
G1 X6.512 Y-3.332 Z-0.600 F1000
G1 X6.617 Y-3.325 Z-0.600 F1000
G1 X6.719 Y-3.303 Z-0.600 F1000
G1 X6.818 Y-3.266 Z-0.600 F1000
G1 X6.910 Y-3.216 Z-0.600 F1000
G1 X6.994 Y-3.153 Z-0.600 F1000
G1 X7.068 Y-3.079 Z-0.600 F1000
G1 X7.131 Y-2.995 Z-0.600 F1000
G1 X7.181 Y-2.903 Z-0.600 F1000
G1 X7.217 Y-2.805 Z-0.600 F1000
G1 X7.240 Y-2.702 Z-0.600 F1000
G1 X7.247 Y-2.598 Z-0.600 F1000
G1 X7.247 Y41.597 Z-0.600 F300
G1 X7.255 Y41.702 Z-0.600 F1000
G1 X7.277 Y41.805 Z-0.600 F1000
G1 X7.314 Y41.903 Z-0.600 F1000
G1 X7.364 Y41.995 Z-0.600 F1000
G1 X7.427 Y42.079 Z-0.600 F1000
G1 X7.501 Y42.153 Z-0.600 F1000
G1 X7.585 Y42.216 Z-0.600 F1000
G1 X7.677 Y42.266 Z-0.600 F1000
G1 X7.775 Y42.303 Z-0.600 F1000
G1 X7.878 Y42.325 Z-0.600 F1000
G1 X7.982 Y42.332 Z-0.600 F1000
G1 X8.087 Y42.325 Z-0.600 F1000
G1 X8.189 Y42.303 Z-0.600 F1000
G1 X8.288 Y42.266 Z-0.600 F1000
G1 X8.380 Y42.216 Z-0.600 F1000
G1 X8.464 Y42.153 Z-0.600 F1000
G1 X8.538 Y42.079 Z-0.600 F1000
G1 X8.601 Y41.995 Z-0.600 F1000
G1 X8.651 Y41.903 Z-0.600 F1000
G1 X8.687 Y41.805 Z-0.600 F1000
G1 X8.710 Y41.702 Z-0.600 F1000
G1 X8.717 Y41.597 Z-0.600 F1000
G1 X8.717 Y-2.598 Z-0.600 F300
G1 X8.725 Y-2.702 Z-0.600 F1000
G1 X8.747 Y-2.805 Z-0.600 F1000
G1 X8.784 Y-2.903 Z-0.600 F1000
G1 X8.834 Y-2.995 Z-0.600 F1000
G1 X8.897 Y-3.079 Z-0.600 F1000
G1 X8.971 Y-3.153 Z-0.600 F1000
G1 X9.055 Y-3.216 Z-0.600 F1000
G1 X9.147 Y-3.266 Z-0.600 F1000
G1 X9.245 Y-3.303 Z-0.600 F1000
G1 X9.348 Y-3.325 Z-0.600 F1000
G1 X9.452 Y-3.332 Z-0.600 F1000
G1 X9.557 Y-3.325 Z-0.600 F1000
G1 X9.659 Y-3.303 Z-0.600 F1000
G1 X9.758 Y-3.266 Z-0.600 F1000
G1 X9.850 Y-3.216 Z-0.600 F1000
G1 X9.933 Y-3.153 Z-0.600 F1000
G1 X10.008 Y-3.079 Z-0.600 F1000
G1 X10.070 Y-2.995 Z-0.600 F1000
G1 X10.121 Y-2.903 Z-0.600 F1000
G1 X10.157 Y-2.805 Z-0.600 F1000
G1 X10.180 Y-2.702 Z-0.600 F1000
G1 X10.187 Y-2.598 Z-0.600 F1000
G1 X10.187 Y41.597 Z-0.600 F300
G1 X10.195 Y41.702 Z-0.600 F1000
G1 X10.217 Y41.805 Z-0.600 F1000
G1 X10.254 Y41.903 Z-0.600 F1000
G1 X10.304 Y41.995 Z-0.600 F1000
G1 X10.367 Y42.079 Z-0.600 F1000
G1 X10.441 Y42.153 Z-0.600 F1000
G1 X10.525 Y42.216 Z-0.600 F1000
G1 X10.617 Y42.266 Z-0.600 F1000
G1 X10.715 Y42.303 Z-0.600 F1000
G1 X10.818 Y42.325 Z-0.600 F1000
G1 X10.922 Y42.332 Z-0.600 F1000
G1 X11.027 Y42.325 Z-0.600 F1000
G1 X11.129 Y42.303 Z-0.600 F1000
G1 X11.227 Y42.266 Z-0.600 F1000
G1 X11.320 Y42.216 Z-0.600 F1000
G1 X11.403 Y42.153 Z-0.600 F1000
G1 X11.478 Y42.079 Z-0.600 F1000
G1 X11.540 Y41.995 Z-0.600 F1000
G1 X11.591 Y41.903 Z-0.600 F1000
G1 X11.627 Y41.805 Z-0.600 F1000
G1 X11.650 Y41.702 Z-0.600 F1000
G1 X11.657 Y41.597 Z-0.600 F1000
G1 X11.657 Y-2.598 Z-0.600 F300
G1 X11.665 Y-2.702 Z-0.600 F1000
G1 X11.687 Y-2.805 Z-0.600 F1000
G1 X11.724 Y-2.903 Z-0.600 F1000
G1 X11.774 Y-2.995 Z-0.600 F1000
G1 X11.837 Y-3.079 Z-0.600 F1000
G1 X11.911 Y-3.153 Z-0.600 F1000
G1 X11.995 Y-3.216 Z-0.600 F1000
G1 X12.087 Y-3.266 Z-0.600 F1000
G1 X12.185 Y-3.303 Z-0.600 F1000
G1 X12.288 Y-3.325 Z-0.600 F1000
G1 X12.392 Y-3.332 Z-0.600 F1000
G1 X12.497 Y-3.325 Z-0.600 F1000
G1 X12.599 Y-3.303 Z-0.600 F1000
G1 X12.697 Y-3.266 Z-0.600 F1000
G1 X12.789 Y-3.216 Z-0.600 F1000
G1 X12.873 Y-3.153 Z-0.600 F1000
G1 X12.948 Y-3.079 Z-0.600 F1000
G1 X13.010 Y-2.995 Z-0.600 F1000
G1 X13.061 Y-2.903 Z-0.600 F1000
G1 X13.097 Y-2.805 Z-0.600 F1000
G1 X13.120 Y-2.702 Z-0.600 F1000
G1 X13.127 Y-2.598 Z-0.600 F1000
G1 X13.127 Y41.597 Z-0.600 F300
G1 X13.135 Y41.702 Z-0.600 F1000
G1 X13.157 Y41.805 Z-0.600 F1000
G1 X13.194 Y41.903 Z-0.600 F1000
G1 X13.244 Y41.995 Z-0.600 F1000
G1 X13.307 Y42.079 Z-0.600 F1000
G1 X13.381 Y42.153 Z-0.600 F1000
G1 X13.465 Y42.216 Z-0.600 F1000
G1 X13.557 Y42.266 Z-0.600 F1000
G1 X13.655 Y42.303 Z-0.600 F1000
G1 X13.757 Y42.325 Z-0.600 F1000
G1 X13.862 Y42.332 Z-0.600 F1000
G1 X13.967 Y42.325 Z-0.600 F1000
G1 X14.069 Y42.303 Z-0.600 F1000
G1 X14.167 Y42.266 Z-0.600 F1000
G1 X14.259 Y42.216 Z-0.600 F1000
G1 X14.343 Y42.153 Z-0.600 F1000
G1 X14.418 Y42.079 Z-0.600 F1000
G1 X14.480 Y41.995 Z-0.600 F1000
G1 X14.531 Y41.903 Z-0.600 F1000
G1 X14.567 Y41.805 Z-0.600 F1000
G1 X14.590 Y41.702 Z-0.600 F1000
G1 X14.597 Y41.597 Z-0.600 F1000
G1 X14.597 Y-2.598 Z-0.600 F300
G1 X14.605 Y-2.702 Z-0.600 F1000
G1 X14.627 Y-2.805 Z-0.600 F1000
G1 X14.663 Y-2.903 Z-0.600 F1000
G1 X14.714 Y-2.995 Z-0.600 F1000
G1 X14.777 Y-3.079 Z-0.600 F1000
G1 X14.851 Y-3.153 Z-0.600 F1000
G1 X14.935 Y-3.216 Z-0.600 F1000
G1 X15.027 Y-3.266 Z-0.600 F1000
G1 X15.125 Y-3.303 Z-0.600 F1000
G1 X15.227 Y-3.325 Z-0.600 F1000
G1 X15.332 Y-3.332 Z-0.600 F1000
G1 X15.437 Y-3.325 Z-0.600 F1000
G1 X15.539 Y-3.303 Z-0.600 F1000
G1 X15.637 Y-3.266 Z-0.600 F1000
G1 X15.729 Y-3.216 Z-0.600 F1000
G1 X15.813 Y-3.153 Z-0.600 F1000
G1 X15.887 Y-3.079 Z-0.600 F1000
G1 X15.950 Y-2.995 Z-0.600 F1000
G1 X16.001 Y-2.903 Z-0.600 F1000
G1 X16.037 Y-2.805 Z-0.600 F1000
G1 X16.060 Y-2.702 Z-0.600 F1000
G1 X16.067 Y-2.598 Z-0.600 F1000
G1 X16.067 Y41.597 Z-0.600 F300
G1 X16.074 Y41.702 Z-0.600 F1000
G1 X16.097 Y41.805 Z-0.600 F1000
G1 X16.133 Y41.903 Z-0.600 F1000
G1 X16.184 Y41.995 Z-0.600 F1000
G1 X16.247 Y42.079 Z-0.600 F1000
G1 X16.321 Y42.153 Z-0.600 F1000
G1 X16.405 Y42.216 Z-0.600 F1000
G1 X16.497 Y42.266 Z-0.600 F1000
G1 X16.595 Y42.303 Z-0.600 F1000
G1 X16.697 Y42.325 Z-0.600 F1000
G1 X16.802 Y42.332 Z-0.600 F1000
G1 X16.907 Y42.325 Z-0.600 F1000
G1 X17.009 Y42.303 Z-0.600 F1000
G1 X17.107 Y42.266 Z-0.600 F1000
G1 X17.199 Y42.216 Z-0.600 F1000
G1 X17.283 Y42.153 Z-0.600 F1000
G1 X17.357 Y42.079 Z-0.600 F1000
G1 X17.420 Y41.995 Z-0.600 F1000
G1 X17.471 Y41.903 Z-0.600 F1000
G1 X17.507 Y41.805 Z-0.600 F1000
G1 X17.529 Y41.702 Z-0.600 F1000
G1 X17.537 Y41.597 Z-0.600 F1000
G1 X17.537 Y-2.598 Z-0.600 F300
G1 X17.544 Y-2.702 Z-0.600 F1000
G1 X17.567 Y-2.805 Z-0.600 F1000
G1 X17.603 Y-2.903 Z-0.600 F1000
G1 X17.654 Y-2.995 Z-0.600 F1000
G1 X17.716 Y-3.079 Z-0.600 F1000
G1 X17.791 Y-3.153 Z-0.600 F1000
G1 X17.875 Y-3.216 Z-0.600 F1000
G1 X17.967 Y-3.266 Z-0.600 F1000
G1 X18.065 Y-3.303 Z-0.600 F1000
G1 X18.167 Y-3.325 Z-0.600 F1000
G1 X18.272 Y-3.332 Z-0.600 F1000
G1 X18.377 Y-3.325 Z-0.600 F1000
G1 X18.479 Y-3.303 Z-0.600 F1000
G1 X18.577 Y-3.266 Z-0.600 F1000
G1 X18.669 Y-3.216 Z-0.600 F1000
G1 X18.753 Y-3.153 Z-0.600 F1000
G1 X18.827 Y-3.079 Z-0.600 F1000
G1 X18.890 Y-2.995 Z-0.600 F1000
G1 X18.940 Y-2.903 Z-0.600 F1000
G1 X18.977 Y-2.805 Z-0.600 F1000
G1 X18.999 Y-2.702 Z-0.600 F1000
G1 X19.007 Y-2.598 Z-0.600 F1000
G1 X19.007 Y41.597 Z-0.600 F300
G1 X19.014 Y41.702 Z-0.600 F1000
G1 X19.037 Y41.805 Z-0.600 F1000
G1 X19.073 Y41.903 Z-0.600 F1000
G1 X19.124 Y41.995 Z-0.600 F1000
G1 X19.186 Y42.079 Z-0.600 F1000
G1 X19.261 Y42.153 Z-0.600 F1000
G1 X19.345 Y42.216 Z-0.600 F1000
G1 X19.437 Y42.266 Z-0.600 F1000
G1 X19.535 Y42.303 Z-0.600 F1000
G1 X19.637 Y42.325 Z-0.600 F1000
G1 X19.742 Y42.332 Z-0.600 F1000
G1 X19.846 Y42.325 Z-0.600 F1000
G1 X19.949 Y42.303 Z-0.600 F1000
G1 X20.047 Y42.266 Z-0.600 F1000
G1 X20.139 Y42.216 Z-0.600 F1000
G1 X20.223 Y42.153 Z-0.600 F1000
G1 X20.297 Y42.079 Z-0.600 F1000
G1 X20.360 Y41.995 Z-0.600 F1000
G1 X20.410 Y41.903 Z-0.600 F1000
G1 X20.447 Y41.805 Z-0.600 F1000
G1 X20.469 Y41.702 Z-0.600 F1000
G1 X20.477 Y41.597 Z-0.600 F1000
G1 X20.477 Y-2.598 Z-0.600 F300
G1 X20.477 Y-2.668 Z-0.592 F1500
G1 X20.477 Y-2.735 Z-0.569 F1500
G1 X20.477 Y-2.795 Z-0.531 F1500
G1 X20.477 Y-2.846 Z-0.480 F1500
G1 X20.477 Y-2.884 Z-0.420 F1500
G1 X20.477 Y-2.907 Z-0.353 F1500
G1 X20.477 Y-2.915 Z-0.282 F1500
G1 X20.477 Y-2.915 Z1.000 F300
G1 X-0.103 Y-3.056 Z1.000 F300
G1 X-0.103 Y-3.056 Z0.000 F300
G1 X-0.103 Y-3.056 Z-0.382 F200
G1 X-0.103 Y-3.048 Z-0.453 F300
G1 X-0.103 Y-3.025 Z-0.520 F300
G1 X-0.103 Y-2.987 Z-0.580 F300
G1 X-0.103 Y-2.937 Z-0.631 F300
G1 X-0.103 Y-2.877 Z-0.669 F300
G1 X-0.103 Y-2.810 Z-0.692 F300
G1 X-0.103 Y-2.739 Z-0.700 F300
G1 X-0.103 Y-2.598 Z-0.700 F300
G1 X-0.103 Y41.597 Z-0.700 F300
G1 X-0.095 Y41.702 Z-0.700 F1000
G1 X-0.073 Y41.805 Z-0.700 F1000
G1 X-0.036 Y41.903 Z-0.700 F1000
G1 X0.014 Y41.995 Z-0.700 F1000
G1 X0.077 Y42.079 Z-0.700 F1000
G1 X0.151 Y42.153 Z-0.700 F1000
G1 X0.235 Y42.216 Z-0.700 F1000
G1 X0.327 Y42.266 Z-0.700 F1000
G1 X0.425 Y42.303 Z-0.700 F1000
G1 X0.528 Y42.325 Z-0.700 F1000
G1 X0.632 Y42.332 Z-0.700 F1000
G1 X0.737 Y42.325 Z-0.700 F1000
G1 X0.840 Y42.303 Z-0.700 F1000
G1 X0.938 Y42.266 Z-0.700 F1000
G1 X1.030 Y42.216 Z-0.700 F1000
G1 X1.114 Y42.153 Z-0.700 F1000
G1 X1.188 Y42.079 Z-0.700 F1000
G1 X1.251 Y41.995 Z-0.700 F1000
G1 X1.301 Y41.903 Z-0.700 F1000
G1 X1.338 Y41.805 Z-0.700 F1000
G1 X1.360 Y41.702 Z-0.700 F1000
G1 X1.367 Y41.597 Z-0.700 F1000
G1 X1.367 Y-2.598 Z-0.700 F300
G1 X1.375 Y-2.702 Z-0.700 F1000
G1 X1.397 Y-2.805 Z-0.700 F1000
G1 X1.434 Y-2.903 Z-0.700 F1000
G1 X1.484 Y-2.995 Z-0.700 F1000
G1 X1.547 Y-3.079 Z-0.700 F1000
G1 X1.621 Y-3.153 Z-0.700 F1000
G1 X1.705 Y-3.216 Z-0.700 F1000
G1 X1.797 Y-3.266 Z-0.700 F1000
G1 X1.895 Y-3.303 Z-0.700 F1000
G1 X1.998 Y-3.325 Z-0.700 F1000
G1 X2.102 Y-3.332 Z-0.700 F1000
G1 X2.207 Y-3.325 Z-0.700 F1000
G1 X2.309 Y-3.303 Z-0.700 F1000
G1 X2.408 Y-3.266 Z-0.700 F1000
G1 X2.500 Y-3.216 Z-0.700 F1000
G1 X2.584 Y-3.153 Z-0.700 F1000
G1 X2.658 Y-3.079 Z-0.700 F1000
G1 X2.721 Y-2.995 Z-0.700 F1000
G1 X2.771 Y-2.903 Z-0.700 F1000
G1 X2.808 Y-2.805 Z-0.700 F1000
G1 X2.830 Y-2.702 Z-0.700 F1000
G1 X2.837 Y-2.598 Z-0.700 F1000
G1 X2.837 Y41.597 Z-0.700 F300
G1 X2.845 Y41.702 Z-0.700 F1000
G1 X2.867 Y41.805 Z-0.700 F1000
G1 X2.904 Y41.903 Z-0.700 F1000
G1 X2.954 Y41.995 Z-0.700 F1000
G1 X3.017 Y42.079 Z-0.700 F1000
G1 X3.091 Y42.153 Z-0.700 F1000
G1 X3.175 Y42.216 Z-0.700 F1000
G1 X3.267 Y42.266 Z-0.700 F1000
G1 X3.365 Y42.303 Z-0.700 F1000
G1 X3.468 Y42.325 Z-0.700 F1000
G1 X3.572 Y42.332 Z-0.700 F1000
G1 X3.677 Y42.325 Z-0.700 F1000
G1 X3.779 Y42.303 Z-0.700 F1000
G1 X3.878 Y42.266 Z-0.700 F1000
G1 X3.970 Y42.216 Z-0.700 F1000
G1 X4.054 Y42.153 Z-0.700 F1000
G1 X4.128 Y42.079 Z-0.700 F1000
G1 X4.191 Y41.995 Z-0.700 F1000
G1 X4.241 Y41.903 Z-0.700 F1000
G1 X4.278 Y41.805 Z-0.700 F1000
G1 X4.300 Y41.702 Z-0.700 F1000
G1 X4.307 Y41.597 Z-0.700 F1000
G1 X4.307 Y-2.598 Z-0.700 F300
G1 X4.315 Y-2.702 Z-0.700 F1000
G1 X4.337 Y-2.805 Z-0.700 F1000
G1 X4.374 Y-2.903 Z-0.700 F1000
G1 X4.424 Y-2.995 Z-0.700 F1000
G1 X4.487 Y-3.079 Z-0.700 F1000
G1 X4.561 Y-3.153 Z-0.700 F1000
G1 X4.645 Y-3.216 Z-0.700 F1000
G1 X4.737 Y-3.266 Z-0.700 F1000
G1 X4.835 Y-3.303 Z-0.700 F1000
G1 X4.938 Y-3.325 Z-0.700 F1000
G1 X5.042 Y-3.332 Z-0.700 F1000
G1 X5.147 Y-3.325 Z-0.700 F1000
G1 X5.249 Y-3.303 Z-0.700 F1000
G1 X5.348 Y-3.266 Z-0.700 F1000
G1 X5.440 Y-3.216 Z-0.700 F1000
G1 X5.524 Y-3.153 Z-0.700 F1000
G1 X5.598 Y-3.079 Z-0.700 F1000
G1 X5.661 Y-2.995 Z-0.700 F1000
G1 X5.711 Y-2.903 Z-0.700 F1000
G1 X5.748 Y-2.805 Z-0.700 F1000
G1 X5.770 Y-2.702 Z-0.700 F1000
G1 X5.777 Y-2.598 Z-0.700 F1000
G1 X5.777 Y41.597 Z-0.700 F300
G1 X5.785 Y41.702 Z-0.700 F1000
G1 X5.807 Y41.805 Z-0.700 F1000
G1 X5.844 Y41.903 Z-0.700 F1000
G1 X5.894 Y41.995 Z-0.700 F1000
G1 X5.957 Y42.079 Z-0.700 F1000
G1 X6.031 Y42.153 Z-0.700 F1000
G1 X6.115 Y42.216 Z-0.700 F1000
G1 X6.207 Y42.266 Z-0.700 F1000
G1 X6.305 Y42.303 Z-0.700 F1000
G1 X6.408 Y42.325 Z-0.700 F1000
G1 X6.512 Y42.332 Z-0.700 F1000
G1 X6.617 Y42.325 Z-0.700 F1000
G1 X6.719 Y42.303 Z-0.700 F1000
G1 X6.818 Y42.266 Z-0.700 F1000
G1 X6.910 Y42.216 Z-0.700 F1000
G1 X6.994 Y42.153 Z-0.700 F1000
G1 X7.068 Y42.079 Z-0.700 F1000
G1 X7.131 Y41.995 Z-0.700 F1000
G1 X7.181 Y41.903 Z-0.700 F1000
G1 X7.217 Y41.805 Z-0.700 F1000
G1 X7.240 Y41.702 Z-0.700 F1000
G1 X7.247 Y41.597 Z-0.700 F1000
G1 X7.247 Y-2.598 Z-0.700 F300
G1 X7.255 Y-2.702 Z-0.700 F1000
G1 X7.277 Y-2.805 Z-0.700 F1000
G1 X7.314 Y-2.903 Z-0.700 F1000
G1 X7.364 Y-2.995 Z-0.700 F1000
G1 X7.427 Y-3.079 Z-0.700 F1000
G1 X7.501 Y-3.153 Z-0.700 F1000
G1 X7.585 Y-3.216 Z-0.700 F1000
G1 X7.677 Y-3.266 Z-0.700 F1000
G1 X7.775 Y-3.303 Z-0.700 F1000
G1 X7.878 Y-3.325 Z-0.700 F1000
G1 X7.982 Y-3.332 Z-0.700 F1000
G1 X8.087 Y-3.325 Z-0.700 F1000
G1 X8.189 Y-3.303 Z-0.700 F1000
G1 X8.288 Y-3.266 Z-0.700 F1000
G1 X8.380 Y-3.216 Z-0.700 F1000
G1 X8.464 Y-3.153 Z-0.700 F1000
G1 X8.538 Y-3.079 Z-0.700 F1000
G1 X8.601 Y-2.995 Z-0.700 F1000
G1 X8.651 Y-2.903 Z-0.700 F1000
G1 X8.687 Y-2.805 Z-0.700 F1000
G1 X8.710 Y-2.702 Z-0.700 F1000
G1 X8.717 Y-2.598 Z-0.700 F1000
G1 X8.717 Y41.597 Z-0.700 F300
G1 X8.725 Y41.702 Z-0.700 F1000
G1 X8.747 Y41.805 Z-0.700 F1000
G1 X8.784 Y41.903 Z-0.700 F1000
G1 X8.834 Y41.995 Z-0.700 F1000
G1 X8.897 Y42.079 Z-0.700 F1000
G1 X8.971 Y42.153 Z-0.700 F1000
G1 X9.055 Y42.216 Z-0.700 F1000
G1 X9.147 Y42.266 Z-0.700 F1000
G1 X9.245 Y42.303 Z-0.700 F1000
G1 X9.348 Y42.325 Z-0.700 F1000
G1 X9.452 Y42.332 Z-0.700 F1000
G1 X9.557 Y42.325 Z-0.700 F1000
G1 X9.659 Y42.303 Z-0.700 F1000
G1 X9.758 Y42.266 Z-0.700 F1000
G1 X9.850 Y42.216 Z-0.700 F1000
G1 X9.933 Y42.153 Z-0.700 F1000
G1 X10.008 Y42.079 Z-0.700 F1000
G1 X10.070 Y41.995 Z-0.700 F1000
G1 X10.121 Y41.903 Z-0.700 F1000
G1 X10.157 Y41.805 Z-0.700 F1000
G1 X10.180 Y41.702 Z-0.700 F1000
G1 X10.187 Y41.597 Z-0.700 F1000
G1 X10.187 Y-2.598 Z-0.700 F300
G1 X10.195 Y-2.702 Z-0.700 F1000
G1 X10.217 Y-2.805 Z-0.700 F1000
G1 X10.254 Y-2.903 Z-0.700 F1000
G1 X10.304 Y-2.995 Z-0.700 F1000
G1 X10.367 Y-3.079 Z-0.700 F1000
G1 X10.441 Y-3.153 Z-0.700 F1000
G1 X10.525 Y-3.216 Z-0.700 F1000
G1 X10.617 Y-3.266 Z-0.700 F1000
G1 X10.715 Y-3.303 Z-0.700 F1000
G1 X10.818 Y-3.325 Z-0.700 F1000
G1 X10.922 Y-3.332 Z-0.700 F1000
G1 X11.027 Y-3.325 Z-0.700 F1000
G1 X11.129 Y-3.303 Z-0.700 F1000
G1 X11.227 Y-3.266 Z-0.700 F1000
G1 X11.320 Y-3.216 Z-0.700 F1000
G1 X11.403 Y-3.153 Z-0.700 F1000
G1 X11.478 Y-3.079 Z-0.700 F1000
G1 X11.540 Y-2.995 Z-0.700 F1000
G1 X11.591 Y-2.903 Z-0.700 F1000
G1 X11.627 Y-2.805 Z-0.700 F1000
G1 X11.650 Y-2.702 Z-0.700 F1000
G1 X11.657 Y-2.598 Z-0.700 F1000
G1 X11.657 Y41.597 Z-0.700 F300
G1 X11.665 Y41.702 Z-0.700 F1000
G1 X11.687 Y41.805 Z-0.700 F1000
G1 X11.724 Y41.903 Z-0.700 F1000
G1 X11.774 Y41.995 Z-0.700 F1000
G1 X11.837 Y42.079 Z-0.700 F1000
G1 X11.911 Y42.153 Z-0.700 F1000
G1 X11.995 Y42.216 Z-0.700 F1000
G1 X12.087 Y42.266 Z-0.700 F1000
G1 X12.185 Y42.303 Z-0.700 F1000
G1 X12.288 Y42.325 Z-0.700 F1000
G1 X12.392 Y42.332 Z-0.700 F1000
G1 X12.497 Y42.325 Z-0.700 F1000
G1 X12.599 Y42.303 Z-0.700 F1000
G1 X12.697 Y42.266 Z-0.700 F1000
G1 X12.789 Y42.216 Z-0.700 F1000
G1 X12.873 Y42.153 Z-0.700 F1000
G1 X12.948 Y42.079 Z-0.700 F1000
G1 X13.010 Y41.995 Z-0.700 F1000
G1 X13.061 Y41.903 Z-0.700 F1000
G1 X13.097 Y41.805 Z-0.700 F1000
G1 X13.120 Y41.702 Z-0.700 F1000
G1 X13.127 Y41.597 Z-0.700 F1000
G1 X13.127 Y-2.598 Z-0.700 F300
G1 X13.135 Y-2.702 Z-0.700 F1000
G1 X13.157 Y-2.805 Z-0.700 F1000
G1 X13.194 Y-2.903 Z-0.700 F1000
G1 X13.244 Y-2.995 Z-0.700 F1000
G1 X13.307 Y-3.079 Z-0.700 F1000
G1 X13.381 Y-3.153 Z-0.700 F1000
G1 X13.465 Y-3.216 Z-0.700 F1000
G1 X13.557 Y-3.266 Z-0.700 F1000
G1 X13.655 Y-3.303 Z-0.700 F1000
G1 X13.757 Y-3.325 Z-0.700 F1000
G1 X13.862 Y-3.332 Z-0.700 F1000
G1 X13.967 Y-3.325 Z-0.700 F1000
G1 X14.069 Y-3.303 Z-0.700 F1000
G1 X14.167 Y-3.266 Z-0.700 F1000
G1 X14.259 Y-3.216 Z-0.700 F1000
G1 X14.343 Y-3.153 Z-0.700 F1000
G1 X14.418 Y-3.079 Z-0.700 F1000
G1 X14.480 Y-2.995 Z-0.700 F1000
G1 X14.531 Y-2.903 Z-0.700 F1000
G1 X14.567 Y-2.805 Z-0.700 F1000
G1 X14.590 Y-2.702 Z-0.700 F1000
G1 X14.597 Y-2.598 Z-0.700 F1000
G1 X14.597 Y41.597 Z-0.700 F300
G1 X14.605 Y41.702 Z-0.700 F1000
G1 X14.627 Y41.805 Z-0.700 F1000
G1 X14.663 Y41.903 Z-0.700 F1000
G1 X14.714 Y41.995 Z-0.700 F1000
G1 X14.777 Y42.079 Z-0.700 F1000
G1 X14.851 Y42.153 Z-0.700 F1000
G1 X14.935 Y42.216 Z-0.700 F1000
G1 X15.027 Y42.266 Z-0.700 F1000
G1 X15.125 Y42.303 Z-0.700 F1000
G1 X15.227 Y42.325 Z-0.700 F1000
G1 X15.332 Y42.332 Z-0.700 F1000
G1 X15.437 Y42.325 Z-0.700 F1000
G1 X15.539 Y42.303 Z-0.700 F1000
G1 X15.637 Y42.266 Z-0.700 F1000
G1 X15.729 Y42.216 Z-0.700 F1000
G1 X15.813 Y42.153 Z-0.700 F1000
G1 X15.887 Y42.079 Z-0.700 F1000
G1 X15.950 Y41.995 Z-0.700 F1000
G1 X16.001 Y41.903 Z-0.700 F1000
G1 X16.037 Y41.805 Z-0.700 F1000
G1 X16.060 Y41.702 Z-0.700 F1000
G1 X16.067 Y41.597 Z-0.700 F1000
G1 X16.067 Y-2.598 Z-0.700 F300
G1 X16.074 Y-2.702 Z-0.700 F1000
G1 X16.097 Y-2.805 Z-0.700 F1000
G1 X16.133 Y-2.903 Z-0.700 F1000
G1 X16.184 Y-2.995 Z-0.700 F1000
G1 X16.247 Y-3.079 Z-0.700 F1000
G1 X16.321 Y-3.153 Z-0.700 F1000
G1 X16.405 Y-3.216 Z-0.700 F1000
G1 X16.497 Y-3.266 Z-0.700 F1000
G1 X16.595 Y-3.303 Z-0.700 F1000
G1 X16.697 Y-3.325 Z-0.700 F1000
G1 X16.802 Y-3.332 Z-0.700 F1000
G1 X16.907 Y-3.325 Z-0.700 F1000
G1 X17.009 Y-3.303 Z-0.700 F1000
G1 X17.107 Y-3.266 Z-0.700 F1000
G1 X17.199 Y-3.216 Z-0.700 F1000
G1 X17.283 Y-3.153 Z-0.700 F1000
G1 X17.357 Y-3.079 Z-0.700 F1000
G1 X17.420 Y-2.995 Z-0.700 F1000
G1 X17.471 Y-2.903 Z-0.700 F1000
G1 X17.507 Y-2.805 Z-0.700 F1000
G1 X17.529 Y-2.702 Z-0.700 F1000
G1 X17.537 Y-2.598 Z-0.700 F1000
G1 X17.537 Y41.597 Z-0.700 F300
G1 X17.544 Y41.702 Z-0.700 F1000
G1 X17.567 Y41.805 Z-0.700 F1000
G1 X17.603 Y41.903 Z-0.700 F1000
G1 X17.654 Y41.995 Z-0.700 F1000
G1 X17.716 Y42.079 Z-0.700 F1000
G1 X17.791 Y42.153 Z-0.700 F1000
G1 X17.875 Y42.216 Z-0.700 F1000
G1 X17.967 Y42.266 Z-0.700 F1000
G1 X18.065 Y42.303 Z-0.700 F1000
G1 X18.167 Y42.325 Z-0.700 F1000
G1 X18.272 Y42.332 Z-0.700 F1000
G1 X18.377 Y42.325 Z-0.700 F1000
G1 X18.479 Y42.303 Z-0.700 F1000
G1 X18.577 Y42.266 Z-0.700 F1000
G1 X18.669 Y42.216 Z-0.700 F1000
G1 X18.753 Y42.153 Z-0.700 F1000
G1 X18.827 Y42.079 Z-0.700 F1000
G1 X18.890 Y41.995 Z-0.700 F1000
G1 X18.940 Y41.903 Z-0.700 F1000
G1 X18.977 Y41.805 Z-0.700 F1000
G1 X18.999 Y41.702 Z-0.700 F1000
G1 X19.007 Y41.597 Z-0.700 F1000
G1 X19.007 Y-2.598 Z-0.700 F300
G1 X19.014 Y-2.702 Z-0.700 F1000
G1 X19.037 Y-2.805 Z-0.700 F1000
G1 X19.073 Y-2.903 Z-0.700 F1000
G1 X19.124 Y-2.995 Z-0.700 F1000
G1 X19.186 Y-3.079 Z-0.700 F1000
G1 X19.261 Y-3.153 Z-0.700 F1000
G1 X19.345 Y-3.216 Z-0.700 F1000
G1 X19.437 Y-3.266 Z-0.700 F1000
G1 X19.535 Y-3.303 Z-0.700 F1000
G1 X19.637 Y-3.325 Z-0.700 F1000
G1 X19.742 Y-3.332 Z-0.700 F1000
G1 X19.846 Y-3.325 Z-0.700 F1000
G1 X19.949 Y-3.303 Z-0.700 F1000
G1 X20.047 Y-3.266 Z-0.700 F1000
G1 X20.139 Y-3.216 Z-0.700 F1000
G1 X20.223 Y-3.153 Z-0.700 F1000
G1 X20.297 Y-3.079 Z-0.700 F1000
G1 X20.360 Y-2.995 Z-0.700 F1000
G1 X20.410 Y-2.903 Z-0.700 F1000
G1 X20.447 Y-2.805 Z-0.700 F1000
G1 X20.469 Y-2.702 Z-0.700 F1000
G1 X20.477 Y-2.598 Z-0.700 F1000
G1 X20.477 Y41.597 Z-0.700 F300
G1 X20.477 Y41.668 Z-0.692 F1500
G1 X20.477 Y41.735 Z-0.669 F1500
G1 X20.477 Y41.795 Z-0.631 F1500
G1 X20.477 Y41.846 Z-0.580 F1500
G1 X20.477 Y41.884 Z-0.520 F1500
G1 X20.477 Y41.907 Z-0.453 F1500
G1 X20.477 Y41.915 Z-0.382 F1500
G1 X20.477 Y41.915 Z1.000 F300
G1 X-0.103 Y42.056 Z1.000 F300
G1 X-0.103 Y42.056 Z0.000 F300
G1 X-0.103 Y42.056 Z-0.482 F200
G1 X-0.103 Y42.048 Z-0.553 F300
G1 X-0.103 Y42.025 Z-0.620 F300
G1 X-0.103 Y41.987 Z-0.680 F300
G1 X-0.103 Y41.937 Z-0.731 F300
G1 X-0.103 Y41.877 Z-0.769 F300
G1 X-0.103 Y41.810 Z-0.792 F300
G1 X-0.103 Y41.739 Z-0.800 F300
G1 X-0.103 Y41.597 Z-0.800 F300
G1 X-0.103 Y-2.598 Z-0.800 F300
G1 X-0.095 Y-2.702 Z-0.800 F1000
G1 X-0.073 Y-2.805 Z-0.800 F1000
G1 X-0.036 Y-2.903 Z-0.800 F1000
G1 X0.014 Y-2.995 Z-0.800 F1000
G1 X0.077 Y-3.079 Z-0.800 F1000
G1 X0.151 Y-3.153 Z-0.800 F1000
G1 X0.235 Y-3.216 Z-0.800 F1000
G1 X0.327 Y-3.266 Z-0.800 F1000
G1 X0.425 Y-3.303 Z-0.800 F1000
G1 X0.528 Y-3.325 Z-0.800 F1000
G1 X0.632 Y-3.332 Z-0.800 F1000
G1 X0.737 Y-3.325 Z-0.800 F1000
G1 X0.840 Y-3.303 Z-0.800 F1000
G1 X0.938 Y-3.266 Z-0.800 F1000
G1 X1.030 Y-3.216 Z-0.800 F1000
G1 X1.114 Y-3.153 Z-0.800 F1000
G1 X1.188 Y-3.079 Z-0.800 F1000
G1 X1.251 Y-2.995 Z-0.800 F1000
G1 X1.301 Y-2.903 Z-0.800 F1000
G1 X1.338 Y-2.805 Z-0.800 F1000
G1 X1.360 Y-2.702 Z-0.800 F1000
G1 X1.367 Y-2.598 Z-0.800 F1000
G1 X1.367 Y41.597 Z-0.800 F300
G1 X1.375 Y41.702 Z-0.800 F1000
G1 X1.397 Y41.805 Z-0.800 F1000
G1 X1.434 Y41.903 Z-0.800 F1000
G1 X1.484 Y41.995 Z-0.800 F1000
G1 X1.547 Y42.079 Z-0.800 F1000
G1 X1.621 Y42.153 Z-0.800 F1000
G1 X1.705 Y42.216 Z-0.800 F1000
G1 X1.797 Y42.266 Z-0.800 F1000
G1 X1.895 Y42.303 Z-0.800 F1000
G1 X1.998 Y42.325 Z-0.800 F1000
G1 X2.102 Y42.332 Z-0.800 F1000
G1 X2.207 Y42.325 Z-0.800 F1000
G1 X2.309 Y42.303 Z-0.800 F1000
G1 X2.408 Y42.266 Z-0.800 F1000
G1 X2.500 Y42.216 Z-0.800 F1000
G1 X2.584 Y42.153 Z-0.800 F1000
G1 X2.658 Y42.079 Z-0.800 F1000
G1 X2.721 Y41.995 Z-0.800 F1000
G1 X2.771 Y41.903 Z-0.800 F1000
G1 X2.808 Y41.805 Z-0.800 F1000
G1 X2.830 Y41.702 Z-0.800 F1000
G1 X2.837 Y41.597 Z-0.800 F1000
G1 X2.837 Y-2.598 Z-0.800 F300
G1 X2.845 Y-2.702 Z-0.800 F1000
G1 X2.867 Y-2.805 Z-0.800 F1000
G1 X2.904 Y-2.903 Z-0.800 F1000
G1 X2.954 Y-2.995 Z-0.800 F1000
G1 X3.017 Y-3.079 Z-0.800 F1000
G1 X3.091 Y-3.153 Z-0.800 F1000
G1 X3.175 Y-3.216 Z-0.800 F1000
G1 X3.267 Y-3.266 Z-0.800 F1000
G1 X3.365 Y-3.303 Z-0.800 F1000
G1 X3.468 Y-3.325 Z-0.800 F1000
G1 X3.572 Y-3.332 Z-0.800 F1000
G1 X3.677 Y-3.325 Z-0.800 F1000
G1 X3.779 Y-3.303 Z-0.800 F1000
G1 X3.878 Y-3.266 Z-0.800 F1000
G1 X3.970 Y-3.216 Z-0.800 F1000
G1 X4.054 Y-3.153 Z-0.800 F1000
G1 X4.128 Y-3.079 Z-0.800 F1000
G1 X4.191 Y-2.995 Z-0.800 F1000
G1 X4.241 Y-2.903 Z-0.800 F1000
G1 X4.278 Y-2.805 Z-0.800 F1000
G1 X4.300 Y-2.702 Z-0.800 F1000
G1 X4.307 Y-2.598 Z-0.800 F1000
G1 X4.307 Y41.597 Z-0.800 F300
G1 X4.315 Y41.702 Z-0.800 F1000
G1 X4.337 Y41.805 Z-0.800 F1000
G1 X4.374 Y41.903 Z-0.800 F1000
G1 X4.424 Y41.995 Z-0.800 F1000
G1 X4.487 Y42.079 Z-0.800 F1000
G1 X4.561 Y42.153 Z-0.800 F1000
G1 X4.645 Y42.216 Z-0.800 F1000
G1 X4.737 Y42.266 Z-0.800 F1000
G1 X4.835 Y42.303 Z-0.800 F1000
G1 X4.938 Y42.325 Z-0.800 F1000
G1 X5.042 Y42.332 Z-0.800 F1000
G1 X5.147 Y42.325 Z-0.800 F1000
G1 X5.249 Y42.303 Z-0.800 F1000
G1 X5.348 Y42.266 Z-0.800 F1000
G1 X5.440 Y42.216 Z-0.800 F1000
G1 X5.524 Y42.153 Z-0.800 F1000
G1 X5.598 Y42.079 Z-0.800 F1000
G1 X5.661 Y41.995 Z-0.800 F1000
G1 X5.711 Y41.903 Z-0.800 F1000
G1 X5.748 Y41.805 Z-0.800 F1000
G1 X5.770 Y41.702 Z-0.800 F1000
G1 X5.777 Y41.597 Z-0.800 F1000
G1 X5.777 Y-2.598 Z-0.800 F300
G1 X5.785 Y-2.702 Z-0.800 F1000
G1 X5.807 Y-2.805 Z-0.800 F1000
G1 X5.844 Y-2.903 Z-0.800 F1000
G1 X5.894 Y-2.995 Z-0.800 F1000
G1 X5.957 Y-3.079 Z-0.800 F1000
G1 X6.031 Y-3.153 Z-0.800 F1000
G1 X6.115 Y-3.216 Z-0.800 F1000
G1 X6.207 Y-3.266 Z-0.800 F1000
G1 X6.305 Y-3.303 Z-0.800 F1000
G1 X6.408 Y-3.325 Z-0.800 F1000
G1 X6.512 Y-3.332 Z-0.800 F1000
G1 X6.617 Y-3.325 Z-0.800 F1000
G1 X6.719 Y-3.303 Z-0.800 F1000
G1 X6.818 Y-3.266 Z-0.800 F1000
G1 X6.910 Y-3.216 Z-0.800 F1000
G1 X6.994 Y-3.153 Z-0.800 F1000
G1 X7.068 Y-3.079 Z-0.800 F1000
G1 X7.131 Y-2.995 Z-0.800 F1000
G1 X7.181 Y-2.903 Z-0.800 F1000
G1 X7.217 Y-2.805 Z-0.800 F1000
G1 X7.240 Y-2.702 Z-0.800 F1000
G1 X7.247 Y-2.598 Z-0.800 F1000
G1 X7.247 Y41.597 Z-0.800 F300
G1 X7.255 Y41.702 Z-0.800 F1000
G1 X7.277 Y41.805 Z-0.800 F1000
G1 X7.314 Y41.903 Z-0.800 F1000
G1 X7.364 Y41.995 Z-0.800 F1000
G1 X7.427 Y42.079 Z-0.800 F1000
G1 X7.501 Y42.153 Z-0.800 F1000
G1 X7.585 Y42.216 Z-0.800 F1000
G1 X7.677 Y42.266 Z-0.800 F1000
G1 X7.775 Y42.303 Z-0.800 F1000
G1 X7.878 Y42.325 Z-0.800 F1000
G1 X7.982 Y42.332 Z-0.800 F1000
G1 X8.087 Y42.325 Z-0.800 F1000
G1 X8.189 Y42.303 Z-0.800 F1000
G1 X8.288 Y42.266 Z-0.800 F1000
G1 X8.380 Y42.216 Z-0.800 F1000
G1 X8.464 Y42.153 Z-0.800 F1000
G1 X8.538 Y42.079 Z-0.800 F1000
G1 X8.601 Y41.995 Z-0.800 F1000
G1 X8.651 Y41.903 Z-0.800 F1000
G1 X8.687 Y41.805 Z-0.800 F1000
G1 X8.710 Y41.702 Z-0.800 F1000
G1 X8.717 Y41.597 Z-0.800 F1000
G1 X8.717 Y-2.598 Z-0.800 F300
G1 X8.725 Y-2.702 Z-0.800 F1000
G1 X8.747 Y-2.805 Z-0.800 F1000
G1 X8.784 Y-2.903 Z-0.800 F1000
G1 X8.834 Y-2.995 Z-0.800 F1000
G1 X8.897 Y-3.079 Z-0.800 F1000
G1 X8.971 Y-3.153 Z-0.800 F1000
G1 X9.055 Y-3.216 Z-0.800 F1000
G1 X9.147 Y-3.266 Z-0.800 F1000
G1 X9.245 Y-3.303 Z-0.800 F1000
G1 X9.348 Y-3.325 Z-0.800 F1000
G1 X9.452 Y-3.332 Z-0.800 F1000
G1 X9.557 Y-3.325 Z-0.800 F1000
G1 X9.659 Y-3.303 Z-0.800 F1000
G1 X9.758 Y-3.266 Z-0.800 F1000
G1 X9.850 Y-3.216 Z-0.800 F1000
G1 X9.933 Y-3.153 Z-0.800 F1000
G1 X10.008 Y-3.079 Z-0.800 F1000
G1 X10.070 Y-2.995 Z-0.800 F1000
G1 X10.121 Y-2.903 Z-0.800 F1000
G1 X10.157 Y-2.805 Z-0.800 F1000
G1 X10.180 Y-2.702 Z-0.800 F1000
G1 X10.187 Y-2.598 Z-0.800 F1000
G1 X10.187 Y41.597 Z-0.800 F300
G1 X10.195 Y41.702 Z-0.800 F1000
G1 X10.217 Y41.805 Z-0.800 F1000
G1 X10.254 Y41.903 Z-0.800 F1000
G1 X10.304 Y41.995 Z-0.800 F1000
G1 X10.367 Y42.079 Z-0.800 F1000
G1 X10.441 Y42.153 Z-0.800 F1000
G1 X10.525 Y42.216 Z-0.800 F1000
G1 X10.617 Y42.266 Z-0.800 F1000
G1 X10.715 Y42.303 Z-0.800 F1000
G1 X10.818 Y42.325 Z-0.800 F1000
G1 X10.922 Y42.332 Z-0.800 F1000
G1 X11.027 Y42.325 Z-0.800 F1000
G1 X11.129 Y42.303 Z-0.800 F1000
G1 X11.227 Y42.266 Z-0.800 F1000
G1 X11.320 Y42.216 Z-0.800 F1000
G1 X11.403 Y42.153 Z-0.800 F1000
G1 X11.478 Y42.079 Z-0.800 F1000
G1 X11.540 Y41.995 Z-0.800 F1000
G1 X11.591 Y41.903 Z-0.800 F1000
G1 X11.627 Y41.805 Z-0.800 F1000
G1 X11.650 Y41.702 Z-0.800 F1000
G1 X11.657 Y41.597 Z-0.800 F1000
G1 X11.657 Y-2.598 Z-0.800 F300
G1 X11.665 Y-2.702 Z-0.800 F1000
G1 X11.687 Y-2.805 Z-0.800 F1000
G1 X11.724 Y-2.903 Z-0.800 F1000
G1 X11.774 Y-2.995 Z-0.800 F1000
G1 X11.837 Y-3.079 Z-0.800 F1000
G1 X11.911 Y-3.153 Z-0.800 F1000
G1 X11.995 Y-3.216 Z-0.800 F1000
G1 X12.087 Y-3.266 Z-0.800 F1000
G1 X12.185 Y-3.303 Z-0.800 F1000
G1 X12.288 Y-3.325 Z-0.800 F1000
G1 X12.392 Y-3.332 Z-0.800 F1000
G1 X12.497 Y-3.325 Z-0.800 F1000
G1 X12.599 Y-3.303 Z-0.800 F1000
G1 X12.697 Y-3.266 Z-0.800 F1000
G1 X12.789 Y-3.216 Z-0.800 F1000
G1 X12.873 Y-3.153 Z-0.800 F1000
G1 X12.948 Y-3.079 Z-0.800 F1000
G1 X13.010 Y-2.995 Z-0.800 F1000
G1 X13.061 Y-2.903 Z-0.800 F1000
G1 X13.097 Y-2.805 Z-0.800 F1000
G1 X13.120 Y-2.702 Z-0.800 F1000
G1 X13.127 Y-2.598 Z-0.800 F1000
G1 X13.127 Y41.597 Z-0.800 F300
G1 X13.135 Y41.702 Z-0.800 F1000
G1 X13.157 Y41.805 Z-0.800 F1000
G1 X13.194 Y41.903 Z-0.800 F1000
G1 X13.244 Y41.995 Z-0.800 F1000
G1 X13.307 Y42.079 Z-0.800 F1000
G1 X13.381 Y42.153 Z-0.800 F1000
G1 X13.465 Y42.216 Z-0.800 F1000
G1 X13.557 Y42.266 Z-0.800 F1000
G1 X13.655 Y42.303 Z-0.800 F1000
G1 X13.757 Y42.325 Z-0.800 F1000
G1 X13.862 Y42.332 Z-0.800 F1000
G1 X13.967 Y42.325 Z-0.800 F1000
G1 X14.069 Y42.303 Z-0.800 F1000
G1 X14.167 Y42.266 Z-0.800 F1000
G1 X14.259 Y42.216 Z-0.800 F1000
G1 X14.343 Y42.153 Z-0.800 F1000
G1 X14.418 Y42.079 Z-0.800 F1000
G1 X14.480 Y41.995 Z-0.800 F1000
G1 X14.531 Y41.903 Z-0.800 F1000
G1 X14.567 Y41.805 Z-0.800 F1000
G1 X14.590 Y41.702 Z-0.800 F1000
G1 X14.597 Y41.597 Z-0.800 F1000
G1 X14.597 Y-2.598 Z-0.800 F300
G1 X14.605 Y-2.702 Z-0.800 F1000
G1 X14.627 Y-2.805 Z-0.800 F1000
G1 X14.663 Y-2.903 Z-0.800 F1000
G1 X14.714 Y-2.995 Z-0.800 F1000
G1 X14.777 Y-3.079 Z-0.800 F1000
G1 X14.851 Y-3.153 Z-0.800 F1000
G1 X14.935 Y-3.216 Z-0.800 F1000
G1 X15.027 Y-3.266 Z-0.800 F1000
G1 X15.125 Y-3.303 Z-0.800 F1000
G1 X15.227 Y-3.325 Z-0.800 F1000
G1 X15.332 Y-3.332 Z-0.800 F1000
G1 X15.437 Y-3.325 Z-0.800 F1000
G1 X15.539 Y-3.303 Z-0.800 F1000
G1 X15.637 Y-3.266 Z-0.800 F1000
G1 X15.729 Y-3.216 Z-0.800 F1000
G1 X15.813 Y-3.153 Z-0.800 F1000
G1 X15.887 Y-3.079 Z-0.800 F1000
G1 X15.950 Y-2.995 Z-0.800 F1000
G1 X16.001 Y-2.903 Z-0.800 F1000
G1 X16.037 Y-2.805 Z-0.800 F1000
G1 X16.060 Y-2.702 Z-0.800 F1000
G1 X16.067 Y-2.598 Z-0.800 F1000
G1 X16.067 Y41.597 Z-0.800 F300
G1 X16.074 Y41.702 Z-0.800 F1000
G1 X16.097 Y41.805 Z-0.800 F1000
G1 X16.133 Y41.903 Z-0.800 F1000
G1 X16.184 Y41.995 Z-0.800 F1000
G1 X16.247 Y42.079 Z-0.800 F1000
G1 X16.321 Y42.153 Z-0.800 F1000
G1 X16.405 Y42.216 Z-0.800 F1000
G1 X16.497 Y42.266 Z-0.800 F1000
G1 X16.595 Y42.303 Z-0.800 F1000
G1 X16.697 Y42.325 Z-0.800 F1000
G1 X16.802 Y42.332 Z-0.800 F1000
G1 X16.907 Y42.325 Z-0.800 F1000
G1 X17.009 Y42.303 Z-0.800 F1000
G1 X17.107 Y42.266 Z-0.800 F1000
G1 X17.199 Y42.216 Z-0.800 F1000
G1 X17.283 Y42.153 Z-0.800 F1000
G1 X17.357 Y42.079 Z-0.800 F1000
G1 X17.420 Y41.995 Z-0.800 F1000
G1 X17.471 Y41.903 Z-0.800 F1000
G1 X17.507 Y41.805 Z-0.800 F1000
G1 X17.529 Y41.702 Z-0.800 F1000
G1 X17.537 Y41.597 Z-0.800 F1000
G1 X17.537 Y-2.598 Z-0.800 F300
G1 X17.544 Y-2.702 Z-0.800 F1000
G1 X17.567 Y-2.805 Z-0.800 F1000
G1 X17.603 Y-2.903 Z-0.800 F1000
G1 X17.654 Y-2.995 Z-0.800 F1000
G1 X17.716 Y-3.079 Z-0.800 F1000
G1 X17.791 Y-3.153 Z-0.800 F1000
G1 X17.875 Y-3.216 Z-0.800 F1000
G1 X17.967 Y-3.266 Z-0.800 F1000
G1 X18.065 Y-3.303 Z-0.800 F1000
G1 X18.167 Y-3.325 Z-0.800 F1000
G1 X18.272 Y-3.332 Z-0.800 F1000
G1 X18.377 Y-3.325 Z-0.800 F1000
G1 X18.479 Y-3.303 Z-0.800 F1000
G1 X18.577 Y-3.266 Z-0.800 F1000
G1 X18.669 Y-3.216 Z-0.800 F1000
G1 X18.753 Y-3.153 Z-0.800 F1000
G1 X18.827 Y-3.079 Z-0.800 F1000
G1 X18.890 Y-2.995 Z-0.800 F1000
G1 X18.940 Y-2.903 Z-0.800 F1000
G1 X18.977 Y-2.805 Z-0.800 F1000
G1 X18.999 Y-2.702 Z-0.800 F1000
G1 X19.007 Y-2.598 Z-0.800 F1000
G1 X19.007 Y41.597 Z-0.800 F300
G1 X19.014 Y41.702 Z-0.800 F1000
G1 X19.037 Y41.805 Z-0.800 F1000
G1 X19.073 Y41.903 Z-0.800 F1000
G1 X19.124 Y41.995 Z-0.800 F1000
G1 X19.186 Y42.079 Z-0.800 F1000
G1 X19.261 Y42.153 Z-0.800 F1000
G1 X19.345 Y42.216 Z-0.800 F1000
G1 X19.437 Y42.266 Z-0.800 F1000
G1 X19.535 Y42.303 Z-0.800 F1000
G1 X19.637 Y42.325 Z-0.800 F1000
G1 X19.742 Y42.332 Z-0.800 F1000
G1 X19.846 Y42.325 Z-0.800 F1000
G1 X19.949 Y42.303 Z-0.800 F1000
G1 X20.047 Y42.266 Z-0.800 F1000
G1 X20.139 Y42.216 Z-0.800 F1000
G1 X20.223 Y42.153 Z-0.800 F1000
G1 X20.297 Y42.079 Z-0.800 F1000
G1 X20.360 Y41.995 Z-0.800 F1000
G1 X20.410 Y41.903 Z-0.800 F1000
G1 X20.447 Y41.805 Z-0.800 F1000
G1 X20.469 Y41.702 Z-0.800 F1000
G1 X20.477 Y41.597 Z-0.800 F1000
G1 X20.477 Y-2.598 Z-0.800 F300
G1 X20.477 Y-2.668 Z-0.792 F1500
G1 X20.477 Y-2.735 Z-0.769 F1500
G1 X20.477 Y-2.795 Z-0.731 F1500
G1 X20.477 Y-2.846 Z-0.680 F1500
G1 X20.477 Y-2.884 Z-0.620 F1500
G1 X20.477 Y-2.907 Z-0.553 F1500
G1 X20.477 Y-2.915 Z-0.482 F1500
G1 X20.477 Y-2.915 Z1.000 F300
G1 X-0.103 Y-3.056 Z1.000 F300
G1 X-0.103 Y-3.056 Z0.000 F300
G1 X-0.103 Y-3.056 Z-0.582 F200
G1 X-0.103 Y-3.048 Z-0.653 F300
G1 X-0.103 Y-3.025 Z-0.720 F300
G1 X-0.103 Y-2.987 Z-0.780 F300
G1 X-0.103 Y-2.937 Z-0.831 F300
G1 X-0.103 Y-2.877 Z-0.869 F300
G1 X-0.103 Y-2.810 Z-0.892 F300
G1 X-0.103 Y-2.739 Z-0.900 F300
G1 X-0.103 Y-2.598 Z-0.900 F300
G1 X-0.103 Y41.597 Z-0.900 F300
G1 X-0.095 Y41.702 Z-0.900 F1000
G1 X-0.073 Y41.805 Z-0.900 F1000
G1 X-0.036 Y41.903 Z-0.900 F1000
G1 X0.014 Y41.995 Z-0.900 F1000
G1 X0.077 Y42.079 Z-0.900 F1000
G1 X0.151 Y42.153 Z-0.900 F1000
G1 X0.235 Y42.216 Z-0.900 F1000
G1 X0.327 Y42.266 Z-0.900 F1000
G1 X0.425 Y42.303 Z-0.900 F1000
G1 X0.528 Y42.325 Z-0.900 F1000
G1 X0.632 Y42.332 Z-0.900 F1000
G1 X0.737 Y42.325 Z-0.900 F1000
G1 X0.840 Y42.303 Z-0.900 F1000
G1 X0.938 Y42.266 Z-0.900 F1000
G1 X1.030 Y42.216 Z-0.900 F1000
G1 X1.114 Y42.153 Z-0.900 F1000
G1 X1.188 Y42.079 Z-0.900 F1000
G1 X1.251 Y41.995 Z-0.900 F1000
G1 X1.301 Y41.903 Z-0.900 F1000
G1 X1.338 Y41.805 Z-0.900 F1000
G1 X1.360 Y41.702 Z-0.900 F1000
G1 X1.367 Y41.597 Z-0.900 F1000
G1 X1.367 Y-2.598 Z-0.900 F300
G1 X1.375 Y-2.702 Z-0.900 F1000
G1 X1.397 Y-2.805 Z-0.900 F1000
G1 X1.434 Y-2.903 Z-0.900 F1000
G1 X1.484 Y-2.995 Z-0.900 F1000
G1 X1.547 Y-3.079 Z-0.900 F1000
G1 X1.621 Y-3.153 Z-0.900 F1000
G1 X1.705 Y-3.216 Z-0.900 F1000
G1 X1.797 Y-3.266 Z-0.900 F1000
G1 X1.895 Y-3.303 Z-0.900 F1000
G1 X1.998 Y-3.325 Z-0.900 F1000
G1 X2.102 Y-3.332 Z-0.900 F1000
G1 X2.207 Y-3.325 Z-0.900 F1000
G1 X2.309 Y-3.303 Z-0.900 F1000
G1 X2.408 Y-3.266 Z-0.900 F1000
G1 X2.500 Y-3.216 Z-0.900 F1000
G1 X2.584 Y-3.153 Z-0.900 F1000
G1 X2.658 Y-3.079 Z-0.900 F1000
G1 X2.721 Y-2.995 Z-0.900 F1000
G1 X2.771 Y-2.903 Z-0.900 F1000
G1 X2.808 Y-2.805 Z-0.900 F1000
G1 X2.830 Y-2.702 Z-0.900 F1000
G1 X2.837 Y-2.598 Z-0.900 F1000
G1 X2.837 Y41.597 Z-0.900 F300
G1 X2.845 Y41.702 Z-0.900 F1000
G1 X2.867 Y41.805 Z-0.900 F1000
G1 X2.904 Y41.903 Z-0.900 F1000
G1 X2.954 Y41.995 Z-0.900 F1000
G1 X3.017 Y42.079 Z-0.900 F1000
G1 X3.091 Y42.153 Z-0.900 F1000
G1 X3.175 Y42.216 Z-0.900 F1000
G1 X3.267 Y42.266 Z-0.900 F1000
G1 X3.365 Y42.303 Z-0.900 F1000
G1 X3.468 Y42.325 Z-0.900 F1000
G1 X3.572 Y42.332 Z-0.900 F1000
G1 X3.677 Y42.325 Z-0.900 F1000
G1 X3.779 Y42.303 Z-0.900 F1000
G1 X3.878 Y42.266 Z-0.900 F1000
G1 X3.970 Y42.216 Z-0.900 F1000
G1 X4.054 Y42.153 Z-0.900 F1000
G1 X4.128 Y42.079 Z-0.900 F1000
G1 X4.191 Y41.995 Z-0.900 F1000
G1 X4.241 Y41.903 Z-0.900 F1000
G1 X4.278 Y41.805 Z-0.900 F1000
G1 X4.300 Y41.702 Z-0.900 F1000
G1 X4.307 Y41.597 Z-0.900 F1000
G1 X4.307 Y-2.598 Z-0.900 F300
G1 X4.315 Y-2.702 Z-0.900 F1000
G1 X4.337 Y-2.805 Z-0.900 F1000
G1 X4.374 Y-2.903 Z-0.900 F1000
G1 X4.424 Y-2.995 Z-0.900 F1000
G1 X4.487 Y-3.079 Z-0.900 F1000
G1 X4.561 Y-3.153 Z-0.900 F1000
G1 X4.645 Y-3.216 Z-0.900 F1000
G1 X4.737 Y-3.266 Z-0.900 F1000
G1 X4.835 Y-3.303 Z-0.900 F1000
G1 X4.938 Y-3.325 Z-0.900 F1000
G1 X5.042 Y-3.332 Z-0.900 F1000
G1 X5.147 Y-3.325 Z-0.900 F1000
G1 X5.249 Y-3.303 Z-0.900 F1000
G1 X5.348 Y-3.266 Z-0.900 F1000
G1 X5.440 Y-3.216 Z-0.900 F1000
G1 X5.524 Y-3.153 Z-0.900 F1000
G1 X5.598 Y-3.079 Z-0.900 F1000
G1 X5.661 Y-2.995 Z-0.900 F1000
G1 X5.711 Y-2.903 Z-0.900 F1000
G1 X5.748 Y-2.805 Z-0.900 F1000
G1 X5.770 Y-2.702 Z-0.900 F1000
G1 X5.777 Y-2.598 Z-0.900 F1000
G1 X5.777 Y41.597 Z-0.900 F300
G1 X5.785 Y41.702 Z-0.900 F1000
G1 X5.807 Y41.805 Z-0.900 F1000
G1 X5.844 Y41.903 Z-0.900 F1000
G1 X5.894 Y41.995 Z-0.900 F1000
G1 X5.957 Y42.079 Z-0.900 F1000
G1 X6.031 Y42.153 Z-0.900 F1000
G1 X6.115 Y42.216 Z-0.900 F1000
G1 X6.207 Y42.266 Z-0.900 F1000
G1 X6.305 Y42.303 Z-0.900 F1000
G1 X6.408 Y42.325 Z-0.900 F1000
G1 X6.512 Y42.332 Z-0.900 F1000
G1 X6.617 Y42.325 Z-0.900 F1000
G1 X6.719 Y42.303 Z-0.900 F1000
G1 X6.818 Y42.266 Z-0.900 F1000
G1 X6.910 Y42.216 Z-0.900 F1000
G1 X6.994 Y42.153 Z-0.900 F1000
G1 X7.068 Y42.079 Z-0.900 F1000
G1 X7.131 Y41.995 Z-0.900 F1000
G1 X7.181 Y41.903 Z-0.900 F1000
G1 X7.217 Y41.805 Z-0.900 F1000
G1 X7.240 Y41.702 Z-0.900 F1000
G1 X7.247 Y41.597 Z-0.900 F1000
G1 X7.247 Y-2.598 Z-0.900 F300
G1 X7.255 Y-2.702 Z-0.900 F1000
G1 X7.277 Y-2.805 Z-0.900 F1000
G1 X7.314 Y-2.903 Z-0.900 F1000
G1 X7.364 Y-2.995 Z-0.900 F1000
G1 X7.427 Y-3.079 Z-0.900 F1000
G1 X7.501 Y-3.153 Z-0.900 F1000
G1 X7.585 Y-3.216 Z-0.900 F1000
G1 X7.677 Y-3.266 Z-0.900 F1000
G1 X7.775 Y-3.303 Z-0.900 F1000
G1 X7.878 Y-3.325 Z-0.900 F1000
G1 X7.982 Y-3.332 Z-0.900 F1000
G1 X8.087 Y-3.325 Z-0.900 F1000
G1 X8.189 Y-3.303 Z-0.900 F1000
G1 X8.288 Y-3.266 Z-0.900 F1000
G1 X8.380 Y-3.216 Z-0.900 F1000
G1 X8.464 Y-3.153 Z-0.900 F1000
G1 X8.538 Y-3.079 Z-0.900 F1000
G1 X8.601 Y-2.995 Z-0.900 F1000
G1 X8.651 Y-2.903 Z-0.900 F1000
G1 X8.687 Y-2.805 Z-0.900 F1000
G1 X8.710 Y-2.702 Z-0.900 F1000
G1 X8.717 Y-2.598 Z-0.900 F1000
G1 X8.717 Y41.597 Z-0.900 F300
G1 X8.725 Y41.702 Z-0.900 F1000
G1 X8.747 Y41.805 Z-0.900 F1000
G1 X8.784 Y41.903 Z-0.900 F1000
G1 X8.834 Y41.995 Z-0.900 F1000
G1 X8.897 Y42.079 Z-0.900 F1000
G1 X8.971 Y42.153 Z-0.900 F1000
G1 X9.055 Y42.216 Z-0.900 F1000
G1 X9.147 Y42.266 Z-0.900 F1000
G1 X9.245 Y42.303 Z-0.900 F1000
G1 X9.348 Y42.325 Z-0.900 F1000
G1 X9.452 Y42.332 Z-0.900 F1000
G1 X9.557 Y42.325 Z-0.900 F1000
G1 X9.659 Y42.303 Z-0.900 F1000
G1 X9.758 Y42.266 Z-0.900 F1000
G1 X9.850 Y42.216 Z-0.900 F1000
G1 X9.933 Y42.153 Z-0.900 F1000
G1 X10.008 Y42.079 Z-0.900 F1000
G1 X10.070 Y41.995 Z-0.900 F1000
G1 X10.121 Y41.903 Z-0.900 F1000
G1 X10.157 Y41.805 Z-0.900 F1000
G1 X10.180 Y41.702 Z-0.900 F1000
G1 X10.187 Y41.597 Z-0.900 F1000
G1 X10.187 Y-2.598 Z-0.900 F300
G1 X10.195 Y-2.702 Z-0.900 F1000
G1 X10.217 Y-2.805 Z-0.900 F1000
G1 X10.254 Y-2.903 Z-0.900 F1000
G1 X10.304 Y-2.995 Z-0.900 F1000
G1 X10.367 Y-3.079 Z-0.900 F1000
G1 X10.441 Y-3.153 Z-0.900 F1000
G1 X10.525 Y-3.216 Z-0.900 F1000
G1 X10.617 Y-3.266 Z-0.900 F1000
G1 X10.715 Y-3.303 Z-0.900 F1000
G1 X10.818 Y-3.325 Z-0.900 F1000
G1 X10.922 Y-3.332 Z-0.900 F1000
G1 X11.027 Y-3.325 Z-0.900 F1000
G1 X11.129 Y-3.303 Z-0.900 F1000
G1 X11.227 Y-3.266 Z-0.900 F1000
G1 X11.320 Y-3.216 Z-0.900 F1000
G1 X11.403 Y-3.153 Z-0.900 F1000
G1 X11.478 Y-3.079 Z-0.900 F1000
G1 X11.540 Y-2.995 Z-0.900 F1000
G1 X11.591 Y-2.903 Z-0.900 F1000
G1 X11.627 Y-2.805 Z-0.900 F1000
G1 X11.650 Y-2.702 Z-0.900 F1000
G1 X11.657 Y-2.598 Z-0.900 F1000
G1 X11.657 Y41.597 Z-0.900 F300
G1 X11.665 Y41.702 Z-0.900 F1000
G1 X11.687 Y41.805 Z-0.900 F1000
G1 X11.724 Y41.903 Z-0.900 F1000
G1 X11.774 Y41.995 Z-0.900 F1000
G1 X11.837 Y42.079 Z-0.900 F1000
G1 X11.911 Y42.153 Z-0.900 F1000
G1 X11.995 Y42.216 Z-0.900 F1000
G1 X12.087 Y42.266 Z-0.900 F1000
G1 X12.185 Y42.303 Z-0.900 F1000
G1 X12.288 Y42.325 Z-0.900 F1000
G1 X12.392 Y42.332 Z-0.900 F1000
G1 X12.497 Y42.325 Z-0.900 F1000
G1 X12.599 Y42.303 Z-0.900 F1000
G1 X12.697 Y42.266 Z-0.900 F1000
G1 X12.789 Y42.216 Z-0.900 F1000
G1 X12.873 Y42.153 Z-0.900 F1000
G1 X12.948 Y42.079 Z-0.900 F1000
G1 X13.010 Y41.995 Z-0.900 F1000
G1 X13.061 Y41.903 Z-0.900 F1000
G1 X13.097 Y41.805 Z-0.900 F1000
G1 X13.120 Y41.702 Z-0.900 F1000
G1 X13.127 Y41.597 Z-0.900 F1000
G1 X13.127 Y-2.598 Z-0.900 F300
G1 X13.135 Y-2.702 Z-0.900 F1000
G1 X13.157 Y-2.805 Z-0.900 F1000
G1 X13.194 Y-2.903 Z-0.900 F1000
G1 X13.244 Y-2.995 Z-0.900 F1000
G1 X13.307 Y-3.079 Z-0.900 F1000
G1 X13.381 Y-3.153 Z-0.900 F1000
G1 X13.465 Y-3.216 Z-0.900 F1000
G1 X13.557 Y-3.266 Z-0.900 F1000
G1 X13.655 Y-3.303 Z-0.900 F1000
G1 X13.757 Y-3.325 Z-0.900 F1000
G1 X13.862 Y-3.332 Z-0.900 F1000
G1 X13.967 Y-3.325 Z-0.900 F1000
G1 X14.069 Y-3.303 Z-0.900 F1000
G1 X14.167 Y-3.266 Z-0.900 F1000
G1 X14.259 Y-3.216 Z-0.900 F1000
G1 X14.343 Y-3.153 Z-0.900 F1000
G1 X14.418 Y-3.079 Z-0.900 F1000
G1 X14.480 Y-2.995 Z-0.900 F1000
G1 X14.531 Y-2.903 Z-0.900 F1000
G1 X14.567 Y-2.805 Z-0.900 F1000
G1 X14.590 Y-2.702 Z-0.900 F1000
G1 X14.597 Y-2.598 Z-0.900 F1000
G1 X14.597 Y41.597 Z-0.900 F300
G1 X14.605 Y41.702 Z-0.900 F1000
